%
G40 G17 G49 G54 G80
G91 G28 Z0.0
( NAME: HZK-PC )
( PART: H:\CNC-File\2019-3\ºÀÌ©\»¨ÎÆ¿¾ÅÌ\HW-Ç°Ä£¿ò.prt )
( DATE: Tue Mar 12 15:01:12 2019 )
( Z6 ---> D=6.00 R=0.00 )
S1000 M03
G00 G90 X155. Y95.
Z5.
G17 G01 Z-1.5 F120.
G00 Z5.
Y-95.
G01 Z-1.5
G00 Z5.
X-105.
G01 Z-1.5
G00 Z5.
Y95.
G01 Z-1.5
G00 Z5.
( Z6 ---> D=6.00 R=0.00 )
S1000 M03
G00 X-105. Y-120.
Z5.
G01 Z-14.5 F120.
G00 Z5.
X-10. Y-35.
G01 Z-14.5
G00 Z5.
X80.
G01 Z-14.5
G00 Z5.
X155. Y-120.
G01 Z-14.5
G00 Z5.
Y120.
G01 Z-14.5
G00 Z5.
X80. Y55.
G01 Z-14.5
G00 Z5.
X-10.
G01 Z-14.5
G00 Z5.
X-105. Y120.
G01 Z-14.5
G00 Z5.
M09
M05
G91 G28 Z0.0
G28 Y0.0
M30
%
(TOTAL Machine Time: 1.8 min)
