%
G40 G17 G49 G54 G80
G91 G28 Z0.0
( NAME: Administrator )
( PART: H:\CNC-File\2018-8\ÐË¶¦½Ü\F380-×ê¿×ÂÁ°å\F380-×ê¿×ÂÁ°å.prt )
( DATE: Sun Aug  5 16:32:11 2018 )
( Z6 ---> D=6.00 R=0.00 )
S1000 M03
G00 G90 X55.365 Y-65.894
Z2.1
G17 G01 Z-17.4 F120.
G00 Z2.1
X29.384 Y-80.894
G01 Z-17.4
G00 Z2.1
X17.384 Y-60.11
G01 Z-17.4
G00 Z2.1
X43.365 Y-45.11
G01 Z-17.4
G00 Z2.1
X-60.749 Y-15.
G01 Z-17.4
G00 Z2.1
X-84.749
G01 Z-17.4
G00 Z2.1
Y15.
G01 Z-17.4
G00 Z2.1
X-60.749
G01 Z-17.4
G00 Z2.1
X43.365 Y45.11
G01 Z-17.4
G00 Z2.1
X17.384 Y60.11
G01 Z-17.4
G00 Z2.1
X55.365 Y65.894
G01 Z-17.4
G00 Z2.1
X29.384 Y80.894
G01 Z-17.4
G00 Z2.1
M09
M05
G91 G28 Z0.0
G28 Y0.0
M30
%
(TOTAL Machine Time: 2.2 min)
