%
G40 G17 G49 G54 G80
G91 G28 Z0.0
( NAME: Capful-PC )
( PART: H:\CNC-File\2019-1\²ÓÀ¤\2126\2126-W-Ç°Ä£ÈÊ-Ïâ¼þ.prt )
( DATE: Tue Jan  8 09:19:38 2019 )
( D6 ---> D=6.00 R=0.00 )
S8000 M03
G00 G90 X-1.388 Y-5.965
Z15.5
G17 G01 Z-.75 F400.
X-2.114 Y-5.745 Z-.77 F320.
X-2.753 Y-5.457 Z-.788
X-3.375 Y-5.084 Z-.807
X-3.949 Y-4.639 Z-.826
X-4.199 Y-4.394 Z-.835
Y-.017 Z-.95
Y4.36 F480.
G40 G02 X.087 Y6.109 I4.286 J-4.377
X4.374 Y4.36 I0.0 J-6.126
G01 Y-4.394
G02 X.087 Y-6.144 I-4.286 J4.377
X-4.199 Y-4.394 I0.0 J6.126
G01 Y-.017
X-1.199 F800.
Y2.832
G02 X.087 Y3.109 I1.286 J-2.85
X1.374 Y2.832 I0.0 J-3.126
G01 Y-2.867
G02 X.087 Y-3.144 I-1.286 J2.85
X-1.199 Y-2.867 I0.0 J3.126
G01 Y-.017
X-4.199
Z2.05
G00 Z2.1
X-1.388 Y-5.965
G01 Z-.8 F400.
X-2.114 Y-5.745 Z-.82 F320.
X-2.753 Y-5.457 Z-.838
X-3.375 Y-5.084 Z-.857
X-3.949 Y-4.639 Z-.876
X-4.199 Y-4.394 Z-.885
Y-.017 Z-1.
Y4.36 F480.
G02 X.087 Y6.109 I4.286 J-4.377
X4.374 Y4.36 I0.0 J-6.126
G01 Y-4.394
G02 X.087 Y-6.144 I-4.286 J4.377
X-4.199 Y-4.394 I0.0 J6.126
G01 Y-.017
X-1.199 F800.
Y2.832
G02 X.087 Y3.109 I1.286 J-2.85
X1.374 Y2.832 I0.0 J-3.126
G01 Y-2.867
G02 X.087 Y-3.144 I-1.286 J2.85
X-1.199 Y-2.867 I0.0 J3.126
G01 Y-.017
X-4.199
Z2.
G00 Z15.5
M09
M05
G91 G28 Z0.0
G28 Y0.0
M30
%
(TOTAL Machine Time: 0.5 min)
