%
G40 G17 G49 G54 G80
G91 G28 Z0.0
( NAME: Administrator )
( PART: C:\Users\Administrator\Desktop\U.prt )
( DATE: Fri Aug 17 14:22:16 2018 )
( Z6 ---> D=6.00 R=0.00 )
S3000 M03
G00 G90 X16. Y31.5
Z5.
G17 G01 Z-1. F120.
G00 Z5.
X-16.
G01 Z-1.
G00 Z5.
Y-31.5
G01 Z-1.
G00 Z5.
X16.
G01 Z-1.
G00 Z5.
( Z6 ---> D=6.00 R=0.00 )
S3000 M03
G00 X-2.5 Y-23.
Z2.
G01 Z-14.5 F120.
G00 Z2.
X7.5 Y0.0
G01 Z-14.5
G00 Z2.
X-2.5 Y23.
G01 Z-14.5
G00 Z2.
M09
M05
G91 G28 Z0.0
G28 Y0.0
M30
%
(TOTAL Machine Time: 0.8 min)
