%
G40 G17 G49 G54 G80
G91 G28 Z0.0
( NAME: Administrator )
( PART: H:\CNC-File\2018-11\ÓÀÊ¢½Ü\F1000\f1000-Ç°Ä£¿ò.prt )
( DATE: Fri Nov 23 11:26:16 2018 )
( R3 ---> D=6.00 R=3.00 )
S2000 M03
G00 G90 X-153.011 Y102.331
Z5.
G17 G01 Z-1.5 F120.
G00 Z5.
X149.104
G01 Z-1.5
G00 Z5.
Y-61.198
G01 Z-1.5
G00 Z5.
X-153.011
G01 Z-1.5
G00 Z5.
( R3 ---> D=6.00 R=3.00 )
S2000 M03
G00 X-185. Y115.
Z2.
G01 Z-14.5 F120.
G00 Z2.
X0.0
G01 Z-14.5
G00 Z2.
X185.
G01 Z-14.5
G00 Z2.
Y-95.
G01 Z-14.5
G00 Z2.
X0.0 Y-40.
G01 Z-14.5
G00 Z2.
X-185. Y-95.
G01 Z-14.5
G00 Z2.
M09
M05
G91 G28 Z0.0
G28 Y0.0
M30
%
(TOTAL Machine Time: 1.4 min)
