%
G40 G17 G49 G54 G80
G91 G28 Z0.0
( NAME: Administrator )
( PART: H:\CNC-File\2018-7\É½Èó·å\1KP-480-1\¹Ì¶¨¿é.prt )
( DATE: Thu Aug  2 15:37:25 2018 )
( Z6 ---> D=6.00 R=0.00 )
S1000 M03
G00 G90 X-45.5 Y-28.
Z30.
G17 G01 Z-1. F120.
G00 Z30.
X-25.5
G01 Z-1.
G00 Z30.
X-5.5
G01 Z-1.
G00 Z30.
( Z6 ---> D=6.00 R=0.00 )
S1000 M03
G00 X-45.5 Y28.
Z30.
G01 Z-1. F120.
G00 Z30.
X-25.5
G01 Z-1.
G00 Z30.
X-5.5
G01 Z-1.
G00 Z30.
( Z6 ---> D=6.00 R=0.00 )
S1000 M03
G00 X-38. Y0.0
Z30.5
G01 Z-.5 F120.
G00 Z30.5
( Z6 ---> D=6.00 R=0.00 )
S1000 M03
G00 X30. Y35.
Z29.5
G01 Z18.5 F120.
G00 Z29.5
Y-35.
G01 Z18.5
G00 Z29.5
( Z6 ---> D=6.00 R=0.00 )
S1000 M03
G00 X120. Y30.
Z35.5
G01 Z24.5 F120.
G00 Z35.5
Y-30.
G01 Z24.5
G00 Z35.5
M09
M05
G91 G28 Z0.0
G28 Y0.0
M30
%
(TOTAL Machine Time: 2.4 min)
