%
G40 G17 G49 G54 G80
G91 G28 Z0.0
( NAME: Administrator )
( PART: H:\CNC-File\2018-11\¼ÆÊýÆ÷.prt )
( DATE: Wed Nov 21 15:54:39 2018 )
( R3 ---> D=6.00 R=3.00 )
S2000 M03
G00 G90 X24.5 Y14.253
Z5.
G17 G01 Z-26.5 F120.
G00 Z5.
Y-14.247
G01 Z-26.5
G00 Z5.
M09
M05
G91 G28 Z0.0
G28 Y0.0
M30
%
(TOTAL Machine Time: 0.7 min)
