%
G40 G17 G49 G54 G80
G91 G28 Z0.0
( NAME: HZK-PC )
( PART: H:\CNC-File\2019-2\ÓÀÊ¢½Ü\W1D\W1D-¶¥Õë°å.prt )
( DATE: Wed Mar  6 22:55:27 2019 )
( Z6 ---> D=6.00 R=0.00 )
S1000 M03
G00 G90 X31. Y-112.
Z3.97
G17 G01 Z-9.53 F120.
G00 Z3.97
X10. Y-106.
G01 Z-9.53
G00 Z3.97
X2.5 Y-90.
G01 Z-9.53
G00 Z3.97
X10. Y-74.
G01 Z-9.53
G00 Z3.97
X31. Y-68.
G01 Z-9.53
G00 Z3.97
X45. Y-79.5
G01 Z-9.53
G00 Z3.97
Y-100.5
G01 Z-9.53
G00 Z3.97
X-26.5 Y-42.
G01 Z-9.53
G00 Z3.97
Y42.
G01 Z-9.53
G00 Z3.97
X10. Y74.
G01 Z-9.53
G00 Z3.97
X31. Y68.
G01 Z-9.53
G00 Z3.97
X45. Y79.5
G01 Z-9.53
G00 Z3.97
X2.5 Y90.
G01 Z-9.53
G00 Z3.97
X10. Y106.
G01 Z-9.53
G00 Z3.97
X31. Y112.
G01 Z-9.53
G00 Z3.97
X45. Y100.5
G01 Z-9.53
G00 Z3.97
X-90. Y0.0
G01 Z-9.53
G00 Z3.97
( Z6 ---> D=6.00 R=0.00 )
S1000 M03
G00 X75.5 Y-142.
Z3.97
G01 Z-7.53 F120.
G00 Z3.97
X36. Y-164.5
G01 Z-7.53
G00 Z3.97
X-16. Y-149.
G01 Z-7.53
G00 Z3.97
X102.5 Y-89.
G01 Z-7.53
G00 Z3.97
X75.5 Y-37.5
G01 Z-7.53
G00 Z3.97
Y37.5
G01 Z-7.53
G00 Z3.97
X102.5 Y89.
G01 Z-7.53
G00 Z3.97
X75.5 Y142.
G01 Z-7.53
G00 Z3.97
X36. Y164.5
G01 Z-7.53
G00 Z3.97
X-16. Y149.
G01 Z-7.53
G00 Z3.97
M09
M05
G91 G28 Z0.0
G28 Y0.0
M30
%
(TOTAL Machine Time: 3.2 min)
