%
G40 G17 G49 G54 G80
G91 G28 Z0.0
( NAME: Capful )
( PART: D:\Program Files\Siemens\NX 12.0\UGII\HM-µç¼«±à³Ì.prt )
( DATE: Sun May 27 04:50:19 2018 )
( D4 ---> D=4.00 R=0.00 )
S9000 M03
G00 G90 X117.803 Y13.031
Z15.
G17 G01 Z.1 F2000.
X117.96 Y13.488 Z.083 F800.
X118.519 Y14.175 Z.052
X119.28 Y14.629 Z.021
X120.151 Y14.792 Z-.01
X121.025 Y14.644 Z-.041
X121.708 Y14.274 Z-.068
X122.349 Y13.555 Z-.101
X122.675 Y12.649 Z-.135
Y12.261 Z-.149
Y-.308 Z-.588
Y-12.877 F1200.
G40 G02 X120.174 Y-15.378 I-2.501 J0.0
X117.673 Y-12.877 I0.0 J2.501
G01 Y12.261
G02 X120.174 Y14.762 I2.501 J0.0
X122.675 Y12.261 I0.0 J-2.501
G01 Y-.308
X120.875 F2000.
Y-12.877
G02 X120.174 Y-13.578 I-.701 J0.0
X119.473 Y-12.877 I0.0 J.701
G01 Y12.261
G02 X120.174 Y12.962 I.701 J0.0
X120.875 Y12.261 I0.0 J-.701
G01 Y-.308
X121.049 Y-2.3
Z.413
G00 Z1.
X122.647 Y7.925
G01 Z-.488
Y-.308 Z-.775 F800.
Y-12.877 F1200.
G02 X120.174 Y-15.35 I-2.474 J0.0
X117.7 Y-12.877 I0.0 J2.474
G01 Y12.261
G02 X120.174 Y14.734 I2.474 J0.0
X122.647 Y12.261 I0.0 J-2.474
G01 Y-.308
X120.847 F2000.
Y-12.877
G02 X120.174 Y-13.55 I-.674 J0.0
X119.5 Y-12.877 I0.0 J.674
G01 Y12.261
G02 X120.174 Y12.934 I.674 J0.0
X120.847 Y12.261 I0.0 J-.674
G01 Y-.308
X121.022 Y-2.3
Z.225
G00 Z.413
X122.647 Y7.925
G01 Z-.675
Y-.308 Z-.963 F800.
Y-12.877 F1200.
G02 X120.174 Y-15.35 I-2.474 J0.0
X117.7 Y-12.877 I0.0 J2.474
G01 Y12.261
G02 X120.174 Y14.734 I2.474 J0.0
X122.647 Y12.261 I0.0 J-2.474
G01 Y-.308
X120.847 F2000.
Y-12.877
G02 X120.174 Y-13.55 I-.674 J0.0
X119.5 Y-12.877 I0.0 J.674
G01 Y12.261
G02 X120.174 Y12.934 I.674 J0.0
X120.847 Y12.261 I0.0 J-.674
G01 Y-.308
X121.022 Y-2.3
Z.038
G00 Z.225
X122.647 Y7.925
G01 Z-.863
Y-.308 Z-1.15 F800.
Y-12.877 F1200.
G02 X120.174 Y-15.35 I-2.474 J0.0
X117.7 Y-12.877 I0.0 J2.474
G01 Y12.261
G02 X120.174 Y14.734 I2.474 J0.0
X122.647 Y12.261 I0.0 J-2.474
G01 Y-.308
X120.847 F2000.
Y-12.877
G02 X120.174 Y-13.55 I-.674 J0.0
X119.5 Y-12.877 I0.0 J.674
G01 Y12.261
G02 X120.174 Y12.934 I.674 J0.0
X120.847 Y12.261 I0.0 J-.674
G01 Y-.308
X121.022 Y-2.3
Z-.15
G00 Z.038
X122.647 Y7.925
G01 Z-1.05
Y-.308 Z-1.338 F800.
Y-12.877 F1200.
G02 X120.174 Y-15.35 I-2.474 J0.0
X117.7 Y-12.877 I0.0 J2.474
G01 Y12.261
G02 X120.174 Y14.734 I2.474 J0.0
X122.647 Y12.261 I0.0 J-2.474
G01 Y-.308
X120.847 F2000.
Y-12.877
G02 X120.174 Y-13.55 I-.674 J0.0
X119.5 Y-12.877 I0.0 J.674
G01 Y12.261
G02 X120.174 Y12.934 I.674 J0.0
X120.847 Y12.261 I0.0 J-.674
G01 Y-.308
X121.022 Y-2.3
Z-.338
G00 Z-.15
X122.647 Y7.925
G01 Z-1.238
Y-.308 Z-1.525 F800.
Y-12.877 F1200.
G02 X120.174 Y-15.35 I-2.474 J0.0
X117.7 Y-12.877 I0.0 J2.474
G01 Y12.261
G02 X120.174 Y14.734 I2.474 J0.0
X122.647 Y12.261 I0.0 J-2.474
G01 Y-.308
X120.847 F2000.
Y-12.877
G02 X120.174 Y-13.55 I-.674 J0.0
X119.5 Y-12.877 I0.0 J.674
G01 Y12.261
G02 X120.174 Y12.934 I.674 J0.0
X120.847 Y12.261 I0.0 J-.674
G01 Y-.308
X121.022 Y-2.3
Z-.525
G00 Z-.338
X122.647 Y7.925
G01 Z-1.425
Y-.308 Z-1.713 F800.
Y-12.877 F1200.
G02 X120.174 Y-15.35 I-2.474 J0.0
X117.7 Y-12.877 I0.0 J2.474
G01 Y12.261
G02 X120.174 Y14.734 I2.474 J0.0
X122.647 Y12.261 I0.0 J-2.474
G01 Y-.308
X120.847 F2000.
Y-12.877
G02 X120.174 Y-13.55 I-.674 J0.0
X119.5 Y-12.877 I0.0 J.674
G01 Y12.261
G02 X120.174 Y12.934 I.674 J0.0
X120.847 Y12.261 I0.0 J-.674
G01 Y-.308
X121.022 Y-2.3
Z-.713
G00 Z-.525
X122.647 Y7.925
G01 Z-1.613
Y-.308 Z-1.9 F800.
Y-12.877 F1200.
G02 X120.174 Y-15.35 I-2.474 J0.0
X117.7 Y-12.877 I0.0 J2.474
G01 Y12.261
G02 X120.174 Y14.734 I2.474 J0.0
X122.647 Y12.261 I0.0 J-2.474
G01 Y-.308
X120.847 F2000.
Y-12.877
G02 X120.174 Y-13.55 I-.674 J0.0
X119.5 Y-12.877 I0.0 J.674
G01 Y12.261
G02 X120.174 Y12.934 I.674 J0.0
X120.847 Y12.261 I0.0 J-.674
G01 Y-.308
X121.022 Y-2.3
Z-.9
G00 Z1.
X111.627 Y-19.714
G01 Z.413
Z-.588 F800.
Y-17.468
G03 X110.236 Y-18.008 I0.0 J-2.06 F2000.
G02 X109.561 Y-18.271 I-.675 J.738
X108.948 Y-18.061 I0.0 J1.
G03 X109.621 Y-17.18 I-5.868 J5.184 F1200.
X110.91 Y-12.903 I-6.541 J4.304
G01 Y12.204
Y12.261
G03 X110.808 Y13.521 I-7.83 J0.0
X110.156 Y15.614 I-7.728 J-1.26 F1050.
X108.948 Y17.445 I-7.075 J-3.354 F900.
G02 X109.561 Y17.655 I.613 J-.79 F2000.
X110.236 Y17.392 I0.0 J-1.
G03 X111.627 Y16.852 I1.391 J1.52
X113.018 Y17.392 I0.0 J2.06
G02 X113.693 Y17.655 I.675 J-.738
X114.306 Y17.445 I0.0 J-1.
G03 X112.344 Y12.283 I5.868 J-5.184 F1200.
G01 Y-12.903
G03 X112.446 Y-14.137 I7.83 J.027
X113.099 Y-16.231 I7.728 J1.261 F1050.
X113.417 Y-16.833 I7.075 J3.354 F900.
X114.306 Y-18.061 I6.757 J3.957
G02 X113.693 Y-18.271 I-.613 J.79 F2000.
X113.018 Y-18.008 I0.0 J1.
G03 X111.627 Y-17.468 I-1.391 J-1.52
G01 Y-19.714
Z.413
G00 Z1.
Y-19.76
G01 Z.225
Z-.775 F800.
Y-17.514
G03 X110.241 Y-18.05 I0.0 J-2.06 F2000.
G02 X109.569 Y-18.31 I-.673 J.74
X108.953 Y-18.098 I0.0 J1.
G03 X110.938 Y-12.877 I-5.873 J5.221 F1200.
G01 Y12.261
G03 X110.829 Y13.565 I-7.858 J0.0
X110.167 Y15.656 I-7.749 J-1.304 F1050.
X108.953 Y17.482 I-7.087 J-3.395 F900.
G02 X109.569 Y17.694 I.616 J-.788 F2000.
X110.241 Y17.434 I0.0 J-1.
G03 X111.627 Y16.898 I1.386 J1.524
X113.013 Y17.434 I0.0 J2.06
G02 X113.685 Y17.694 I.673 J-.74
X114.301 Y17.482 I0.0 J-1.
G03 X112.316 Y12.261 I5.873 J-5.221 F1200.
G01 Y-12.877
G03 X112.425 Y-14.181 I7.858 J0.0
X113.087 Y-16.272 I7.749 J1.304 F1050.
X114.301 Y-18.098 I7.087 J3.395 F900.
G02 X113.685 Y-18.31 I-.616 J.788 F2000.
X113.013 Y-18.05 I0.0 J1.
G03 X111.627 Y-17.514 I-1.386 J-1.524
G01 Y-19.76
Z.225
G00 Z.413
Y-19.781
G01 Z.038
Z-.963 F800.
Y-17.535
G03 X110.244 Y-18.069 I0.0 J-2.06 F2000.
G02 X109.572 Y-18.328 I-.671 J.741
X108.956 Y-18.115 I0.0 J1.
G03 X110.951 Y-12.877 I-5.875 J5.238 F1200.
G01 Y12.263
G03 X110.839 Y13.586 I-7.871 J-.002
X110.173 Y15.675 I-7.759 J-1.325 F1050.
X109.132 Y17.294 I-7.092 J-3.414 F900.
X108.957 Y17.5 I-6.091 J-4.996
G02 X109.572 Y17.712 I.615 J-.788 F2000.
X110.244 Y17.453 I0.0 J-1.
G03 X111.627 Y16.919 I1.383 J1.526
X113.01 Y17.453 I0.0 J2.06
G02 X113.682 Y17.712 I.671 J-.741
X114.298 Y17.499 I0.0 J-1.
G03 X112.303 Y12.261 I5.875 J-5.238 F1200.
G01 Y-12.877
G03 X112.415 Y-14.202 I7.871 J0.0
X113.081 Y-16.291 I7.759 J1.325 F1050.
X114.298 Y-18.115 I7.092 J3.414 F900.
G02 X113.682 Y-18.328 I-.617 J.787 F2000.
X113.01 Y-18.069 I0.0 J1.
G03 X111.627 Y-17.535 I-1.383 J-1.526
G01 Y-19.781
Z.038
G00 Z.225
X111.634 Y-19.849
G01 Z-.15
Z-1.15 F800.
X111.627 Y-17.599
G03 X110.205 Y-18.174 I.006 J-2.06 F2000.
G02 X109.512 Y-18.453 I-.693 J.721
X108.916 Y-18.256 I0.0 J1.
G03 X109.621 Y-17.279 I-5.779 J4.914 F1200.
X110.965 Y-12.877 I-6.541 J4.402
G01 Y12.261
G03 X110.841 Y13.649 I-7.884 J0.0
X110.159 Y15.733 I-7.761 J-1.388 F1050.
X109.621 Y16.663 I-7.079 J-3.472 F900.
X108.964 Y17.575 I-6.756 J-4.176
G02 X109.555 Y17.768 I.591 J-.807 F2000.
X110.232 Y17.504 I0.0 J-1.
G03 X111.627 Y16.96 I1.394 J1.516
X113.034 Y17.516 I0.0 J2.06
G02 X113.717 Y17.786 I.683 J-.73
X114.309 Y17.592 I0.0 J-1.
G03 X113.725 Y16.796 I6.096 J-5.093 F1200.
X112.289 Y12.261 I6.449 J-4.536
G01 Y-12.877
G03 X112.423 Y-14.322 I7.884 J0.0
X113.121 Y-16.401 I7.751 J1.446 F1050.
X113.661 Y-17.321 I7.053 J3.524 F900.
X114.328 Y-18.235 I6.733 J4.215
G02 X113.732 Y-18.432 I-.596 J.803 F2000.
X113.046 Y-18.16 I0.0 J1.
G03 X111.633 Y-17.599 I-1.413 J-1.499
G01 X111.627
X111.634 Y-19.849
Z-.15
G00 Z.038
X110.722 Y20.244
G01 Z-.338
Z-1.338 F800.
X113.205 Y18.059
X113.251 Y18.112 F2000.
G02 X114.002 Y18.451 I.751 J-.661
X114.579 Y18.268 I0.0 J-1.
G01 X114.187 Y17.796 F1200.
X113.273 Y16.101
G03 X112.276 Y12.261 I6.901 J-3.84
G01 Y-12.878
G03 X112.544 Y-14.914 I7.897 J.001
X113.272 Y-16.715 I7.63 J2.038 F1050.
G01 X113.393 Y-16.937
X114.188 Y-18.398 F900.
G03 X114.479 Y-18.848 I3.152 J1.716
G02 X113.966 Y-18.99 I-.513 J.858 F2000.
X113.201 Y-18.635 I0.0 J1.
G03 X111.627 Y-17.903 I-1.575 J-1.328
X110.108 Y-18.572 I0.0 J-2.06
G02 X109.37 Y-18.897 I-.738 J.675
X108.795 Y-18.715 I0.0 J1.
G03 X109.455 Y-17.756 I-6.771 J5.373 F1050.
X109.981 Y-16.717 I-7.432 J4.414 F900.
X110.771 Y-14.671 I-6.901 J3.84
X110.978 Y-12.877 I-7.691 J1.794 F1200.
G01 Y12.261
G03 X110.706 Y14.315 I-7.897 J0.0
X110.026 Y16.02 I-7.626 J-2.054 F1050.
G01 X109.943 Y16.183
X109.857 Y16.338
X109.132 Y17.653 F900.
G03 X108.753 Y18.239 I-3.619 J-1.921
G02 X109.278 Y18.388 I.525 J-.851 F2000.
X110.041 Y18.035 I0.0 J-1.
G03 X111.612 Y17.307 I1.571 J1.333
X113.158 Y18.007 I0.0 J2.06
G01 X113.205 Y18.059
X110.722 Y20.244
Z-.338
G00 Z-.15
X110.975 Y20.238
G01 Z-.525
Z-1.525 F800.
X113.088 Y18.173
X113.092 Y18.177 F2000.
G02 X113.809 Y18.48 I.717 J-.697
X114.422 Y18.27 I0.0 J-1.
G03 X113.439 Y16.833 I4.579 J-4.186 F1200.
G02 X112.9 Y15.369 I-12.441 J3.755
G03 X112.263 Y12.261 I7.274 J-3.109
G01 Y-12.877
G03 X112.515 Y-14.855 I7.911 J0.0
X112.802 Y-15.747 I7.659 J1.978 F1050.
G02 X113.27 Y-16.919 I-29.095 J-12.296
X113.536 Y-17.654 I-29.563 J-11.123 F900.
G03 X114.357 Y-18.808 I5.601 J3.115
G02 X113.751 Y-19.012 I-.606 J.796 F2000.
X113.057 Y-18.732 I0.0 J1.
G03 X111.627 Y-18.155 I-1.43 J-1.483
X110.213 Y-18.717 I0.0 J-2.06
G02 X109.526 Y-18.99 I-.686 J.727
X108.916 Y-18.782 I0.0 J1.
G03 X109.642 Y-17.809 I-5.188 J4.626 F1200.
X110.408 Y-15.857 I-808.191 J318.377
X110.991 Y-12.877 I-7.328 J2.981
G01 Y12.261
G03 X110.741 Y14.235 I-7.911 J0.0
X110.354 Y15.37 I-7.66 J-1.974 F1050.
X109.989 Y16.3 I-126.329 J-49.096
X109.621 Y17.216 I-125.963 J-50.026 F900.
X108.897 Y18.188 I-5.918 J-3.654
G02 X109.507 Y18.395 I.61 J-.793 F2000.
X110.196 Y18.12 I0.0 J-1.
G03 X111.615 Y17.553 I1.419 J1.493
X113.088 Y18.173 I0.0 J2.06
G01 X110.975 Y20.238
Z-.525
G00 Z-.338
X111.692 Y19.869
G01 Z-.713
Z-1.713 F800.
X113.091 Y18.17
G02 X113.726 Y18.398 I.636 J-.772 F2000.
X114.349 Y18.181 I0.0 J-1.
G03 X113.047 Y16.21 I5.764 J-5.223 F1200.
G02 X112.632 Y14.69 I-28.95 J7.09
G03 X112.25 Y12.261 I7.542 J-2.429
G01 Y-12.877
G03 X112.481 Y-14.777 I7.924 J0.0
X112.633 Y-15.312 I7.692 J1.9 F1050.
G02 X113.047 Y-16.833 I-24.314 J-7.432
G03 X114.284 Y-18.723 I6.874 J3.148 F900.
G02 X113.668 Y-18.935 I-.616 J.788 F2000.
X113.001 Y-18.68 I0.0 J1.
G03 X111.627 Y-18.155 I-1.374 J-1.535
X110.25 Y-18.682 I0.0 J-2.06
G02 X109.582 Y-18.939 I-.668 J.744
X108.965 Y-18.726 I0.0 J1.
G03 X110.111 Y-17.047 I-5.871 J5.238 F1200.
X110.622 Y-15.306 I-40.732 J12.918
X111.004 Y-12.877 I-7.542 J2.429
G01 Y12.261
G03 X110.767 Y14.183 I-7.924 J0.0
X110.711 Y14.394 I-7.687 J-1.922 F1050.
G01 X110.149 Y16.345
G03 X108.953 Y18.125 I-7.151 J-3.516 F900.
G02 X109.569 Y18.337 I.616 J-.787 F2000.
X110.238 Y18.081 I0.0 J-1.
G03 X111.615 Y17.553 I1.377 J1.532
X113.036 Y18.122 I0.0 J2.06
G02 X113.091 Y18.17 I.69 J-.724
G01 X111.692 Y19.869
Z-.713
G00 Z-.525
X111.697 Y19.872
G01 Z-.9
Z-1.9 F800.
X113.091 Y18.17
G02 X113.724 Y18.396 I.633 J-.774 F2000.
X114.351 Y18.176 I0.0 J-1.
G03 X112.802 Y15.72 I6.201 J-5.626 F1200.
G01 X112.697 Y15.37
X112.313 Y13.352
G03 X112.237 Y12.261 I7.861 J-1.091
G01 Y-12.877
G03 X112.384 Y-14.394 I7.936 J0.0
X112.457 Y-14.79 I27.274 J4.852
X112.802 Y-16.338 I27.2 J5.249 F1050.
X113.053 Y-16.898 I7.495 J3.022
X114.283 Y-18.714 I7.244 J3.583 F900.
G02 X113.663 Y-18.93 I-.621 J.784 F2000.
X112.997 Y-18.677 I0.0 J1.
G03 X111.627 Y-18.155 I-1.37 J-1.538
X110.27 Y-18.665 I0.0 J-2.06
G02 X109.612 Y-18.912 I-.659 J.752
X108.992 Y-18.697 I0.0 J1.
G03 X110.601 Y-15.857 I-5.568 J5.031 F1200.
G01 X110.87 Y-14.394
G03 X111.017 Y-12.877 I-7.79 J1.517
G01 Y12.261
G03 X110.932 Y13.418 I-7.936 J0.0
G01 X110.799 Y14.15
X110.6 Y15.242 F1050.
G03 X110.206 Y16.258 I-7.378 J-2.276
X108.999 Y18.088 I-6.984 J-3.292 F900.
G02 X109.613 Y18.299 I.614 J-.79 F2000.
X110.267 Y18.055 I0.0 J-1.
G03 X111.615 Y17.553 I1.348 J1.558
X113.035 Y18.121 I0.0 J2.06
G02 X113.091 Y18.17 I.689 J-.724
G01 X111.697 Y19.872
Z-.9
G00 Z-.713
X111.711 Y19.882
G01 Z-1.095
Z-2.095 F800.
X113.091 Y18.17
G02 X113.718 Y18.391 I.627 J-.779 F2000.
X114.345 Y18.171 I0.0 J-1.
G03 X112.394 Y14.446 I6.192 J-5.615 F1200.
X112.221 Y12.261 I16.007 J-2.372
G01 Y-12.877
G03 X112.37 Y-14.84 I14.062 J.081
X112.458 Y-15.37 I13.913 J2.044 F1050.
X113.062 Y-16.916 I8.235 J2.327
X114.298 Y-18.729 I7.631 J3.874 F900.
G02 X113.678 Y-18.944 I-.62 J.785 F2000.
X113.008 Y-18.686 I0.0 J1.
G03 X111.627 Y-18.155 I-1.381 J-1.529
X110.248 Y-18.684 I0.0 J-2.06
G02 X109.579 Y-18.941 I-.669 J.743
X108.957 Y-18.725 I0.0 J1.
G03 X110.796 Y-15.37 I-6.278 J5.623 F1200.
X111.033 Y-12.877 I-13.055 J2.501
G01 Y12.261
Y12.275
G03 X110.879 Y14.235 I-12.553 J0.0
X110.76 Y14.882 I-12.399 J-1.96 F1050.
X110.186 Y16.311 I-8.221 J-2.47
X108.948 Y18.122 I-7.647 J-3.9 F900.
G02 X109.568 Y18.338 I.621 J-.784 F2000.
X110.237 Y18.082 I0.0 J-1.
G03 X111.615 Y17.553 I1.378 J1.531
X113.031 Y18.117 I0.0 J2.06
G02 X113.091 Y18.17 I.687 J-.726
G01 X111.711 Y19.882
Z-1.095
G00 Z-.9
X111.701 Y19.875
G01 Z-1.291
Z-2.291 F800.
X113.091 Y18.17
G02 X113.722 Y18.395 I.632 J-.775 F2000.
X114.35 Y18.173 I0.0 J-1.
G03 X112.14 Y12.449 I6.308 J-5.724 F1200.
X112.142 Y12.261 I8.518 J0.0
G01 Y-12.877
G03 X112.14 Y-13.067 I8.51 J-.19
X112.326 Y-14.839 I8.512 J0.0
X113.055 Y-16.908 I8.326 J1.771 F1050.
X114.289 Y-18.722 I7.596 J3.84 F900.
G02 X113.67 Y-18.936 I-.619 J.785 F2000.
X113.002 Y-18.681 I0.0 J1.
G03 X111.627 Y-18.155 I-1.375 J-1.534
X110.248 Y-18.684 I0.0 J-2.06
G02 X109.579 Y-18.941 I-.669 J.743
X108.957 Y-18.724 I0.0 J1.
G03 X111.115 Y-13.081 I-6.3 J5.644 F1200.
X111.112 Y-12.877 I-8.458 J0.0
G01 Y12.261
G03 X111.114 Y12.448 I-8.519 J.187
X110.925 Y14.235 I-8.521 J0.0
X110.192 Y16.303 I-8.331 J-1.787 F1050.
X108.956 Y18.115 I-7.599 J-3.855 F900.
G02 X109.576 Y18.331 I.62 J-.784 F2000.
X110.243 Y18.077 I0.0 J-1.
G03 X111.615 Y17.553 I1.372 J1.536
X113.034 Y18.12 I0.0 J2.06
G02 X113.091 Y18.17 I.689 J-.725
G01 X111.701 Y19.875
Z-1.291
G00 Z-1.095
X111.628 Y19.816
G01 Z-1.486
Z-2.486 F800.
X113.089 Y18.172
G02 X113.753 Y18.424 I.664 J-.748 F2000.
X114.383 Y18.201 I0.0 J-1.
G03 X112.102 Y12.308 I6.474 J-5.893 F1200.
G01 X112.103 Y12.261
Y-12.877
X112.102 Y-12.925
G03 X112.322 Y-14.875 I8.751 J0.0
X113.076 Y-16.936 I8.531 J1.95 F1050.
X114.318 Y-18.744 I7.778 J4.01 F900.
G02 X113.697 Y-18.961 I-.621 J.784 F2000.
X113.02 Y-18.697 I0.0 J1.
G03 X111.627 Y-18.155 I-1.393 J-1.517
X110.229 Y-18.702 I0.0 J-2.06
G02 X109.551 Y-18.967 I-.679 J.735
X108.926 Y-18.748 I0.0 J1.
G03 X111.152 Y-12.942 I-6.461 J5.806 F1200.
G01 X111.151 Y-12.877
Y12.261
X111.152 Y12.307
G03 X110.929 Y14.27 I-8.756 J0.0
X110.173 Y16.329 I-8.533 J-1.962 F1050.
X108.929 Y18.137 I-7.778 J-4.022 F900.
G02 X109.551 Y18.354 I.622 J-.783 F2000.
X110.225 Y18.092 I0.0 J-1.
G03 X111.616 Y17.553 I1.391 J1.522
X113.089 Y18.172 I0.0 J2.062
G01 X111.628 Y19.816
Z-1.486
G00 Z-1.291
G01 Y19.817 Z-1.681
Z-2.681 F800.
X113.089 Y18.172
G02 X113.753 Y18.424 I.664 J-.748 F2000.
X114.383 Y18.201 I0.0 J-1.
G03 X112.102 Y12.308 I6.473 J-5.893 F1200.
G01 X112.103 Y12.261
Y-12.894
G03 X112.317 Y-14.826 I8.828 J0.0
X112.902 Y-16.565 I8.614 J1.932 F1050.
G01 X113.025 Y-16.833
G03 X114.279 Y-18.712 I7.187 J3.439 F900.
G02 X113.66 Y-18.928 I-.62 J.785 F2000.
X112.995 Y-18.675 I0.0 J1.
G03 X111.627 Y-18.155 I-1.368 J-1.54
X110.229 Y-18.702 I0.0 J-2.06
G02 X109.551 Y-18.967 I-.679 J.735
X108.926 Y-18.748 I0.0 J1.
G03 X111.152 Y-12.942 I-6.46 J5.806 F1200.
G01 X111.151 Y-12.877
Y12.261
X111.152 Y12.308
G03 X110.929 Y14.269 I-8.755 J0.0
X110.173 Y16.329 I-8.533 J-1.962 F1050.
X108.929 Y18.137 I-7.777 J-4.022 F900.
G02 X109.551 Y18.354 I.622 J-.783 F2000.
X110.226 Y18.092 I0.0 J-1.
G03 X111.616 Y17.553 I1.39 J1.522
X113.089 Y18.172 I0.0 J2.062
G01 X111.628 Y19.817
Z-1.681
G00 Z-1.486
G01 X111.629 Z-1.877
Z-2.877 F800.
X113.089 Y18.172
G02 X113.753 Y18.424 I.664 J-.748 F2000.
X114.382 Y18.201 I0.0 J-1.
G03 X112.102 Y12.309 I6.473 J-5.892 F1200.
G01 X112.103 Y12.261
Y-12.877
Y-12.881
G03 X112.317 Y-14.826 I8.939 J0.0
X113.047 Y-16.879 I8.724 J1.946 F1050.
X114.279 Y-18.712 I7.159 J3.48 F900.
G02 X113.659 Y-18.927 I-.619 J.785 F2000.
X112.995 Y-18.675 I0.0 J1.
G03 X111.627 Y-18.155 I-1.368 J-1.54
X110.229 Y-18.702 I0.0 J-2.06
G02 X109.551 Y-18.967 I-.679 J.735
X108.926 Y-18.748 I0.0 J1.
G03 X111.152 Y-12.942 I-6.46 J5.806 F1200.
G01 X111.151 Y-12.877
Y12.261
X111.152 Y12.308
G03 X110.929 Y14.269 I-8.754 J0.0
X110.173 Y16.329 I-8.532 J-1.961 F1050.
X108.929 Y18.137 I-7.776 J-4.021 F900.
G02 X109.551 Y18.354 I.622 J-.783 F2000.
X110.226 Y18.092 I0.0 J-1.
G03 X111.616 Y17.553 I1.39 J1.522
X113.089 Y18.172 I0.0 J2.062
G01 X111.629 Y19.817
Z-1.877
G00 Z-1.681
G01 Y19.818 Z-2.072
Z-3.072 F800.
X113.089 Y18.172
G02 X113.752 Y18.424 I.663 J-.748 F2000.
X114.382 Y18.2 I0.0 J-1.
G03 X112.102 Y12.309 I6.472 J-5.891 F1200.
G01 X112.103 Y12.261
Y-12.877
Y-12.881
G03 X112.317 Y-14.826 I8.938 J0.0
X113.047 Y-16.879 I8.723 J1.945 F1050.
X114.278 Y-18.712 I7.157 J3.479 F900.
G02 X113.659 Y-18.927 I-.619 J.785 F2000.
X112.995 Y-18.675 I0.0 J1.
G03 X111.627 Y-18.155 I-1.368 J-1.54
X110.229 Y-18.702 I0.0 J-2.06
G02 X109.551 Y-18.967 I-.678 J.735
X108.926 Y-18.748 I0.0 J1.
G03 X111.152 Y-12.942 I-6.46 J5.806 F1200.
G01 X111.151 Y-12.877
Y12.261
X111.152 Y12.309
G03 X110.929 Y14.269 I-8.753 J0.0
X110.174 Y16.329 I-8.531 J-1.96 F1050.
X108.93 Y18.136 I-7.775 J-4.02 F900.
G02 X109.552 Y18.353 I.622 J-.783 F2000.
X110.226 Y18.092 I0.0 J-1.
G03 X111.616 Y17.553 I1.39 J1.523
X113.089 Y18.172 I0.0 J2.062
G01 X111.629 Y19.818
Z-2.072
G00 Z-1.877
G01 X111.63 Z-2.267
Z-3.267 F800.
X113.089 Y18.172
G02 X113.752 Y18.423 I.663 J-.748 F2000.
X114.382 Y18.2 I0.0 J-1.
G03 X112.102 Y12.31 I6.471 J-5.891 F1200.
G01 X112.103 Y12.261
Y-12.877
Y-12.881
G03 X112.317 Y-14.826 I8.937 J0.0
X113.047 Y-16.879 I8.723 J1.945 F1050.
X114.278 Y-18.712 I7.154 J3.476 F900.
G02 X113.659 Y-18.927 I-.619 J.785 F2000.
X112.995 Y-18.675 I0.0 J1.
G03 X111.627 Y-18.155 I-1.368 J-1.54
X110.229 Y-18.702 I0.0 J-2.06
G02 X109.551 Y-18.967 I-.678 J.735
X108.926 Y-18.748 I0.0 J1.
G03 X111.152 Y-12.943 I-6.46 J5.805 F1200.
G01 X111.151 Y-12.877
Y12.261
X111.152 Y12.309
G03 X110.929 Y14.269 I-8.752 J0.0
X110.174 Y16.329 I-8.53 J-1.96 F1050.
X108.93 Y18.136 I-7.774 J-4.02 F900.
G02 X109.552 Y18.353 I.622 J-.783 F2000.
X110.226 Y18.092 I0.0 J-1.
G03 X111.616 Y17.553 I1.39 J1.523
X113.089 Y18.172 I0.0 J2.062
G01 X111.63 Y19.818
Z-2.267
G00 Z-2.072
G01 Y19.819 Z-2.463
Z-3.463 F800.
X113.089 Y18.172
G02 X113.752 Y18.423 I.663 J-.749 F2000.
X114.382 Y18.2 I0.0 J-1.
G03 X112.102 Y12.31 I6.47 J-5.89 F1200.
G01 X112.103 Y12.261
Y-12.877
Y-12.881
G03 X112.317 Y-14.826 I8.936 J0.0
X113.047 Y-16.879 I8.722 J1.944 F1050.
X114.278 Y-18.712 I7.152 J3.475 F900.
G02 X113.659 Y-18.927 I-.619 J.785 F2000.
X112.995 Y-18.675 I0.0 J1.
G03 X111.627 Y-18.155 I-1.368 J-1.54
X110.229 Y-18.702 I0.0 J-2.06
G02 X109.551 Y-18.967 I-.678 J.735
X108.926 Y-18.748 I0.0 J1.
G03 X111.152 Y-12.943 I-6.459 J5.805 F1200.
G01 X111.151 Y-12.877
Y12.261
X111.152 Y12.31
G03 X110.93 Y14.269 I-8.751 J0.0
X110.174 Y16.329 I-8.529 J-1.959 F1050.
X108.93 Y18.136 I-7.773 J-4.019 F900.
G02 X109.552 Y18.353 I.622 J-.783 F2000.
X110.226 Y18.092 I0.0 J-1.
G03 X111.616 Y17.553 I1.39 J1.523
X113.089 Y18.172 I0.0 J2.062
G01 X111.63 Y19.819
Z-2.463
G00 Z-2.267
G01 X111.631 Z-2.658
Z-3.658 F800.
X113.089 Y18.172
G02 X113.752 Y18.423 I.663 J-.749 F2000.
X114.381 Y18.2 I0.0 J-1.
G03 X112.102 Y12.311 I6.47 J-5.889 F1200.
G01 X112.103 Y12.261
Y-12.877
Y-12.881
G03 X112.317 Y-14.825 I8.935 J0.0
X113.047 Y-16.879 I8.721 J1.944 F1050.
X114.278 Y-18.712 I7.15 J3.473 F900.
G02 X113.658 Y-18.927 I-.619 J.785 F2000.
X112.995 Y-18.674 I0.0 J1.
G03 X111.627 Y-18.155 I-1.368 J-1.541
X110.229 Y-18.702 I0.0 J-2.06
G02 X109.551 Y-18.967 I-.678 J.735
X108.926 Y-18.748 I0.0 J1.
G03 X111.152 Y-12.943 I-6.459 J5.805 F1200.
G01 X111.151 Y-12.877
Y12.261
X111.152 Y12.31
G03 X110.93 Y14.268 I-8.75 J0.0
X110.174 Y16.328 I-8.528 J-1.958 F1050.
X108.93 Y18.136 I-7.773 J-4.018 F900.
G02 X109.552 Y18.353 I.622 J-.783 F2000.
X110.226 Y18.092 I0.0 J-1.
G03 X111.616 Y17.553 I1.39 J1.523
X113.089 Y18.172 I0.0 J2.062
G01 X111.631 Y19.819
Z-2.658
G00 Z-2.463
G01 Y19.82 Z-2.853
Z-3.853 F800.
X113.089 Y18.172
G02 X113.751 Y18.423 I.662 J-.749 F2000.
X114.381 Y18.2 I0.0 J-1.
G03 X112.102 Y12.311 I6.469 J-5.889 F1200.
G01 X112.103 Y12.261
Y-12.877
Y-12.882
G03 X112.317 Y-14.825 I8.934 J0.0
X113.047 Y-16.879 I8.72 J1.944 F1050.
X114.278 Y-18.712 I7.148 J3.472 F900.
G02 X113.658 Y-18.927 I-.619 J.785 F2000.
X112.994 Y-18.674 I0.0 J1.
G03 X111.627 Y-18.155 I-1.368 J-1.541
X110.229 Y-18.702 I0.0 J-2.06
G02 X109.551 Y-18.967 I-.678 J.735
X108.926 Y-18.748 I0.0 J1.
G03 X111.152 Y-12.943 I-6.459 J5.805 F1200.
G01 X111.151 Y-12.877
Y12.261
X111.152 Y12.311
G03 X110.93 Y14.268 I-8.749 J0.0
X110.175 Y16.328 I-8.527 J-1.957 F1050.
X108.93 Y18.136 I-7.772 J-4.018 F900.
G02 X109.553 Y18.353 I.622 J-.783 F2000.
X110.226 Y18.092 I0.0 J-1.
G03 X111.616 Y17.553 I1.39 J1.523
X113.089 Y18.172 I0.0 J2.062
G01 X111.631 Y19.82
Z-2.853
G00 Z-2.658
G01 X111.632 Z-3.049
Z-4.049 F800.
X113.089 Y18.172
G02 X113.751 Y18.423 I.662 J-.749 F2000.
X114.381 Y18.199 I0.0 J-1.
G03 X112.102 Y12.312 I6.468 J-5.888 F1200.
G01 X112.103 Y12.261
Y-12.877
Y-12.882
G03 X112.316 Y-14.825 I8.934 J0.0
X113.047 Y-16.879 I8.72 J1.943 F1050.
X114.277 Y-18.712 I7.146 J3.47 F900.
G02 X113.658 Y-18.926 I-.619 J.785 F2000.
X112.994 Y-18.674 I0.0 J1.
G03 X111.627 Y-18.155 I-1.367 J-1.541
X110.229 Y-18.702 I0.0 J-2.06
G02 X109.551 Y-18.967 I-.678 J.735
X108.926 Y-18.748 I0.0 J1.
G03 X111.152 Y-12.943 I-6.458 J5.805 F1200.
G01 X111.151 Y-12.877
Y12.261
X111.152 Y12.311
G03 X110.93 Y14.268 I-8.748 J0.0
X110.175 Y16.328 I-8.526 J-1.957 F1050.
X108.931 Y18.136 I-7.771 J-4.017 F900.
G02 X109.553 Y18.353 I.622 J-.783 F2000.
X110.227 Y18.091 I0.0 J-1.
G03 X111.616 Y17.553 I1.389 J1.523
X113.089 Y18.172 I0.0 J2.062
G01 X111.632 Y19.82
Z-3.049
G00 Z-2.853
G01 Y19.821 Z-3.244
Z-4.244 F800.
X113.089 Y18.172
G02 X113.751 Y18.422 I.662 J-.749 F2000.
X114.381 Y18.199 I0.0 J-1.
G03 X112.102 Y12.312 I6.467 J-5.887 F1200.
G01 X112.103 Y12.261
Y-12.877
Y-12.882
G03 X112.316 Y-14.825 I8.933 J0.0
X113.047 Y-16.879 I8.719 J1.943 F1050.
X114.277 Y-18.712 I7.143 J3.468 F900.
G02 X113.658 Y-18.926 I-.619 J.785 F2000.
X112.994 Y-18.674 I0.0 J1.
G03 X111.627 Y-18.155 I-1.367 J-1.541
X110.229 Y-18.702 I0.0 J-2.06
G02 X109.551 Y-18.967 I-.678 J.735
X108.926 Y-18.748 I0.0 J1.
G03 X111.152 Y-12.943 I-6.458 J5.805 F1200.
G01 X111.151 Y-12.877
Y12.261
X111.152 Y12.307
G03 X110.928 Y14.271 I-8.757 J0.0
X110.172 Y16.331 I-8.534 J-1.964 F1050.
X108.928 Y18.138 I-7.778 J-4.024 F900.
G02 X109.55 Y18.355 I.622 J-.783 F2000.
X110.225 Y18.093 I0.0 J-1.
G03 X111.616 Y17.553 I1.391 J1.522
X113.089 Y18.172 I0.0 J2.062
G01 X111.632 Y19.821
Z-3.244
G00 Z-3.049
G01 X111.633 Z-3.439
Z-4.439 F800.
X113.089 Y18.172
G02 X113.751 Y18.422 I.662 J-.75 F2000.
X114.38 Y18.199 I0.0 J-1.
G03 X112.102 Y12.312 I6.467 J-5.887 F1200.
G01 X112.103 Y12.261
Y-12.877
Y-12.882
G03 X112.316 Y-14.825 I8.932 J0.0
X113.047 Y-16.879 I8.718 J1.942 F1050.
X114.277 Y-18.711 I7.141 J3.467 F900.
G02 X113.658 Y-18.926 I-.619 J.785 F2000.
X112.994 Y-18.674 I0.0 J1.
G03 X111.627 Y-18.155 I-1.367 J-1.541
X110.23 Y-18.702 I0.0 J-2.06
G02 X109.551 Y-18.967 I-.678 J.735
X108.927 Y-18.748 I0.0 J1.
G03 X111.152 Y-12.944 I-6.457 J5.804 F1200.
G01 X111.151 Y-12.877
Y12.261
X111.152 Y12.307
G03 X110.929 Y14.271 I-8.756 J0.0
X110.172 Y16.331 I-8.533 J-1.964 F1050.
X108.928 Y18.138 I-7.777 J-4.024 F900.
G02 X109.55 Y18.355 I.622 J-.783 F2000.
X110.225 Y18.093 I0.0 J-1.
G03 X111.616 Y17.553 I1.391 J1.522
X113.089 Y18.172 I0.0 J2.062
G01 X111.633 Y19.821
Z-3.439
G00 Z-3.244
X111.625 Y19.815
G01 Z-3.635
Z-4.635 F800.
X113.089 Y18.172
G02 X113.754 Y18.426 I.665 J-.747 F2000.
X114.384 Y18.202 I0.0 J-1.
G03 X112.102 Y12.308 I6.473 J-5.894 F1200.
G01 X112.103 Y12.261
Y-12.89
G03 X112.317 Y-14.827 I8.867 J0.0
X113.057 Y-16.892 I8.653 J1.936 F1050.
X113.16 Y-17.09 I7.913 J4.002 F900.
G01 X113.284 Y-17.321
G03 X114.277 Y-18.715 I6.747 J3.755
G02 X113.66 Y-18.928 I-.617 J.787 F2000.
X112.996 Y-18.675 I0.0 J1.
G03 X111.627 Y-18.155 I-1.369 J-1.54
X110.23 Y-18.702 I0.0 J-2.06
G02 X109.551 Y-18.967 I-.678 J.735
X108.927 Y-18.748 I0.0 J1.
G03 X111.152 Y-12.944 I-6.457 J5.804 F1200.
G01 X111.151 Y-12.877
Y12.261
X111.152 Y12.308
G03 X110.929 Y14.271 I-8.755 J0.0
X110.173 Y16.331 I-8.532 J-1.963 F1050.
X108.928 Y18.138 I-7.776 J-4.023 F900.
G02 X109.55 Y18.355 I.622 J-.783 F2000.
X110.225 Y18.093 I0.0 J-1.
G03 X111.616 Y17.553 I1.391 J1.522
X113.089 Y18.172 I0.0 J2.062
G01 X111.625 Y19.815
Z-3.635
G00 Z-3.439
X111.634 Y19.822
G01 Z-3.83
Z-4.83 F800.
X113.089 Y18.172
G02 X113.75 Y18.422 I.661 J-.75 F2000.
X114.38 Y18.199 I0.0 J-1.
G03 X112.102 Y12.313 I6.465 J-5.885 F1200.
G01 X112.103 Y12.261
Y-12.891
G03 X112.316 Y-14.827 I8.866 J0.0
X113.057 Y-16.892 I8.652 J1.936 F1050.
X113.16 Y-17.09 I7.912 J4.001 F900.
G01 X113.284 Y-17.321
G03 X114.277 Y-18.715 I6.744 J3.753
G02 X113.66 Y-18.928 I-.617 J.787 F2000.
X112.995 Y-18.675 I0.0 J1.
G03 X111.627 Y-18.155 I-1.368 J-1.54
X110.23 Y-18.702 I0.0 J-2.06
G02 X109.551 Y-18.967 I-.678 J.735
X108.927 Y-18.748 I0.0 J1.
G03 X111.152 Y-12.944 I-6.457 J5.804 F1200.
G01 X111.151 Y-12.877
Y12.261
X111.152 Y12.308
G03 X110.929 Y14.271 I-8.754 J0.0
X110.173 Y16.33 I-8.531 J-1.962 F1050.
X108.928 Y18.138 I-7.775 J-4.022 F900.
G02 X109.551 Y18.355 I.622 J-.783 F2000.
X110.225 Y18.093 I0.0 J-1.
G03 X111.616 Y17.553 I1.391 J1.522
X113.089 Y18.172 I0.0 J2.062
G01 X111.634 Y19.822
Z-3.83
G00 Z-3.635
G01 X111.635 Y19.823 Z-4.025
Z-5.025 F800.
X113.089 Y18.172
G02 X113.75 Y18.422 I.661 J-.75 F2000.
X114.38 Y18.198 I0.0 J-1.
G03 X112.102 Y12.314 I6.464 J-5.885 F1200.
G01 X112.103 Y12.261
Y-12.891
G03 X112.316 Y-14.826 I8.865 J0.0
X113.057 Y-16.892 I8.651 J1.935 F1050.
X113.16 Y-17.089 I7.91 J4.001 F900.
G01 X113.284 Y-17.321
G03 X114.277 Y-18.715 I6.742 J3.75
G02 X113.66 Y-18.928 I-.617 J.787 F2000.
X112.995 Y-18.675 I0.0 J1.
G03 X111.627 Y-18.155 I-1.368 J-1.54
X110.23 Y-18.702 I0.0 J-2.06
G02 X109.551 Y-18.967 I-.678 J.735
X108.927 Y-18.748 I0.0 J1.
G03 X111.152 Y-12.944 I-6.457 J5.803 F1200.
G01 X111.151 Y-12.877
Y12.261
X111.152 Y12.309
G03 X110.929 Y14.27 I-8.753 J0.0
X110.173 Y16.33 I-8.53 J-1.962 F1050.
X108.929 Y18.137 I-7.774 J-4.021 F900.
G02 X109.551 Y18.355 I.622 J-.783 F2000.
X110.225 Y18.093 I0.0 J-1.
G03 X111.616 Y17.553 I1.391 J1.522
X113.089 Y18.172 I0.0 J2.062
G01 X111.635 Y19.823
Z-4.025
G00 Z-3.83
X111.627 Y19.816
G01 Z-4.221
Z-5.221 F800.
X113.089 Y18.172
G02 X113.753 Y18.425 I.665 J-.747 F2000.
X114.383 Y18.202 I0.0 J-1.
G03 X112.102 Y12.309 I6.471 J-5.892 F1200.
G01 X112.103 Y12.261
Y-12.896
G03 X112.318 Y-14.836 I8.857 J0.0
X113.06 Y-16.901 I8.642 J1.94 F1050.
X113.395 Y-17.503 I7.9 J4.005 F900.
G01 X113.536 Y-17.735
G03 X114.281 Y-18.723 I6.322 J3.993
G02 X113.667 Y-18.934 I-.615 J.789 F2000.
X113. Y-18.68 I0.0 J1.
G03 X111.627 Y-18.155 I-1.373 J-1.536
X110.23 Y-18.702 I0.0 J-2.06
G02 X109.551 Y-18.967 I-.678 J.735
X108.927 Y-18.748 I0.0 J1.
G03 X111.152 Y-12.944 I-6.456 J5.803 F1200.
G01 X111.151 Y-12.877
Y12.261
X111.152 Y12.309
G03 X110.929 Y14.27 I-8.752 J0.0
X110.173 Y16.33 I-8.529 J-1.961 F1050.
X108.929 Y18.137 I-7.774 J-4.021 F900.
G02 X109.551 Y18.354 I.622 J-.783 F2000.
X110.225 Y18.093 I0.0 J-1.
G03 X111.616 Y17.553 I1.39 J1.522
X113.089 Y18.172 I0.0 J2.062
G01 X111.627 Y19.816
Z-4.221
G00 Z-4.025
G01 Z-4.416
Z-5.416 F800.
X113.089 Y18.172
G02 X113.753 Y18.425 I.664 J-.747 F2000.
X114.383 Y18.201 I0.0 J-1.
G03 X112.102 Y12.31 I6.47 J-5.892 F1200.
G01 X112.103 Y12.261
Y-12.896
G03 X112.317 Y-14.835 I8.857 J0.0
X113.059 Y-16.9 I8.642 J1.939 F1050.
X113.394 Y-17.502 I7.9 J4.004 F900.
G01 X113.536 Y-17.735
G03 X114.281 Y-18.723 I6.312 J3.984
G02 X113.666 Y-18.934 I-.615 J.789 F2000.
X113. Y-18.679 I0.0 J1.
G03 X111.627 Y-18.155 I-1.373 J-1.536
X110.23 Y-18.702 I0.0 J-2.06
G02 X109.551 Y-18.967 I-.678 J.735
X108.927 Y-18.748 I0.0 J1.
G03 X111.152 Y-12.945 I-6.456 J5.803 F1200.
G01 X111.151 Y-12.877
Y12.261
X111.152 Y12.31
G03 X110.929 Y14.27 I-8.751 J0.0
X110.173 Y16.33 I-8.528 J-1.96 F1050.
X108.929 Y18.137 I-7.773 J-4.02 F900.
G02 X109.551 Y18.354 I.622 J-.783 F2000.
X110.226 Y18.093 I0.0 J-1.
G03 X111.616 Y17.553 I1.39 J1.522
X113.089 Y18.172 I0.0 J2.062
G01 X111.627 Y19.816
Z-4.416
G00 Z-4.221
G01 X111.628 Y19.817 Z-4.611
Z-5.611 F800.
X113.089 Y18.172
G02 X113.753 Y18.424 I.664 J-.748 F2000.
X114.383 Y18.201 I0.0 J-1.
G03 X112.102 Y12.31 I6.469 J-5.891 F1200.
G01 X112.103 Y12.261
Y-12.877
Y-12.889
G03 X112.318 Y-14.835 I8.902 J0.0
X113.058 Y-16.901 I8.687 J1.946 F1050.
X113.284 Y-17.321 I7.947 J4.012 F900.
G01 X113.536 Y-17.735
G03 X114.281 Y-18.723 I6.32 J3.992
G02 X113.666 Y-18.934 I-.615 J.789 F2000.
X113. Y-18.679 I0.0 J1.
G03 X111.627 Y-18.155 I-1.373 J-1.536
X110.23 Y-18.702 I0.0 J-2.06
G02 X109.551 Y-18.967 I-.678 J.735
X108.927 Y-18.748 I0.0 J1.
G03 X111.152 Y-12.945 I-6.456 J5.803 F1200.
G01 X111.151 Y-12.877
Y12.261
X111.152 Y12.31
G03 X110.929 Y14.27 I-8.75 J0.0
X110.174 Y16.33 I-8.527 J-1.959 F1050.
X108.929 Y18.137 I-7.772 J-4.019 F900.
G02 X109.551 Y18.354 I.622 J-.783 F2000.
X110.226 Y18.092 I0.0 J-1.
G03 X111.616 Y17.553 I1.39 J1.522
X113.089 Y18.172 I0.0 J2.062
G01 X111.628 Y19.817
Z-4.611
G00 Z-4.416
G01 Z-4.807
Z-5.807 F800.
X113.089 Y18.172
G02 X113.753 Y18.424 I.664 J-.748 F2000.
X114.382 Y18.201 I0.0 J-1.
G03 X112.102 Y12.311 I6.468 J-5.89 F1200.
G01 X112.103 Y12.261
Y-12.877
Y-12.889
G03 X112.318 Y-14.835 I8.901 J0.0
X113.058 Y-16.901 I8.686 J1.946 F1050.
X113.284 Y-17.321 I7.946 J4.012 F900.
G01 X113.536 Y-17.735
G03 X114.281 Y-18.722 I6.317 J3.99
G02 X113.666 Y-18.934 I-.615 J.789 F2000.
X113. Y-18.679 I0.0 J1.
G03 X111.627 Y-18.155 I-1.373 J-1.536
X110.23 Y-18.702 I0.0 J-2.06
G02 X109.552 Y-18.967 I-.678 J.735
X108.927 Y-18.748 I0.0 J1.
G03 X111.152 Y-12.945 I-6.455 J5.803 F1200.
G01 X111.151 Y-12.877
Y12.261
X111.152 Y12.311
G03 X110.929 Y14.27 I-8.749 J0.0
X110.174 Y16.33 I-8.527 J-1.959 F1050.
X108.929 Y18.137 I-7.771 J-4.019 F900.
G02 X109.552 Y18.354 I.622 J-.783 F2000.
X110.226 Y18.092 I0.0 J-1.
G03 X111.616 Y17.553 I1.39 J1.523
X113.089 Y18.172 I0.0 J2.062
G01 X111.628 Y19.817
Z-4.807
G00 Z-4.611
X111.633 Y19.822
G01 Z-5.002
Z-6.002 F800.
X113.089 Y18.172
G02 X113.75 Y18.422 I.662 J-.75 F2000.
X114.38 Y18.199 I0.0 J-1.
G03 X112.102 Y12.314 I6.464 J-5.885 F1200.
G01 X112.103 Y12.261
Y-12.877
Y-12.89
G03 X112.318 Y-14.835 I8.901 J0.0
X113.058 Y-16.901 I8.686 J1.945 F1050.
X113.284 Y-17.321 I7.946 J4.011 F900.
G01 X113.536 Y-17.736
G03 X114.28 Y-18.722 I6.315 J3.989
G02 X113.666 Y-18.934 I-.615 J.789 F2000.
X112.999 Y-18.679 I0.0 J1.
G03 X111.627 Y-18.155 I-1.373 J-1.536
X110.23 Y-18.702 I0.0 J-2.06
G02 X109.552 Y-18.967 I-.678 J.735
X108.927 Y-18.748 I0.0 J1.
G03 X111.152 Y-12.945 I-6.455 J5.803 F1200.
G01 X111.151 Y-12.877
Y12.261
X111.152 Y12.311
G03 X110.929 Y14.27 I-8.748 J0.0
X110.174 Y16.33 I-8.526 J-1.959 F1050.
X108.929 Y18.137 I-7.771 J-4.019 F900.
G02 X109.552 Y18.354 I.622 J-.783 F2000.
X110.226 Y18.092 I0.0 J-1.
G03 X111.616 Y17.553 I1.39 J1.523
X113.089 Y18.172 I0.0 J2.062
G01 X111.633 Y19.822
Z-5.002
G00 Z-4.807
G01 X111.634 Z-5.197
Z-6.197 F800.
X113.089 Y18.172
G02 X113.75 Y18.422 I.661 J-.75 F2000.
X114.38 Y18.199 I0.0 J-1.
G03 X112.102 Y12.314 I6.463 J-5.885 F1200.
G01 X112.103 Y12.261
Y-12.877
Y-12.89
G03 X112.318 Y-14.835 I8.9 J0.0
X113.058 Y-16.901 I8.685 J1.945 F1050.
X113.284 Y-17.321 I7.945 J4.011 F900.
G01 X113.536 Y-17.736
G03 X114.28 Y-18.722 I6.313 J3.987
G02 X113.666 Y-18.933 I-.615 J.789 F2000.
X112.999 Y-18.679 I0.0 J1.
G03 X111.627 Y-18.155 I-1.372 J-1.536
X110.23 Y-18.702 I0.0 J-2.06
G02 X109.552 Y-18.967 I-.678 J.735
X108.927 Y-18.748 I0.0 J1.
G03 X111.152 Y-12.945 I-6.455 J5.802 F1200.
G01 X111.151 Y-12.877
Y12.261
X111.152 Y12.311
G03 X110.929 Y14.27 I-8.748 J0.0
X110.174 Y16.33 I-8.526 J-1.959 F1050.
X108.929 Y18.137 I-7.77 J-4.019 F900.
G02 X109.552 Y18.354 I.622 J-.783 F2000.
X110.226 Y18.092 I0.0 J-1.
G03 X111.616 Y17.553 I1.39 J1.523
X113.089 Y18.172 I0.0 J2.062
G01 X111.634 Y19.822
Z-5.197
G00 Z-5.002
G01 Z-5.393
Z-6.393 F800.
X113.089 Y18.172
G02 X113.75 Y18.422 I.661 J-.75 F2000.
X114.38 Y18.199 I0.0 J-1.
G03 X112.102 Y12.314 I6.463 J-5.884 F1200.
G01 X112.103 Y12.261
Y-12.877
Y-12.89
G03 X112.318 Y-14.835 I8.9 J0.0
X113.057 Y-16.9 I8.684 J1.945 F1050.
X113.284 Y-17.321 I7.945 J4.01 F900.
G01 X113.536 Y-17.736
G03 X114.28 Y-18.722 I6.316 J3.991
G02 X113.665 Y-18.933 I-.615 J.789 F2000.
X112.999 Y-18.679 I0.0 J1.
G03 X111.627 Y-18.155 I-1.372 J-1.536
X110.23 Y-18.702 I0.0 J-2.06
G02 X109.552 Y-18.967 I-.678 J.735
X108.927 Y-18.748 I0.0 J1.
G03 X111.152 Y-12.946 I-6.454 J5.802 F1200.
G01 X111.151 Y-12.877
Y12.261
X111.152 Y12.311
G03 X110.93 Y14.27 I-8.747 J0.0
X110.174 Y16.33 I-8.525 J-1.958 F1050.
X108.93 Y18.137 I-7.77 J-4.018 F900.
G02 X109.552 Y18.354 I.622 J-.783 F2000.
X110.226 Y18.092 I0.0 J-1.
G03 X111.616 Y17.553 I1.39 J1.523
X113.089 Y18.172 I0.0 J2.062
G01 X111.634 Y19.822
Z-5.393
G00 Z-5.197
G01 Y19.823 Z-5.588
Z-6.588 F800.
X113.089 Y18.172
G02 X113.75 Y18.422 I.661 J-.75 F2000.
X114.38 Y18.198 I0.0 J-1.
G03 X112.102 Y12.315 I6.462 J-5.884 F1200.
G01 X112.103 Y12.261
Y-12.877
Y-12.885
G03 X112.318 Y-14.834 I8.925 J0.0
X113.057 Y-16.9 I8.71 J1.95 F1050.
X113.536 Y-17.736 I7.971 J4.016 F900.
X114.28 Y-18.722 I6.315 J3.99
G02 X113.665 Y-18.933 I-.615 J.789 F2000.
X112.999 Y-18.679 I0.0 J1.
G03 X111.627 Y-18.155 I-1.372 J-1.536
X110.23 Y-18.702 I0.0 J-2.06
G02 X109.552 Y-18.967 I-.678 J.735
X108.927 Y-18.748 I0.0 J1.
G03 X111.152 Y-12.946 I-6.454 J5.802 F1200.
G01 X111.151 Y-12.877
Y12.261
X111.152 Y12.311
G03 X110.93 Y14.269 I-8.747 J0.0
X110.174 Y16.33 I-8.525 J-1.958 F1050.
X108.93 Y18.137 I-7.769 J-4.018 F900.
G02 X109.552 Y18.354 I.622 J-.783 F2000.
X110.226 Y18.092 I0.0 J-1.
G03 X111.616 Y17.553 I1.39 J1.523
X113.089 Y18.172 I0.0 J2.062
G01 X111.634 Y19.823
Z-5.588
G00 Z-5.393
G01 X111.635 Z-5.783
Z-6.783 F800.
X113.089 Y18.172
G02 X113.75 Y18.422 I.661 J-.75 F2000.
X114.379 Y18.198 I0.0 J-1.
G03 X112.102 Y12.315 I6.462 J-5.883 F1200.
G01 X112.103 Y12.261
Y-12.877
Y-12.885
G03 X112.318 Y-14.834 I8.925 J0.0
X113.057 Y-16.9 I8.709 J1.949 F1050.
X113.536 Y-17.736 I7.97 J4.015 F900.
X114.28 Y-18.722 I6.313 J3.989
G02 X113.665 Y-18.933 I-.615 J.789 F2000.
X112.999 Y-18.679 I0.0 J1.
G03 X111.627 Y-18.156 I-1.372 J-1.537
X110.23 Y-18.702 I0.0 J-2.06
G02 X109.552 Y-18.967 I-.678 J.735
X108.927 Y-18.748 I0.0 J1.
G03 X111.152 Y-12.946 I-6.454 J5.802 F1200.
G01 X111.151 Y-12.877
Y12.261
X111.152 Y12.312
G03 X110.93 Y14.269 I-8.747 J0.0
X110.174 Y16.329 I-8.525 J-1.958 F1050.
X108.93 Y18.137 I-7.769 J-4.018 F900.
G02 X109.552 Y18.354 I.622 J-.783 F2000.
X110.226 Y18.092 I0.0 J-1.
G03 X111.616 Y17.553 I1.39 J1.523
X113.089 Y18.172 I0.0 J2.062
G01 X111.635 Y19.823
Z-5.783
G00 Z-5.588
G01 Y19.824 Z-5.979
Z-6.979 F800.
X113.089 Y18.172
G02 X113.749 Y18.421 I.661 J-.751 F2000.
X114.379 Y18.198 I0.0 J-1.
G03 X112.102 Y12.316 I6.461 J-5.883 F1200.
G01 X112.103 Y12.261
Y-12.877
Y-12.885
G03 X112.318 Y-14.834 I8.923 J0.0
X113.057 Y-16.9 I8.708 J1.948 F1050.
X113.536 Y-17.736 I7.969 J4.015 F900.
X114.279 Y-18.722 I6.312 J3.988
G02 X113.665 Y-18.933 I-.615 J.789 F2000.
X112.999 Y-18.679 I0.0 J1.
G03 X111.627 Y-18.156 I-1.372 J-1.537
X110.23 Y-18.701 I0.0 J-2.06
G02 X109.552 Y-18.966 I-.678 J.735
X108.928 Y-18.747 I0.0 J1.
G03 X111.152 Y-12.947 I-6.452 J5.8 F1200.
G01 X111.151 Y-12.877
Y12.261
X111.152 Y12.313
G03 X110.93 Y14.268 I-8.742 J0.0
X110.175 Y16.328 I-8.521 J-1.955 F1050.
X108.931 Y18.136 I-7.766 J-4.015 F900.
G02 X109.553 Y18.353 I.622 J-.783 F2000.
X110.227 Y18.092 I0.0 J-1.
G03 X111.616 Y17.553 I1.389 J1.524
X113.089 Y18.172 I0.0 J2.062
G01 X111.635 Y19.824
Z-5.979
G00 Z-5.783
G01 X111.636 Z-6.174
Z-7.174 F800.
X113.089 Y18.172
G02 X113.749 Y18.421 I.661 J-.751 F2000.
X114.379 Y18.198 I0.0 J-1.
G03 X112.102 Y12.316 I6.46 J-5.882 F1200.
G01 X112.103 Y12.261
Y-12.877
Y-12.886
G03 X112.318 Y-14.834 I8.922 J0.0
X113.057 Y-16.9 I8.707 J1.948 F1050.
X113.536 Y-17.737 I7.968 J4.014 F900.
X114.279 Y-18.722 I6.31 J3.987
G02 X113.665 Y-18.933 I-.615 J.789 F2000.
X112.999 Y-18.679 I0.0 J1.
G03 X111.627 Y-18.156 I-1.372 J-1.537
X110.231 Y-18.701 I0.0 J-2.06
G02 X109.554 Y-18.965 I-.678 J.735
X108.929 Y-18.746 I0.0 J1.
G03 X111.152 Y-12.949 I-6.45 J5.798 F1200.
G01 X111.151 Y-12.877
Y12.261
X111.152 Y12.314
G03 X110.93 Y14.268 I-8.741 J0.0
X110.175 Y16.328 I-8.52 J-1.954 F1050.
X108.931 Y18.136 I-7.765 J-4.014 F900.
G02 X109.553 Y18.353 I.622 J-.783 F2000.
X110.227 Y18.092 I0.0 J-1.
G03 X111.616 Y17.553 I1.389 J1.524
X113.089 Y18.172 I0.0 J2.062
G01 X111.636 Y19.824
Z-6.174
G00 Z-5.979
X111.633 Y19.822
G01 Z-6.369
Z-7.369 F800.
X113.089 Y18.172
G02 X113.75 Y18.422 I.662 J-.75 F2000.
X114.38 Y18.199 I0.0 J-1.
G03 X112.102 Y12.315 I6.462 J-5.884 F1200.
G01 X112.103 Y12.261
Y-12.877
Y-12.887
G03 X112.318 Y-14.833 I8.921 J0.0
X113.056 Y-16.9 I8.706 J1.947 F1050.
X113.536 Y-17.737 I7.967 J4.013 F900.
X114.279 Y-18.721 I6.309 J3.986
G02 X113.664 Y-18.933 I-.615 J.789 F2000.
X112.999 Y-18.679 I0.0 J1.
G03 X111.627 Y-18.156 I-1.372 J-1.537
X110.232 Y-18.7 I0.0 J-2.06
G02 X109.555 Y-18.964 I-.677 J.736
X108.93 Y-18.745 I0.0 J1.
G03 X111.152 Y-12.95 I-6.447 J5.795 F1200.
G01 X111.151 Y-12.877
Y12.261
X111.152 Y12.314
G03 X110.93 Y14.268 I-8.74 J0.0
X110.175 Y16.328 I-8.519 J-1.954 F1050.
X108.931 Y18.135 I-7.764 J-4.014 F900.
G02 X109.553 Y18.353 I.622 J-.783 F2000.
X110.227 Y18.092 I0.0 J-1.
G03 X111.616 Y17.553 I1.389 J1.524
X113.089 Y18.172 I0.0 J2.062
G01 X111.633 Y19.822
Z-6.369
G00 Z-6.174
G01 X111.634 Y19.823 Z-6.564
Z-7.564 F800.
X113.089 Y18.172
G02 X113.75 Y18.422 I.661 J-.75 F2000.
X114.38 Y18.199 I0.0 J-1.
G03 X112.102 Y12.315 I6.461 J-5.884 F1200.
G01 X112.103 Y12.261
Y-12.877
Y-12.887
G03 X112.317 Y-14.833 I8.919 J0.0
X113.056 Y-16.9 I8.704 J1.946 F1050.
X113.536 Y-17.737 I7.966 J4.013 F900.
X114.279 Y-18.721 I6.307 J3.985
G02 X113.664 Y-18.932 I-.615 J.789 F2000.
X112.998 Y-18.679 I0.0 J1.
G03 X111.627 Y-18.156 I-1.371 J-1.537
X110.233 Y-18.699 I0.0 J-2.06
G02 X109.556 Y-18.963 I-.677 J.736
X108.931 Y-18.744 I0.0 J1.
G03 X111.152 Y-12.952 I-6.445 J5.792 F1200.
G01 X111.151 Y-12.877
Y12.261
X111.152 Y12.315
G03 X110.931 Y14.268 I-8.739 J0.0
X110.176 Y16.328 I-8.518 J-1.953 F1050.
X108.931 Y18.135 I-7.764 J-4.013 F900.
G02 X109.554 Y18.352 I.622 J-.783 F2000.
X110.227 Y18.092 I0.0 J-1.
G03 X111.616 Y17.554 I1.389 J1.524
X113.089 Y18.172 I0.0 J2.062
G01 X111.634 Y19.823
Z-6.564
G00 Z-6.369
X111.635
G01 Z-6.76
Z-7.76 F800.
X113.089 Y18.172
G02 X113.75 Y18.422 I.661 J-.751 F2000.
X114.379 Y18.198 I0.0 J-1.
G03 X112.102 Y12.315 I6.464 J-5.884 F1200.
G01 X112.103 Y12.261
Y-12.877
Y-12.888
G03 X112.317 Y-14.833 I8.918 J0.0
X113.056 Y-16.899 I8.703 J1.945 F1050.
X113.536 Y-17.737 I7.965 J4.012 F900.
X114.279 Y-18.721 I6.306 J3.984
G02 X113.664 Y-18.932 I-.615 J.789 F2000.
X112.998 Y-18.678 I0.0 J1.
G03 X111.627 Y-18.156 I-1.371 J-1.537
X110.234 Y-18.698 I0.0 J-2.06
G02 X109.557 Y-18.962 I-.676 J.737
X108.933 Y-18.743 I0.0 J1.
G03 X111.152 Y-12.954 I-6.442 J5.789 F1200.
G01 X111.151 Y-12.877
Y12.261
X111.152 Y12.314
G03 X110.93 Y14.271 I-8.737 J0.0
X110.173 Y16.331 I-8.515 J-1.957 F1050.
X108.928 Y18.138 I-7.759 J-4.017 F900.
G02 X109.551 Y18.355 I.623 J-.782 F2000.
X110.225 Y18.093 I0.0 J-1.
G03 X111.616 Y17.554 I1.391 J1.522
X113.089 Y18.172 I0.0 J2.062
G01 X111.635 Y19.823
Z-6.76
G00 Z-6.564
G01 Y19.824 Z-6.955
Z-7.955 F800.
X113.089 Y18.172
G02 X113.749 Y18.421 I.661 J-.751 F2000.
X114.379 Y18.198 I0.0 J-1.
G03 X112.102 Y12.315 I6.463 J-5.883 F1200.
G01 X112.103 Y12.261
Y-12.877
Y-12.888
G03 X112.317 Y-14.833 I8.917 J0.0
X113.056 Y-16.899 I8.702 J1.945 F1050.
X113.536 Y-17.737 I7.964 J4.011 F900.
X114.278 Y-18.721 I6.304 J3.983
G02 X113.664 Y-18.932 I-.615 J.789 F2000.
X112.998 Y-18.678 I0.0 J1.
G03 X111.627 Y-18.156 I-1.371 J-1.537
X110.234 Y-18.698 I0.0 J-2.06
G02 X109.558 Y-18.961 I-.676 J.737
X108.934 Y-18.742 I0.0 J1.
G03 X111.152 Y-12.956 I-6.439 J5.786 F1200.
G01 X111.151 Y-12.877
Y12.261
X111.152 Y12.315
G03 X110.93 Y14.271 I-8.736 J0.0
X110.174 Y16.331 I-8.514 J-1.956 F1050.
X108.928 Y18.137 I-7.758 J-4.016 F900.
G02 X109.551 Y18.355 I.623 J-.782 F2000.
X110.225 Y18.093 I0.0 J-1.
G03 X111.616 Y17.554 I1.391 J1.522
X113.089 Y18.172 I0.0 J2.062
G01 X111.635 Y19.824
Z-6.955
G00 Z-6.76
G01 X111.636 Z-7.15
Z-8.15 F800.
X113.089 Y18.172
G02 X113.749 Y18.421 I.66 J-.751 F2000.
X114.379 Y18.198 I0.0 J-1.
G03 X112.102 Y12.316 I6.462 J-5.882 F1200.
G01 X112.103 Y12.261
Y-12.877
Y-12.889
G03 X112.325 Y-14.866 I8.915 J0.0
X113.071 Y-16.93 I8.693 J1.977 F1050.
X113.536 Y-17.737 I7.947 J4.041 F900.
G01 X113.586 Y-17.809
X113.931 Y-18.297
G03 X114.3 Y-18.747 I5.591 J4.201
G02 X113.69 Y-18.955 I-.611 J.792 F2000.
X113.016 Y-18.694 I0.0 J1.
G03 X111.627 Y-18.156 I-1.389 J-1.522
X110.235 Y-18.697 I0.0 J-2.06
G02 X109.559 Y-18.96 I-.676 J.737
X108.935 Y-18.741 I0.0 J1.
G03 X111.152 Y-12.958 I-6.437 J5.784 F1200.
G01 X111.151 Y-12.877
Y12.261
X111.152 Y12.315
G03 X110.93 Y14.271 I-8.734 J0.0
X110.174 Y16.331 I-8.513 J-1.956 F1050.
X108.928 Y18.137 I-7.757 J-4.015 F900.
G02 X109.551 Y18.355 I.623 J-.782 F2000.
X110.226 Y18.093 I0.0 J-1.
G03 X111.616 Y17.554 I1.391 J1.522
X113.089 Y18.172 I0.0 J2.062
G01 X111.636 Y19.824
Z-7.15
G00 Z-6.955
G01 Y19.825 Z-7.346
Z-8.346 F800.
X113.089 Y18.172
G02 X113.749 Y18.421 I.66 J-.751 F2000.
X114.378 Y18.198 I0.0 J-1.
G03 X112.102 Y12.316 I6.462 J-5.882 F1200.
G01 X112.103 Y12.261
Y-12.899
G03 X112.325 Y-14.868 I8.846 J0.0
X113.075 Y-16.93 I8.624 J1.969 F1050.
X113.721 Y-18. I7.874 J4.031 F900.
G01 X113.931 Y-18.297
G03 X114.302 Y-18.75 I5.591 J4.202
G02 X113.692 Y-18.957 I-.61 J.792 F2000.
X113.017 Y-18.695 I0.0 J1.
G03 X111.627 Y-18.156 I-1.39 J-1.52
X110.236 Y-18.696 I0.0 J-2.06
G02 X109.561 Y-18.959 I-.675 J.738
X108.936 Y-18.74 I0.0 J1.
G03 X111.152 Y-12.959 I-6.434 J5.781 F1200.
G01 X111.151 Y-12.877
Y12.261
X111.152 Y12.316
G03 X110.93 Y14.271 I-8.733 J0.0
X110.174 Y16.33 I-8.512 J-1.955 F1050.
X108.929 Y18.137 I-7.756 J-4.015 F900.
G02 X109.551 Y18.355 I.623 J-.782 F2000.
X110.226 Y18.093 I0.0 J-1.
G03 X111.616 Y17.554 I1.39 J1.523
X113.089 Y18.172 I0.0 J2.062
G01 X111.636 Y19.825
Z-7.346
G00 Z-7.15
G01 X111.637 Z-7.541
Z-8.541 F800.
X113.089 Y18.172
G02 X113.749 Y18.421 I.66 J-.751 F2000.
X114.378 Y18.198 I0.0 J-1.
G03 X112.102 Y12.317 I6.461 J-5.881 F1200.
G01 X112.103 Y12.261
Y-12.899
G03 X112.324 Y-14.868 I8.847 J0.0
X113.074 Y-16.93 I8.625 J1.969 F1050.
X113.721 Y-18. I7.875 J4.031 F900.
G01 X113.931 Y-18.297
G03 X114.302 Y-18.749 I5.591 J4.203
G02 X113.691 Y-18.957 I-.61 J.792 F2000.
X113.017 Y-18.695 I0.0 J1.
G03 X111.627 Y-18.156 I-1.39 J-1.521
X110.237 Y-18.696 I0.0 J-2.06
G02 X109.562 Y-18.958 I-.675 J.738
X108.938 Y-18.739 I0.0 J1.
G03 X111.152 Y-12.961 I-6.432 J5.778 F1200.
G01 X111.151 Y-12.877
Y12.261
X111.152 Y12.316
G03 X110.93 Y14.27 I-8.732 J0.0
X110.174 Y16.33 I-8.511 J-1.954 F1050.
X108.929 Y18.137 I-7.755 J-4.014 F900.
G02 X109.552 Y18.354 I.623 J-.782 F2000.
X110.226 Y18.093 I0.0 J-1.
G03 X111.616 Y17.554 I1.39 J1.523
X113.089 Y18.172 I0.0 J2.062
G01 X111.637 Y19.825
Z-7.541
G00 Z-7.346
G01 Z-7.736
Z-8.736 F800.
X113.089 Y18.172
G02 X113.748 Y18.421 I.66 J-.751 F2000.
X114.378 Y18.198 I0.0 J-1.
G03 X112.102 Y12.317 I6.461 J-5.881 F1200.
G01 X112.103 Y12.261
Y-12.899
G03 X112.324 Y-14.867 I8.847 J0.0
X113.074 Y-16.93 I8.625 J1.968 F1050.
X113.721 Y-18. I7.875 J4.031 F900.
G01 X113.931 Y-18.297
G03 X114.301 Y-18.749 I5.591 J4.203
G02 X113.691 Y-18.957 I-.61 J.792 F2000.
X113.017 Y-18.695 I0.0 J1.
G03 X111.627 Y-18.156 I-1.39 J-1.521
X110.237 Y-18.695 I0.0 J-2.06
G02 X109.563 Y-18.957 I-.675 J.738
X108.939 Y-18.738 I0.0 J1.
G03 X111.152 Y-12.963 I-6.429 J5.775 F1200.
G01 X111.151 Y-12.877
Y12.261
X111.152 Y12.317
G03 X110.93 Y14.27 I-8.731 J0.0
X110.175 Y16.33 I-8.51 J-1.953 F1050.
X108.929 Y18.137 I-7.754 J-4.013 F900.
G02 X109.552 Y18.354 I.623 J-.782 F2000.
X110.226 Y18.093 I0.0 J-1.
G03 X111.616 Y17.554 I1.39 J1.523
X113.089 Y18.172 I0.0 J2.062
G01 X111.637 Y19.825
Z-7.736
G00 Z-7.541
G01 Y19.826 Z-7.932
Z-8.932 F800.
X113.089 Y18.172
G02 X113.748 Y18.421 I.66 J-.752 F2000.
X114.378 Y18.197 I0.0 J-1.
G03 X112.102 Y12.317 I6.46 J-5.88 F1200.
G01 X112.103 Y12.261
Y-12.877
X112.102 Y-12.936
G03 X112.32 Y-14.871 I8.727 J0.0
X113.071 Y-16.932 I8.51 J1.935 F1050.
X114.313 Y-18.741 I7.759 J3.997 F900.
G02 X113.692 Y-18.958 I-.621 J.784 F2000.
X113.017 Y-18.696 I0.0 J1.
G03 X111.627 Y-18.156 I-1.39 J-1.52
X110.238 Y-18.694 I0.0 J-2.06
G02 X109.564 Y-18.956 I-.674 J.739
X108.94 Y-18.737 I0.0 J1.
G03 X111.152 Y-12.965 I-6.426 J5.773 F1200.
G01 X111.151 Y-12.877
Y12.261
X111.152 Y12.317
G03 X110.93 Y14.27 I-8.73 J0.0
X110.175 Y16.33 I-8.509 J-1.953 F1050.
X108.929 Y18.136 I-7.753 J-4.013 F900.
G02 X109.552 Y18.354 I.623 J-.782 F2000.
X110.226 Y18.093 I0.0 J-1.
G03 X111.616 Y17.554 I1.39 J1.523
X113.089 Y18.172 I0.0 J2.062
G01 X111.637 Y19.826
Z-7.932
G00 Z1.
X100.721 Y13.013
G01 Z.1
X100.977 Y13.669 Z.075 F800.
X101.769 Y14.425 Z.037
X102.805 Y14.777 Z-.001
X103.894 Y14.657 Z-.039
X104.582 Y14.298 Z-.066
X105.245 Y13.572 Z-.101
X105.581 Y12.649 Z-.135
Y12.261 Z-.149
Y-.308 Z-.588
Y-12.877 F1200.
G02 X103.08 Y-15.378 I-2.501 J0.0
X100.579 Y-12.877 I0.0 J2.501
G01 Y12.261
G02 X103.08 Y14.762 I2.501 J0.0
X105.581 Y12.261 I0.0 J-2.501
G01 Y-.308
X103.781 F2000.
Y-12.877
G02 X103.08 Y-13.578 I-.701 J0.0
X102.379 Y-12.877 I0.0 J.701
G01 Y12.261
G02 X103.08 Y12.962 I.701 J0.0
X103.781 Y12.261 I0.0 J-.701
G01 Y-.308
X103.955 Y-2.3
Z.413
G00 Z1.
X105.554 Y7.925
G01 Z-.488
Y-.308 Z-.775 F800.
Y-12.877 F1200.
G02 X103.08 Y-15.35 I-2.474 J0.0
X100.607 Y-12.877 I0.0 J2.474
G01 Y12.261
G02 X103.08 Y14.734 I2.474 J0.0
X105.554 Y12.261 I0.0 J-2.474
G01 Y-.308
X103.754 F2000.
Y-12.877
G02 X103.08 Y-13.55 I-.674 J0.0
X102.407 Y-12.877 I0.0 J.674
G01 Y12.261
G02 X103.08 Y12.934 I.674 J0.0
X103.754 Y12.261 I0.0 J-.674
G01 Y-.308
X103.928 Y-2.3
Z.225
G00 Z.413
X105.554 Y7.925
G01 Z-.675
Y-.308 Z-.963 F800.
Y-12.877 F1200.
G02 X103.08 Y-15.35 I-2.474 J0.0
X100.607 Y-12.877 I0.0 J2.474
G01 Y12.261
G02 X103.08 Y14.734 I2.474 J0.0
X105.554 Y12.261 I0.0 J-2.474
G01 Y-.308
X103.754 F2000.
Y-12.877
G02 X103.08 Y-13.55 I-.674 J0.0
X102.407 Y-12.877 I0.0 J.674
G01 Y12.261
G02 X103.08 Y12.934 I.674 J0.0
X103.754 Y12.261 I0.0 J-.674
G01 Y-.308
X103.928 Y-2.3
Z.038
G00 Z.225
X105.554 Y7.925
G01 Z-.863
Y-.308 Z-1.15 F800.
Y-12.877 F1200.
G02 X103.08 Y-15.35 I-2.474 J0.0
X100.607 Y-12.877 I0.0 J2.474
G01 Y12.261
G02 X103.08 Y14.734 I2.474 J0.0
X105.554 Y12.261 I0.0 J-2.474
G01 Y-.308
X103.754 F2000.
Y-12.877
G02 X103.08 Y-13.55 I-.674 J0.0
X102.407 Y-12.877 I0.0 J.674
G01 Y12.261
G02 X103.08 Y12.934 I.674 J0.0
X103.754 Y12.261 I0.0 J-.674
G01 Y-.308
X103.928 Y-2.3
Z-.15
G00 Z.038
X105.554 Y7.925
G01 Z-1.05
Y-.308 Z-1.338 F800.
Y-12.877 F1200.
G02 X103.08 Y-15.35 I-2.474 J0.0
X100.607 Y-12.877 I0.0 J2.474
G01 Y12.261
G02 X103.08 Y14.734 I2.474 J0.0
X105.554 Y12.261 I0.0 J-2.474
G01 Y-.308
X103.754 F2000.
Y-12.877
G02 X103.08 Y-13.55 I-.674 J0.0
X102.407 Y-12.877 I0.0 J.674
G01 Y12.261
G02 X103.08 Y12.934 I.674 J0.0
X103.754 Y12.261 I0.0 J-.674
G01 Y-.308
X103.928 Y-2.3
Z-.338
G00 Z-.15
X105.554 Y7.925
G01 Z-1.238
Y-.308 Z-1.525 F800.
Y-12.877 F1200.
G02 X103.08 Y-15.35 I-2.474 J0.0
X100.607 Y-12.877 I0.0 J2.474
G01 Y12.261
G02 X103.08 Y14.734 I2.474 J0.0
X105.554 Y12.261 I0.0 J-2.474
G01 Y-.308
X103.754 F2000.
Y-12.877
G02 X103.08 Y-13.55 I-.674 J0.0
X102.407 Y-12.877 I0.0 J.674
G01 Y12.261
G02 X103.08 Y12.934 I.674 J0.0
X103.754 Y12.261 I0.0 J-.674
G01 Y-.308
X103.928 Y-2.3
Z-.525
G00 Z-.338
X105.554 Y7.925
G01 Z-1.425
Y-.308 Z-1.713 F800.
Y-12.877 F1200.
G02 X103.08 Y-15.35 I-2.474 J0.0
X100.607 Y-12.877 I0.0 J2.474
G01 Y12.261
G02 X103.08 Y14.734 I2.474 J0.0
X105.554 Y12.261 I0.0 J-2.474
G01 Y-.308
X103.754 F2000.
Y-12.877
G02 X103.08 Y-13.55 I-.674 J0.0
X102.407 Y-12.877 I0.0 J.674
G01 Y12.261
G02 X103.08 Y12.934 I.674 J0.0
X103.754 Y12.261 I0.0 J-.674
G01 Y-.308
X103.928 Y-2.3
Z-.713
G00 Z-.525
X105.554 Y7.925
G01 Z-1.613
Y-.308 Z-1.9 F800.
Y-12.877 F1200.
G02 X103.08 Y-15.35 I-2.474 J0.0
X100.607 Y-12.877 I0.0 J2.474
G01 Y12.261
G02 X103.08 Y14.734 I2.474 J0.0
X105.554 Y12.261 I0.0 J-2.474
G01 Y-.308
X103.754 F2000.
Y-12.877
G02 X103.08 Y-13.55 I-.674 J0.0
X102.407 Y-12.877 I0.0 J.674
G01 Y12.261
G02 X103.08 Y12.934 I.674 J0.0
X103.754 Y12.261 I0.0 J-.674
G01 Y-.308
X103.928 Y-2.3
Z-.9
G00 Z1.
X94.058 Y19.431
G01 Z.413
Z-.588 F800.
X95.924 Y17.392
G02 X96.599 Y17.655 I.675 J-.738 F2000.
X97.212 Y17.445 I0.0 J-1.
G03 X95.25 Y12.282 I5.868 J-5.184 F1200.
G01 Y-12.9
G03 X95.353 Y-14.137 I7.83 J.023
X96.005 Y-16.231 I7.728 J1.26 F1050.
X96.324 Y-16.833 I7.075 J3.354 F900.
X97.212 Y-18.061 I6.757 J3.957
G02 X96.6 Y-18.271 I-.613 J.79 F2000.
X95.924 Y-18.008 I0.0 J1.
G03 X94.534 Y-17.468 I-1.391 J-1.52
X93.143 Y-18.008 I0.0 J-2.06
G02 X92.467 Y-18.271 I-.675 J.738
X91.855 Y-18.061 I0.0 J1.
G03 X93.817 Y-12.877 I-5.868 J5.184 F1200.
G01 Y12.261
G03 X93.714 Y13.521 I-7.83 J0.0
X93.062 Y15.615 I-7.728 J-1.26 F1050.
X91.855 Y17.445 I-7.075 J-3.354 F900.
G02 X92.467 Y17.655 I.613 J-.79 F2000.
X93.143 Y17.392 I0.0 J-1.
G03 X94.534 Y16.852 I1.391 J1.52
X95.924 Y17.392 I0.0 J2.06
G01 X94.058 Y19.431
Z.413
G00 Z1.
X94.092 Y19.455
G01 Z.225
Z-.775 F800.
X95.902 Y17.418
X95.919 Y17.434 F2000.
G02 X96.592 Y17.694 I.673 J-.74
X97.207 Y17.482 I0.0 J-1.
G03 X95.222 Y12.261 I5.873 J-5.221 F1200.
G01 Y-12.877
G03 X95.331 Y-14.181 I7.858 J0.0
X95.993 Y-16.272 I7.749 J1.304 F1050.
X97.207 Y-18.098 I7.087 J3.395 F900.
G02 X96.592 Y-18.31 I-.616 J.788 F2000.
X95.919 Y-18.05 I0.0 J1.
G03 X94.534 Y-17.514 I-1.386 J-1.524
X93.148 Y-18.05 I0.0 J-2.06
G02 X92.475 Y-18.31 I-.673 J.74
X91.86 Y-18.098 I0.0 J1.
G03 X93.845 Y-12.877 I-5.873 J5.221 F1200.
G01 Y12.261
G03 X93.736 Y13.565 I-7.858 J0.0
X93.074 Y15.656 I-7.749 J-1.304 F1050.
X91.86 Y17.482 I-7.087 J-3.395 F900.
G02 X92.475 Y17.694 I.616 J-.788 F2000.
X93.148 Y17.434 I0.0 J-1.
G03 X94.534 Y16.898 I1.386 J1.524
X95.902 Y17.418 I0.0 J2.06
G01 X94.092 Y19.455
Z.225
G00 Z.413
X94.106 Y19.467
G01 Z.038
Z-.963 F800.
X95.891 Y17.43
X95.917 Y17.453 F2000.
G02 X96.588 Y17.712 I.671 J-.741
X97.204 Y17.5 I0.0 J-1.
G03 X97.051 Y17.321 I5.917 J-5.201 F1200.
X95.209 Y12.261 I6.029 J-5.06
G01 Y-12.877
G03 X95.321 Y-14.202 I7.871 J0.0
X95.988 Y-16.291 I7.759 J1.325 F1050.
X97.205 Y-18.115 I7.092 J3.414 F900.
G02 X96.588 Y-18.328 I-.617 J.787 F2000.
X95.917 Y-18.069 I0.0 J1.
G03 X94.534 Y-17.535 I-1.383 J-1.526
X93.15 Y-18.069 I0.0 J-2.06
G02 X92.479 Y-18.328 I-.671 J.741
X91.866 Y-18.118 I0.0 J1.
G03 X92.004 Y-17.952 I-5.248 J4.5 F1200.
X93.858 Y-12.877 I-6.017 J5.075
G01 Y12.261
G03 X93.746 Y13.586 I-7.871 J0.0
X93.079 Y15.675 I-7.759 J-1.325 F1050.
X91.862 Y17.499 I-7.092 J-3.414 F900.
G02 X92.479 Y17.712 I.617 J-.787 F2000.
X93.15 Y17.453 I0.0 J-1.
G03 X94.534 Y16.919 I1.383 J1.526
X95.891 Y17.43 I0.0 J2.06
G01 X94.106 Y19.467
Z.038
G00 Z.225
X94.137 Y19.485
G01 Z-.15
Z-1.15 F800.
X95.87 Y17.454
G03 X95.942 Y17.519 I-1.337 J1.567 F2000.
G02 X96.626 Y17.79 I.684 J-.729
X97.219 Y17.595 I0.0 J-1.
G03 X96.631 Y16.796 I6.093 J-5.096 F1200.
X95.196 Y12.261 I6.449 J-4.536
G01 Y-12.877
G03 X95.328 Y-14.314 I7.884 J0.0
X96.024 Y-16.394 I7.752 J1.438 F1050.
X96.568 Y-17.321 I7.056 J3.517 F900.
X97.23 Y-18.229 I6.732 J4.215
G02 X96.634 Y-18.425 I-.595 J.803 F2000.
X95.948 Y-18.152 I0.0 J1.
G03 X94.533 Y-17.59 I-1.415 J-1.497
X93.119 Y-18.151 I0.0 J-2.06
G02 X92.433 Y-18.424 I-.686 J.727
X91.838 Y-18.227 I0.0 J1.
G03 X92.493 Y-17.33 I-6.073 J5.12 F1200.
X93.871 Y-12.877 I-6.506 J4.453
G01 Y12.261
G03 X93.755 Y13.607 I-7.884 J0.0
X93.084 Y15.695 I-7.769 J-1.346 F1050.
X92.731 Y16.345 I-7.097 J-3.434 F900.
X91.905 Y17.546 I-6.928 J-3.882
G02 X92.495 Y17.739 I.59 J-.807 F2000.
X93.161 Y17.485 I0.0 J-1.
G03 X94.533 Y16.961 I1.372 J1.537
X95.87 Y17.454 I0.0 J2.06
G01 X94.137 Y19.485
Z-.15
G00 Z.038
X96.263 Y-21.126
G01 Z-.338
Z-1.338 F800.
X92.863 Y-18.802
X92.85 Y-18.82 F2000.
G02 X92.037 Y-19.237 I-.813 J.582
X91.454 Y-19.05 I0.0 J1.
G01 X91.727 Y-18.785 F1200.
X92.832 Y-16.833
X92.888 Y-16.717
G03 X93.884 Y-12.877 I-6.901 J3.84
G01 Y12.261
G03 X93.617 Y14.298 I-7.897 J0.0
X92.889 Y16.099 I-7.63 J-2.038 F1050.
G01 X92.763 Y16.345
X91.973 Y17.776 F900.
X91.631 Y18.197
G02 X92.196 Y18.371 I.565 J-.825 F2000.
X92.959 Y18.017 I0.0 J-1.
G03 X94.532 Y17.288 I1.572 J1.331
X96.115 Y18.03 I0.0 J2.06
G02 X96.883 Y18.39 I.768 J-.64
X97.46 Y18.207 I0.0 J-1.
G01 X97.111 Y17.809 F1200.
X96.049 Y15.857
G03 X95.183 Y12.261 I7.031 J-3.597
G01 Y-12.88
G03 X95.448 Y-14.906 I7.897 J.004
X96.163 Y-16.688 I7.632 J2.03 F1050.
G01 X96.295 Y-16.93
X96.897 Y-18.041 F900.
G03 X97.402 Y-18.828 I4.479 J2.317
G02 X96.866 Y-18.984 I-.536 J.844 F2000.
X96.109 Y-18.637 I0.0 J1.
G03 X94.55 Y-17.924 I-1.559 J-1.347
X92.863 Y-18.802 I0.0 J-2.06
G01 X96.146 Y-21.102
Z-.338
G00 Z-.15
X94.288 Y-20.657
G01 Z-.525
Z-1.525 F800.
X92.948 Y-18.913
G02 X92.339 Y-19.12 I-.609 J.793 F2000.
X91.72 Y-18.905 I0.0 J1.
G03 X92.738 Y-17.421 I-4.461 J4.151 F1200.
G02 X93.213 Y-16.095 I9.078 J-2.506
G03 X93.897 Y-12.877 I-7.226 J3.219
G01 Y12.261
G03 X93.643 Y14.252 I-7.911 J0.0
X93.261 Y15.37 I-7.656 J-1.991 F1050.
G02 X92.887 Y16.315 I9.696 J4.379
X92.725 Y16.833 I10.07 J3.433 F900.
G03 X91.797 Y18.201 I-5.687 J-2.858
G02 X92.401 Y18.404 I.603 J-.798 F2000.
X93.097 Y18.121 I0.0 J-1.
G03 X94.533 Y17.538 I1.435 J1.477
X95.966 Y18.118 I0.0 J2.06
G02 X96.661 Y18.4 I.696 J-.718
X97.264 Y18.198 I0.0 J-1.
G03 X96.34 Y16.833 I4.734 J-4.203 F1200.
G01 X95.919 Y15.655
X95.806 Y15.369
G03 X95.17 Y12.261 I7.274 J-3.109
G01 Y-12.877
G03 X95.422 Y-14.86 I7.911 J0.0
X95.753 Y-15.857 I7.658 J1.983 F1050.
G01 X96.158 Y-16.932
X96.408 Y-17.596 F900.
G03 X97.265 Y-18.811 I5.653 J3.081
G02 X96.658 Y-19.016 I-.607 J.794 F2000.
X95.969 Y-18.741 I0.0 J1.
G03 X94.55 Y-18.175 I-1.419 J-1.493
X93.061 Y-18.811 I0.0 J-2.06
G02 X92.948 Y-18.913 I-.723 J.691
G01 X94.288 Y-20.657
Z-.525
G00 Z-.338
X94.104 Y-20.763
G01 Z-.713
Z-1.713 F800.
X92.938 Y-18.897
G02 X92.408 Y-19.049 I-.53 J.848 F2000.
X91.779 Y-18.827 I0.0 J1.
G03 X92.982 Y-17.126 I-6.22 J5.676 F1200.
G01 X93.102 Y-16.833
X93.529 Y-15.306
G03 X93.91 Y-12.877 I-7.542 J2.429
G01 Y12.261
G03 X93.677 Y14.17 I-7.924 J0.0
X93.618 Y14.394 I-7.69 J-1.909 F1050.
X93.054 Y16.345 I-754.054 J-216.896
X91.868 Y18.115 I-7.114 J-3.484 F900.
G02 X92.483 Y18.327 I.615 J-.789 F2000.
X93.153 Y18.069 I0.0 J-1.
G03 X94.533 Y17.538 I1.38 J1.529
X95.913 Y18.069 I0.0 J2.06
G02 X96.583 Y18.327 I.67 J-.742
X97.195 Y18.117 I0.0 J-1.
G03 X95.919 Y16.114 I5.668 J-5.019 F1200.
G02 X95.449 Y14.394 I-23.914 J5.605
G03 X95.157 Y12.261 I7.631 J-2.133
G01 Y-12.877
Y-12.882
G03 X95.388 Y-14.784 I7.926 J0.0
X95.557 Y-15.37 I7.694 J1.902 F1050.
G01 X95.919 Y-16.715
G03 X95.997 Y-16.896 I6.629 J2.768
X97.191 Y-18.734 I6.55 J2.949 F900.
G02 X96.578 Y-18.943 I-.613 J.79 F2000.
X95.915 Y-18.692 I0.0 J1.
G03 X94.55 Y-18.175 I-1.365 J-1.543
X93.108 Y-18.763 I0.0 J-2.06
G02 X92.938 Y-18.897 I-.7 J.714
G01 X94.104 Y-20.763
Z-.713
G00 Z-.525
X94.036 Y-20.795
G01 Z-.9
Z-1.9 F800.
X92.934 Y-18.891
G02 X92.434 Y-19.025 I-.501 J.866 F2000.
X91.807 Y-18.804 I0.0 J1.
G03 X93.472 Y-15.989 I-5.916 J5.397 F1200.
G01 X93.798 Y-14.28
G03 X93.923 Y-12.877 I-7.811 J1.403
G01 Y12.261
G03 X93.751 Y13.906 I-7.936 J0.0
G01 X93.7 Y14.178
X93.476 Y15.37 F1050.
G03 X93.098 Y16.281 I-7.669 J-2.647
X91.879 Y18.104 I-7.291 J-3.558 F900.
G02 X92.495 Y18.316 I.616 J-.788 F2000.
X93.161 Y18.062 I0.0 J-1.
G03 X94.533 Y17.538 I1.372 J1.536
X95.91 Y18.066 I0.0 J2.06
G02 X96.579 Y18.323 I.669 J-.744
X97.197 Y18.109 I0.0 J-1.
G03 X95.674 Y15.625 I6.215 J-5.518 F1200.
G01 X95.604 Y15.37
X95.229 Y13.418
G03 X95.144 Y12.261 I7.851 J-1.157
G01 Y-12.877
G03 X95.29 Y-14.394 I7.936 J0.0
G01 X95.376 Y-14.804
X95.674 Y-16.238 F1050.
G03 X95.969 Y-16.911 I7.472 J2.867
X97.199 Y-18.727 I7.177 J3.541 F900.
G02 X96.578 Y-18.943 I-.622 J.783 F2000.
X95.915 Y-18.692 I0.0 J1.
G03 X94.55 Y-18.175 I-1.365 J-1.543
X93.125 Y-18.747 I0.0 J-2.06
G02 X92.934 Y-18.891 I-.692 J.722
G01 X94.036 Y-20.795
Z-.9
G00 Z-.713
X94.12 Y-20.755
G01 Z-1.095
Z-2.095 F800.
X92.94 Y-18.899
G02 X92.403 Y-19.055 I-.537 J.844 F2000.
X91.773 Y-18.831 I0.0 J1.
G03 X93.703 Y-15.37 I-6.392 J5.832 F1200.
X93.94 Y-12.951 I-12.189 J2.418
G01 Y-12.877
Y12.261
G03 X93.795 Y14.221 I-13.805 J-.037
X93.716 Y14.698 I-13.66 J-1.998 F1050.
X93.099 Y16.297 I-8.243 J-2.263
X91.865 Y18.111 I-7.626 J-3.862 F900.
G02 X92.484 Y18.326 I.619 J-.785 F2000.
X93.154 Y18.068 I0.0 J-1.
G03 X94.533 Y17.538 I1.379 J1.53
X95.914 Y18.07 I0.0 J2.06
G02 X96.584 Y18.327 I.67 J-.742
X97.203 Y18.112 I0.0 J-1.
G03 X95.401 Y14.882 I6.396 J-5.685 F1200.
X95.127 Y12.307 I11.939 J-2.575
G01 Y12.261
Y-12.877
G03 X95.26 Y-14.806 I19.546 J.38
X95.269 Y-14.882 I19.412 J2.309 F1050.
X95.945 Y-16.889 I7.853 J1.525
X97.174 Y-18.705 I7.178 J3.532 F900.
G02 X96.553 Y-18.921 I-.621 J.784 F2000.
X95.898 Y-18.678 I0.0 J1.
G03 X94.55 Y-18.175 I-1.348 J-1.558
X93.105 Y-18.767 I0.0 J-2.06
G02 X92.94 Y-18.899 I-.702 J.713
G01 X94.12 Y-20.755
Z-1.095
G00 Z-.9
X94.076 Y-20.777
G01 Z-1.291
Z-2.291 F800.
X92.937 Y-18.895
G02 X92.42 Y-19.039 I-.517 J.856 F2000.
X91.79 Y-18.816 I0.0 J1.
G03 X94.021 Y-13.059 I-6.312 J5.757 F1200.
X94.019 Y-12.877 I-8.543 J0.0
G01 Y12.261
G03 X94.021 Y12.449 I-8.516 J.188
X93.835 Y14.22 I-8.518 J0.0
X93.106 Y16.29 I-8.332 J-1.771 F1050.
X91.873 Y18.104 I-7.603 J-3.841 F900.
G02 X92.492 Y18.319 I.619 J-.786 F2000.
X93.159 Y18.064 I0.0 J-1.
G03 X94.533 Y17.538 I1.374 J1.535
X95.91 Y18.066 I0.0 J2.06
G02 X96.578 Y18.322 I.668 J-.744
X97.197 Y18.107 I0.0 J-1.
G03 X95.046 Y12.448 I6.369 J-5.66 F1200.
X95.048 Y12.261 I8.52 J0.0
G01 Y-13.117
G03 X95.23 Y-14.843 I8.263 J0.0
X95.931 Y-16.833 I8.081 J1.726 F1050.
X95.968 Y-16.909 I7.188 J3.441
X97.197 Y-18.725 I7.151 J3.517 F900.
G02 X96.576 Y-18.942 I-.621 J.784 F2000.
X95.914 Y-18.691 I0.0 J1.
G03 X94.55 Y-18.175 I-1.364 J-1.544
X93.116 Y-18.757 I0.0 J-2.06
G02 X92.937 Y-18.895 I-.696 J.718
G01 X94.076 Y-20.777
Z-1.291
G00 Z-1.095
X94.167 Y-20.731
G01 Z-1.486
Z-2.486 F800.
X92.943 Y-18.903
G02 X92.386 Y-19.072 I-.557 J.831 F2000.
X91.755 Y-18.848 I0.0 J1.
G03 X94.058 Y-12.909 I-6.506 J5.939 F1200.
G01 Y12.31
G03 X93.839 Y14.254 I-8.751 J0.0
X93.087 Y16.316 I-8.532 J-1.945 F1050.
X91.846 Y18.125 I-7.78 J-4.006 F900.
G02 X92.467 Y18.341 I.621 J-.784 F2000.
X93.142 Y18.079 I0.0 J-1.
G03 X94.533 Y17.538 I1.391 J1.52
X95.926 Y18.081 I0.0 J2.06
G02 X96.603 Y18.345 I.676 J-.736
X97.224 Y18.128 I0.0 J-1.
G03 X95.009 Y12.309 I6.538 J-5.82 F1200.
G01 Y12.261
Y-12.895
G03 X95.226 Y-14.844 I8.846 J0.0
X95.972 Y-16.908 I8.629 J1.949 F1050.
X96.035 Y-17.031 I7.883 J4.013 F900.
G01 X96.163 Y-17.273
G03 X97.196 Y-18.728 I6.813 J3.742
G02 X96.577 Y-18.943 I-.619 J.785 F2000.
X95.914 Y-18.692 I0.0 J1.
G03 X94.55 Y-18.175 I-1.364 J-1.544
X93.093 Y-18.779 I0.0 J-2.06
G02 X92.943 Y-18.903 I-.707 J.707
G01 X94.167 Y-20.731
Z-1.486
G00 Z-1.291
X94.168 Y-20.73
G01 Z-1.681
Z-2.681 F800.
X92.943 Y-18.903
G02 X92.386 Y-19.072 I-.557 J.831 F2000.
X91.754 Y-18.848 I0.0 J1.
G03 X94.058 Y-12.909 I-6.505 J5.939 F1200.
G01 Y12.31
G03 X93.839 Y14.254 I-8.75 J0.0
X93.087 Y16.316 I-8.531 J-1.944 F1050.
X91.846 Y18.125 I-7.779 J-4.005 F900.
G02 X92.467 Y18.341 I.621 J-.784 F2000.
X93.142 Y18.079 I0.0 J-1.
G03 X94.533 Y17.538 I1.391 J1.52
X95.926 Y18.081 I0.0 J2.06
G02 X96.603 Y18.345 I.676 J-.737
X97.224 Y18.128 I0.0 J-1.
G03 X95.009 Y12.309 I6.537 J-5.819 F1200.
G01 Y12.261
Y-12.896
G03 X95.226 Y-14.845 I8.845 J0.0
X95.972 Y-16.909 I8.628 J1.949 F1050.
X96.035 Y-17.031 I7.882 J4.013 F900.
G01 X96.163 Y-17.273
G03 X97.196 Y-18.728 I6.812 J3.741
G02 X96.577 Y-18.943 I-.619 J.785 F2000.
X95.914 Y-18.692 I0.0 J1.
G03 X94.55 Y-18.176 I-1.364 J-1.543
X93.093 Y-18.779 I0.0 J-2.06
G02 X92.943 Y-18.903 I-.707 J.707
G01 X94.168 Y-20.73
Z-1.681
G00 Z-1.486
X94.169
G01 Z-1.877
Z-2.877 F800.
X92.943 Y-18.903
G02 X92.385 Y-19.073 I-.557 J.83 F2000.
X91.754 Y-18.848 I0.0 J1.
G03 X94.058 Y-12.909 I-6.505 J5.94 F1200.
G01 Y12.311
G03 X93.839 Y14.254 I-8.749 J0.0
X93.088 Y16.315 I-8.53 J-1.943 F1050.
X91.847 Y18.125 I-7.779 J-4.005 F900.
G02 X92.467 Y18.341 I.621 J-.784 F2000.
X93.142 Y18.079 I0.0 J-1.
G03 X94.533 Y17.538 I1.391 J1.52
X95.926 Y18.081 I0.0 J2.06
G02 X96.602 Y18.344 I.676 J-.737
X97.224 Y18.128 I0.0 J-1.
G03 X95.009 Y12.31 I6.536 J-5.818 F1200.
G01 Y12.261
Y-12.896
G03 X95.227 Y-14.845 I8.844 J0.0
X95.972 Y-16.909 I8.627 J1.949 F1050.
X96.035 Y-17.031 I7.881 J4.013 F900.
G01 X96.163 Y-17.273
G03 X97.196 Y-18.728 I6.811 J3.74
G02 X96.577 Y-18.943 I-.619 J.785 F2000.
X95.915 Y-18.692 I0.0 J1.
G03 X94.55 Y-18.176 I-1.364 J-1.543
X93.093 Y-18.78 I0.0 J-2.06
G02 X92.943 Y-18.903 I-.707 J.707
G01 X94.169 Y-20.73
Z-1.877
G00 Z-1.681
X93.934 Y-20.81
G01 Z-2.072
Z-3.072 F800.
X92.919 Y-18.858
G02 X92.458 Y-18.971 I-.461 J.887 F2000.
X91.838 Y-18.755 I0.0 J1.
G03 X94.058 Y-12.909 I-6.588 J5.846 F1200.
G01 Y12.311
G03 X93.84 Y14.254 I-8.748 J0.0
X93.088 Y16.315 I-8.529 J-1.942 F1050.
X91.847 Y18.125 I-7.778 J-4.004 F900.
G02 X92.468 Y18.341 I.621 J-.784 F2000.
X93.143 Y18.079 I0.0 J-1.
G03 X94.533 Y17.538 I1.39 J1.52
X95.926 Y18.081 I0.0 J2.06
G02 X96.602 Y18.344 I.676 J-.737
X97.223 Y18.128 I0.0 J-1.
G03 X95.009 Y12.31 I6.535 J-5.818 F1200.
G01 Y12.261
Y-12.877
Y-12.88
G03 X95.227 Y-14.841 I8.938 J0.0
X95.931 Y-16.833 I8.72 J1.961 F1050.
X95.966 Y-16.907 I7.156 J3.415
X97.194 Y-18.724 I7.12 J3.489 F900.
G02 X96.573 Y-18.94 I-.621 J.784 F2000.
X95.912 Y-18.69 I0.0 J1.
G03 X94.812 Y-18.192 I-1.363 J-1.545
X94.52 Y-18.172 I-.292 J-2.039
X93.132 Y-18.71 I0.0 J-2.06
G02 X92.919 Y-18.858 I-.674 J.739
G01 X93.934 Y-20.81
Z-2.072
G00 Z-1.877
G01 Z-2.267
Z-3.267 F800.
X92.919 Y-18.858
G02 X92.458 Y-18.971 I-.461 J.887 F2000.
X91.838 Y-18.755 I0.0 J1.
G03 X94.058 Y-12.909 I-6.588 J5.846 F1200.
G01 Y12.312
G03 X93.84 Y14.253 I-8.747 J0.0
X93.088 Y16.315 I-8.528 J-1.942 F1050.
X91.847 Y18.124 I-7.777 J-4.003 F900.
G02 X92.468 Y18.34 I.621 J-.784 F2000.
X93.143 Y18.078 I0.0 J-1.
G03 X94.533 Y17.539 I1.39 J1.52
X95.926 Y18.081 I0.0 J2.06
G02 X96.602 Y18.344 I.676 J-.737
X97.223 Y18.128 I0.0 J-1.
G03 X95.009 Y12.311 I6.535 J-5.817 F1200.
G01 Y12.261
Y-12.877
Y-12.882
G03 X95.228 Y-14.846 I8.929 J0.0
X95.97 Y-16.911 I8.71 J1.964 F1050.
X96.191 Y-17.321 I7.968 J4.029 F900.
X97.197 Y-18.729 I6.764 J3.771
G02 X96.578 Y-18.944 I-.619 J.785 F2000.
X95.915 Y-18.693 I0.0 J1.
G03 X94.821 Y-18.194 I-1.365 J-1.543
X94.52 Y-18.172 I-.301 J-2.038
X93.132 Y-18.71 I0.0 J-2.06
G02 X92.919 Y-18.858 I-.674 J.739
G01 X93.934 Y-20.81
Z-2.267
G00 Z-2.072
G01 Z-2.463
Z-3.463 F800.
X92.919 Y-18.858
G02 X92.458 Y-18.971 I-.461 J.887 F2000.
X91.838 Y-18.755 I0.0 J1.
G03 X94.058 Y-12.909 I-6.587 J5.846 F1200.
G01 Y12.312
G03 X93.84 Y14.253 I-8.746 J0.0
X93.088 Y16.315 I-8.527 J-1.941 F1050.
X91.847 Y18.124 I-7.776 J-4.002 F900.
G02 X92.468 Y18.34 I.621 J-.784 F2000.
X93.143 Y18.078 I0.0 J-1.
G03 X94.533 Y17.539 I1.39 J1.52
X95.926 Y18.081 I0.0 J2.06
G02 X96.602 Y18.344 I.676 J-.737
X97.223 Y18.127 I0.0 J-1.
G03 X95.009 Y12.311 I6.534 J-5.817 F1200.
G01 Y12.261
Y-12.877
Y-12.883
G03 X95.228 Y-14.846 I8.928 J0.0
X95.97 Y-16.911 I8.71 J1.964 F1050.
X96.19 Y-17.321 I7.968 J4.029 F900.
X97.197 Y-18.729 I6.766 J3.772
G02 X96.578 Y-18.944 I-.619 J.785 F2000.
X95.915 Y-18.693 I0.0 J1.
G03 X94.83 Y-18.195 I-1.365 J-1.543
X94.52 Y-18.172 I-.31 J-2.037
X93.132 Y-18.71 I0.0 J-2.06
G02 X92.919 Y-18.858 I-.674 J.739
G01 X93.934 Y-20.81
Z-2.463
G00 Z-2.267
G01 Z-2.658
Z-3.658 F800.
X92.919 Y-18.858
G02 X92.458 Y-18.971 I-.461 J.887 F2000.
X91.838 Y-18.755 I0.0 J1.
G03 X94.058 Y-12.91 I-6.587 J5.846 F1200.
G01 Y12.313
G03 X93.84 Y14.253 I-8.744 J0.0
X93.089 Y16.315 I-8.526 J-1.94 F1050.
X91.848 Y18.124 I-7.775 J-4.002 F900.
G02 X92.468 Y18.34 I.621 J-.784 F2000.
X93.143 Y18.078 I0.0 J-1.
G03 X94.533 Y17.539 I1.39 J1.52
X95.926 Y18.081 I0.0 J2.06
G02 X96.602 Y18.344 I.676 J-.737
X97.223 Y18.128 I0.0 J-1.
G03 X95.009 Y12.311 I6.534 J-5.816 F1200.
G01 Y12.261
Y-12.877
Y-12.883
G03 X95.228 Y-14.846 I8.928 J0.0
X95.97 Y-16.912 I8.709 J1.963 F1050.
X96.19 Y-17.321 I7.967 J4.029 F900.
X97.197 Y-18.73 I6.767 J3.773
G02 X96.578 Y-18.944 I-.619 J.785 F2000.
X95.915 Y-18.693 I0.0 J1.
G03 X94.839 Y-18.196 I-1.365 J-1.543
X94.52 Y-18.172 I-.318 J-2.035
X93.132 Y-18.71 I0.0 J-2.06
G02 X92.919 Y-18.858 I-.674 J.739
G01 X93.934 Y-20.81
Z-2.658
G00 Z-2.463
G01 Z-2.853
Z-3.853 F800.
X92.919 Y-18.858
G02 X92.458 Y-18.971 I-.461 J.887 F2000.
X91.838 Y-18.755 I0.0 J1.
G03 X94.058 Y-12.91 I-6.587 J5.846 F1200.
G01 Y12.313
G03 X93.84 Y14.253 I-8.743 J0.0
X93.089 Y16.314 I-8.526 J-1.94 F1050.
X91.848 Y18.124 I-7.774 J-4.001 F900.
G02 X92.469 Y18.34 I.621 J-.784 F2000.
X93.143 Y18.078 I0.0 J-1.
G03 X94.533 Y17.539 I1.39 J1.521
X95.926 Y18.081 I0.0 J2.06
G02 X96.602 Y18.344 I.676 J-.737
X97.223 Y18.128 I0.0 J-1.
G03 X95.009 Y12.311 I6.533 J-5.816 F1200.
G01 Y12.261
Y-12.877
Y-12.883
G03 X95.228 Y-14.847 I8.928 J0.0
X95.97 Y-16.912 I8.709 J1.963 F1050.
X96.19 Y-17.321 I7.967 J4.028 F900.
X97.197 Y-18.73 I6.768 J3.775
G02 X96.578 Y-18.945 I-.619 J.785 F2000.
X95.915 Y-18.694 I0.0 J1.
G03 X94.848 Y-18.198 I-1.365 J-1.543
X94.52 Y-18.172 I-.328 J-2.034
X93.132 Y-18.71 I0.0 J-2.06
G02 X92.919 Y-18.858 I-.674 J.739
G01 X93.934 Y-20.81
Z-2.853
G00 Z-2.658
G01 Z-3.049
Z-4.049 F800.
X92.919 Y-18.858
G02 X92.458 Y-18.971 I-.461 J.887 F2000.
X91.838 Y-18.755 I0.0 J1.
G03 X94.058 Y-12.91 I-6.587 J5.846 F1200.
G01 Y12.314
G03 X93.84 Y14.253 I-8.742 J0.0
X93.089 Y16.314 I-8.525 J-1.939 F1050.
X91.848 Y18.124 I-7.773 J-4. F900.
G02 X92.469 Y18.34 I.621 J-.784 F2000.
X93.143 Y18.078 I0.0 J-1.
G03 X94.533 Y17.539 I1.39 J1.521
X95.926 Y18.081 I0.0 J2.06
G02 X96.602 Y18.344 I.676 J-.737
X97.223 Y18.128 I0.0 J-1.
G03 X95.009 Y12.311 I6.533 J-5.816 F1200.
G01 Y12.261
Y-12.877
Y-12.884
G03 X95.228 Y-14.847 I8.927 J0.0
X95.97 Y-16.912 I8.709 J1.963 F1050.
X96.19 Y-17.321 I7.967 J4.028 F900.
X97.197 Y-18.73 I6.769 J3.776
G02 X96.578 Y-18.945 I-.62 J.785 F2000.
X95.915 Y-18.694 I0.0 J1.
G03 X94.857 Y-18.199 I-1.365 J-1.543
X94.52 Y-18.172 I-.336 J-2.032
X93.132 Y-18.71 I0.0 J-2.06
G02 X92.919 Y-18.858 I-.674 J.739
G01 X93.934 Y-20.81
Z-3.049
G00 Z-2.853
G01 Z-3.244
Z-4.244 F800.
X92.919 Y-18.858
G02 X92.458 Y-18.971 I-.461 J.887 F2000.
X91.838 Y-18.755 I0.0 J1.
G03 X94.058 Y-12.91 I-6.586 J5.845 F1200.
G01 Y12.314
G03 X93.84 Y14.252 I-8.741 J0.0
X93.089 Y16.314 I-8.524 J-1.938 F1050.
X91.848 Y18.124 I-7.772 J-4. F900.
G02 X92.469 Y18.34 I.621 J-.784 F2000.
X93.143 Y18.078 I0.0 J-1.
G03 X94.533 Y17.539 I1.389 J1.521
X95.926 Y18.081 I0.0 J2.06
G02 X96.602 Y18.344 I.676 J-.737
X97.223 Y18.128 I0.0 J-1.
G03 X95.009 Y12.311 I6.533 J-5.816 F1200.
G01 Y12.261
Y-12.877
Y-12.884
G03 X95.228 Y-14.847 I8.927 J0.0
X95.97 Y-16.912 I8.708 J1.963 F1050.
X96.19 Y-17.321 I7.966 J4.028 F900.
X97.197 Y-18.73 I6.771 J3.778
G02 X96.578 Y-18.945 I-.62 J.785 F2000.
X95.915 Y-18.694 I0.0 J1.
G03 X94.865 Y-18.201 I-1.365 J-1.543
X94.52 Y-18.172 I-.345 J-2.031
X93.132 Y-18.71 I0.0 J-2.06
G02 X92.919 Y-18.858 I-.674 J.739
G01 X93.934 Y-20.81
Z-3.244
G00 Z-3.049
G01 Z-3.439
Z-4.439 F800.
X92.919 Y-18.858
G02 X92.458 Y-18.971 I-.461 J.887 F2000.
X91.838 Y-18.755 I0.0 J1.
G03 X94.058 Y-12.91 I-6.586 J5.845 F1200.
G01 Y12.311
G03 X93.839 Y14.255 I-8.748 J0.0
X93.087 Y16.316 I-8.53 J-1.944 F1050.
X91.846 Y18.125 I-7.778 J-4.005 F900.
G02 X92.467 Y18.342 I.621 J-.784 F2000.
X93.142 Y18.079 I0.0 J-1.
G03 X94.533 Y17.539 I1.391 J1.52
X95.926 Y18.081 I0.0 J2.06
G02 X96.602 Y18.344 I.676 J-.737
X97.223 Y18.128 I0.0 J-1.
G03 X95.009 Y12.312 I6.533 J-5.816 F1200.
G01 Y12.261
Y-12.877
Y-12.885
G03 X95.228 Y-14.847 I8.926 J0.0
X95.969 Y-16.913 I8.707 J1.963 F1050.
X96.19 Y-17.321 I7.965 J4.028 F900.
X97.197 Y-18.73 I6.772 J3.779
G02 X96.578 Y-18.945 I-.62 J.785 F2000.
X95.915 Y-18.694 I0.0 J1.
G03 X94.875 Y-18.202 I-1.365 J-1.543
X94.52 Y-18.172 I-.354 J-2.029
X93.132 Y-18.71 I0.0 J-2.06
G02 X92.919 Y-18.858 I-.674 J.739
G01 X93.934 Y-20.81
Z-3.439
G00 Z-3.244
X93.933 Y-20.811
G01 Z-3.635
Z-4.635 F800.
X92.919 Y-18.858
G02 X92.459 Y-18.971 I-.461 J.888 F2000.
X91.839 Y-18.755 I0.0 J1.
G03 X94.058 Y-12.911 I-6.584 J5.844 F1200.
G01 Y12.312
G03 X93.839 Y14.254 I-8.747 J0.0
X93.088 Y16.316 I-8.528 J-1.943 F1050.
X91.846 Y18.125 I-7.777 J-4.004 F900.
G02 X92.467 Y18.341 I.621 J-.784 F2000.
X93.142 Y18.079 I0.0 J-1.
G03 X94.533 Y17.539 I1.391 J1.52
X95.926 Y18.081 I0.0 J2.06
G02 X96.602 Y18.344 I.676 J-.737
X97.223 Y18.128 I0.0 J-1.
G03 X95.009 Y12.312 I6.532 J-5.816 F1200.
G01 Y12.261
Y-12.888
G03 X95.23 Y-14.856 I8.895 J0.0
X95.976 Y-16.92 I8.674 J1.968 F1050.
X96.307 Y-17.515 I7.928 J4.032 F900.
G01 X96.408 Y-17.68
G03 X97.202 Y-18.738 I6.376 J3.957
G02 X96.585 Y-18.952 I-.617 J.787 F2000.
X95.92 Y-18.699 I0.0 J1.
G03 X94.883 Y-18.204 I-1.37 J-1.538
X94.52 Y-18.172 I-.363 J-2.028
X93.133 Y-18.71 I0.0 J-2.06
G02 X92.919 Y-18.858 I-.674 J.739
G01 X93.933 Y-20.811
Z-3.635
G00 Z-3.439
G01 Z-3.83
Z-4.83 F800.
X92.919 Y-18.858
G02 X92.459 Y-18.971 I-.461 J.888 F2000.
X91.839 Y-18.755 I0.0 J1.
G03 X94.058 Y-12.911 I-6.584 J5.844 F1200.
G01 Y12.312
G03 X93.84 Y14.254 I-8.746 J0.0
X93.088 Y16.316 I-8.527 J-1.942 F1050.
X91.847 Y18.125 I-7.776 J-4.003 F900.
G02 X92.467 Y18.341 I.621 J-.784 F2000.
X93.142 Y18.079 I0.0 J-1.
G03 X94.533 Y17.539 I1.39 J1.52
X95.926 Y18.081 I0.0 J2.06
G02 X96.602 Y18.344 I.676 J-.737
X97.223 Y18.128 I0.0 J-1.
G03 X95.009 Y12.312 I6.532 J-5.816 F1200.
G01 Y12.261
Y-12.887
G03 X95.23 Y-14.856 I8.896 J0.0
X95.976 Y-16.92 I8.675 J1.969 F1050.
X96.309 Y-17.517 I7.929 J4.033 F900.
G01 X96.408 Y-17.68
G03 X97.202 Y-18.739 I6.374 J3.955
G02 X96.585 Y-18.952 I-.617 J.787 F2000.
X95.92 Y-18.699 I0.0 J1.
G03 X94.892 Y-18.206 I-1.37 J-1.538
X94.52 Y-18.172 I-.372 J-2.026
X93.133 Y-18.71 I0.0 J-2.06
G02 X92.919 Y-18.858 I-.674 J.739
G01 X93.933 Y-20.811
Z-3.83
G00 Z-3.635
G01 Z-4.025
Z-5.025 F800.
X92.919 Y-18.858
G02 X92.459 Y-18.971 I-.461 J.888 F2000.
X91.839 Y-18.755 I0.0 J1.
G03 X94.058 Y-12.911 I-6.584 J5.844 F1200.
G01 Y12.313
G03 X93.84 Y14.254 I-8.744 J0.0
X93.088 Y16.315 I-8.526 J-1.941 F1050.
X91.847 Y18.125 I-7.774 J-4.003 F900.
G02 X92.468 Y18.341 I.621 J-.784 F2000.
X93.143 Y18.079 I0.0 J-1.
G03 X94.533 Y17.539 I1.39 J1.52
X95.926 Y18.081 I0.0 J2.06
G02 X96.602 Y18.344 I.676 J-.737
X97.223 Y18.128 I0.0 J-1.
G03 X95.009 Y12.312 I6.532 J-5.816 F1200.
G01 Y12.261
Y-12.889
G03 X95.23 Y-14.857 I8.89 J0.0
X95.976 Y-16.921 I8.67 J1.968 F1050.
X96.31 Y-17.518 I7.923 J4.031 F900.
G01 X96.408 Y-17.68
G03 X97.203 Y-18.739 I6.376 J3.957
G02 X96.585 Y-18.952 I-.617 J.787 F2000.
X95.92 Y-18.699 I0.0 J1.
G03 X94.901 Y-18.207 I-1.371 J-1.538
X94.52 Y-18.172 I-.38 J-2.025
X93.133 Y-18.71 I0.0 J-2.06
G02 X92.919 Y-18.858 I-.674 J.739
G01 X93.933 Y-20.811
Z-4.025
G00 Z-3.83
G01 Z-4.221
Z-5.221 F800.
X92.919 Y-18.858
G02 X92.459 Y-18.971 I-.461 J.888 F2000.
X91.839 Y-18.755 I0.0 J1.
G03 X94.058 Y-12.911 I-6.583 J5.843 F1200.
G01 Y12.313
G03 X93.84 Y14.254 I-8.743 J0.0
X93.088 Y16.315 I-8.525 J-1.94 F1050.
X91.847 Y18.125 I-7.773 J-4.002 F900.
G02 X92.468 Y18.341 I.621 J-.784 F2000.
X93.143 Y18.079 I0.0 J-1.
G03 X94.533 Y17.539 I1.39 J1.52
X95.926 Y18.081 I0.0 J2.06
G02 X96.602 Y18.344 I.676 J-.737
X97.223 Y18.128 I0.0 J-1.
G03 X95.009 Y12.312 I6.532 J-5.816 F1200.
G01 Y12.261
Y-12.877
Y-12.886
G03 X95.231 Y-14.864 I8.912 J0.0
X95.978 Y-16.927 I8.69 J1.978 F1050.
X96.408 Y-17.68 I7.943 J4.041 F900.
G01 X96.493 Y-17.809
G03 X97.207 Y-18.745 I6.214 J4.005
G02 X96.591 Y-18.957 I-.616 J.787 F2000.
X95.924 Y-18.703 I0.0 J1.
G03 X94.91 Y-18.209 I-1.374 J-1.535
X94.52 Y-18.172 I-.389 J-2.023
X93.133 Y-18.71 I0.0 J-2.06
G02 X92.919 Y-18.858 I-.674 J.739
G01 X93.933 Y-20.811
Z-4.221
G00 Z-4.025
X93.931
G01 Z-4.416
Z-5.416 F800.
X92.919 Y-18.858
G02 X92.459 Y-18.97 I-.46 J.888 F2000.
X91.839 Y-18.754 I0.0 J1.
G03 X94.058 Y-12.912 I-6.581 J5.842 F1200.
G01 Y12.314
G03 X93.84 Y14.253 I-8.742 J0.0
X93.089 Y16.315 I-8.524 J-1.939 F1050.
X91.848 Y18.124 I-7.772 J-4.001 F900.
G02 X92.468 Y18.34 I.621 J-.784 F2000.
X93.143 Y18.078 I0.0 J-1.
G03 X94.533 Y17.539 I1.39 J1.52
X95.926 Y18.081 I0.0 J2.06
G02 X96.602 Y18.344 I.676 J-.737
X97.223 Y18.128 I0.0 J-1.
G03 X95.009 Y12.312 I6.531 J-5.815 F1200.
G01 Y12.261
Y-12.877
Y-12.886
G03 X95.231 Y-14.864 I8.912 J0.0
X95.978 Y-16.928 I8.69 J1.978 F1050.
X96.408 Y-17.68 I7.943 J4.041 F900.
G01 X96.493 Y-17.809
G03 X97.207 Y-18.745 I6.212 J4.004
G02 X96.591 Y-18.958 I-.616 J.787 F2000.
X95.924 Y-18.703 I0.0 J1.
G03 X94.918 Y-18.211 I-1.374 J-1.535
X94.52 Y-18.172 I-.398 J-2.021
X93.133 Y-18.709 I0.0 J-2.06
G02 X92.919 Y-18.858 I-.674 J.739
G01 X93.931 Y-20.811
Z-4.416
G00 Z-4.221
G01 Z-4.611
Z-5.611 F800.
X92.919 Y-18.858
G02 X92.459 Y-18.97 I-.46 J.888 F2000.
X91.839 Y-18.754 I0.0 J1.
G03 X94.058 Y-12.913 I-6.581 J5.842 F1200.
G01 Y12.315
G03 X93.84 Y14.253 I-8.74 J0.0
X93.089 Y16.315 I-8.523 J-1.939 F1050.
X91.848 Y18.124 I-7.771 J-4. F900.
G02 X92.469 Y18.34 I.621 J-.784 F2000.
X93.143 Y18.078 I0.0 J-1.
G03 X94.533 Y17.539 I1.39 J1.521
X95.926 Y18.081 I0.0 J2.06
G02 X96.602 Y18.344 I.676 J-.737
X97.223 Y18.128 I0.0 J-1.
G03 X95.009 Y12.312 I6.531 J-5.815 F1200.
G01 Y12.261
Y-12.899
G03 X95.238 Y-14.896 I8.837 J0.0
X95.995 Y-16.956 I8.609 J1.997 F1050.
X96.665 Y-18.05 I7.851 J4.057 F900.
G01 X96.843 Y-18.297
G03 X97.229 Y-18.771 I5.467 J4.063
G02 X96.616 Y-18.981 I-.613 J.79 F2000.
X95.941 Y-18.718 I0.0 J1.
G03 X94.927 Y-18.212 I-1.391 J-1.52
X94.52 Y-18.172 I-.407 J-2.019
X93.133 Y-18.709 I0.0 J-2.06
G02 X92.919 Y-18.858 I-.674 J.739
G01 X93.931 Y-20.811
Z-4.611
G00 Z-4.416
G01 Y-20.812 Z-4.807
Z-5.807 F800.
X92.919 Y-18.858
G02 X92.459 Y-18.97 I-.46 J.888 F2000.
X91.839 Y-18.754 I0.0 J1.
G03 X94.058 Y-12.913 I-6.581 J5.842 F1200.
G01 Y12.315
G03 X93.84 Y14.253 I-8.739 J0.0
X93.089 Y16.314 I-8.522 J-1.938 F1050.
X91.848 Y18.124 I-7.77 J-3.999 F900.
G02 X92.469 Y18.34 I.621 J-.784 F2000.
X93.143 Y18.078 I0.0 J-1.
G03 X94.533 Y17.539 I1.39 J1.521
X95.926 Y18.081 I0.0 J2.06
G02 X96.602 Y18.344 I.676 J-.737
X97.223 Y18.128 I0.0 J-1.
G03 X95.009 Y12.312 I6.531 J-5.815 F1200.
G01 Y12.261
Y-12.899
G03 X95.238 Y-14.897 I8.837 J0.0
X95.995 Y-16.956 I8.608 J1.997 F1050.
X96.665 Y-18.05 I7.851 J4.057 F900.
G01 X96.843 Y-18.297
G03 X97.229 Y-18.771 I5.465 J4.061
G02 X96.616 Y-18.981 I-.613 J.79 F2000.
X95.941 Y-18.719 I0.0 J1.
G03 X94.936 Y-18.214 I-1.391 J-1.519
X94.52 Y-18.172 I-.415 J-2.018
X93.133 Y-18.709 I0.0 J-2.06
G02 X92.919 Y-18.858 I-.674 J.739
G01 X93.931 Y-20.812
Z-4.807
G00 Z-4.611
G01 Z-5.002
Z-6.002 F800.
X92.919 Y-18.858
G02 X92.459 Y-18.97 I-.46 J.888 F2000.
X91.839 Y-18.754 I0.0 J1.
G03 X94.058 Y-12.913 I-6.58 J5.842 F1200.
G01 Y12.316
G03 X93.841 Y14.253 I-8.738 J0.0
X93.089 Y16.314 I-8.521 J-1.937 F1050.
X91.848 Y18.124 I-7.769 J-3.998 F900.
G02 X92.469 Y18.34 I.621 J-.784 F2000.
X93.144 Y18.078 I0.0 J-1.
G03 X94.533 Y17.539 I1.389 J1.521
X95.926 Y18.081 I0.0 J2.06
G02 X96.602 Y18.344 I.676 J-.737
X97.223 Y18.128 I0.0 J-1.
G03 X95.009 Y12.312 I6.531 J-5.815 F1200.
G01 Y12.261
Y-12.9
G03 X95.238 Y-14.897 I8.837 J0.0
X95.995 Y-16.956 I8.608 J1.998 F1050.
X96.665 Y-18.05 I7.85 J4.057 F900.
G01 X96.843 Y-18.297
G03 X97.229 Y-18.772 I5.462 J4.058
G02 X96.617 Y-18.981 I-.613 J.79 F2000.
X95.941 Y-18.719 I0.0 J1.
G03 X94.944 Y-18.216 I-1.392 J-1.519
X94.52 Y-18.172 I-.424 J-2.016
X93.133 Y-18.709 I0.0 J-2.06
G02 X92.919 Y-18.858 I-.674 J.739
G01 X93.931 Y-20.812
Z-5.002
G00 Z-4.807
G01 Z-5.197
Z-6.197 F800.
X92.919 Y-18.858
G02 X92.46 Y-18.97 I-.46 J.888 F2000.
X91.839 Y-18.754 I0.0 J1.
G03 X94.058 Y-12.913 I-6.58 J5.841 F1200.
G01 Y12.316
G03 X93.841 Y14.252 I-8.737 J0.0
X93.09 Y16.314 I-8.519 J-1.936 F1050.
X91.849 Y18.123 I-7.768 J-3.998 F900.
G02 X92.469 Y18.339 I.621 J-.784 F2000.
X93.144 Y18.078 I0.0 J-1.
G03 X94.533 Y17.539 I1.389 J1.521
X95.926 Y18.081 I0.0 J2.06
G02 X96.601 Y18.344 I.676 J-.737
X97.223 Y18.128 I0.0 J-1.
G03 X95.009 Y12.313 I6.53 J-5.815 F1200.
G01 Y12.261
Y-12.9
G03 X95.238 Y-14.898 I8.836 J0.0
X95.996 Y-16.957 I8.607 J1.998 F1050.
X96.665 Y-18.05 I7.85 J4.057 F900.
G01 X96.842 Y-18.297
G03 X97.23 Y-18.772 I5.46 J4.056
G02 X96.617 Y-18.982 I-.613 J.79 F2000.
X95.941 Y-18.719 I0.0 J1.
G03 X94.953 Y-18.218 I-1.392 J-1.519
X94.52 Y-18.172 I-.433 J-2.014
X93.133 Y-18.709 I0.0 J-2.06
G02 X92.919 Y-18.858 I-.673 J.739
G01 X93.931 Y-20.812
Z-5.197
G00 Z-5.002
G01 Z-5.393
Z-6.393 F800.
X92.919 Y-18.858
G02 X92.46 Y-18.97 I-.46 J.888 F2000.
X91.839 Y-18.754 I0.0 J1.
G03 X94.058 Y-12.913 I-6.58 J5.841 F1200.
G01 Y12.317
G03 X93.841 Y14.252 I-8.735 J0.0
X93.09 Y16.314 I-8.518 J-1.935 F1050.
X91.849 Y18.123 I-7.767 J-3.997 F900.
G02 X92.47 Y18.339 I.621 J-.784 F2000.
X93.144 Y18.078 I0.0 J-1.
G03 X94.533 Y17.539 I1.389 J1.521
X95.925 Y18.081 I0.0 J2.06
G02 X96.601 Y18.344 I.676 J-.737
X97.223 Y18.128 I0.0 J-1.
G03 X95.009 Y12.313 I6.53 J-5.815 F1200.
G01 Y12.261
Y-12.9
G03 X95.238 Y-14.898 I8.836 J0.0
X95.996 Y-16.957 I8.607 J1.998 F1050.
X96.665 Y-18.05 I7.849 J4.057 F900.
G01 X96.842 Y-18.297
G03 X97.23 Y-18.772 I5.458 J4.054
G02 X96.617 Y-18.982 I-.613 J.79 F2000.
X95.942 Y-18.719 I0.0 J1.
G03 X94.961 Y-18.22 I-1.392 J-1.519
X94.52 Y-18.172 I-.441 J-2.012
X93.133 Y-18.709 I0.0 J-2.06
G02 X92.919 Y-18.858 I-.673 J.739
G01 X93.931 Y-20.812
Z-5.393
G00 Z-5.197
G01 Z-5.588
Z-6.588 F800.
X92.919 Y-18.858
G02 X92.46 Y-18.97 I-.46 J.888 F2000.
X91.839 Y-18.754 I0.0 J1.
G03 X94.058 Y-12.913 I-6.58 J5.841 F1200.
G01 Y12.313
G03 X93.84 Y14.255 I-8.744 J0.0
X93.088 Y16.316 I-8.526 J-1.942 F1050.
X91.846 Y18.125 I-7.774 J-4.003 F900.
G02 X92.467 Y18.342 I.621 J-.784 F2000.
X93.142 Y18.079 I0.0 J-1.
G03 X94.533 Y17.539 I1.391 J1.52
X95.925 Y18.081 I0.0 J2.06
G02 X96.601 Y18.344 I.676 J-.737
X97.222 Y18.128 I0.0 J-1.
G03 X95.009 Y12.313 I6.529 J-5.814 F1200.
G01 Y12.261
Y-12.9
G03 X95.238 Y-14.898 I8.835 J0.0
X95.996 Y-16.958 I8.606 J1.998 F1050.
X96.665 Y-18.049 I7.849 J4.058 F900.
G01 X96.842 Y-18.297
G03 X97.23 Y-18.773 I5.455 J4.051
G02 X96.617 Y-18.982 I-.613 J.79 F2000.
X95.942 Y-18.72 I0.0 J1.
G03 X94.97 Y-18.222 I-1.392 J-1.519
X94.52 Y-18.172 I-.45 J-2.01
X93.133 Y-18.709 I0.0 J-2.06
G02 X92.919 Y-18.858 I-.673 J.739
G01 X93.931 Y-20.812
Z-5.588
G00 Z-5.393
G01 X93.932 Y-20.811 Z-5.783
Z-6.783 F800.
X92.919 Y-18.858
G02 X92.459 Y-18.97 I-.46 J.888 F2000.
X91.839 Y-18.755 I0.0 J1.
G03 X94.058 Y-12.913 I-6.58 J5.842 F1200.
G01 Y12.313
G03 X93.84 Y14.255 I-8.743 J0.0
X93.088 Y16.316 I-8.525 J-1.941 F1050.
X91.847 Y18.125 I-7.773 J-4.003 F900.
G02 X92.467 Y18.341 I.621 J-.784 F2000.
X93.142 Y18.079 I0.0 J-1.
G03 X94.533 Y17.539 I1.391 J1.52
X95.925 Y18.081 I0.0 J2.06
G02 X96.601 Y18.344 I.676 J-.737
X97.222 Y18.127 I0.0 J-1.
G03 X95.009 Y12.314 I6.529 J-5.814 F1200.
G01 Y12.261
Y-12.9
G03 X95.238 Y-14.899 I8.835 J0.0
X95.996 Y-16.958 I8.606 J1.999 F1050.
X96.665 Y-18.049 I7.848 J4.058 F900.
G01 X96.842 Y-18.297
G03 X97.23 Y-18.773 I5.453 J4.049
G02 X96.617 Y-18.983 I-.613 J.79 F2000.
X95.942 Y-18.72 I0.0 J1.
G03 X94.979 Y-18.224 I-1.392 J-1.519
X94.52 Y-18.172 I-.458 J-2.008
X93.133 Y-18.709 I0.0 J-2.06
G02 X92.919 Y-18.858 I-.674 J.739
G01 X93.932 Y-20.811
Z-5.783
G00 Z-5.588
G01 Z-5.979
Z-6.979 F800.
X92.919 Y-18.858
G02 X92.459 Y-18.97 I-.46 J.888 F2000.
X91.839 Y-18.755 I0.0 J1.
G03 X94.058 Y-12.913 I-6.58 J5.842 F1200.
G01 Y12.314
G03 X93.84 Y14.254 I-8.742 J0.0
X93.088 Y16.316 I-8.524 J-1.94 F1050.
X91.847 Y18.125 I-7.772 J-4.002 F900.
G02 X92.468 Y18.341 I.621 J-.784 F2000.
X93.143 Y18.079 I0.0 J-1.
G03 X94.533 Y17.539 I1.39 J1.52
X95.925 Y18.081 I0.0 J2.06
G02 X96.601 Y18.344 I.676 J-.737
X97.222 Y18.127 I0.0 J-1.
G03 X95.009 Y12.314 I6.528 J-5.813 F1200.
G01 Y12.261
Y-12.877
Y-12.887
G03 X95.232 Y-14.867 I8.911 J0.0
X95.979 Y-16.93 I8.688 J1.98 F1050.
X96.408 Y-17.68 I7.941 J4.043 F900.
G01 X96.492 Y-17.809
G03 X97.209 Y-18.747 I6.201 J3.993
G02 X96.592 Y-18.96 I-.617 J.787 F2000.
X95.925 Y-18.705 I0.0 J1.
G03 X94.987 Y-18.226 I-1.375 J-1.534
X94.52 Y-18.172 I-.467 J-2.006
X93.133 Y-18.709 I0.0 J-2.06
G02 X92.919 Y-18.858 I-.674 J.739
G01 X93.932 Y-20.811
Z-5.979
G00 Z-5.783
G01 Y-20.812 Z-6.174
Z-7.174 F800.
X92.919 Y-18.858
G02 X92.459 Y-18.97 I-.46 J.888 F2000.
X91.839 Y-18.755 I0.0 J1.
G03 X94.058 Y-12.913 I-6.58 J5.841 F1200.
G01 Y12.315
G03 X93.84 Y14.254 I-8.74 J0.0
X93.088 Y16.316 I-8.522 J-1.94 F1050.
X91.847 Y18.125 I-7.771 J-4.001 F900.
G02 X92.468 Y18.341 I.621 J-.784 F2000.
X93.143 Y18.079 I0.0 J-1.
G03 X94.533 Y17.539 I1.39 J1.52
X95.925 Y18.081 I0.0 J2.06
G02 X96.601 Y18.343 I.676 J-.737
X97.222 Y18.127 I0.0 J-1.
G03 X95.009 Y12.314 I6.528 J-5.813 F1200.
G01 Y12.261
Y-12.877
Y-12.887
G03 X95.232 Y-14.868 I8.911 J0.0
X95.979 Y-16.931 I8.688 J1.981 F1050.
X96.408 Y-17.68 I7.941 J4.044 F900.
G01 X96.492 Y-17.809
G03 X97.209 Y-18.748 I6.199 J3.992
G02 X96.592 Y-18.96 I-.617 J.787 F2000.
X95.925 Y-18.705 I0.0 J1.
G03 X94.996 Y-18.228 I-1.375 J-1.534
X94.52 Y-18.172 I-.475 J-2.004
X93.133 Y-18.709 I0.0 J-2.06
G02 X92.919 Y-18.858 I-.674 J.739
G01 X93.932 Y-20.812
Z-6.174
G00 Z-5.979
G01 Z-6.369
Z-7.369 F800.
X92.919 Y-18.858
G02 X92.459 Y-18.97 I-.46 J.888 F2000.
X91.839 Y-18.755 I0.0 J1.
G03 X94.058 Y-12.913 I-6.579 J5.841 F1200.
G01 Y12.315
G03 X93.84 Y14.254 I-8.739 J0.0
X93.089 Y16.315 I-8.521 J-1.939 F1050.
X91.847 Y18.125 I-7.77 J-4. F900.
G02 X92.468 Y18.341 I.621 J-.784 F2000.
X93.143 Y18.079 I0.0 J-1.
G03 X94.533 Y17.539 I1.39 J1.52
X95.925 Y18.081 I0.0 J2.06
G02 X96.601 Y18.343 I.676 J-.737
X97.222 Y18.127 I0.0 J-1.
G03 X95.009 Y12.315 I6.527 J-5.812 F1200.
G01 Y12.261
Y-12.877
Y-12.887
G03 X95.232 Y-14.868 I8.911 J0.0
X95.98 Y-16.931 I8.688 J1.981 F1050.
X96.408 Y-17.68 I7.941 J4.044 F900.
G01 X96.492 Y-17.809
G03 X97.209 Y-18.748 I6.198 J3.991
G02 X96.593 Y-18.961 I-.617 J.787 F2000.
X95.925 Y-18.705 I0.0 J1.
G03 X95.004 Y-18.23 I-1.375 J-1.534
X94.52 Y-18.172 I-.484 J-2.002
X93.133 Y-18.709 I0.0 J-2.06
G02 X92.919 Y-18.858 I-.674 J.739
G01 X93.932 Y-20.812
Z-6.369
G00 Z-6.174
X93.93
G01 Z-6.564
Z-7.564 F800.
X92.919 Y-18.858
G02 X92.46 Y-18.97 I-.46 J.888 F2000.
X91.84 Y-18.754 I0.0 J1.
G03 X94.058 Y-12.914 I-6.577 J5.84 F1200.
G01 Y12.316
G03 X93.84 Y14.254 I-8.738 J0.0
X93.089 Y16.315 I-8.52 J-1.938 F1050.
X91.848 Y18.124 I-7.769 J-3.999 F900.
G02 X92.469 Y18.341 I.621 J-.784 F2000.
X93.143 Y18.079 I0.0 J-1.
G03 X94.533 Y17.539 I1.39 J1.521
X95.925 Y18.08 I0.0 J2.06
G02 X96.6 Y18.343 I.676 J-.737
X97.222 Y18.127 I0.0 J-1.
G03 X95.009 Y12.315 I6.526 J-5.812 F1200.
G01 Y12.261
Y-12.877
Y-12.887
G03 X95.232 Y-14.868 I8.911 J0.0
X95.98 Y-16.931 I8.688 J1.981 F1050.
X96.408 Y-17.68 I7.94 J4.044 F900.
G01 X96.492 Y-17.809
G03 X97.21 Y-18.748 I6.197 J3.99
G02 X96.593 Y-18.961 I-.617 J.787 F2000.
X95.925 Y-18.706 I0.0 J1.
G03 X95.013 Y-18.232 I-1.376 J-1.534
X94.52 Y-18.172 I-.492 J-2.
X93.133 Y-18.709 I0.0 J-2.06
G02 X92.919 Y-18.858 I-.673 J.739
G01 X93.93 Y-20.812
Z-6.564
G00 Z-6.369
X93.872 Y-20.833
G01 Z-6.76
Z-7.76 F800.
X92.916 Y-18.851
G02 X92.482 Y-18.95 I-.434 J.901 F2000.
X91.861 Y-18.735 I0.0 J1.
G03 X94.058 Y-12.956 I-6.503 J5.779 F1200.
G01 Y-12.877
Y12.315
G03 X93.84 Y14.253 I-8.74 J0.0
X93.089 Y16.315 I-8.523 J-1.938 F1050.
X91.848 Y18.124 I-7.772 J-4. F900.
G02 X92.469 Y18.34 I.621 J-.784 F2000.
X93.143 Y18.079 I0.0 J-1.
G03 X94.533 Y17.539 I1.39 J1.521
X95.924 Y18.08 I0.0 J2.06
G02 X96.6 Y18.343 I.675 J-.737
X97.221 Y18.126 I0.0 J-1.
G03 X95.009 Y12.315 I6.528 J-5.812 F1200.
G01 Y12.261
Y-12.877
Y-12.887
G03 X95.232 Y-14.869 I8.91 J0.0
X95.98 Y-16.932 I8.687 J1.981 F1050.
X96.408 Y-17.68 I7.94 J4.044 F900.
G01 X96.492 Y-17.809
G03 X97.21 Y-18.749 I6.195 J3.988
G02 X96.593 Y-18.961 I-.617 J.787 F2000.
X95.925 Y-18.706 I0.0 J1.
G03 X95.022 Y-18.234 I-1.376 J-1.534
X94.52 Y-18.172 I-.501 J-1.998
X93.148 Y-18.696 I0.0 J-2.06
G02 X92.916 Y-18.851 I-.666 J.746
G01 X93.872 Y-20.833
Z-6.76
G00 Z-6.564
G01 Z-6.955
Z-7.955 F800.
X92.916 Y-18.851
G02 X92.482 Y-18.95 I-.434 J.901 F2000.
X91.861 Y-18.735 I0.0 J1.
G03 X94.058 Y-12.956 I-6.503 J5.779 F1200.
G01 Y-12.877
Y12.316
G03 X93.84 Y14.253 I-8.739 J0.0
X93.089 Y16.315 I-8.522 J-1.937 F1050.
X91.848 Y18.124 I-7.771 J-3.999 F900.
G02 X92.469 Y18.34 I.621 J-.784 F2000.
X93.144 Y18.078 I0.0 J-1.
G03 X94.533 Y17.539 I1.389 J1.521
X95.924 Y18.08 I0.0 J2.06
G02 X96.6 Y18.343 I.675 J-.737
X97.221 Y18.126 I0.0 J-1.
G03 X95.009 Y12.315 I6.528 J-5.811 F1200.
G01 Y12.261
Y-12.902
G03 X95.238 Y-14.901 I8.829 J0.0
X95.997 Y-16.96 I8.6 J1.999 F1050.
X96.663 Y-18.047 I7.841 J4.058 F900.
G01 X96.842 Y-18.297
G03 X97.232 Y-18.775 I5.43 J4.026
G02 X96.619 Y-18.985 I-.613 J.79 F2000.
X95.943 Y-18.722 I0.0 J1.
G03 X95.03 Y-18.236 I-1.393 J-1.518
X94.52 Y-18.172 I-.509 J-1.996
X93.148 Y-18.696 I0.0 J-2.06
G02 X92.916 Y-18.851 I-.666 J.746
G01 X93.872 Y-20.833
Z-6.955
G00 Z-6.76
G01 Z-7.15
Z-8.15 F800.
X92.916 Y-18.851
G02 X92.482 Y-18.95 I-.435 J.901 F2000.
X91.861 Y-18.735 I0.0 J1.
G03 X94.058 Y-12.956 I-6.503 J5.779 F1200.
G01 Y-12.877
Y12.316
G03 X93.841 Y14.253 I-8.738 J0.0
X93.09 Y16.314 I-8.521 J-1.937 F1050.
X91.849 Y18.124 I-7.77 J-3.998 F900.
G02 X92.469 Y18.34 I.621 J-.784 F2000.
X93.144 Y18.078 I0.0 J-1.
G03 X94.533 Y17.539 I1.389 J1.521
X95.924 Y18.08 I0.0 J2.06
G02 X96.599 Y18.342 I.675 J-.738
X97.221 Y18.126 I0.0 J-1.
G03 X95.009 Y12.316 I6.527 J-5.811 F1200.
G01 Y12.261
Y-12.903
G03 X95.238 Y-14.902 I8.829 J0.0
X95.997 Y-16.961 I8.6 J1.999 F1050.
X96.663 Y-18.047 I7.841 J4.058 F900.
G01 X96.842 Y-18.297
G03 X97.232 Y-18.775 I5.439 J4.036
G02 X96.619 Y-18.985 I-.613 J.79 F2000.
X95.943 Y-18.722 I0.0 J1.
G03 X95.038 Y-18.238 I-1.393 J-1.518
X94.52 Y-18.172 I-.518 J-1.994
X93.148 Y-18.696 I0.0 J-2.06
G02 X92.916 Y-18.851 I-.666 J.746
G01 X93.872 Y-20.833
Z-7.15
G00 Z-6.955
G01 Z-7.346
Z-8.346 F800.
X92.916 Y-18.851
G02 X92.481 Y-18.951 I-.435 J.901 F2000.
X91.861 Y-18.735 I0.0 J1.
G03 X94.058 Y-12.956 I-6.503 J5.779 F1200.
G01 Y-12.877
Y12.317
G03 X93.841 Y14.252 I-8.737 J0.0
X93.09 Y16.314 I-8.52 J-1.936 F1050.
X91.849 Y18.124 I-7.769 J-3.997 F900.
G02 X92.47 Y18.34 I.621 J-.784 F2000.
X93.144 Y18.078 I0.0 J-1.
G03 X94.533 Y17.539 I1.389 J1.521
X95.924 Y18.08 I0.0 J2.06
G02 X96.599 Y18.342 I.675 J-.738
X97.22 Y18.126 I0.0 J-1.
G03 X95.009 Y12.316 I6.527 J-5.81 F1200.
G01 Y12.261
Y-12.903
G03 X95.238 Y-14.902 I8.828 J0.0
X95.997 Y-16.961 I8.599 J1.999 F1050.
X96.663 Y-18.047 I7.84 J4.058 F900.
G01 X96.842 Y-18.297
G03 X97.232 Y-18.776 I5.437 J4.033
G02 X96.619 Y-18.986 I-.613 J.79 F2000.
X95.943 Y-18.722 I0.0 J1.
G03 X95.046 Y-18.241 I-1.393 J-1.518
X94.52 Y-18.172 I-.526 J-1.992
X93.148 Y-18.696 I0.0 J-2.06
G02 X92.916 Y-18.851 I-.666 J.746
G01 X93.872 Y-20.833
Z-7.346
G00 Z-7.15
G01 Y-20.832 Z-7.541
Z-8.541 F800.
X92.916 Y-18.851
G02 X92.481 Y-18.951 I-.435 J.901 F2000.
X91.861 Y-18.735 I0.0 J1.
G03 X94.058 Y-12.956 I-6.503 J5.779 F1200.
G01 Y-12.877
Y12.317
G03 X93.841 Y14.252 I-8.736 J0.0
X93.09 Y16.314 I-8.519 J-1.935 F1050.
X91.849 Y18.123 I-7.768 J-3.997 F900.
G02 X92.47 Y18.339 I.621 J-.784 F2000.
X93.144 Y18.078 I0.0 J-1.
G03 X94.533 Y17.539 I1.389 J1.521
X95.924 Y18.08 I0.0 J2.06
G02 X96.599 Y18.342 I.675 J-.738
X97.22 Y18.126 I0.0 J-1.
G03 X95.009 Y12.316 I6.526 J-5.81 F1200.
G01 Y12.261
Y-12.904
G03 X95.238 Y-14.903 I8.826 J0.0
X95.997 Y-16.962 I8.596 J1.999 F1050.
X96.662 Y-18.046 I7.837 J4.058 F900.
G01 X96.842 Y-18.297
G03 X97.232 Y-18.776 I5.434 J4.031
G02 X96.619 Y-18.986 I-.613 J.79 F2000.
X95.943 Y-18.723 I0.0 J1.
G03 X95.055 Y-18.243 I-1.393 J-1.518
X94.52 Y-18.172 I-.534 J-1.99
X93.148 Y-18.696 I0.0 J-2.06
G02 X92.916 Y-18.851 I-.666 J.746
G01 X93.872 Y-20.832
Z-7.541
G00 Z-7.346
G01 X93.873 Z-7.736
Z-8.736 F800.
X92.916 Y-18.851
G02 X92.481 Y-18.951 I-.435 J.901 F2000.
X91.861 Y-18.735 I0.0 J1.
G03 X94.058 Y-12.956 I-6.503 J5.779 F1200.
G01 Y-12.877
Y12.318
G03 X93.841 Y14.252 I-8.734 J0.0
X93.09 Y16.314 I-8.518 J-1.934 F1050.
X91.849 Y18.123 I-7.767 J-3.996 F900.
G02 X92.47 Y18.339 I.621 J-.784 F2000.
X93.144 Y18.078 I0.0 J-1.
G03 X94.533 Y17.539 I1.389 J1.522
X95.924 Y18.08 I0.0 J2.06
G02 X96.599 Y18.342 I.675 J-.738
X97.22 Y18.126 I0.0 J-1.
G03 X95.009 Y12.317 I6.525 J-5.809 F1200.
G01 Y12.261
Y-12.904
G03 X95.238 Y-14.903 I8.825 J0.0
X95.997 Y-16.962 I8.596 J1.999 F1050.
X96.662 Y-18.046 I7.837 J4.058 F900.
G01 X96.842 Y-18.297
G03 X97.233 Y-18.776 I5.432 J4.029
G02 X96.619 Y-18.986 I-.613 J.79 F2000.
X95.943 Y-18.723 I0.0 J1.
G03 X95.063 Y-18.245 I-1.394 J-1.517
X94.52 Y-18.172 I-.542 J-1.987
X93.148 Y-18.696 I0.0 J-2.06
G02 X92.916 Y-18.851 I-.666 J.746
G01 X93.873 Y-20.832
Z-7.736
G00 Z-7.541
G01 Z-7.932
Z-8.932 F800.
X92.916 Y-18.851
G02 X92.481 Y-18.951 I-.435 J.901 F2000.
X91.861 Y-18.735 I0.0 J1.
G03 X94.058 Y-12.956 I-6.503 J5.78 F1200.
G01 Y-12.877
Y12.318
G03 X93.841 Y14.252 I-8.733 J0.0
X93.091 Y16.313 I-8.517 J-1.933 F1050.
X91.85 Y18.123 I-7.766 J-3.995 F900.
G02 X92.47 Y18.339 I.621 J-.784 F2000.
X93.145 Y18.078 I0.0 J-1.
G03 X94.533 Y17.539 I1.388 J1.522
X95.924 Y18.08 I0.0 J2.06
G02 X96.599 Y18.342 I.675 J-.738
X97.22 Y18.126 I0.0 J-1.
G03 X95.009 Y12.317 I6.525 J-5.809 F1200.
G01 Y12.261
Y-12.904
G03 X95.239 Y-14.903 I8.825 J0.0
X95.998 Y-16.962 I8.595 J1.999 F1050.
X96.662 Y-18.046 I7.836 J4.058 F900.
G01 X96.842 Y-18.297
G03 X97.233 Y-18.777 I5.43 J4.027
G02 X96.62 Y-18.987 I-.613 J.79 F2000.
X95.943 Y-18.723 I0.0 J1.
G03 X95.071 Y-18.247 I-1.394 J-1.517
X94.52 Y-18.172 I-.55 J-1.985
X93.148 Y-18.696 I0.0 J-2.06
G02 X92.916 Y-18.851 I-.666 J.746
G01 X93.873 Y-20.832
Z-7.932
G00 Z1.
X88.374 Y-13.65
G01 Z.1
X88.299 Y-13.906 Z.091 F800.
X87.878 Y-14.559 Z.064
X87.069 Y-15.165 Z.028
X86.087 Y-15.406 Z-.007
X85.089 Y-15.243 Z-.042
X84.234 Y-14.703 Z-.078
X83.763 Y-14.085 Z-.105
X83.486 Y-13.265 Z-.135
Y-.308 Z-.588
Y12.261 F1200.
G02 X85.987 Y14.762 I2.501 J0.0
X88.488 Y12.261 I0.0 J-2.501
G01 Y-12.877
G02 X85.987 Y-15.378 I-2.501 J0.0
X83.486 Y-12.877 I0.0 J2.501
G01 Y-.308
X85.286 F2000.
Y12.261
G02 X85.987 Y12.962 I.701 J0.0
X86.688 Y12.261 I0.0 J-.701
G01 Y-12.877
G02 X85.987 Y-13.578 I-.701 J0.0
X85.286 Y-12.877 I0.0 J.701
G01 Y-.308
X85.112 Y1.684
Z.413
G00 Z1.
X83.513 Y-8.541
G01 Z-.488
Y-.308 Z-.775 F800.
Y12.261 F1200.
G02 X85.987 Y14.734 I2.474 J0.0
X88.46 Y12.261 I0.0 J-2.474
G01 Y-12.877
G02 X85.987 Y-15.35 I-2.474 J0.0
X83.513 Y-12.877 I0.0 J2.474
G01 Y-.308
X85.313 F2000.
Y12.261
G02 X85.987 Y12.934 I.674 J0.0
X86.66 Y12.261 I0.0 J-.674
G01 Y-12.877
G02 X85.987 Y-13.55 I-.674 J0.0
X85.313 Y-12.877 I0.0 J.674
G01 Y-.308
X85.139 Y1.684
Z.225
G00 Z.413
X83.513 Y-8.541
G01 Z-.675
Y-.308 Z-.963 F800.
Y12.261 F1200.
G02 X85.987 Y14.734 I2.474 J0.0
X88.46 Y12.261 I0.0 J-2.474
G01 Y-12.877
G02 X85.987 Y-15.35 I-2.474 J0.0
X83.513 Y-12.877 I0.0 J2.474
G01 Y-.308
X85.313 F2000.
Y12.261
G02 X85.987 Y12.934 I.674 J0.0
X86.66 Y12.261 I0.0 J-.674
G01 Y-12.877
G02 X85.987 Y-13.55 I-.674 J0.0
X85.313 Y-12.877 I0.0 J.674
G01 Y-.308
X85.139 Y1.684
Z.038
G00 Z.225
X83.513 Y-8.541
G01 Z-.863
Y-.308 Z-1.15 F800.
Y12.261 F1200.
G02 X85.987 Y14.734 I2.474 J0.0
X88.46 Y12.261 I0.0 J-2.474
G01 Y-12.877
G02 X85.987 Y-15.35 I-2.474 J0.0
X83.513 Y-12.877 I0.0 J2.474
G01 Y-.308
X85.313 F2000.
Y12.261
G02 X85.987 Y12.934 I.674 J0.0
X86.66 Y12.261 I0.0 J-.674
G01 Y-12.877
G02 X85.987 Y-13.55 I-.674 J0.0
X85.313 Y-12.877 I0.0 J.674
G01 Y-.308
X85.139 Y1.684
Z-.15
G00 Z.038
X83.513 Y-8.541
G01 Z-1.05
Y-.308 Z-1.338 F800.
Y12.261 F1200.
G02 X85.987 Y14.734 I2.474 J0.0
X88.46 Y12.261 I0.0 J-2.474
G01 Y-12.877
G02 X85.987 Y-15.35 I-2.474 J0.0
X83.513 Y-12.877 I0.0 J2.474
G01 Y-.308
X85.313 F2000.
Y12.261
G02 X85.987 Y12.934 I.674 J0.0
X86.66 Y12.261 I0.0 J-.674
G01 Y-12.877
G02 X85.987 Y-13.55 I-.674 J0.0
X85.313 Y-12.877 I0.0 J.674
G01 Y-.308
X85.139 Y1.684
Z-.338
G00 Z-.15
X83.513 Y-8.541
G01 Z-1.238
Y-.308 Z-1.525 F800.
Y12.261 F1200.
G02 X85.987 Y14.734 I2.474 J0.0
X88.46 Y12.261 I0.0 J-2.474
G01 Y-12.877
G02 X85.987 Y-15.35 I-2.474 J0.0
X83.513 Y-12.877 I0.0 J2.474
G01 Y-.308
X85.313 F2000.
Y12.261
G02 X85.987 Y12.934 I.674 J0.0
X86.66 Y12.261 I0.0 J-.674
G01 Y-12.877
G02 X85.987 Y-13.55 I-.674 J0.0
X85.313 Y-12.877 I0.0 J.674
G01 Y-.308
X85.139 Y1.684
Z-.525
G00 Z-.338
X83.513 Y-8.541
G01 Z-1.425
Y-.308 Z-1.713 F800.
Y12.261 F1200.
G02 X85.987 Y14.734 I2.474 J0.0
X88.46 Y12.261 I0.0 J-2.474
G01 Y-12.877
G02 X85.987 Y-15.35 I-2.474 J0.0
X83.513 Y-12.877 I0.0 J2.474
G01 Y-.308
X85.313 F2000.
Y12.261
G02 X85.987 Y12.934 I.674 J0.0
X86.66 Y12.261 I0.0 J-.674
G01 Y-12.877
G02 X85.987 Y-13.55 I-.674 J0.0
X85.313 Y-12.877 I0.0 J.674
G01 Y-.308
X85.139 Y1.684
Z-.713
G00 Z-.525
X83.513 Y-8.541
G01 Z-1.613
Y-.308 Z-1.9 F800.
Y12.261 F1200.
G02 X85.987 Y14.734 I2.474 J0.0
X88.46 Y12.261 I0.0 J-2.474
G01 Y-12.877
G02 X85.987 Y-15.35 I-2.474 J0.0
X83.513 Y-12.877 I0.0 J2.474
G01 Y-.308
X85.313 F2000.
Y12.261
G02 X85.987 Y12.934 I.674 J0.0
X86.66 Y12.261 I0.0 J-.674
G01 Y-12.877
G02 X85.987 Y-13.55 I-.674 J0.0
X85.313 Y-12.877 I0.0 J.674
G01 Y-.308
X85.139 Y1.684
Z-.9
G00 Z1.
X76.964 Y19.431
G01 Z.413
Z-.588 F800.
X78.831 Y17.392
G02 X79.506 Y17.655 I.675 J-.738 F2000.
X80.119 Y17.445 I0.0 J-1.
G03 X78.157 Y12.261 I5.868 J-5.184 F1200.
G01 Y-12.877
G03 X78.259 Y-14.137 I7.83 J0.0
X78.912 Y-16.231 I7.728 J1.26 F1050.
X80.119 Y-18.061 I7.075 J3.354 F900.
G02 X79.506 Y-18.271 I-.613 J.79 F2000.
X78.831 Y-18.008 I0.0 J1.
G03 X77.44 Y-17.468 I-1.391 J-1.52
X76.049 Y-18.008 I0.0 J-2.06
G02 X75.374 Y-18.271 I-.675 J.738
X74.761 Y-18.061 I0.0 J1.
G03 X76.723 Y-12.877 I-5.868 J5.184 F1200.
G01 Y12.261
G03 X76.621 Y13.521 I-7.83 J0.0
X75.968 Y15.615 I-7.728 J-1.26 F1050.
X74.761 Y17.445 I-7.075 J-3.354 F900.
G02 X75.374 Y17.655 I.613 J-.79 F2000.
X76.049 Y17.392 I0.0 J-1.
G03 X77.44 Y16.852 I1.391 J1.52
X78.831 Y17.392 I0.0 J2.06
G01 X76.964 Y19.431
Z.413
G00 Z1.
X76.998 Y19.455
G01 Z.225
Z-.775 F800.
X78.808 Y17.418
X78.826 Y17.434 F2000.
G02 X79.498 Y17.694 I.673 J-.74
X80.114 Y17.482 I0.0 J-1.
G03 X78.129 Y12.261 I5.873 J-5.221 F1200.
G01 Y-12.877
G03 X78.238 Y-14.181 I7.858 J0.0
X78.9 Y-16.272 I7.749 J1.304 F1050.
X80.114 Y-18.098 I7.087 J3.395 F900.
G02 X79.498 Y-18.31 I-.616 J.788 F2000.
X78.826 Y-18.05 I0.0 J1.
G03 X77.44 Y-17.514 I-1.386 J-1.524
X76.054 Y-18.05 I0.0 J-2.06
G02 X75.382 Y-18.31 I-.673 J.74
X74.766 Y-18.098 I0.0 J1.
G03 X76.751 Y-12.877 I-5.873 J5.221 F1200.
G01 Y12.261
G03 X76.642 Y13.565 I-7.858 J0.0
X75.98 Y15.656 I-7.749 J-1.304 F1050.
X74.766 Y17.482 I-7.087 J-3.395 F900.
G02 X75.382 Y17.694 I.616 J-.788 F2000.
X76.054 Y17.434 I0.0 J-1.
G03 X77.44 Y16.898 I1.386 J1.524
X78.808 Y17.418 I0.0 J2.06
G01 X76.998 Y19.455
Z.225
G00 Z.413
X77.012 Y19.467
G01 Z.038
Z-.963 F800.
X78.798 Y17.43
X78.823 Y17.453 F2000.
G02 X79.495 Y17.712 I.671 J-.741
X80.11 Y17.5 I0.0 J-1.
G03 X79.958 Y17.321 I5.917 J-5.201 F1200.
X78.116 Y12.261 I6.029 J-5.06
G01 Y-12.877
G03 X78.228 Y-14.202 I7.871 J0.0
X78.894 Y-16.291 I7.759 J1.325 F1050.
X80.111 Y-18.115 I7.092 J3.414 F900.
G02 X79.495 Y-18.328 I-.617 J.787 F2000.
X78.823 Y-18.069 I0.0 J1.
G03 X77.44 Y-17.535 I-1.383 J-1.526
X76.057 Y-18.069 I0.0 J-2.06
G02 X75.385 Y-18.328 I-.671 J.741
X74.771 Y-18.117 I0.0 J1.
G03 X74.875 Y-17.993 I-5.228 J4.472 F1200.
X76.764 Y-12.877 I-5.982 J5.116
G01 Y12.261
G03 X76.652 Y13.586 I-7.871 J0.0
X75.986 Y15.675 I-7.759 J-1.325 F1050.
X74.922 Y17.321 I-7.092 J-3.414 F900.
X74.771 Y17.501 I-5.717 J-4.655
G02 X75.385 Y17.712 I.614 J-.789 F2000.
X76.057 Y17.453 I0.0 J-1.
G03 X77.44 Y16.919 I1.383 J1.526
X78.798 Y17.43 I0.0 J2.06
G01 X77.012 Y19.467
Z.038
G00 Z.225
X77.04 Y19.494
G01 Z-.15
Z-1.15 F800.
X78.776 Y17.455
G03 X78.85 Y17.521 I-1.336 J1.568 F2000.
G02 X79.535 Y17.792 I.684 J-.729
X80.128 Y17.597 I0.0 J-1.
G03 X79.538 Y16.796 I6.088 J-5.102 F1200.
X78.102 Y12.261 I6.449 J-4.536
G01 Y-12.878
G03 X78.233 Y-14.306 I7.884 J.001
X78.926 Y-16.386 I7.754 J1.429 F1050.
X79.474 Y-17.321 I7.06 J3.509 F900.
X80.12 Y-18.229 I6.073 J3.631
G02 X79.534 Y-18.419 I-.586 J.811 F2000.
X78.849 Y-18.148 I0.0 J1.
G03 X77.439 Y-17.59 I-1.41 J-1.502
X76.027 Y-18.15 I0.0 J-2.06
G02 X75.341 Y-18.422 I-.686 J.728
X74.746 Y-18.226 I0.0 J1.
G03 X75.406 Y-17.321 I-6.073 J5.119 F1200.
X76.778 Y-12.877 I-6.512 J4.444
G01 Y12.261
G03 X76.659 Y13.624 I-7.884 J0.0
X75.983 Y15.71 I-7.766 J-1.363 F1050.
X75.637 Y16.345 I-7.09 J-3.449 F900.
X74.797 Y17.556 I-7.108 J-4.035
G02 X75.39 Y17.752 I.594 J-.805 F2000.
X76.06 Y17.494 I0.0 J-1.
G03 X77.441 Y16.963 I1.38 J1.529
X78.776 Y17.455 I0.0 J2.06
G01 X77.04 Y19.494
Z-.15
G00 Z.038
X77.441 Y19.557
G01 Z-.338
Z-1.338 F800.
X77.438 Y17.286
X77.441 F2000.
G03 X79.018 Y18.02 I0.0 J2.06
G02 X79.783 Y18.376 I.765 J-.643
X80.311 Y18.226 I0.0 J-1.
G01 X80.258 Y18.171 F1200.
G03 X78.956 Y15.857 I28.007 J-17.29
X78.089 Y12.261 I7.031 J-3.597
G01 Y-12.877
G03 X78.324 Y-14.789 I7.897 J0.0
X78.892 Y-16.345 I7.662 J1.912 F1050.
G01 X79.143 Y-16.824
X79.659 Y-17.809 F900.
G03 X80.232 Y-18.732 I5.019 J2.474
G02 X79.698 Y-18.886 I-.534 J.846 F2000.
X78.96 Y-18.561 I0.0 J1.
G03 X77.441 Y-17.892 I-1.52 J-1.391
X75.873 Y-18.616 I0.0 J-2.06
G02 X75.112 Y-18.967 I-.761 J.649
X74.595 Y-18.823 I0.0 J1.
G01 X74.635 Y-18.785 F1200.
G03 X75.988 Y-16.345 I-36.344 J21.76
X76.791 Y-12.877 I-7.095 J3.469
G01 Y12.261
G03 X76.521 Y14.309 I-7.897 J0.0
X75.924 Y15.857 I-7.627 J-2.048 F1050.
G01 X75.854 Y15.991
X75.669 Y16.33
X74.962 Y17.623 F900.
G03 X74.564 Y18.23 I-3.978 J-2.175
G02 X75.094 Y18.382 I.53 J-.848 F2000.
X75.861 Y18.024 I0.0 J-1.
G03 X77.438 Y17.286 I1.58 J1.322
G01 X77.441 Y19.557
Z-.338
G00 Z-.15
X77.438 Y19.787
G01 Z-.525
Z-1.525 F800.
X77.459 Y17.538
G03 X78.869 Y18.115 I-.02 J2.06 F2000.
G02 X79.563 Y18.395 I.694 J-.72
X80.168 Y18.191 I0.0 J-1.
G03 X79.663 Y17.544 I4.917 J-4.367 F1050.
X79.28 Y16.913 I5.423 J-3.72 F900.
G01 X79.258 Y16.833
X78.713 Y15.37
G03 X78.486 Y14.774 I7.274 J-3.109
X78.076 Y12.261 I7.501 J-2.513 F1200.
G01 Y-12.877
G03 X78.327 Y-14.854 I7.911 J0.0
X78.659 Y-15.857 I7.659 J1.978 F1050.
G01 X78.79 Y-16.18
X79.062 Y-16.927
X79.28 Y-17.526 F900.
G03 X80.169 Y-18.806 I5.692 J3.007
G02 X79.563 Y-19.01 I-.606 J.795 F2000.
X78.869 Y-18.731 I0.0 J1.
G03 X77.44 Y-18.154 I-1.429 J-1.484
X76.007 Y-18.735 I0.0 J-2.06
G02 X75.311 Y-19.017 I-.696 J.718
X74.708 Y-18.816 I0.0 J1.
G03 X75.609 Y-17.487 I-4.509 J4.028 F1200.
G02 X76.221 Y-15.857 I16.2 J-5.149
G03 X76.804 Y-12.877 I-7.328 J2.981
G01 Y12.261
G03 X76.567 Y14.182 I-7.911 J0.0
X76.167 Y15.37 I-7.674 J-1.922 F1050.
X75.832 Y16.254 I-26.477 J-9.528
X75.381 Y17.321 I-26.142 J-10.413 F900.
X74.746 Y18.145 I-6.299 J-4.2
G02 X75.359 Y18.355 I.613 J-.79 F2000.
X76.039 Y18.088 I0.0 J-1.
G03 X77.44 Y17.538 I1.401 J1.51
G01 X77.459
X77.438 Y19.787
Z-.525
G00 Z-.338
X77.44
G01 Z-.713
Z-1.713 F800.
X77.459 Y17.54
G03 X78.823 Y18.073 I-.018 J2.06 F2000.
G02 X79.494 Y18.331 I.671 J-.742
X80.11 Y18.119 I0.0 J-1.
G03 X79.769 Y17.706 I5.851 J-5.176 F1200.
G01 X79.411 Y17.217
G03 X78.732 Y15.726 I3.246 J-2.377
G02 X78.457 Y14.727 I-10.672 J2.407
G03 X78.063 Y12.261 I7.53 J-2.467
G01 Y-12.877
G03 X78.289 Y-14.756 I7.924 J0.0
X78.446 Y-15.312 I7.697 J1.88 F1050.
G02 X78.79 Y-16.627 I-12.591 J-3.994
G03 X78.892 Y-16.869 I6.58 J2.612
X80.075 Y-18.714 I6.479 J2.855 F900.
G02 X79.466 Y-18.921 I-.609 J.793 F2000.
X78.804 Y-18.67 I0.0 J1.
G03 X77.44 Y-18.155 I-1.363 J-1.544
X76.074 Y-18.673 I0.0 J-2.06
G02 X75.411 Y-18.924 I-.663 J.748
X74.802 Y-18.717 I0.0 J1.
G03 X76.006 Y-16.833 I-5.389 J4.774 F1200.
G01 X76.343 Y-15.607
X76.435 Y-15.306
G03 X76.817 Y-12.877 I-7.542 J2.429
G01 Y11.539
Y12.261 F1050.
G03 X76.679 Y13.731 I-7.924 J0.0
X76.434 Y14.696 I-7.786 J-1.47 F900.
G01 X76.12 Y15.857
X76.099 Y15.981 F1200.
X75.854 Y16.575
G03 X74.769 Y18.118 I-7.271 J-3.962
G02 X75.387 Y18.332 I.618 J-.786 F2000.
X76.059 Y18.073 I0.0 J-1.
G03 X77.441 Y17.54 I1.383 J1.527
G01 X77.459
X77.44 Y19.787
Z-.713
G00 Z-.525
G01 Z-.9
Z-1.9 F800.
X77.459 Y17.54
G03 X78.815 Y18.065 I-.018 J2.06 F2000.
G02 X79.482 Y18.32 I.667 J-.745
X80.098 Y18.108 I0.0 J-1.
G03 X78.546 Y15.504 I6.064 J-5.381 F1200.
X78.212 Y13.856 I34.724 J-7.878
X78.05 Y12.261 I7.774 J-1.595
G01 Y-12.877
G03 X78.197 Y-14.394 I7.936 J0.0
G01 X78.274 Y-14.784
X78.486 Y-15.857 F1050.
X78.546 Y-16.109
G03 X78.872 Y-16.891 I7.38 J2.619
X80.091 Y-18.713 I7.054 J3.401 F900.
G02 X79.473 Y-18.927 I-.618 J.786 F2000.
X78.809 Y-18.675 I0.0 J1.
G03 X77.44 Y-18.155 I-1.368 J-1.54
X76.065 Y-18.681 I0.0 J-2.06
G02 X75.397 Y-18.937 I-.668 J.744
X74.781 Y-18.725 I0.0 J1.
G03 X76.343 Y-16.095 I-6.104 J5.404 F1200.
G01 X76.683 Y-14.394
G03 X76.83 Y-12.877 I-7.79 J1.517
G01 Y12.261
G03 X76.749 Y13.386 I-7.936 J0.0
G01 X76.594 Y14.186
X76.343 Y15.473 F1050.
G03 X75.998 Y16.292 I-7.604 J-2.726
X74.777 Y18.113 I-7.259 J-3.545 F900.
G02 X75.394 Y18.326 I.617 J-.787 F2000.
X76.063 Y18.069 I0.0 J-1.
