%
G40 G17 G49 G54 G80
G91 G28 Z0.0
( NAME: Capful )
( PART: D:\Program Files\Siemens\NX 12.0\UGII\HM-µç¼«±à³Ì.prt )
( DATE: Sun May 27 04:50:20 2018 )
( D4R0.5 ---> D=4.00 R=0.50 )
S10000 M03
G00 G90 X120.174 Y22.811
Z15.
G17 G01 Z2.55 F1300.
Z-.45 F520.
Y18.411
G40 G02 X126.324 Y12.261 I0.0 J-6.151 F1300.
G01 Y-12.877
G02 X120.174 Y-19.027 I-6.151 J0.0
X114.023 Y-12.877 I0.0 J6.151
G01 Y12.261
G02 X120.174 Y18.411 I6.151 J0.0
G01 Y22.811
Z2.55
G00 Z2.6
G01 Z2.5
Z-.5 F520.
Y18.411
G02 X126.324 Y12.261 I0.0 J-6.151 F1300.
G01 Y-12.877
G02 X120.174 Y-19.027 I-6.151 J0.0
X114.023 Y-12.877 I0.0 J6.151
G01 Y12.261
G02 X120.174 Y18.411 I6.151 J0.0
G01 Y22.811
Z2.5
G00 Z15.
X103.08
G01 Z2.55
Z-.45 F520.
Y18.411
G02 X109.231 Y12.261 I0.0 J-6.151 F1300.
G01 Y-12.877
G02 X103.08 Y-19.027 I-6.151 J0.0
X96.93 Y-12.877 I0.0 J6.151
G01 Y12.261
G02 X103.08 Y18.411 I6.151 J0.0
G01 Y22.811
Z2.55
G00 Z2.6
G01 Z2.5
Z-.5 F520.
Y18.411
G02 X109.231 Y12.261 I0.0 J-6.151 F1300.
G01 Y-12.877
G02 X103.08 Y-19.027 I-6.151 J0.0
X96.93 Y-12.877 I0.0 J6.151
G01 Y12.261
G02 X103.08 Y18.411 I6.151 J0.0
G01 Y22.811
Z2.5
G00 Z15.
X85.987
G01 Z2.55
Z-.45 F520.
Y18.411
G02 X92.137 Y12.261 I0.0 J-6.151 F1300.
G01 Y-12.877
G02 X85.987 Y-19.027 I-6.151 J0.0
X79.836 Y-12.877 I0.0 J6.151
G01 Y12.261
G02 X85.987 Y18.411 I6.151 J0.0
G01 Y22.811
Z2.55
G00 Z2.6
G01 Z2.5
Z-.5 F520.
Y18.411
G02 X92.137 Y12.261 I0.0 J-6.151 F1300.
G01 Y-12.877
G02 X85.987 Y-19.027 I-6.151 J0.0
X79.836 Y-12.877 I0.0 J6.151
G01 Y12.261
G02 X85.987 Y18.411 I6.151 J0.0
G01 Y22.811
Z2.5
G00 Z15.
X68.893
G01 Z2.55
Z-.45 F520.
Y18.411
G02 X75.044 Y12.261 I0.0 J-6.151 F1300.
G01 Y-12.877
G02 X68.893 Y-19.027 I-6.151 J0.0
X62.743 Y-12.877 I0.0 J6.151
G01 Y12.261
G02 X68.893 Y18.411 I6.151 J0.0
G01 Y22.811
Z2.55
G00 Z2.6
G01 Z2.5
Z-.5 F520.
Y18.411
G02 X75.044 Y12.261 I0.0 J-6.151 F1300.
G01 Y-12.877
G02 X68.893 Y-19.027 I-6.151 J0.0
X62.743 Y-12.877 I0.0 J6.151
G01 Y12.261
G02 X68.893 Y18.411 I6.151 J0.0
G01 Y22.811
Z2.5
G00 Z15.
X51.8
G01 Z2.55
Z-.45 F520.
Y18.411
G02 X57.95 Y12.261 I0.0 J-6.151 F1300.
G01 Y-12.877
G02 X51.8 Y-19.027 I-6.151 J0.0
X45.649 Y-12.877 I0.0 J6.151
G01 Y12.261
G02 X51.8 Y18.411 I6.151 J0.0
G01 Y22.811
Z2.55
G00 Z2.6
G01 Z2.5
Z-.5 F520.
Y18.411
G02 X57.95 Y12.261 I0.0 J-6.151 F1300.
G01 Y-12.877
G02 X51.8 Y-19.027 I-6.151 J0.0
X45.649 Y-12.877 I0.0 J6.151
G01 Y12.261
G02 X51.8 Y18.411 I6.151 J0.0
G01 Y22.811
Z2.5
G00 Z15.
X34.706
G01 Z2.55
Z-.45 F520.
Y18.411
G02 X40.857 Y12.261 I0.0 J-6.151 F1300.
G01 Y-12.877
G02 X34.706 Y-19.027 I-6.151 J0.0
X28.556 Y-12.877 I0.0 J6.151
G01 Y12.261
G02 X34.706 Y18.411 I6.151 J0.0
G01 Y22.811
Z2.55
G00 Z2.6
G01 Z2.5
Z-.5 F520.
Y18.411
G02 X40.857 Y12.261 I0.0 J-6.151 F1300.
G01 Y-12.877
G02 X34.706 Y-19.027 I-6.151 J0.0
X28.556 Y-12.877 I0.0 J6.151
G01 Y12.261
G02 X34.706 Y18.411 I6.151 J0.0
G01 Y22.811
Z2.5
G00 Z15.
X17.613
G01 Z2.55
Z-.45 F520.
Y18.411
G02 X23.763 Y12.261 I0.0 J-6.151 F1300.
G01 Y-12.877
G02 X17.613 Y-19.027 I-6.151 J0.0
X11.462 Y-12.877 I0.0 J6.151
G01 Y12.261
G02 X17.613 Y18.411 I6.151 J0.0
G01 Y22.811
Z2.55
G00 Z2.6
G01 Z2.5
Z-.5 F520.
Y18.411
G02 X23.763 Y12.261 I0.0 J-6.151 F1300.
G01 Y-12.877
G02 X17.613 Y-19.027 I-6.151 J0.0
X11.462 Y-12.877 I0.0 J6.151
G01 Y12.261
G02 X17.613 Y18.411 I6.151 J0.0
G01 Y22.811
Z2.5
G00 Z15.
X.519
G01 Z2.55
Z-.45 F520.
Y18.411
G02 X6.67 Y12.261 I0.0 J-6.151 F1300.
G01 Y-12.877
G02 X.519 Y-19.027 I-6.151 J0.0
X-5.631 Y-12.877 I0.0 J6.151
G01 Y12.261
G02 X.519 Y18.411 I6.151 J0.0
G01 Y22.811
Z2.55
G00 Z2.6
G01 Z2.5
Z-.5 F520.
Y18.411
G02 X6.67 Y12.261 I0.0 J-6.151 F1300.
G01 Y-12.877
G02 X.519 Y-19.027 I-6.151 J0.0
X-5.631 Y-12.877 I0.0 J6.151
G01 Y12.261
G02 X.519 Y18.411 I6.151 J0.0
G01 Y22.811
Z2.5
G00 Z15.
X-16.574
G01 Z2.55
Z-.45 F520.
Y18.411
G02 X-10.424 Y12.261 I0.0 J-6.151 F1300.
G01 Y-12.877
G02 X-16.574 Y-19.027 I-6.151 J0.0
X-22.725 Y-12.877 I0.0 J6.151
G01 Y12.261
G02 X-16.574 Y18.411 I6.151 J0.0
G01 Y22.811
Z2.55
G00 Z2.6
G01 Z2.5
Z-.5 F520.
Y18.411
G02 X-10.424 Y12.261 I0.0 J-6.151 F1300.
G01 Y-12.877
G02 X-16.574 Y-19.027 I-6.151 J0.0
X-22.725 Y-12.877 I0.0 J6.151
G01 Y12.261
G02 X-16.574 Y18.411 I6.151 J0.0
G01 Y22.811
Z2.5
G00 Z15.
X-33.668
G01 Z2.55
Z-.45 F520.
Y18.411
G02 X-27.517 Y12.261 I0.0 J-6.151 F1300.
G01 Y-12.877
G02 X-33.668 Y-19.027 I-6.151 J0.0
X-39.818 Y-12.877 I0.0 J6.151
G01 Y12.261
G02 X-33.668 Y18.411 I6.151 J0.0
G01 Y22.811
Z2.55
G00 Z2.6
G01 Z2.5
Z-.5 F520.
Y18.411
G02 X-27.517 Y12.261 I0.0 J-6.151 F1300.
G01 Y-12.877
G02 X-33.668 Y-19.027 I-6.151 J0.0
X-39.818 Y-12.877 I0.0 J6.151
G01 Y12.261
G02 X-33.668 Y18.411 I6.151 J0.0
G01 Y22.811
Z2.5
G00 Z15.
X-50.761
G01 Z2.55
Z-.45 F520.
Y18.411
G02 X-44.611 Y12.261 I0.0 J-6.151 F1300.
G01 Y-12.877
G02 X-50.761 Y-19.027 I-6.151 J0.0
X-56.912 Y-12.877 I0.0 J6.151
G01 Y12.261
G02 X-50.761 Y18.411 I6.151 J0.0
G01 Y22.811
Z2.55
G00 Z2.6
G01 Z2.5
Z-.5 F520.
Y18.411
G02 X-44.611 Y12.261 I0.0 J-6.151 F1300.
G01 Y-12.877
G02 X-50.761 Y-19.027 I-6.151 J0.0
X-56.912 Y-12.877 I0.0 J6.151
G01 Y12.261
G02 X-50.761 Y18.411 I6.151 J0.0
G01 Y22.811
Z2.5
G00 Z15.
X-67.855
G01 Z2.55
Z-.45 F520.
Y18.411
G02 X-61.704 Y12.261 I0.0 J-6.151 F1300.
G01 Y-12.877
G02 X-67.855 Y-19.027 I-6.151 J0.0
X-74.005 Y-12.877 I0.0 J6.151
G01 Y12.261
G02 X-67.855 Y18.411 I6.151 J0.0
G01 Y22.811
Z2.55
G00 Z2.6
G01 Z2.5
Z-.5 F520.
Y18.411
G02 X-61.704 Y12.261 I0.0 J-6.151 F1300.
G01 Y-12.877
G02 X-67.855 Y-19.027 I-6.151 J0.0
X-74.005 Y-12.877 I0.0 J6.151
G01 Y12.261
G02 X-67.855 Y18.411 I6.151 J0.0
G01 Y22.811
Z2.5
G00 Z15.
X-84.948
G01 Z2.55
Z-.45 F520.
Y18.411
G02 X-78.798 Y12.261 I0.0 J-6.151 F1300.
G01 Y-12.877
G02 X-84.948 Y-19.027 I-6.151 J0.0
X-91.099 Y-12.877 I0.0 J6.151
G01 Y12.261
G02 X-84.948 Y18.411 I6.151 J0.0
G01 Y22.811
Z2.55
G00 Z2.6
G01 Z2.5
Z-.5 F520.
Y18.411
G02 X-78.798 Y12.261 I0.0 J-6.151 F1300.
G01 Y-12.877
G02 X-84.948 Y-19.027 I-6.151 J0.0
X-91.099 Y-12.877 I0.0 J6.151
G01 Y12.261
G02 X-84.948 Y18.411 I6.151 J0.0
G01 Y22.811
Z2.5
G00 Z15.
X-102.042
G01 Z2.55
Z-.45 F520.
Y18.411
G02 X-95.891 Y12.261 I0.0 J-6.151 F1300.
G01 Y-12.877
G02 X-102.042 Y-19.027 I-6.151 J0.0
X-108.192 Y-12.877 I0.0 J6.151
G01 Y12.261
G02 X-102.042 Y18.411 I6.151 J0.0
G01 Y22.811
Z2.55
G00 Z2.6
G01 Z2.5
Z-.5 F520.
Y18.411
G02 X-95.891 Y12.261 I0.0 J-6.151 F1300.
G01 Y-12.877
G02 X-102.042 Y-19.027 I-6.151 J0.0
X-108.192 Y-12.877 I0.0 J6.151
G01 Y12.261
G02 X-102.042 Y18.411 I6.151 J0.0
G01 Y22.811
Z2.5
G00 Z15.
X-119.135 Y16.276
G01 Z2.55
Z-.45 F520.
Y11.876
G02 X-112.985 Y5.725 I0.0 J-6.151 F1300.
G01 Y-6.341
G02 X-119.135 Y-12.492 I-6.151 J0.0
X-125.286 Y-6.341 I0.0 J6.151
G01 Y5.725
G02 X-119.135 Y11.876 I6.151 J0.0
G01 Y16.276
Z2.55
G00 Z2.6
G01 Z2.5
Z-.5 F520.
Y11.876
G02 X-112.985 Y5.725 I0.0 J-6.151 F1300.
G01 Y-6.341
G02 X-119.135 Y-12.492 I-6.151 J0.0
X-125.286 Y-6.341 I0.0 J6.151
G01 Y5.725
G02 X-119.135 Y11.876 I6.151 J0.0
G01 Y16.276
Z2.5
G00 Z15.
( D4R0.5 ---> D=4.00 R=0.50 )
S10000 M03
G00 X-121.524 Y-6.035
Z15.
G01 Z-1.8 F900.
Y-.308 Z-2. F360.
Y5.725 F540.
G02 X-119.135 Y8.113 I2.388 J0.0
X-116.747 Y5.725 I0.0 J-2.388
G01 Y-6.341
G02 X-119.135 Y-8.729 I-2.388 J0.0
X-121.524 Y-6.341 I0.0 J2.388
G01 Y-.308
X-120.324 F900.
Y5.725
G02 X-119.135 Y6.913 I1.188 J0.0
X-117.947 Y5.725 I0.0 J-1.188
G01 Y-6.341
G02 X-119.135 Y-7.529 I-1.188 J0.0
X-120.324 Y-6.341 I0.0 J1.188
G01 Y-.308
Z1.
G00 Z15.
X-104.43 Y-6.035
G01 Z-1.8
Y-.308 Z-2. F360.
Y12.261 F540.
G02 X-102.042 Y14.649 I2.388 J0.0
X-99.653 Y12.261 I0.0 J-2.388
G01 Y-12.877
G02 X-102.042 Y-15.265 I-2.388 J0.0
X-104.43 Y-12.877 I0.0 J2.388
G01 Y-.308
X-103.23 F900.
Y12.261
G02 X-102.042 Y13.449 I1.188 J0.0
X-100.853 Y12.261 I0.0 J-1.188
G01 Y-12.877
G02 X-102.042 Y-14.065 I-1.188 J0.0
X-103.23 Y-12.877 I0.0 J1.188
G01 Y-.308
X-103.492 Y2.681
Z1.
G00 Z15.
X-87.337 Y-6.035
G01 Z-1.8
Y-.308 Z-2. F360.
Y12.261 F540.
G02 X-84.948 Y14.649 I2.388 J0.0
X-82.56 Y12.261 I0.0 J-2.388
G01 Y-12.877
G02 X-84.948 Y-15.265 I-2.388 J0.0
X-87.337 Y-12.877 I0.0 J2.388
G01 Y-.308
X-86.137 F900.
Y12.261
G02 X-84.948 Y13.449 I1.188 J0.0
X-83.76 Y12.261 I0.0 J-1.188
G01 Y-12.877
G02 X-84.948 Y-14.065 I-1.188 J0.0
X-86.137 Y-12.877 I0.0 J1.188
G01 Y-.308
X-86.398 Y2.681
Z1.
G00 Z15.
X-70.243 Y-6.035
G01 Z-1.8
Y-.308 Z-2. F360.
Y12.261 F540.
G02 X-67.855 Y14.649 I2.388 J0.0
X-65.466 Y12.261 I0.0 J-2.388
G01 Y-12.877
G02 X-67.855 Y-15.265 I-2.388 J0.0
X-70.243 Y-12.877 I0.0 J2.388
G01 Y-.308
X-69.043 F900.
Y12.261
G02 X-67.855 Y13.449 I1.188 J0.0
X-66.666 Y12.261 I0.0 J-1.188
G01 Y-12.877
G02 X-67.855 Y-14.065 I-1.188 J0.0
X-69.043 Y-12.877 I0.0 J1.188
G01 Y-.308
X-69.305 Y2.681
Z1.
G00 Z15.
X-53.15 Y-6.035
G01 Z-1.8
Y-.308 Z-2. F360.
Y12.261 F540.
G02 X-50.761 Y14.649 I2.388 J0.0
X-48.373 Y12.261 I0.0 J-2.388
G01 Y-12.877
G02 X-50.761 Y-15.265 I-2.388 J0.0
X-53.15 Y-12.877 I0.0 J2.388
G01 Y-.308
X-51.95 F900.
Y12.261
G02 X-50.761 Y13.449 I1.188 J0.0
X-49.573 Y12.261 I0.0 J-1.188
G01 Y-12.877
G02 X-50.761 Y-14.065 I-1.188 J0.0
X-51.95 Y-12.877 I0.0 J1.188
G01 Y-.308
X-52.211 Y2.681
Z1.
G00 Z15.
X-36.056 Y-6.035
G01 Z-1.8
Y-.308 Z-2. F360.
Y12.261 F540.
G02 X-33.668 Y14.649 I2.388 J0.0
X-31.279 Y12.261 I0.0 J-2.388
G01 Y-12.877
G02 X-33.668 Y-15.265 I-2.388 J0.0
X-36.056 Y-12.877 I0.0 J2.388
G01 Y-.308
X-34.856 F900.
Y12.261
G02 X-33.668 Y13.449 I1.188 J0.0
X-32.479 Y12.261 I0.0 J-1.188
G01 Y-12.877
G02 X-33.668 Y-14.065 I-1.188 J0.0
X-34.856 Y-12.877 I0.0 J1.188
G01 Y-.308
X-35.118 Y2.681
Z1.
G00 Z15.
X-18.963 Y-6.035
G01 Z-1.8
Y-.308 Z-2. F360.
Y12.261 F540.
G02 X-16.574 Y14.649 I2.388 J0.0
X-14.186 Y12.261 I0.0 J-2.388
G01 Y-12.877
G02 X-16.574 Y-15.265 I-2.388 J0.0
X-18.963 Y-12.877 I0.0 J2.388
G01 Y-.308
X-17.763 F900.
Y12.261
G02 X-16.574 Y13.449 I1.188 J0.0
X-15.386 Y12.261 I0.0 J-1.188
G01 Y-12.877
G02 X-16.574 Y-14.065 I-1.188 J0.0
X-17.763 Y-12.877 I0.0 J1.188
G01 Y-.308
X-18.024 Y2.681
Z1.
G00 Z15.
X-1.869 Y-6.035
G01 Z-1.8
Y-.308 Z-2. F360.
Y12.261 F540.
G02 X.519 Y14.649 I2.388 J0.0
X2.908 Y12.261 I0.0 J-2.388
G01 Y-12.877
G02 X.519 Y-15.265 I-2.388 J0.0
X-1.869 Y-12.877 I0.0 J2.388
G01 Y-.308
X-.669 F900.
Y12.261
G02 X.519 Y13.449 I1.188 J0.0
X1.708 Y12.261 I0.0 J-1.188
G01 Y-12.877
G02 X.519 Y-14.065 I-1.188 J0.0
X-.669 Y-12.877 I0.0 J1.188
G01 Y-.308
X-.931 Y2.681
Z1.
G00 Z15.
X15.224 Y-6.035
G01 Z-1.8
Y-.308 Z-2. F360.
Y12.261 F540.
G02 X17.613 Y14.649 I2.388 J0.0
X20.001 Y12.261 I0.0 J-2.388
G01 Y-12.877
G02 X17.613 Y-15.265 I-2.388 J0.0
X15.224 Y-12.877 I0.0 J2.388
G01 Y-.308
X16.424 F900.
Y12.261
G02 X17.613 Y13.449 I1.188 J0.0
X18.801 Y12.261 I0.0 J-1.188
G01 Y-12.877
G02 X17.613 Y-14.065 I-1.188 J0.0
X16.424 Y-12.877 I0.0 J1.188
G01 Y-.308
X16.163 Y2.681
Z1.
G00 Z15.
X32.318 Y-6.035
G01 Z-1.8
Y-.308 Z-2. F360.
Y12.261 F540.
G02 X34.706 Y14.649 I2.388 J0.0
X37.095 Y12.261 I0.0 J-2.388
G01 Y-12.877
G02 X34.706 Y-15.265 I-2.388 J0.0
X32.318 Y-12.877 I0.0 J2.388
G01 Y-.308
X33.518 F900.
Y12.261
G02 X34.706 Y13.449 I1.188 J0.0
X35.895 Y12.261 I0.0 J-1.188
G01 Y-12.877
G02 X34.706 Y-14.065 I-1.188 J0.0
X33.518 Y-12.877 I0.0 J1.188
G01 Y-.308
X33.256 Y2.681
Z1.
G00 Z15.
X49.411 Y-6.035
G01 Z-1.8
Y-.308 Z-2. F360.
Y12.261 F540.
G02 X51.8 Y14.649 I2.388 J0.0
X54.188 Y12.261 I0.0 J-2.388
G01 Y-12.877
G02 X51.8 Y-15.265 I-2.388 J0.0
X49.411 Y-12.877 I0.0 J2.388
G01 Y-.308
X50.611 F900.
Y12.261
G02 X51.8 Y13.449 I1.188 J0.0
X52.988 Y12.261 I0.0 J-1.188
G01 Y-12.877
G02 X51.8 Y-14.065 I-1.188 J0.0
X50.611 Y-12.877 I0.0 J1.188
G01 Y-.308
X50.35 Y2.681
Z1.
G00 Z15.
X66.52 Y-6.035
G01 Z-1.8
Y-.308 Z-2. F360.
Y12.261 F540.
G02 X68.893 Y14.634 I2.374 J0.0
X71.267 Y12.261 I0.0 J-2.374
G01 Y-12.877
G02 X68.893 Y-15.25 I-2.374 J0.0
X66.52 Y-12.877 I0.0 J2.374
G01 Y-.308
X67.72 F900.
Y12.261
G02 X68.893 Y13.434 I1.174 J0.0
X70.067 Y12.261 I0.0 J-1.174
G01 Y-12.877
G02 X68.893 Y-14.05 I-1.174 J0.0
X67.72 Y-12.877 I0.0 J1.174
G01 Y-.308
X67.458 Y2.681
Z1.
G00 Z15.
X83.613 Y-6.035
G01 Z-1.8
Y-.308 Z-2. F360.
Y12.261 F540.
G02 X85.987 Y14.634 I2.374 J0.0
X88.36 Y12.261 I0.0 J-2.374
G01 Y-12.877
G02 X85.987 Y-15.25 I-2.374 J0.0
X83.613 Y-12.877 I0.0 J2.374
G01 Y-.308
X84.813 F900.
Y12.261
G02 X85.987 Y13.434 I1.174 J0.0
X87.16 Y12.261 I0.0 J-1.174
G01 Y-12.877
G02 X85.987 Y-14.05 I-1.174 J0.0
X84.813 Y-12.877 I0.0 J1.174
G01 Y-.308
X84.552 Y2.681
Z1.
G00 Z15.
X100.707 Y-6.035
G01 Z-1.8
Y-.308 Z-2. F360.
Y12.261 F540.
G02 X103.08 Y14.634 I2.374 J0.0
X105.454 Y12.261 I0.0 J-2.374
G01 Y-12.877
G02 X103.08 Y-15.25 I-2.374 J0.0
X100.707 Y-12.877 I0.0 J2.374
G01 Y-.308
X101.907 F900.
Y12.261
G02 X103.08 Y13.434 I1.174 J0.0
X104.254 Y12.261 I0.0 J-1.174
G01 Y-12.877
G02 X103.08 Y-14.05 I-1.174 J0.0
X101.907 Y-12.877 I0.0 J1.174
G01 Y-.308
X101.645 Y2.681
Z1.
G00 Z15.
X122.547 Y5.419
G01 Z-1.8
Y-.308 Z-2. F360.
Y-12.877 F540.
G02 X120.174 Y-15.25 I-2.374 J0.0
X117.8 Y-12.877 I0.0 J2.374
G01 Y12.261
G02 X120.174 Y14.634 I2.374 J0.0
X122.547 Y12.261 I0.0 J-2.374
G01 Y-.308
X121.347 F900.
Y-12.877
G02 X120.174 Y-14.05 I-1.174 J0.0
X119. Y-12.877 I0.0 J1.174
G01 Y12.261
G02 X120.174 Y13.434 I1.174 J0.0
X121.347 Y12.261 I0.0 J-1.174
G01 Y-.308
Z1.
G00 Z15.
( D4R0.5 ---> D=4.00 R=0.50 )
S10000 M03
G00 X-120.12 Y1.692
Z15.
G01 Z2.43 F2000.
Z-.57 F800.
G03 X-122.12 Y-.308 I0.0 J-2. F400.
G01 Y-6.325 F2000.
Y-6.341 F1197.
G03 X-121.719 Y-7.835 I2.984 J0.0
X-119.135 Y-9.325 I2.584 J1.494
X-117.035 Y-8.461 I0.0 J2.984
X-116.151 Y-6.341 I-2.1 J2.121 F1198.
G01 Y-6.321
Y5.705 F2000.
Y5.725 F1197.
G03 X-117.945 Y8.461 I-2.984 J0.0
X-119.135 Y8.709 I-1.191 J-2.737
X-122.12 Y5.725 I0.0 J-2.984
G01 Y5.709
Y-.308 F2000.
X-122.096 Y-.531 Z-.582
X-122.075 Y-.753 Z-.593
X-122.056 Y-.975 Z-.605
X-122.038 Y-1.198 Z-.617
X-122.021 Y-1.42 Z-.628
X-122.005 Y-1.643 Z-.64
Y-6.341
G03 X-119.135 Y-9.21 I2.869 J0.0 F1179.
X-116.266 Y-6.341 I0.0 J2.869
G01 Y5.725 F2000.
G03 X-119.135 Y8.594 I-2.869 J0.0 F1179.
X-122.005 Y5.725 I0.0 J-2.869
G01 Y-.308 F2000.
X-121.989 Y-.531 Z-.652
X-121.975 Y-.753 Z-.663
X-121.961 Y-.975 Z-.675
X-121.949 Y-1.198 Z-.686
X-121.936 Y-1.42 Z-.698
X-121.924 Y-1.643 Z-.71
Y-6.341
G03 X-119.135 Y-9.13 I2.789 J0.0 F1165.
X-116.346 Y-6.341 I0.0 J2.789
G01 Y5.725 F2000.
G03 X-119.135 Y8.514 I-2.789 J0.0 F1165.
X-121.924 Y5.725 I0.0 J-2.789
G01 Y-.308 F2000.
X-121.913 Y-.531 Z-.721
X-121.903 Y-.753 Z-.733
X-121.892 Y-.975 Z-.745
X-121.883 Y-1.198 Z-.756
X-121.873 Y-1.42 Z-.768
X-121.864 Y-1.643 Z-.78
Y-6.341
G03 X-119.135 Y-9.07 I2.729 J0.0 F1154.
X-116.406 Y-6.341 I0.0 J2.729
G01 Y5.725 F2000.
G03 X-119.135 Y8.454 I-2.729 J0.0 F1154.
X-121.864 Y5.725 I0.0 J-2.729
G01 Y-.308 F2000.
X-121.856 Y-.531 Z-.791
X-121.847 Y-.753 Z-.803
X-121.84 Y-.975 Z-.815
X-121.832 Y-1.198 Z-.826
X-121.825 Y-1.42 Z-.838
X-121.818 Y-1.643 Z-.85
Y-6.341
G03 X-119.135 Y-9.024 I2.683 J0.0 F1146.
X-116.453 Y-6.341 I0.0 J2.683
G01 Y5.725 F2000.
G03 X-119.135 Y8.408 I-2.683 J0.0 F1146.
X-121.818 Y5.725 I0.0 J-2.683
G01 Y-.308 F2000.
X-121.811 Y-.531 Z-.861
X-121.805 Y-.753 Z-.873
X-121.799 Y-.975 Z-.885
X-121.793 Y-1.198 Z-.896
X-121.788 Y-1.42 Z-.908
X-121.782 Y-1.643 Z-.92
Y-6.341
G03 X-119.135 Y-8.988 I2.647 J0.0 F1139.
X-116.488 Y-6.341 I0.0 J2.647
G01 Y5.725 F2000.
G03 X-119.135 Y8.372 I-2.647 J0.0 F1139.
X-121.782 Y5.725 I0.0 J-2.647
G01 Y-.308 F2000.
X-121.777 Y-.531 Z-.931
X-121.773 Y-.753 Z-.943
X-121.768 Y-.975 Z-.955
X-121.764 Y-1.198 Z-.966
X-121.76 Y-1.42 Z-.978
X-121.756 Y-1.643 Z-.99
Y-6.341
G03 X-119.135 Y-8.962 I2.621 J0.0 F1134.
X-116.514 Y-6.341 I0.0 J2.621
G01 Y5.725 F2000.
G03 X-119.135 Y8.346 I-2.621 J0.0 F1134.
X-121.756 Y5.725 I0.0 J-2.621
G01 Y-.308 F2000.
X-121.752 Y-.531 Z-1.001
X-121.749 Y-.753 Z-1.013
X-121.746 Y-.975 Z-1.024
X-121.743 Y-1.198 Z-1.036
X-121.74 Y-1.42 Z-1.048
X-121.738 Y-1.643 Z-1.059
Y-6.341
G03 X-119.135 Y-8.944 I2.603 J0.0 F1131.
X-116.533 Y-6.341 I0.0 J2.603
G01 Y5.725 F2000.
G03 X-119.135 Y8.328 I-2.603 J0.0 F1131.
X-121.738 Y5.725 I0.0 J-2.603
G01 Y-.308 F2000.
X-121.735 Y-.531 Z-1.071
X-121.733 Y-.753 Z-1.083
X-121.731 Y-.975 Z-1.094
X-121.73 Y-1.198 Z-1.106
X-121.728 Y-1.42 Z-1.118
X-121.727 Y-1.643 Z-1.129
Y-6.341
G03 X-119.135 Y-8.933 I2.592 J0.0 F1129.
X-116.544 Y-6.341 I0.0 J2.592
G01 Y5.725 F2000.
G03 X-119.135 Y8.317 I-2.592 J0.0 F1129.
X-121.727 Y5.725 I0.0 J-2.592
G01 Y-.308 F2000.
X-121.726 Y-.531 Z-1.141
X-121.725 Y-.753 Z-1.153
X-121.724 Y-.975 Z-1.164
Y-1.198 Z-1.176
X-121.723 Y-1.42 Z-1.188
X-121.724 Y-1.643 Z-1.199
Y-6.341
G03 X-119.135 Y-8.93 I2.589 J0.0 F1128.
X-116.546 Y-6.341 I0.0 J2.589
G01 Y5.725 F2000.
G03 X-119.135 Y8.314 I-2.589 J0.0 F1128.
X-121.724 Y5.725 I0.0 J-2.589
G01 Y-.308 F2000.
X-121.723 Y-.531 Z-1.211
X-121.724 Y-.753 Z-1.223
Y-1.643 Z-1.269
Y-6.341
G03 X-119.135 Y-8.929 I2.588 J0.0 F1128.
X-116.547 Y-6.341 I0.0 J2.588
G01 Y5.725 F2000.
G03 X-119.135 Y8.313 I-2.588 J0.0 F1128.
X-121.724 Y5.725 I0.0 J-2.588
G01 Y-.308 F2000.
Y-1.643 Z-1.339
Y-6.341
G03 X-119.135 Y-8.929 I2.588 J0.0 F1128.
X-116.547 Y-6.341 I0.0 J2.588
G01 Y5.725 F2000.
G03 X-119.135 Y8.313 I-2.588 J0.0 F1128.
X-121.724 Y5.725 I0.0 J-2.588
G01 Y-.308 F2000.
Y-1.643 Z-1.409
Y-6.341
G03 X-119.135 Y-8.929 I2.588 J0.0 F1128.
X-116.547 Y-6.341 I0.0 J2.588
G01 Y5.725 F2000.
G03 X-119.135 Y8.313 I-2.588 J0.0 F1128.
X-121.724 Y5.725 I0.0 J-2.588
G01 Y-.308 F2000.
Y-1.643 Z-1.479
Y-6.341
G03 X-119.135 Y-8.929 I2.588 J0.0 F1128.
X-116.547 Y-6.341 I0.0 J2.588
G01 Y5.725 F2000.
G03 X-119.135 Y8.313 I-2.588 J0.0 F1128.
X-121.724 Y5.725 I0.0 J-2.588
G01 Y-.308 F2000.
Y-1.643 Z-1.549
Y-6.341
G03 X-119.135 Y-8.929 I2.588 J0.0 F1128.
X-116.547 Y-6.341 I0.0 J2.588
G01 Y5.725 F2000.
G03 X-119.135 Y8.313 I-2.588 J0.0 F1128.
X-121.724 Y5.725 I0.0 J-2.588
G01 Y-.308 F2000.
Y-1.643 Z-1.619
Y-6.341
G03 X-119.135 Y-8.929 I2.588 J0.0 F1128.
X-116.547 Y-6.341 I0.0 J2.588
G01 Y5.725 F2000.
G03 X-119.135 Y8.313 I-2.588 J0.0 F1128.
X-121.724 Y5.725 I0.0 J-2.588
G01 Y-.308 F2000.
Y-1.643 Z-1.689
Y-6.341
G03 X-119.135 Y-8.929 I2.588 J0.0 F1128.
X-116.547 Y-6.341 I0.0 J2.588
G01 Y5.725 F2000.
G03 X-119.135 Y8.313 I-2.588 J0.0 F1128.
X-121.724 Y5.725 I0.0 J-2.588
G01 Y-.308 F2000.
Y-1.643 Z-1.759
Y-6.341
G03 X-119.135 Y-8.929 I2.588 J0.0 F1128.
X-116.547 Y-6.341 I0.0 J2.588
G01 Y5.725 F2000.
G03 X-119.135 Y8.313 I-2.588 J0.0 F1128.
X-121.724 Y5.725 I0.0 J-2.588
G01 Y-.308 F2000.
Y-1.643 Z-1.829
Y-6.341
G03 X-119.135 Y-8.929 I2.588 J0.0 F1128.
X-116.547 Y-6.341 I0.0 J2.588
G01 Y5.725 F2000.
G03 X-119.135 Y8.313 I-2.588 J0.0 F1128.
X-121.724 Y5.725 I0.0 J-2.588
G01 Y-.308 F2000.
Y-1.643 Z-1.899
Y-6.341
G03 X-119.135 Y-8.929 I2.588 J0.0 F1128.
X-116.547 Y-6.341 I0.0 J2.588
G01 Y5.725 F2000.
G03 X-119.135 Y8.313 I-2.588 J0.0 F1128.
X-121.724 Y5.725 I0.0 J-2.588
G01 Y-.308 F2000.
Y-1.643 Z-1.969
Y-6.341
G03 X-119.135 Y-8.929 I2.588 J0.0 F1128.
X-116.547 Y-6.341 I0.0 J2.588
G01 Y5.725 F2000.
G03 X-119.135 Y8.313 I-2.588 J0.0 F1128.
X-121.724 Y5.725 I0.0 J-2.588
G01 Y-1.643 F2000.
X-119.724
Z.031
G00 Z2.5
X121.155 Y-2.308
G01 Z2.43
Z-.57 F800.
G03 X123.155 Y-.308 I0.0 J2. F400.
G01 Y12.261 F2000.
G03 X120.174 Y15.242 I-2.981 J0.0 F1197.
X117.193 Y12.261 I0.0 J-2.981
G01 Y-12.877 F2000.
G03 X120.174 Y-15.858 I2.981 J0.0 F1197.
X123.155 Y-12.877 I0.0 J2.981
G01 Y-.308 F2000.
X123.131 Y-.086 Z-.582
X123.11 Y.137 Z-.593
X123.09 Y.359 Z-.605
X123.072 Y.582 Z-.617
X123.055 Y.804 Z-.628
X123.038 Y1.026 Z-.64
Y12.261
G03 X120.174 Y15.125 I-2.865 J0.0 F1178.
X117.309 Y12.261 I0.0 J-2.865
G01 Y-12.877 F2000.
G03 X120.174 Y-15.741 I2.865 J0.0 F1178.
X123.038 Y-12.877 I0.0 J2.865
G01 Y-.308 F2000.
X123.023 Y-.086 Z-.652
X123.008 Y.137 Z-.663
X122.995 Y.359 Z-.675
X122.981 Y.582 Z-.686
X122.969 Y.804 Z-.698
X122.957 Y1.026 Z-.71
Y12.261
G03 X120.174 Y15.044 I-2.783 J0.0 F1164.
X117.391 Y12.261 I0.0 J-2.783
G01 Y-12.877 F2000.
G03 X120.174 Y-15.66 I2.783 J0.0 F1164.
X122.957 Y-12.877 I0.0 J2.783
G01 Y-.308 F2000.
X122.946 Y-.086 Z-.721
X122.935 Y.137 Z-.733
X122.924 Y.359 Z-.745
X122.914 Y.582 Z-.756
X122.905 Y.804 Z-.768
X122.896 Y1.026 Z-.78
Y12.261
G03 X120.174 Y14.983 I-2.722 J0.0 F1153.
X117.452 Y12.261 I0.0 J-2.722
G01 Y-12.877 F2000.
G03 X120.174 Y-15.599 I2.722 J0.0 F1153.
X122.896 Y-12.877 I0.0 J2.722
G01 Y-.308 F2000.
X122.887 Y-.086 Z-.791
X122.878 Y.137 Z-.803
X122.87 Y.359 Z-.815
X122.863 Y.582 Z-.826
X122.855 Y.804 Z-.838
X122.848 Y1.026 Z-.85
Y12.261
G03 X120.174 Y14.935 I-2.674 J0.0 F1144.
X117.499 Y12.261 I0.0 J-2.674
G01 Y-12.877 F2000.
G03 X120.174 Y-15.551 I2.674 J0.0 F1144.
X122.848 Y-12.877 I0.0 J2.674
G01 Y-.308 F2000.
X122.841 Y-.086 Z-.861
X122.835 Y.137 Z-.873
X122.829 Y.359 Z-.885
X122.823 Y.582 Z-.896
X122.817 Y.804 Z-.908
X122.812 Y1.026 Z-.92
Y12.261
G03 X120.174 Y14.899 I-2.638 J0.0 F1138.
X117.536 Y12.261 I0.0 J-2.638
G01 Y-12.877 F2000.
G03 X120.174 Y-15.515 I2.638 J0.0 F1138.
X122.812 Y-12.877 I0.0 J2.638
G01 Y-.308 F2000.
X122.806 Y-.086 Z-.931
X122.801 Y.137 Z-.943
X122.797 Y.359 Z-.955
X122.792 Y.582 Z-.966
X122.788 Y.804 Z-.978
X122.784 Y1.026 Z-.99
Y12.261
G03 X120.174 Y14.871 I-2.61 J0.0 F1132.
X117.563 Y12.261 I0.0 J-2.61
G01 Y-12.877 F2000.
G03 X120.174 Y-15.487 I2.61 J0.0 F1132.
X122.784 Y-12.877 I0.0 J2.61
G01 Y-.308 F2000.
X122.78 Y-.086 Z-1.001
X122.777 Y.137 Z-1.013
X122.773 Y.359 Z-1.024
X122.77 Y.582 Z-1.036
X122.767 Y.804 Z-1.048
X122.765 Y1.026 Z-1.059
Y12.261
G03 X120.174 Y14.852 I-2.591 J0.0 F1129.
X117.583 Y12.261 I0.0 J-2.591
G01 Y-12.877 F2000.
G03 X120.174 Y-15.468 I2.591 J0.0 F1129.
X122.765 Y-12.877 I0.0 J2.591
G01 Y-.308 F2000.
X122.762 Y-.086 Z-1.071
X122.76 Y.137 Z-1.083
X122.758 Y.359 Z-1.094
X122.756 Y.582 Z-1.106
X122.754 Y.804 Z-1.118
X122.753 Y1.026 Z-1.129
Y12.261
G03 X120.92 Y14.729 I-2.579 J0.0 F1126.
X120.174 Y14.84 I-.747 J-2.468
X117.595 Y12.261 I0.0 J-2.579
G01 Y-12.877 F2000.
G03 X120.174 Y-15.456 I2.579 J0.0 F1126.
X122.753 Y-12.877 I0.0 J2.579
G01 Y-.308 F2000.
X122.751 Y-.086 Z-1.141
X122.75 Y.137 Z-1.153
X122.749 Y.359 Z-1.164
X122.748 Y.582 Z-1.176
Y.804 Z-1.188
Y1.026 Z-1.199
Y12.261
G03 X120.174 Y14.835 I-2.574 J0.0 F1125.
X117.6 Y12.261 I0.0 J-2.574
G01 Y-12.877 F2000.
G03 X120.174 Y-15.451 I2.574 J0.0 F1125.
X122.748 Y-12.877 I0.0 J2.574
G01 Y-.308 F2000.
X122.747 Y-.086 Z-1.211
Y.137 Z-1.223
Y1.026 Z-1.269
Y12.261
G03 X121.103 Y14.661 I-2.574 J0.0 F1125.
X120.174 Y14.834 I-.929 J-2.4 F928.
X118.973 Y14.537 I0.0 J-2.574
X117.668 Y12.849 I1.201 J-2.276 F732.
G01 X117.6 Y12.261 F2000.
Y10.061 F1300.
Y-12.877 F2000.
G03 X120.174 Y-15.45 I2.574 J0.0 F1125.
X122.747 Y-12.877 I0.0 J2.574
G01 Y-.308 F2000.
Y1.026 Z-1.339
Y12.261
G03 X121.103 Y14.661 I-2.574 J0.0 F1125.
X120.174 Y14.834 I-.929 J-2.4 F928.
X118.973 Y14.537 I0.0 J-2.574
X117.668 Y12.849 I1.201 J-2.276 F732.
G01 X117.6 Y12.261 F2000.
Y10.061 F1300.
Y-12.877 F2000.
G03 X120.174 Y-15.45 I2.574 J0.0 F1125.
X122.747 Y-12.877 I0.0 J2.574
G01 Y-.308 F2000.
Y1.026 Z-1.409
Y12.261
G03 X121.103 Y14.661 I-2.574 J0.0 F1125.
X120.174 Y14.834 I-.929 J-2.4 F928.
X118.973 Y14.537 I0.0 J-2.574
X117.668 Y12.849 I1.201 J-2.276 F732.
G01 X117.6 Y12.261 F2000.
Y10.061 F1300.
Y-12.877 F2000.
G03 X120.174 Y-15.45 I2.574 J0.0 F1125.
X122.747 Y-12.877 I0.0 J2.574
G01 Y-.308 F2000.
Y1.026 Z-1.479
Y12.261
G03 X121.103 Y14.661 I-2.574 J0.0 F1125.
X120.174 Y14.834 I-.929 J-2.4 F928.
X118.973 Y14.537 I0.0 J-2.574
X117.668 Y12.849 I1.201 J-2.276 F732.
G01 X117.6 Y12.261 F2000.
Y10.061 F1300.
Y-12.877 F2000.
G03 X120.174 Y-15.45 I2.574 J0.0 F1125.
X122.747 Y-12.877 I0.0 J2.574
G01 Y-.308 F2000.
Y1.026 Z-1.549
Y12.261
G03 X121.103 Y14.661 I-2.574 J0.0 F1125.
X120.174 Y14.834 I-.929 J-2.4 F928.
X118.973 Y14.537 I0.0 J-2.574
X117.668 Y12.849 I1.201 J-2.276 F732.
G01 X117.6 Y12.261 F2000.
Y10.061 F1300.
Y-12.877 F2000.
G03 X120.174 Y-15.45 I2.574 J0.0 F1125.
X122.747 Y-12.877 I0.0 J2.574
G01 Y-.308 F2000.
Y1.026 Z-1.619
Y12.261
G03 X121.103 Y14.661 I-2.574 J0.0 F1125.
X120.174 Y14.834 I-.929 J-2.4 F928.
X118.973 Y14.537 I0.0 J-2.574
X117.668 Y12.849 I1.201 J-2.276 F732.
G01 X117.6 Y12.261 F2000.
Y10.061 F1300.
Y-12.877 F2000.
G03 X120.174 Y-15.45 I2.574 J0.0 F1125.
X122.747 Y-12.877 I0.0 J2.574
G01 Y-.308 F2000.
Y1.026 Z-1.689
Y12.261
G03 X121.103 Y14.661 I-2.574 J0.0 F1125.
X120.174 Y14.834 I-.929 J-2.4 F928.
X118.973 Y14.537 I0.0 J-2.574
X117.668 Y12.849 I1.201 J-2.276 F732.
G01 X117.6 Y12.261 F2000.
Y10.061 F1300.
Y-12.877 F2000.
G03 X120.174 Y-15.45 I2.574 J0.0 F1125.
X122.747 Y-12.877 I0.0 J2.574
G01 Y-.308 F2000.
Y1.026 Z-1.759
Y12.261
G03 X121.103 Y14.661 I-2.574 J0.0 F1125.
X120.174 Y14.834 I-.929 J-2.4 F928.
X118.973 Y14.537 I0.0 J-2.574
X117.668 Y12.849 I1.201 J-2.276 F732.
G01 X117.6 Y12.261 F2000.
Y10.061 F1300.
Y-12.877 F2000.
G03 X120.174 Y-15.45 I2.574 J0.0 F1125.
X122.747 Y-12.877 I0.0 J2.574
G01 Y-.308 F2000.
Y1.026 Z-1.829
Y12.261
G03 X121.103 Y14.661 I-2.574 J0.0 F1125.
X120.174 Y14.834 I-.929 J-2.4 F928.
X118.973 Y14.537 I0.0 J-2.574
X117.668 Y12.849 I1.201 J-2.276 F732.
G01 X117.6 Y12.261 F2000.
Y10.061 F1300.
Y-12.877 F2000.
G03 X120.174 Y-15.45 I2.574 J0.0 F1125.
X122.747 Y-12.877 I0.0 J2.574
G01 Y-.308 F2000.
Y1.026 Z-1.899
Y12.261
G03 X121.103 Y14.661 I-2.574 J0.0 F1125.
X120.174 Y14.834 I-.929 J-2.4 F928.
X118.973 Y14.537 I0.0 J-2.574
X117.668 Y12.849 I1.201 J-2.276 F732.
G01 X117.6 Y12.261 F2000.
Y10.061 F1300.
Y-12.877 F2000.
G03 X120.174 Y-15.45 I2.574 J0.0 F1125.
X122.747 Y-12.877 I0.0 J2.574
G01 Y-.308 F2000.
Y1.026 Z-1.969
Y12.261
G03 X120.902 Y14.729 I-2.574 J0.0 F1125.
X120.174 Y14.834 I-.728 J-2.468
X117.6 Y12.261 I0.0 J-2.574
G01 Y-12.877 F2000.
G03 X120.174 Y-15.45 I2.574 J0.0 F1125.
X122.747 Y-12.877 I0.0 J2.574
G01 Y1.026 F2000.
X120.747
Z.031
G00 Z2.5
X104.061 Y-2.308
G01 Z2.43
Z-.57 F800.
G03 X106.061 Y-.308 I0.0 J2. F400.
G01 Y12.261 F2000.
G03 X103.08 Y15.242 I-2.981 J0.0 F1197.
X100.099 Y12.261 I0.0 J-2.981
G01 Y-12.877 F2000.
G03 X103.08 Y-15.858 I2.981 J0.0 F1197.
X106.061 Y-12.877 I0.0 J2.981
G01 Y-.308 F2000.
X106.038 Y-.086 Z-.582
X106.017 Y.137 Z-.593
X105.997 Y.359 Z-.605
X105.978 Y.582 Z-.617
X105.961 Y.804 Z-.628
X105.945 Y1.026 Z-.64
Y12.261
G03 X103.08 Y15.125 I-2.865 J0.0 F1178.
X100.216 Y12.261 I0.0 J-2.865
G01 Y-12.877 F2000.
G03 X103.08 Y-15.741 I2.865 J0.0 F1178.
X105.945 Y-12.877 I0.0 J2.865
G01 Y-.308 F2000.
X105.929 Y-.086 Z-.652
X105.915 Y.137 Z-.663
X105.901 Y.359 Z-.675
X105.888 Y.582 Z-.686
X105.875 Y.804 Z-.698
X105.863 Y1.026 Z-.71
Y12.261
G03 X103.08 Y15.044 I-2.783 J0.0 F1164.
X100.297 Y12.261 I0.0 J-2.783
G01 Y-12.877 F2000.
G03 X103.08 Y-15.66 I2.783 J0.0 F1164.
X105.863 Y-12.877 I0.0 J2.783
G01 Y-.308 F2000.
X105.852 Y-.086 Z-.721
X105.841 Y.137 Z-.733
X105.831 Y.359 Z-.745
X105.821 Y.582 Z-.756
X105.811 Y.804 Z-.768
X105.802 Y1.026 Z-.78
Y12.261
G03 X103.08 Y14.983 I-2.722 J0.0 F1153.
X100.358 Y12.261 I0.0 J-2.722
G01 Y-12.877 F2000.
G03 X103.08 Y-15.599 I2.722 J0.0 F1153.
X105.802 Y-12.877 I0.0 J2.722
G01 Y-.308 F2000.
X105.793 Y-.086 Z-.791
X105.785 Y.137 Z-.803
X105.777 Y.359 Z-.815
X105.769 Y.582 Z-.826
X105.762 Y.804 Z-.838
X105.755 Y1.026 Z-.85
Y12.261
G03 X103.08 Y14.935 I-2.674 J0.0 F1144.
X100.406 Y12.261 I0.0 J-2.674
G01 Y-12.877 F2000.
G03 X103.08 Y-15.551 I2.674 J0.0 F1144.
X105.755 Y-12.877 I0.0 J2.674
G01 Y-.308 F2000.
X105.748 Y-.086 Z-.861
X105.741 Y.137 Z-.873
X105.735 Y.359 Z-.885
X105.729 Y.582 Z-.896
X105.724 Y.804 Z-.908
X105.718 Y1.026 Z-.92
Y12.261
G03 X103.08 Y14.899 I-2.638 J0.0 F1138.
X100.442 Y12.261 I0.0 J-2.638
G01 Y-12.877 F2000.
G03 X103.08 Y-15.515 I2.638 J0.0 F1138.
X105.718 Y-12.877 I0.0 J2.638
G01 Y-.308 F2000.
X105.713 Y-.086 Z-.931
X105.708 Y.137 Z-.943
X105.703 Y.359 Z-.955
X105.699 Y.582 Z-.966
X105.695 Y.804 Z-.978
X105.691 Y1.026 Z-.99
Y12.261
G03 X103.08 Y14.871 I-2.61 J0.0 F1132.
X100.47 Y12.261 I0.0 J-2.61
G01 Y-12.877 F2000.
G03 X103.08 Y-15.487 I2.61 J0.0 F1132.
X105.691 Y-12.877 I0.0 J2.61
G01 Y-.308 F2000.
X105.687 Y-.086 Z-1.001
X105.683 Y.137 Z-1.013
X105.68 Y.359 Z-1.024
X105.677 Y.582 Z-1.036
X105.674 Y.804 Z-1.048
X105.671 Y1.026 Z-1.059
Y12.261
G03 X103.08 Y14.852 I-2.591 J0.0 F1129.
X100.489 Y12.261 I0.0 J-2.591
G01 Y-12.877 F2000.
G03 X103.08 Y-15.468 I2.591 J0.0 F1129.
X105.671 Y-12.877 I0.0 J2.591
G01 Y-.308 F2000.
X105.669 Y-.086 Z-1.071
X105.666 Y.137 Z-1.083
X105.664 Y.359 Z-1.094
X105.662 Y.582 Z-1.106
X105.661 Y.804 Z-1.118
X105.659 Y1.026 Z-1.129
Y12.261
G03 X103.827 Y14.729 I-2.579 J0.0 F1126.
X103.08 Y14.84 I-.747 J-2.468
X100.501 Y12.261 I0.0 J-2.579
G01 Y-12.877 F2000.
G03 X103.08 Y-15.456 I2.579 J0.0 F1126.
X105.659 Y-12.877 I0.0 J2.579
G01 Y-.308 F2000.
X105.658 Y-.086 Z-1.141
X105.657 Y.137 Z-1.153
X105.656 Y.359 Z-1.164
X105.655 Y.582 Z-1.176
X105.654 Y.804 Z-1.188
Y1.026 Z-1.199
Y12.261
G03 X103.08 Y14.835 I-2.574 J0.0 F1125.
X100.506 Y12.261 I0.0 J-2.574
G01 Y-12.877 F2000.
G03 X103.08 Y-15.451 I2.574 J0.0 F1125.
X105.654 Y-12.877 I0.0 J2.574
G01 Y-.308 F2000.
Y-.086 Z-1.211
Y.137 Z-1.223
Y1.026 Z-1.269
Y12.261
G03 X103.08 Y14.834 I-2.574 J0.0 F1125.
X100.507 Y12.261 I0.0 J-2.574
G01 Y-12.877 F2000.
G03 X103.08 Y-15.45 I2.574 J0.0 F1125.
X105.654 Y-12.877 I0.0 J2.574
G01 Y-.308 F2000.
Y1.026 Z-1.339
Y12.261
G03 X103.08 Y14.834 I-2.574 J0.0 F1125.
X100.507 Y12.261 I0.0 J-2.574
G01 Y-12.877 F2000.
G03 X103.08 Y-15.45 I2.574 J0.0 F1125.
X105.654 Y-12.877 I0.0 J2.574
G01 Y-.308 F2000.
Y1.026 Z-1.409
Y12.261
G03 X103.08 Y14.834 I-2.574 J0.0 F1125.
X100.507 Y12.261 I0.0 J-2.574
G01 Y-12.877 F2000.
G03 X103.08 Y-15.45 I2.574 J0.0 F1125.
X105.654 Y-12.877 I0.0 J2.574
G01 Y-.308 F2000.
Y1.026 Z-1.479
Y12.261
G03 X103.08 Y14.834 I-2.574 J0.0 F1125.
X100.507 Y12.261 I0.0 J-2.574
G01 Y-12.877 F2000.
G03 X103.08 Y-15.45 I2.574 J0.0 F1125.
X105.654 Y-12.877 I0.0 J2.574
G01 Y-.308 F2000.
Y1.026 Z-1.549
Y12.261
G03 X103.08 Y14.834 I-2.574 J0.0 F1125.
X100.507 Y12.261 I0.0 J-2.574
G01 Y-12.877 F2000.
G03 X103.08 Y-15.45 I2.574 J0.0 F1125.
X105.654 Y-12.877 I0.0 J2.574
G01 Y-.308 F2000.
Y1.026 Z-1.619
Y12.261
G03 X103.08 Y14.834 I-2.574 J0.0 F1125.
X100.507 Y12.261 I0.0 J-2.574
G01 Y-12.877 F2000.
G03 X103.08 Y-15.45 I2.574 J0.0 F1125.
X105.654 Y-12.877 I0.0 J2.574
G01 Y-.308 F2000.
Y1.026 Z-1.689
Y12.261
G03 X103.08 Y14.834 I-2.574 J0.0 F1125.
X100.507 Y12.261 I0.0 J-2.574
G01 Y-12.877 F2000.
G03 X103.08 Y-15.45 I2.574 J0.0 F1125.
X105.654 Y-12.877 I0.0 J2.574
G01 Y-.308 F2000.
Y1.026 Z-1.759
Y12.261
G03 X103.08 Y14.834 I-2.574 J0.0 F1125.
X100.507 Y12.261 I0.0 J-2.574
G01 Y-12.877 F2000.
G03 X103.08 Y-15.45 I2.574 J0.0 F1125.
X105.654 Y-12.877 I0.0 J2.574
G01 Y-.308 F2000.
Y1.026 Z-1.829
Y12.261
G03 X103.08 Y14.834 I-2.574 J0.0 F1125.
X100.507 Y12.261 I0.0 J-2.574
G01 Y-12.877 F2000.
G03 X103.08 Y-15.45 I2.574 J0.0 F1125.
X105.654 Y-12.877 I0.0 J2.574
G01 Y-.308 F2000.
Y1.026 Z-1.899
Y12.261
G03 X103.08 Y14.834 I-2.574 J0.0 F1125.
X100.507 Y12.261 I0.0 J-2.574
G01 Y-12.877 F2000.
G03 X103.08 Y-15.45 I2.574 J0.0 F1125.
X105.654 Y-12.877 I0.0 J2.574
G01 Y-.308 F2000.
Y1.026 Z-1.969
Y12.261
G03 X103.08 Y14.834 I-2.574 J0.0 F1125.
X100.507 Y12.261 I0.0 J-2.574
G01 Y-12.877 F2000.
G03 X103.08 Y-15.45 I2.574 J0.0 F1125.
X105.654 Y-12.877 I0.0 J2.574
G01 Y1.026 F2000.
X103.654
Z.031
G00 Z2.5
X86.968 Y-2.308
G01 Z2.43
Z-.57 F800.
G03 X88.968 Y-.308 I0.0 J2. F400.
G01 Y12.261 F2000.
G03 X85.987 Y15.242 I-2.981 J0.0 F1197.
X83.064 Y12.849 I0.0 J-2.981
X83.006 Y12.261 I2.922 J-.588
G01 Y-12.877 F2000.
G03 X85.987 Y-15.858 I2.981 J0.0 F1197.
X88.968 Y-12.877 I0.0 J2.981
G01 Y-.308 F2000.
X88.944 Y-.086 Z-.582
X88.923 Y.137 Z-.593
X88.903 Y.359 Z-.605
X88.885 Y.582 Z-.617
X88.868 Y.804 Z-.628
X88.851 Y1.026 Z-.64
Y12.261
G03 X85.987 Y15.125 I-2.865 J0.0 F1178.
X83.183 Y12.849 I0.0 J-2.865
X83.122 Y12.261 I2.803 J-.588
G01 Y-12.877 F2000.
G03 X85.987 Y-15.741 I2.865 J0.0 F1178.
X88.851 Y-12.877 I0.0 J2.865
G01 Y-.308 F2000.
X88.836 Y-.086 Z-.652
X88.821 Y.137 Z-.663
X88.808 Y.359 Z-.675
X88.794 Y.582 Z-.686
X88.782 Y.804 Z-.698
X88.77 Y1.026 Z-.71
Y12.261
G03 X85.987 Y15.044 I-2.783 J0.0 F1164.
X83.266 Y12.849 I0.0 J-2.783
X83.204 Y12.261 I2.72 J-.588
G01 Y-12.877 F2000.
G03 X85.987 Y-15.66 I2.783 J0.0 F1164.
X88.77 Y-12.877 I0.0 J2.783
G01 Y-.308 F2000.
X88.759 Y-.086 Z-.721
X88.748 Y.137 Z-.733
X88.737 Y.359 Z-.745
X88.727 Y.582 Z-.756
X88.718 Y.804 Z-.768
X88.709 Y1.026 Z-.78
Y12.261
G03 X85.987 Y14.983 I-2.722 J0.0 F1153.
X83.265 Y12.261 I0.0 J-2.722
G01 Y-12.877 F2000.
G03 X85.987 Y-15.599 I2.722 J0.0 F1153.
X88.709 Y-12.877 I0.0 J2.722
G01 Y-.308 F2000.
X88.7 Y-.086 Z-.791
X88.691 Y.137 Z-.803
X88.683 Y.359 Z-.815
X88.676 Y.582 Z-.826
X88.668 Y.804 Z-.838
X88.661 Y1.026 Z-.85
Y12.261
G03 X85.987 Y14.935 I-2.674 J0.0 F1144.
X83.312 Y12.261 I0.0 J-2.674
G01 Y-12.877 F2000.
G03 X85.987 Y-15.551 I2.674 J0.0 F1144.
X88.661 Y-12.877 I0.0 J2.674
G01 Y-.308 F2000.
X88.654 Y-.086 Z-.861
X88.648 Y.137 Z-.873
X88.642 Y.359 Z-.885
X88.636 Y.582 Z-.896
X88.63 Y.804 Z-.908
X88.625 Y1.026 Z-.92
Y12.261
G03 X85.987 Y14.899 I-2.638 J0.0 F1138.
X83.349 Y12.261 I0.0 J-2.638
G01 Y-12.877 F2000.
G03 X85.987 Y-15.515 I2.638 J0.0 F1138.
X88.625 Y-12.877 I0.0 J2.638
G01 Y-.308 F2000.
X88.619 Y-.086 Z-.931
X88.614 Y.137 Z-.943
X88.61 Y.359 Z-.955
X88.605 Y.582 Z-.966
X88.601 Y.804 Z-.978
X88.597 Y1.026 Z-.99
Y12.261
G03 X85.987 Y14.871 I-2.61 J0.0 F1132.
X83.376 Y12.261 I0.0 J-2.61
G01 Y-12.877 F2000.
G03 X85.987 Y-15.487 I2.61 J0.0 F1132.
X88.597 Y-12.877 I0.0 J2.61
G01 Y-.308 F2000.
X88.593 Y-.086 Z-1.001
X88.59 Y.137 Z-1.013
X88.586 Y.359 Z-1.024
X88.583 Y.582 Z-1.036
X88.58 Y.804 Z-1.048
X88.578 Y1.026 Z-1.059
Y12.261
G03 X85.987 Y14.852 I-2.591 J0.0 F1129.
X83.396 Y12.261 I0.0 J-2.591
G01 Y-12.877 F2000.
G03 X85.987 Y-15.468 I2.591 J0.0 F1129.
X88.578 Y-12.877 I0.0 J2.591
G01 Y-.308 F2000.
X88.575 Y-.086 Z-1.071
X88.573 Y.137 Z-1.083
X88.571 Y.359 Z-1.094
X88.569 Y.582 Z-1.106
X88.567 Y.804 Z-1.118
X88.566 Y1.026 Z-1.129
Y12.261
G03 X86.733 Y14.729 I-2.579 J0.0 F1126.
X85.987 Y14.84 I-.747 J-2.468
X83.408 Y12.261 I0.0 J-2.579
G01 Y-12.877 F2000.
G03 X85.987 Y-15.456 I2.579 J0.0 F1126.
X88.566 Y-12.877 I0.0 J2.579
G01 Y-.308 F2000.
X88.564 Y-.086 Z-1.141
X88.563 Y.137 Z-1.153
X88.562 Y.359 Z-1.164
X88.561 Y.582 Z-1.176
Y.804 Z-1.188
Y1.026 Z-1.199
Y12.261
G03 X85.987 Y14.835 I-2.574 J0.0 F1125.
X83.413 Y12.261 I0.0 J-2.574
G01 Y-12.877 F2000.
G03 X85.987 Y-15.451 I2.574 J0.0 F1125.
X88.561 Y-12.877 I0.0 J2.574
G01 Y-.308 F2000.
X88.56 Y-.086 Z-1.211
Y.137 Z-1.223
Y1.026 Z-1.269
Y12.261
G03 X85.987 Y14.834 I-2.574 J0.0 F1125.
X83.413 Y12.261 I0.0 J-2.574
G01 Y-12.877 F2000.
G03 X85.987 Y-15.45 I2.574 J0.0 F1125.
X88.56 Y-12.877 I0.0 J2.574
G01 Y-.308 F2000.
Y1.026 Z-1.339
Y12.261
G03 X85.987 Y14.834 I-2.574 J0.0 F1125.
X83.413 Y12.261 I0.0 J-2.574
G01 Y-12.877 F2000.
G03 X85.987 Y-15.45 I2.574 J0.0 F1125.
X88.56 Y-12.877 I0.0 J2.574
G01 Y-.308 F2000.
Y1.026 Z-1.409
Y12.261
G03 X85.987 Y14.834 I-2.574 J0.0 F1125.
X83.413 Y12.261 I0.0 J-2.574
G01 Y-12.877 F2000.
G03 X85.987 Y-15.45 I2.574 J0.0 F1125.
X88.56 Y-12.877 I0.0 J2.574
G01 Y-.308 F2000.
Y1.026 Z-1.479
Y12.261
G03 X85.987 Y14.834 I-2.574 J0.0 F1125.
X83.413 Y12.261 I0.0 J-2.574
G01 Y-12.877 F2000.
G03 X85.987 Y-15.45 I2.574 J0.0 F1125.
X88.56 Y-12.877 I0.0 J2.574
G01 Y-.308 F2000.
Y1.026 Z-1.549
Y12.261
G03 X85.987 Y14.834 I-2.574 J0.0 F1125.
X83.413 Y12.261 I0.0 J-2.574
G01 Y-12.877 F2000.
G03 X85.987 Y-15.45 I2.574 J0.0 F1125.
X88.56 Y-12.877 I0.0 J2.574
G01 Y-.308 F2000.
Y1.026 Z-1.619
Y12.261
G03 X85.987 Y14.834 I-2.574 J0.0 F1125.
X83.413 Y12.261 I0.0 J-2.574
G01 Y-12.877 F2000.
G03 X85.987 Y-15.45 I2.574 J0.0 F1125.
X88.56 Y-12.877 I0.0 J2.574
G01 Y-.308 F2000.
Y1.026 Z-1.689
Y12.261
G03 X85.987 Y14.834 I-2.574 J0.0 F1125.
X83.413 Y12.261 I0.0 J-2.574
G01 Y-12.877 F2000.
G03 X85.987 Y-15.45 I2.574 J0.0 F1125.
X88.56 Y-12.877 I0.0 J2.574
G01 Y-.308 F2000.
Y1.026 Z-1.759
Y12.261
G03 X85.987 Y14.834 I-2.574 J0.0 F1125.
X83.413 Y12.261 I0.0 J-2.574
G01 Y-12.877 F2000.
G03 X85.987 Y-15.45 I2.574 J0.0 F1125.
X88.56 Y-12.877 I0.0 J2.574
G01 Y-.308 F2000.
Y1.026 Z-1.829
Y12.261
G03 X85.987 Y14.834 I-2.574 J0.0 F1125.
X83.413 Y12.261 I0.0 J-2.574
G01 Y-12.877 F2000.
G03 X85.987 Y-15.45 I2.574 J0.0 F1125.
X88.56 Y-12.877 I0.0 J2.574
G01 Y-.308 F2000.
Y1.026 Z-1.899
Y12.261
G03 X85.987 Y14.834 I-2.574 J0.0 F1125.
X83.413 Y12.261 I0.0 J-2.574
G01 Y-12.877 F2000.
G03 X85.987 Y-15.45 I2.574 J0.0 F1125.
X88.56 Y-12.877 I0.0 J2.574
G01 Y-.308 F2000.
Y1.026 Z-1.969
Y12.261
G03 X85.987 Y14.834 I-2.574 J0.0 F1125.
X83.413 Y12.261 I0.0 J-2.574
G01 Y-12.877 F2000.
G03 X85.987 Y-15.45 I2.574 J0.0 F1125.
X88.56 Y-12.877 I0.0 J2.574
G01 Y1.026 F2000.
X86.56
Z.031
G00 Z2.5
X69.874 Y-2.308
G01 Z2.43
Z-.57 F800.
G03 X71.874 Y-.308 I0.0 J2. F400.
G01 Y12.261 F2000.
G03 X68.893 Y15.242 I-2.981 J0.0 F1197.
X65.962 Y12.804 I0.0 J-2.981
X65.912 Y12.261 I2.931 J-.543
G01 Y-12.877 F2000.
G03 X68.893 Y-15.858 I2.981 J0.0 F1197.
X71.874 Y-12.877 I0.0 J2.981
G01 Y-.308 F2000.
X71.851 Y-.086 Z-.582
X71.83 Y.137 Z-.593
X71.81 Y.359 Z-.605
X71.791 Y.582 Z-.617
X71.774 Y.804 Z-.628
X71.758 Y1.026 Z-.64
Y12.261
G03 X68.893 Y15.125 I-2.865 J0.0 F1178.
X66.09 Y12.849 I0.0 J-2.865
X66.029 Y12.261 I2.803 J-.588
G01 Y-12.877 F2000.
G03 X68.893 Y-15.741 I2.865 J0.0 F1178.
X71.758 Y-12.877 I0.0 J2.865
G01 Y-.308 F2000.
X71.742 Y-.086 Z-.652
X71.728 Y.137 Z-.663
X71.714 Y.359 Z-.675
X71.701 Y.582 Z-.686
X71.688 Y.804 Z-.698
X71.676 Y1.026 Z-.71
Y12.261
G03 X68.893 Y15.044 I-2.783 J0.0 F1164.
X66.173 Y12.849 I0.0 J-2.783
X66.11 Y12.261 I2.72 J-.588
G01 Y-12.877 F2000.
G03 X68.893 Y-15.66 I2.783 J0.0 F1164.
X71.676 Y-12.877 I0.0 J2.783
G01 Y-.308 F2000.
X71.665 Y-.086 Z-.721
X71.654 Y.137 Z-.733
X71.644 Y.359 Z-.745
X71.634 Y.582 Z-.756
X71.624 Y.804 Z-.768
X71.615 Y1.026 Z-.78
Y12.261
G03 X68.893 Y14.983 I-2.722 J0.0 F1153.
X66.171 Y12.261 I0.0 J-2.722
G01 Y-12.877 F2000.
G03 X68.893 Y-15.599 I2.722 J0.0 F1153.
X71.615 Y-12.877 I0.0 J2.722
G01 Y-.308 F2000.
X71.606 Y-.086 Z-.791
X71.598 Y.137 Z-.803
X71.59 Y.359 Z-.815
X71.582 Y.582 Z-.826
X71.575 Y.804 Z-.838
X71.568 Y1.026 Z-.85
Y12.261
G03 X68.893 Y14.935 I-2.674 J0.0 F1144.
X66.219 Y12.261 I0.0 J-2.674
G01 Y-12.877 F2000.
G03 X68.893 Y-15.551 I2.674 J0.0 F1144.
X71.568 Y-12.877 I0.0 J2.674
G01 Y-.308 F2000.
X71.561 Y-.086 Z-.861
X71.554 Y.137 Z-.873
X71.548 Y.359 Z-.885
X71.542 Y.582 Z-.896
X71.537 Y.804 Z-.908
X71.531 Y1.026 Z-.92
Y12.261
G03 X68.893 Y14.899 I-2.638 J0.0 F1138.
X66.255 Y12.261 I0.0 J-2.638
G01 Y-12.877 F2000.
G03 X68.893 Y-15.515 I2.638 J0.0 F1138.
X71.531 Y-12.877 I0.0 J2.638
G01 Y-.308 F2000.
X71.526 Y-.086 Z-.931
X71.521 Y.137 Z-.943
X71.516 Y.359 Z-.955
X71.512 Y.582 Z-.966
X71.508 Y.804 Z-.978
X71.504 Y1.026 Z-.99
Y12.261
G03 X68.893 Y14.871 I-2.61 J0.0 F1132.
X66.283 Y12.261 I0.0 J-2.61
G01 Y-12.877 F2000.
G03 X68.893 Y-15.487 I2.61 J0.0 F1132.
X71.504 Y-12.877 I0.0 J2.61
G01 Y-.308 F2000.
X71.5 Y-.086 Z-1.001
X71.496 Y.137 Z-1.013
X71.493 Y.359 Z-1.024
X71.49 Y.582 Z-1.036
X71.487 Y.804 Z-1.048
X71.484 Y1.026 Z-1.059
Y12.261
G03 X68.893 Y14.852 I-2.591 J0.0 F1129.
X66.302 Y12.261 I0.0 J-2.591
G01 Y-12.877 F2000.
G03 X68.893 Y-15.468 I2.591 J0.0 F1129.
X71.484 Y-12.877 I0.0 J2.591
G01 Y-.308 F2000.
X71.482 Y-.086 Z-1.071
X71.479 Y.137 Z-1.083
X71.477 Y.359 Z-1.094
X71.475 Y.582 Z-1.106
X71.474 Y.804 Z-1.118
X71.472 Y1.026 Z-1.129
Y12.261
G03 X69.64 Y14.729 I-2.579 J0.0 F1126.
X68.893 Y14.84 I-.747 J-2.468
X66.314 Y12.261 I0.0 J-2.579
G01 Y-12.877 F2000.
G03 X68.893 Y-15.456 I2.579 J0.0 F1126.
X71.472 Y-12.877 I0.0 J2.579
G01 Y-.308 F2000.
X71.471 Y-.086 Z-1.141
X71.47 Y.137 Z-1.153
X71.469 Y.359 Z-1.164
X71.468 Y.582 Z-1.176
X71.467 Y.804 Z-1.188
Y1.026 Z-1.199
Y12.261
G03 X68.893 Y14.835 I-2.574 J0.0 F1125.
X66.319 Y12.261 I0.0 J-2.574
G01 Y-12.877 F2000.
G03 X68.893 Y-15.451 I2.574 J0.0 F1125.
X71.467 Y-12.877 I0.0 J2.574
G01 Y-.308 F2000.
Y-.086 Z-1.211
Y.137 Z-1.223
Y1.026 Z-1.269
Y12.261
G03 X68.893 Y14.834 I-2.574 J0.0 F1125.
X66.32 Y12.261 I0.0 J-2.574
G01 Y-12.877 F2000.
G03 X68.893 Y-15.45 I2.574 J0.0 F1125.
X71.467 Y-12.877 I0.0 J2.574
G01 Y-.308 F2000.
Y1.026 Z-1.339
Y12.261
G03 X68.893 Y14.834 I-2.574 J0.0 F1125.
X66.32 Y12.261 I0.0 J-2.574
G01 Y-12.877 F2000.
G03 X68.893 Y-15.45 I2.574 J0.0 F1125.
X71.467 Y-12.877 I0.0 J2.574
G01 Y-.308 F2000.
Y1.026 Z-1.409
Y12.261
G03 X68.893 Y14.834 I-2.574 J0.0 F1125.
X66.32 Y12.261 I0.0 J-2.574
G01 Y-12.877 F2000.
G03 X68.893 Y-15.45 I2.574 J0.0 F1125.
X71.467 Y-12.877 I0.0 J2.574
G01 Y-.308 F2000.
Y1.026 Z-1.479
Y12.261
G03 X68.893 Y14.834 I-2.574 J0.0 F1125.
X66.32 Y12.261 I0.0 J-2.574
G01 Y-12.877 F2000.
G03 X68.893 Y-15.45 I2.574 J0.0 F1125.
X71.467 Y-12.877 I0.0 J2.574
G01 Y-.308 F2000.
Y1.026 Z-1.549
Y12.261
G03 X68.893 Y14.834 I-2.574 J0.0 F1125.
X66.32 Y12.261 I0.0 J-2.574
G01 Y-12.877 F2000.
G03 X68.893 Y-15.45 I2.574 J0.0 F1125.
X71.467 Y-12.877 I0.0 J2.574
G01 Y-.308 F2000.
Y1.026 Z-1.619
Y12.261
G03 X68.893 Y14.834 I-2.574 J0.0 F1125.
X66.32 Y12.261 I0.0 J-2.574
G01 Y-12.877 F2000.
G03 X68.893 Y-15.45 I2.574 J0.0 F1125.
X71.467 Y-12.877 I0.0 J2.574
G01 Y-.308 F2000.
Y1.026 Z-1.689
Y12.261
G03 X68.893 Y14.834 I-2.574 J0.0 F1125.
X66.32 Y12.261 I0.0 J-2.574
G01 Y-12.877 F2000.
G03 X68.893 Y-15.45 I2.574 J0.0 F1125.
X71.467 Y-12.877 I0.0 J2.574
G01 Y-.308 F2000.
Y1.026 Z-1.759
Y12.261
G03 X68.893 Y14.834 I-2.574 J0.0 F1125.
X66.32 Y12.261 I0.0 J-2.574
G01 Y-12.877 F2000.
G03 X68.893 Y-15.45 I2.574 J0.0 F1125.
X71.467 Y-12.877 I0.0 J2.574
G01 Y-.308 F2000.
Y1.026 Z-1.829
Y12.261
G03 X68.893 Y14.834 I-2.574 J0.0 F1125.
X66.32 Y12.261 I0.0 J-2.574
G01 Y-12.877 F2000.
G03 X68.893 Y-15.45 I2.574 J0.0 F1125.
X71.467 Y-12.877 I0.0 J2.574
G01 Y-.308 F2000.
Y1.026 Z-1.899
Y12.261
G03 X68.893 Y14.834 I-2.574 J0.0 F1125.
X66.32 Y12.261 I0.0 J-2.574
G01 Y-12.877 F2000.
G03 X68.893 Y-15.45 I2.574 J0.0 F1125.
X71.467 Y-12.877 I0.0 J2.574
G01 Y-.308 F2000.
Y1.026 Z-1.969
Y12.261
G03 X68.893 Y14.834 I-2.574 J0.0 F1125.
X66.32 Y12.261 I0.0 J-2.574
G01 Y-12.877 F2000.
G03 X68.893 Y-15.45 I2.574 J0.0 F1125.
X71.467 Y-12.877 I0.0 J2.574
G01 Y1.026 F2000.
X69.467
Z.031
G00 Z2.5
X52.784 Y-2.308
G01 Z2.43
Z-.57 F800.
G03 X54.784 Y-.308 I0.0 J2. F400.
G01 Y12.261 F2000.
G03 X51.8 Y15.245 I-2.984 J0.0 F1197.
X48.874 Y12.849 I0.0 J-2.984
X48.815 Y12.261 I2.926 J-.588
G01 Y-12.877 F2000.
G03 X51.8 Y-15.861 I2.984 J0.0 F1197.
X54.784 Y-12.877 I0.0 J2.984
G01 Y-.308 F2000.
X54.761 Y-.086 Z-.582
X54.74 Y.137 Z-.593
X54.72 Y.359 Z-.605
X54.702 Y.582 Z-.617
X54.685 Y.804 Z-.628
X54.669 Y1.026 Z-.64
Y12.261
G03 X51.8 Y15.13 I-2.869 J0.0 F1179.
X48.991 Y12.849 I0.0 J-2.869
X48.93 Y12.261 I2.808 J-.588
G01 Y-12.877 F2000.
G03 X51.8 Y-15.746 I2.869 J0.0 F1179.
X54.669 Y-12.877 I0.0 J2.869
G01 Y-.308 F2000.
X54.654 Y-.086 Z-.652
X54.64 Y.137 Z-.663
X54.626 Y.359 Z-.675
X54.613 Y.582 Z-.686
X54.601 Y.804 Z-.698
X54.589 Y1.026 Z-.71
Y12.261
G03 X51.8 Y15.05 I-2.789 J0.0 F1165.
X49.073 Y12.849 I0.0 J-2.789
X49.011 Y12.261 I2.727 J-.588
G01 Y-12.877 F2000.
G03 X51.8 Y-15.666 I2.789 J0.0 F1165.
X54.589 Y-12.877 I0.0 J2.789
G01 Y-.308 F2000.
X54.578 Y-.086 Z-.721
X54.567 Y.137 Z-.733
X54.557 Y.359 Z-.745
X54.547 Y.582 Z-.756
X54.538 Y.804 Z-.768
X54.529 Y1.026 Z-.78
Y12.261
G03 X51.8 Y14.99 I-2.729 J0.0 F1154.
X49.071 Y12.261 I0.0 J-2.729
G01 Y-12.877 F2000.
G03 X51.8 Y-15.606 I2.729 J0.0 F1154.
X54.529 Y-12.877 I0.0 J2.729
G01 Y-.308 F2000.
X54.52 Y-.086 Z-.791
X54.512 Y.137 Z-.803
X54.504 Y.359 Z-.815
X54.497 Y.582 Z-.826
X54.489 Y.804 Z-.838
X54.482 Y1.026 Z-.85
Y12.261
G03 X51.8 Y14.943 I-2.683 J0.0 F1146.
X49.117 Y12.261 I0.0 J-2.683
G01 Y-12.877 F2000.
G03 X51.8 Y-15.559 I2.683 J0.0 F1146.
X54.482 Y-12.877 I0.0 J2.683
G01 Y-.308 F2000.
X54.476 Y-.086 Z-.861
X54.469 Y.137 Z-.873
X54.463 Y.359 Z-.885
X54.458 Y.582 Z-.896
X54.452 Y.804 Z-.908
X54.447 Y1.026 Z-.92
Y12.261
G03 X51.8 Y14.908 I-2.647 J0.0 F1139.
X49.153 Y12.261 I0.0 J-2.647
G01 Y-12.877 F2000.
G03 X51.8 Y-15.524 I2.647 J0.0 F1139.
X54.447 Y-12.877 I0.0 J2.647
G01 Y-.308 F2000.
X54.442 Y-.086 Z-.931
X54.437 Y.137 Z-.943
X54.433 Y.359 Z-.955
X54.428 Y.582 Z-.966
X54.424 Y.804 Z-.978
X54.421 Y1.026 Z-.99
Y12.261
G03 X51.8 Y14.882 I-2.621 J0.0 F1134.
X49.179 Y12.261 I0.0 J-2.621
G01 Y-12.877 F2000.
G03 X51.8 Y-15.498 I2.621 J0.0 F1134.
X54.421 Y-12.877 I0.0 J2.621
G01 Y-.308 F2000.
X54.417 Y-.086 Z-1.001
X54.414 Y.137 Z-1.013
X54.41 Y.359 Z-1.024
X54.408 Y.582 Z-1.036
X54.405 Y.804 Z-1.048
X54.402 Y1.026 Z-1.059
Y12.261
G03 X51.8 Y14.863 I-2.603 J0.0 F1131.
X49.197 Y12.261 I0.0 J-2.603
G01 Y-12.877 F2000.
G03 X51.8 Y-15.479 I2.603 J0.0 F1131.
X54.402 Y-12.877 I0.0 J2.603
G01 Y-.308 F2000.
X54.4 Y-.086 Z-1.071
X54.398 Y.137 Z-1.083
X54.396 Y.359 Z-1.094
X54.394 Y.582 Z-1.106
X54.393 Y.804 Z-1.118
X54.391 Y1.026 Z-1.129
Y12.261
G03 X51.8 Y14.852 I-2.592 J0.0 F1129.
X49.208 Y12.261 I0.0 J-2.592
G01 Y-12.877 F2000.
G03 X51.8 Y-15.468 I2.592 J0.0 F1129.
X54.391 Y-12.877 I0.0 J2.592
G01 Y-.308 F2000.
X54.39 Y-.086 Z-1.141
X54.389 Y.137 Z-1.153
Y.359 Z-1.164
X54.388 Y.582 Z-1.176
Y.804 Z-1.188
X54.389 Y1.026 Z-1.199
Y12.261
G03 X51.8 Y14.85 I-2.589 J0.0 F1128.
X49.211 Y12.261 I0.0 J-2.589
G01 Y-12.882 F2000.
G03 X51.8 Y-15.466 I2.589 J.005 F1128.
X54.389 Y-12.887 I0.0 J2.589
G01 Y-.308 F2000.
X54.388 Y-.086 Z-1.211
Y.137 Z-1.223
Y1.026 Z-1.269
Y12.261
G03 X51.8 Y14.849 I-2.588 J0.0 F1128.
X49.211 Y12.261 I0.0 J-2.588
G01 Y-12.877 F2000.
G03 X51.8 Y-15.465 I2.588 J0.0 F1128.
X54.388 Y-12.877 I0.0 J2.588
G01 Y-.308 F2000.
Y1.026 Z-1.339
Y12.261
G03 X51.8 Y14.849 I-2.588 J0.0 F1128.
X49.211 Y12.261 I0.0 J-2.588
G01 Y-12.877 F2000.
G03 X51.8 Y-15.465 I2.588 J0.0 F1128.
X54.388 Y-12.877 I0.0 J2.588
G01 Y-.308 F2000.
Y1.026 Z-1.409
Y12.261
G03 X51.8 Y14.849 I-2.588 J0.0 F1128.
X49.211 Y12.261 I0.0 J-2.588
G01 Y-12.877 F2000.
G03 X51.8 Y-15.465 I2.588 J0.0 F1128.
X54.388 Y-12.877 I0.0 J2.588
G01 Y-.308 F2000.
Y1.026 Z-1.479
Y12.261
G03 X51.8 Y14.849 I-2.588 J0.0 F1128.
X49.211 Y12.261 I0.0 J-2.588
G01 Y-12.877 F2000.
G03 X51.8 Y-15.465 I2.588 J0.0 F1128.
X54.388 Y-12.877 I0.0 J2.588
G01 Y-.308 F2000.
Y1.026 Z-1.549
Y12.261
G03 X51.8 Y14.849 I-2.588 J0.0 F1128.
X49.211 Y12.261 I0.0 J-2.588
G01 Y-12.877 F2000.
G03 X51.8 Y-15.465 I2.588 J0.0 F1128.
X54.388 Y-12.877 I0.0 J2.588
G01 Y-.308 F2000.
Y1.026 Z-1.619
Y12.261
G03 X51.8 Y14.849 I-2.588 J0.0 F1128.
X49.211 Y12.261 I0.0 J-2.588
G01 Y-12.877 F2000.
G03 X51.8 Y-15.465 I2.588 J0.0 F1128.
X54.388 Y-12.877 I0.0 J2.588
G01 Y-.308 F2000.
Y1.026 Z-1.689
Y12.261
G03 X51.8 Y14.849 I-2.588 J0.0 F1128.
X49.211 Y12.261 I0.0 J-2.588
G01 Y-12.877 F2000.
G03 X51.8 Y-15.465 I2.588 J0.0 F1128.
X54.388 Y-12.877 I0.0 J2.588
G01 Y-.308 F2000.
Y1.026 Z-1.759
Y12.261
G03 X51.8 Y14.849 I-2.588 J0.0 F1128.
X49.211 Y12.261 I0.0 J-2.588
G01 Y-12.877 F2000.
G03 X51.8 Y-15.465 I2.588 J0.0 F1128.
X54.388 Y-12.877 I0.0 J2.588
G01 Y-.308 F2000.
Y1.026 Z-1.829
Y12.261
G03 X51.8 Y14.849 I-2.588 J0.0 F1128.
X49.211 Y12.261 I0.0 J-2.588
G01 Y-12.877 F2000.
G03 X51.8 Y-15.465 I2.588 J0.0 F1128.
X54.388 Y-12.877 I0.0 J2.588
G01 Y-.308 F2000.
Y1.026 Z-1.899
Y12.261
G03 X51.8 Y14.849 I-2.588 J0.0 F1128.
X49.211 Y12.261 I0.0 J-2.588
G01 Y-12.877 F2000.
G03 X51.8 Y-15.465 I2.588 J0.0 F1128.
X54.388 Y-12.877 I0.0 J2.588
G01 Y-.308 F2000.
Y1.026 Z-1.969
Y12.261
G03 X51.8 Y14.849 I-2.588 J0.0 F1128.
X49.211 Y12.261 I0.0 J-2.588
G01 Y-12.877 F2000.
G03 X51.8 Y-15.465 I2.588 J0.0 F1128.
X54.388 Y-12.877 I0.0 J2.588
G01 Y1.026 F2000.
X52.388
Z.031
G00 Z2.5
X35.691 Y-2.308
G01 Z2.43
Z-.57 F800.
G03 X37.691 Y-.308 I0.0 J2. F400.
G01 Y12.261 F2000.
G03 X34.706 Y15.245 I-2.984 J0.0 F1197.
X31.781 Y12.849 I0.0 J-2.984
X31.722 Y12.261 I2.926 J-.588
G01 Y-12.877 F2000.
G03 X34.706 Y-15.861 I2.984 J0.0 F1197.
X37.691 Y-12.877 I0.0 J2.984
G01 Y-.308 F2000.
X37.667 Y-.086 Z-.582
X37.646 Y.137 Z-.593
X37.627 Y.359 Z-.605
X37.609 Y.582 Z-.617
X37.592 Y.804 Z-.628
X37.576 Y1.026 Z-.64
Y12.261
G03 X34.706 Y15.13 I-2.869 J0.0 F1179.
X31.837 Y12.261 I0.0 J-2.869
G01 Y-12.877 F2000.
G03 X34.706 Y-15.746 I2.869 J0.0 F1179.
X37.576 Y-12.877 I0.0 J2.869
G01 Y-.308 F2000.
X37.56 Y-.086 Z-.652
X37.546 Y.137 Z-.663
X37.532 Y.359 Z-.675
X37.52 Y.582 Z-.686
X37.507 Y.804 Z-.698
X37.495 Y1.026 Z-.71
Y12.261
G03 X34.706 Y15.05 I-2.789 J0.0 F1165.
X31.98 Y12.849 I0.0 J-2.789
X31.917 Y12.261 I2.727 J-.588
G01 Y-12.877 F2000.
G03 X34.706 Y-15.666 I2.789 J0.0 F1165.
X37.495 Y-12.877 I0.0 J2.789
G01 Y-.308 F2000.
X37.484 Y-.086 Z-.721
X37.474 Y.137 Z-.733
X37.463 Y.359 Z-.745
X37.454 Y.582 Z-.756
X37.444 Y.804 Z-.768
X37.435 Y1.026 Z-.78
Y12.261
G03 X34.706 Y14.99 I-2.729 J0.0 F1154.
X31.977 Y12.261 I0.0 J-2.729
G01 Y-12.877 F2000.
G03 X34.706 Y-15.606 I2.729 J0.0 F1154.
X37.435 Y-12.877 I0.0 J2.729
G01 Y-.308 F2000.
X37.427 Y-.086 Z-.791
X37.418 Y.137 Z-.803
X37.411 Y.359 Z-.815
X37.403 Y.582 Z-.826
X37.396 Y.804 Z-.838
X37.389 Y1.026 Z-.85
Y12.261
G03 X34.706 Y14.943 I-2.683 J0.0 F1146.
X32.024 Y12.261 I0.0 J-2.683
G01 Y-12.877 F2000.
G03 X34.706 Y-15.559 I2.683 J0.0 F1146.
X37.389 Y-12.877 I0.0 J2.683
G01 Y-.308 F2000.
X37.382 Y-.086 Z-.861
X37.376 Y.137 Z-.873
X37.37 Y.359 Z-.885
X37.364 Y.582 Z-.896
X37.359 Y.804 Z-.908
X37.353 Y1.026 Z-.92
Y12.261
G03 X34.706 Y14.908 I-2.647 J0.0 F1139.
X32.059 Y12.261 I0.0 J-2.647
G01 Y-12.877 F2000.
G03 X34.706 Y-15.524 I2.647 J0.0 F1139.
X37.353 Y-12.877 I0.0 J2.647
G01 Y-.308 F2000.
X37.348 Y-.086 Z-.931
X37.344 Y.137 Z-.943
X37.339 Y.359 Z-.955
X37.335 Y.582 Z-.966
X37.331 Y.804 Z-.978
X37.327 Y1.026 Z-.99
Y12.261
G03 X34.706 Y14.882 I-2.621 J0.0 F1134.
X32.085 Y12.261 I0.0 J-2.621
G01 Y-12.877 F2000.
G03 X34.706 Y-15.498 I2.621 J0.0 F1134.
X37.327 Y-12.877 I0.0 J2.621
G01 Y-.308 F2000.
X37.323 Y-.086 Z-1.001
X37.32 Y.137 Z-1.013
X37.317 Y.359 Z-1.024
X37.314 Y.582 Z-1.036
X37.311 Y.804 Z-1.048
X37.309 Y1.026 Z-1.059
Y12.261
G03 X34.706 Y14.863 I-2.603 J0.0 F1131.
X32.104 Y12.261 I0.0 J-2.603
G01 Y-12.877 F2000.
G03 X34.706 Y-15.479 I2.603 J0.0 F1131.
X37.309 Y-12.877 I0.0 J2.603
G01 Y-.308 F2000.
X37.306 Y-.086 Z-1.071
X37.304 Y.137 Z-1.083
X37.302 Y.359 Z-1.094
X37.301 Y.582 Z-1.106
X37.299 Y.804 Z-1.118
X37.298 Y1.026 Z-1.129
Y12.261
G03 X34.706 Y14.852 I-2.592 J0.0 F1129.
X32.115 Y12.261 I0.0 J-2.592
G01 Y-12.877 F2000.
G03 X34.706 Y-15.468 I2.592 J0.0 F1129.
X37.298 Y-12.877 I0.0 J2.592
G01 Y-.308 F2000.
X37.297 Y-.086 Z-1.141
X37.296 Y.137 Z-1.153
X37.295 Y.359 Z-1.164
Y.582 Z-1.176
X37.294 Y.804 Z-1.188
X37.295 Y1.026 Z-1.199
Y12.261
G03 X34.706 Y14.85 I-2.589 J0.0 F1128.
X32.117 Y12.261 I0.0 J-2.589
G01 Y-12.885 F2000.
G03 X34.706 Y-15.466 I2.589 J.008 F1128.
X37.295 Y-12.884 I0.0 J2.589
G01 Y-.308 F2000.
X37.294 Y-.086 Z-1.211
X37.295 Y.137 Z-1.223
Y1.026 Z-1.269
Y12.261
G03 X34.706 Y14.849 I-2.588 J0.0 F1128.
X32.118 Y12.261 I0.0 J-2.588
G01 Y-12.877 F2000.
G03 X34.706 Y-15.465 I2.588 J0.0 F1128.
X37.295 Y-12.877 I0.0 J2.588
G01 Y-.308 F2000.
Y1.026 Z-1.339
Y12.261
G03 X34.706 Y14.849 I-2.588 J0.0 F1128.
X32.118 Y12.261 I0.0 J-2.588
G01 Y-12.877 F2000.
G03 X34.706 Y-15.465 I2.588 J0.0 F1128.
X37.295 Y-12.877 I0.0 J2.588
G01 Y-.308 F2000.
Y1.026 Z-1.409
Y12.261
G03 X34.706 Y14.849 I-2.588 J0.0 F1128.
X32.118 Y12.261 I0.0 J-2.588
G01 Y-12.877 F2000.
G03 X34.706 Y-15.465 I2.588 J0.0 F1128.
X37.295 Y-12.877 I0.0 J2.588
G01 Y-.308 F2000.
Y1.026 Z-1.479
Y12.261
G03 X34.706 Y14.849 I-2.588 J0.0 F1128.
X32.118 Y12.261 I0.0 J-2.588
G01 Y-12.877 F2000.
G03 X34.706 Y-15.465 I2.588 J0.0 F1128.
X37.295 Y-12.877 I0.0 J2.588
G01 Y-.308 F2000.
Y1.026 Z-1.549
Y12.261
G03 X34.706 Y14.849 I-2.588 J0.0 F1128.
X32.118 Y12.261 I0.0 J-2.588
G01 Y-12.877 F2000.
G03 X34.706 Y-15.465 I2.588 J0.0 F1128.
X37.295 Y-12.877 I0.0 J2.588
G01 Y-.308 F2000.
Y1.026 Z-1.619
Y12.261
G03 X34.706 Y14.849 I-2.588 J0.0 F1128.
X32.118 Y12.261 I0.0 J-2.588
G01 Y-12.877 F2000.
G03 X34.706 Y-15.465 I2.588 J0.0 F1128.
X37.295 Y-12.877 I0.0 J2.588
G01 Y-.308 F2000.
Y1.026 Z-1.689
Y12.261
G03 X34.706 Y14.849 I-2.588 J0.0 F1128.
X32.118 Y12.261 I0.0 J-2.588
G01 Y-12.877 F2000.
G03 X34.706 Y-15.465 I2.588 J0.0 F1128.
X37.295 Y-12.877 I0.0 J2.588
G01 Y-.308 F2000.
Y1.026 Z-1.759
Y12.261
G03 X34.706 Y14.849 I-2.588 J0.0 F1128.
X32.118 Y12.261 I0.0 J-2.588
G01 Y-12.877 F2000.
G03 X34.706 Y-15.465 I2.588 J0.0 F1128.
X37.295 Y-12.877 I0.0 J2.588
G01 Y-.308 F2000.
Y1.026 Z-1.829
Y12.261
G03 X34.706 Y14.849 I-2.588 J0.0 F1128.
X32.118 Y12.261 I0.0 J-2.588
G01 Y-12.877 F2000.
G03 X34.706 Y-15.465 I2.588 J0.0 F1128.
X37.295 Y-12.877 I0.0 J2.588
G01 Y-.308 F2000.
Y1.026 Z-1.899
Y12.261
G03 X34.706 Y14.849 I-2.588 J0.0 F1128.
X32.118 Y12.261 I0.0 J-2.588
G01 Y-12.877 F2000.
G03 X34.706 Y-15.465 I2.588 J0.0 F1128.
X37.295 Y-12.877 I0.0 J2.588
G01 Y-.308 F2000.
Y1.026 Z-1.969
Y12.261
G03 X34.706 Y14.849 I-2.588 J0.0 F1128.
X32.118 Y12.261 I0.0 J-2.588
G01 Y-12.877 F2000.
G03 X34.706 Y-15.465 I2.588 J0.0 F1128.
X37.295 Y-12.877 I0.0 J2.588
G01 Y1.026 F2000.
X35.295
Z.031
G00 Z2.5
X18.597 Y-2.308
G01 Z2.43
Z-.57 F800.
G03 X20.597 Y-.308 I0.0 J2. F400.
G01 Y12.261 F2000.
G03 X17.613 Y15.245 I-2.984 J0.0 F1197.
X14.687 Y12.849 I0.0 J-2.984
X14.628 Y12.261 I2.926 J-.588
G01 Y-12.877 F2000.
G03 X17.613 Y-15.861 I2.984 J0.0 F1197.
X20.597 Y-12.877 I0.0 J2.984
G01 Y-.308 F2000.
X20.574 Y-.086 Z-.582
X20.553 Y.137 Z-.593
X20.533 Y.359 Z-.605
X20.515 Y.582 Z-.617
X20.498 Y.804 Z-.628
X20.482 Y1.026 Z-.64
Y12.261
G03 X17.613 Y15.13 I-2.869 J0.0 F1179.
X14.804 Y12.849 I0.0 J-2.869
X14.743 Y12.261 I2.808 J-.588
G01 Y-12.877 F2000.
G03 X17.613 Y-15.746 I2.869 J0.0 F1179.
X20.482 Y-12.877 I0.0 J2.869
G01 Y-.308 F2000.
X20.467 Y-.086 Z-.652
X20.453 Y.137 Z-.663
X20.439 Y.359 Z-.675
X20.426 Y.582 Z-.686
X20.414 Y.804 Z-.698
X20.402 Y1.026 Z-.71
Y12.261
G03 X17.613 Y15.05 I-2.789 J0.0 F1165.
X14.824 Y12.261 I0.0 J-2.789
G01 Y-12.877 F2000.
G03 X17.613 Y-15.666 I2.789 J0.0 F1165.
X20.402 Y-12.877 I0.0 J2.789
G01 Y-.308 F2000.
X20.391 Y-.086 Z-.721
X20.38 Y.137 Z-.733
X20.37 Y.359 Z-.745
X20.36 Y.582 Z-.756
X20.351 Y.804 Z-.768
X20.342 Y1.026 Z-.78
Y12.261
G03 X17.613 Y14.99 I-2.729 J0.0 F1154.
X14.884 Y12.261 I0.0 J-2.729
G01 Y-12.877 F2000.
G03 X17.613 Y-15.606 I2.729 J0.0 F1154.
X20.342 Y-12.877 I0.0 J2.729
G01 Y-.308 F2000.
X20.333 Y-.086 Z-.791
X20.325 Y.137 Z-.803
X20.317 Y.359 Z-.815
X20.31 Y.582 Z-.826
X20.302 Y.804 Z-.838
X20.295 Y1.026 Z-.85
Y12.261
G03 X17.613 Y14.943 I-2.683 J0.0 F1146.
X14.93 Y12.261 I0.0 J-2.683
G01 Y-12.877 F2000.
G03 X17.613 Y-15.559 I2.683 J0.0 F1146.
X20.295 Y-12.877 I0.0 J2.683
G01 Y-.308 F2000.
X20.289 Y-.086 Z-.861
X20.282 Y.137 Z-.873
X20.276 Y.359 Z-.885
X20.271 Y.582 Z-.896
X20.265 Y.804 Z-.908
X20.26 Y1.026 Z-.92
Y12.261
G03 X17.613 Y14.908 I-2.647 J0.0 F1139.
X14.966 Y12.261 I0.0 J-2.647
G01 Y-12.877 F2000.
G03 X17.613 Y-15.524 I2.647 J0.0 F1139.
X20.26 Y-12.877 I0.0 J2.647
G01 Y-.308 F2000.
X20.255 Y-.086 Z-.931
X20.25 Y.137 Z-.943
X20.246 Y.359 Z-.955
X20.241 Y.582 Z-.966
X20.237 Y.804 Z-.978
X20.234 Y1.026 Z-.99
Y12.261
G03 X17.613 Y14.882 I-2.621 J0.0 F1134.
X14.992 Y12.261 I0.0 J-2.621
G01 Y-12.877 F2000.
G03 X17.613 Y-15.498 I2.621 J0.0 F1134.
X20.234 Y-12.877 I0.0 J2.621
G01 Y-.308 F2000.
X20.23 Y-.086 Z-1.001
X20.227 Y.137 Z-1.013
X20.223 Y.359 Z-1.024
X20.221 Y.582 Z-1.036
X20.218 Y.804 Z-1.048
X20.215 Y1.026 Z-1.059
Y12.261
G03 X17.613 Y14.863 I-2.603 J0.0 F1131.
X15.01 Y12.261 I0.0 J-2.603
G01 Y-12.877 F2000.
G03 X17.613 Y-15.479 I2.603 J0.0 F1131.
X20.215 Y-12.877 I0.0 J2.603
G01 Y-.308 F2000.
X20.213 Y-.086 Z-1.071
X20.211 Y.137 Z-1.083
X20.209 Y.359 Z-1.094
X20.207 Y.582 Z-1.106
X20.206 Y.804 Z-1.118
X20.204 Y1.026 Z-1.129
Y12.261
G03 X17.613 Y14.852 I-2.592 J0.0 F1129.
X15.021 Y12.261 I0.0 J-2.592
G01 Y-12.877 F2000.
G03 X17.613 Y-15.468 I2.592 J0.0 F1129.
X20.204 Y-12.877 I0.0 J2.592
G01 Y-.308 F2000.
X20.203 Y-.086 Z-1.141
X20.202 Y.137 Z-1.153
Y.359 Z-1.164
X20.201 Y.582 Z-1.176
Y.804 Z-1.188
X20.202 Y1.026 Z-1.199
Y12.261
G03 X17.613 Y14.85 I-2.589 J0.0 F1128.
X15.024 Y12.261 I0.0 J-2.589
G01 Y-12.888 F2000.
G03 X17.613 Y-15.466 I2.589 J.011 F1128.
X20.202 Y-12.881 I0.0 J2.589
G01 Y-.308 F2000.
X20.201 Y-.086 Z-1.211
Y.137 Z-1.223
Y1.026 Z-1.269
Y12.261
G03 X17.613 Y14.849 I-2.588 J0.0 F1128.
X15.024 Y12.261 I0.0 J-2.588
G01 Y-12.877 F2000.
G03 X17.613 Y-15.465 I2.588 J0.0 F1128.
X20.201 Y-12.877 I0.0 J2.588
G01 Y-.308 F2000.
Y1.026 Z-1.339
Y12.261
G03 X17.613 Y14.849 I-2.588 J0.0 F1128.
X15.024 Y12.261 I0.0 J-2.588
G01 Y-12.877 F2000.
G03 X17.613 Y-15.465 I2.588 J0.0 F1128.
X20.201 Y-12.877 I0.0 J2.588
G01 Y-.308 F2000.
Y1.026 Z-1.409
Y12.261
G03 X17.613 Y14.849 I-2.588 J0.0 F1128.
X15.024 Y12.261 I0.0 J-2.588
G01 Y-12.877 F2000.
G03 X17.613 Y-15.465 I2.588 J0.0 F1128.
X20.201 Y-12.877 I0.0 J2.588
G01 Y-.308 F2000.
Y1.026 Z-1.479
Y12.261
G03 X17.613 Y14.849 I-2.588 J0.0 F1128.
X15.024 Y12.261 I0.0 J-2.588
G01 Y-12.877 F2000.
G03 X17.613 Y-15.465 I2.588 J0.0 F1128.
X20.201 Y-12.877 I0.0 J2.588
G01 Y-.308 F2000.
Y1.026 Z-1.549
Y12.261
G03 X17.613 Y14.849 I-2.588 J0.0 F1128.
X15.024 Y12.261 I0.0 J-2.588
G01 Y-12.877 F2000.
G03 X17.613 Y-15.465 I2.588 J0.0 F1128.
X20.201 Y-12.877 I0.0 J2.588
G01 Y-.308 F2000.
Y1.026 Z-1.619
Y12.261
G03 X17.613 Y14.849 I-2.588 J0.0 F1128.
X15.024 Y12.261 I0.0 J-2.588
G01 Y-12.877 F2000.
G03 X17.613 Y-15.465 I2.588 J0.0 F1128.
X20.201 Y-12.877 I0.0 J2.588
G01 Y-.308 F2000.
Y1.026 Z-1.689
Y12.261
G03 X17.613 Y14.849 I-2.588 J0.0 F1128.
X15.024 Y12.261 I0.0 J-2.588
G01 Y-12.877 F2000.
G03 X17.613 Y-15.465 I2.588 J0.0 F1128.
X20.201 Y-12.877 I0.0 J2.588
G01 Y-.308 F2000.
Y1.026 Z-1.759
Y12.261
G03 X17.613 Y14.849 I-2.588 J0.0 F1128.
X15.024 Y12.261 I0.0 J-2.588
G01 Y-12.877 F2000.
G03 X17.613 Y-15.465 I2.588 J0.0 F1128.
X20.201 Y-12.877 I0.0 J2.588
G01 Y-.308 F2000.
Y1.026 Z-1.829
Y12.261
G03 X17.613 Y14.849 I-2.588 J0.0 F1128.
X15.024 Y12.261 I0.0 J-2.588
G01 Y-12.877 F2000.
G03 X17.613 Y-15.465 I2.588 J0.0 F1128.
X20.201 Y-12.877 I0.0 J2.588
G01 Y-.308 F2000.
Y1.026 Z-1.899
Y12.261
G03 X17.613 Y14.849 I-2.588 J0.0 F1128.
X15.024 Y12.261 I0.0 J-2.588
G01 Y-12.877 F2000.
G03 X17.613 Y-15.465 I2.588 J0.0 F1128.
X20.201 Y-12.877 I0.0 J2.588
G01 Y-.308 F2000.
Y1.026 Z-1.969
Y12.261
G03 X17.613 Y14.849 I-2.588 J0.0 F1128.
X15.024 Y12.261 I0.0 J-2.588
G01 Y-12.877 F2000.
G03 X17.613 Y-15.465 I2.588 J0.0 F1128.
X20.201 Y-12.877 I0.0 J2.588
G01 Y1.026 F2000.
X18.201
Z.031
G00 Z2.5
X1.504 Y-2.308
G01 Z2.43
Z-.57 F800.
G03 X3.504 Y-.308 I0.0 J2. F400.
G01 Y12.261 F2000.
G03 X.519 Y15.245 I-2.984 J0.0 F1197.
X-2.465 Y12.261 I0.0 J-2.984
G01 Y-12.877 F2000.
G03 X.519 Y-15.861 I2.984 J0.0 F1197.
X3.504 Y-12.877 I0.0 J2.984
G01 Y-.308 F2000.
X3.48 Y-.086 Z-.582
X3.459 Y.137 Z-.593
X3.44 Y.359 Z-.605
X3.422 Y.582 Z-.617
X3.405 Y.804 Z-.628
X3.389 Y1.026 Z-.64
Y12.261
G03 X.519 Y15.13 I-2.869 J0.0 F1179.
X-2.35 Y12.261 I0.0 J-2.869
G01 Y-12.877 F2000.
G03 X.519 Y-15.746 I2.869 J0.0 F1179.
X3.389 Y-12.877 I0.0 J2.869
G01 Y-.308 F2000.
X3.373 Y-.086 Z-.652
X3.359 Y.137 Z-.663
X3.345 Y.359 Z-.675
X3.333 Y.582 Z-.686
X3.32 Y.804 Z-.698
X3.308 Y1.026 Z-.71
Y12.261
G03 X.519 Y15.05 I-2.789 J0.0 F1165.
X-2.27 Y12.261 I0.0 J-2.789
G01 Y-12.877 F2000.
G03 X.519 Y-15.666 I2.789 J0.0 F1165.
X3.308 Y-12.877 I0.0 J2.789
G01 Y-.308 F2000.
X3.297 Y-.086 Z-.721
X3.287 Y.137 Z-.733
X3.276 Y.359 Z-.745
X3.267 Y.582 Z-.756
X3.257 Y.804 Z-.768
X3.248 Y1.026 Z-.78
Y12.261
G03 X.519 Y14.99 I-2.729 J0.0 F1154.
X-2.21 Y12.261 I0.0 J-2.729
G01 Y-12.877 F2000.
G03 X.519 Y-15.606 I2.729 J0.0 F1154.
X3.248 Y-12.877 I0.0 J2.729
G01 Y-.308 F2000.
X3.24 Y-.086 Z-.791
X3.231 Y.137 Z-.803
X3.224 Y.359 Z-.815
X3.216 Y.582 Z-.826
X3.209 Y.804 Z-.838
X3.202 Y1.026 Z-.85
Y12.261
G03 X.519 Y14.943 I-2.683 J0.0 F1146.
X-2.163 Y12.261 I0.0 J-2.683
G01 Y-12.877 F2000.
G03 X.519 Y-15.559 I2.683 J0.0 F1146.
X3.202 Y-12.877 I0.0 J2.683
G01 Y-.308 F2000.
X3.195 Y-.086 Z-.861
X3.189 Y.137 Z-.873
X3.183 Y.359 Z-.885
X3.177 Y.582 Z-.896
X3.172 Y.804 Z-.908
X3.166 Y1.026 Z-.92
Y12.261
G03 X.519 Y14.908 I-2.647 J0.0 F1139.
X-2.128 Y12.261 I0.0 J-2.647
G01 Y-12.877 F2000.
G03 X.519 Y-15.524 I2.647 J0.0 F1139.
X3.166 Y-12.877 I0.0 J2.647
G01 Y-.308 F2000.
X3.161 Y-.086 Z-.931
X3.157 Y.137 Z-.943
X3.152 Y.359 Z-.955
X3.148 Y.582 Z-.966
X3.144 Y.804 Z-.978
X3.14 Y1.026 Z-.99
Y12.261
G03 X.519 Y14.882 I-2.621 J0.0 F1134.
X-2.102 Y12.261 I0.0 J-2.621
G01 Y-12.877 F2000.
G03 X.519 Y-15.498 I2.621 J0.0 F1134.
X3.14 Y-12.877 I0.0 J2.621
G01 Y-.308 F2000.
X3.136 Y-.086 Z-1.001
X3.133 Y.137 Z-1.013
X3.13 Y.359 Z-1.024
X3.127 Y.582 Z-1.036
X3.124 Y.804 Z-1.048
X3.122 Y1.026 Z-1.059
Y12.261
G03 X.519 Y14.863 I-2.603 J0.0 F1131.
X-2.083 Y12.261 I0.0 J-2.603
G01 Y-12.877 F2000.
G03 X.519 Y-15.479 I2.603 J0.0 F1131.
X3.122 Y-12.877 I0.0 J2.603
G01 Y-.308 F2000.
X3.119 Y-.086 Z-1.071
X3.117 Y.137 Z-1.083
X3.115 Y.359 Z-1.094
X3.114 Y.582 Z-1.106
X3.112 Y.804 Z-1.118
X3.111 Y1.026 Z-1.129
Y12.261
G03 X.519 Y14.852 I-2.592 J0.0 F1129.
X-2.072 Y12.261 I0.0 J-2.592
G01 Y-12.877 F2000.
G03 X.519 Y-15.468 I2.592 J0.0 F1129.
X3.111 Y-12.877 I0.0 J2.592
G01 Y-.308 F2000.
X3.11 Y-.086 Z-1.141
X3.109 Y.137 Z-1.153
X3.108 Y.359 Z-1.164
Y.582 Z-1.176
X3.107 Y.804 Z-1.188
X3.108 Y1.026 Z-1.199
Y12.261
G03 X.519 Y14.85 I-2.589 J0.0 F1128.
X-2.07 Y12.264 I0.0 J-2.589
G01 Y-12.891 F2000.
G03 X.519 Y-15.466 I2.589 J.014 F1128.
X3.108 Y-12.878 I0.0 J2.589
G01 Y-.308 F2000.
X3.107 Y-.086 Z-1.211
X3.108 Y.137 Z-1.223
Y1.026 Z-1.269
Y12.261
G03 X.519 Y14.849 I-2.588 J0.0 F1128.
X-2.069 Y12.261 I0.0 J-2.588
G01 Y-12.877 F2000.
G03 X.519 Y-15.465 I2.588 J0.0 F1128.
X3.108 Y-12.877 I0.0 J2.588
G01 Y-.308 F2000.
Y1.026 Z-1.339
Y12.261
G03 X.519 Y14.849 I-2.588 J0.0 F1128.
X-2.069 Y12.261 I0.0 J-2.588
G01 Y-12.877 F2000.
G03 X.519 Y-15.465 I2.588 J0.0 F1128.
X3.108 Y-12.877 I0.0 J2.588
G01 Y-.308 F2000.
Y1.026 Z-1.409
Y12.261
G03 X.519 Y14.849 I-2.588 J0.0 F1128.
X-2.069 Y12.261 I0.0 J-2.588
G01 Y-12.877 F2000.
G03 X.519 Y-15.465 I2.588 J0.0 F1128.
X3.108 Y-12.877 I0.0 J2.588
G01 Y-.308 F2000.
Y1.026 Z-1.479
Y12.261
G03 X.519 Y14.849 I-2.588 J0.0 F1128.
X-2.069 Y12.261 I0.0 J-2.588
G01 Y-12.877 F2000.
G03 X.519 Y-15.465 I2.588 J0.0 F1128.
X3.108 Y-12.877 I0.0 J2.588
G01 Y-.308 F2000.
Y1.026 Z-1.549
Y12.261
G03 X.519 Y14.849 I-2.588 J0.0 F1128.
X-2.069 Y12.261 I0.0 J-2.588
G01 Y-12.877 F2000.
G03 X.519 Y-15.465 I2.588 J0.0 F1128.
X3.108 Y-12.877 I0.0 J2.588
G01 Y-.308 F2000.
Y1.026 Z-1.619
Y12.261
G03 X.519 Y14.849 I-2.588 J0.0 F1128.
X-2.069 Y12.261 I0.0 J-2.588
G01 Y-12.877 F2000.
G03 X.519 Y-15.465 I2.588 J0.0 F1128.
X3.108 Y-12.877 I0.0 J2.588
G01 Y-.308 F2000.
Y1.026 Z-1.689
Y12.261
G03 X.519 Y14.849 I-2.588 J0.0 F1128.
X-2.069 Y12.261 I0.0 J-2.588
G01 Y-12.877 F2000.
G03 X.519 Y-15.465 I2.588 J0.0 F1128.
X3.108 Y-12.877 I0.0 J2.588
G01 Y-.308 F2000.
Y1.026 Z-1.759
Y12.261
G03 X.519 Y14.849 I-2.588 J0.0 F1128.
X-2.069 Y12.261 I0.0 J-2.588
G01 Y-12.877 F2000.
G03 X.519 Y-15.465 I2.588 J0.0 F1128.
X3.108 Y-12.877 I0.0 J2.588
G01 Y-.308 F2000.
Y1.026 Z-1.829
Y12.261
G03 X.519 Y14.849 I-2.588 J0.0 F1128.
X-2.069 Y12.261 I0.0 J-2.588
G01 Y-12.877 F2000.
G03 X.519 Y-15.465 I2.588 J0.0 F1128.
X3.108 Y-12.877 I0.0 J2.588
G01 Y-.308 F2000.
Y1.026 Z-1.899
Y12.261
G03 X.519 Y14.849 I-2.588 J0.0 F1128.
X-2.069 Y12.261 I0.0 J-2.588
G01 Y-12.877 F2000.
G03 X.519 Y-15.465 I2.588 J0.0 F1128.
X3.108 Y-12.877 I0.0 J2.588
G01 Y-.308 F2000.
Y1.026 Z-1.969
Y12.261
G03 X.519 Y14.849 I-2.588 J0.0 F1128.
X-2.069 Y12.261 I0.0 J-2.588
G01 Y-12.877 F2000.
G03 X.519 Y-15.465 I2.588 J0.0 F1128.
X3.108 Y-12.877 I0.0 J2.588
G01 Y1.026 F2000.
X1.108
Z.031
G00 Z2.5
X-15.59 Y-2.308
G01 Z2.43
Z-.57 F800.
G03 X-13.59 Y-.308 I0.0 J2. F400.
G01 Y12.261 F2000.
G03 X-16.574 Y15.245 I-2.984 J0.0 F1197.
X-19.5 Y12.849 I0.0 J-2.984
X-19.559 Y12.261 I2.926 J-.588
G01 Y-12.877 F2000.
G03 X-16.574 Y-15.861 I2.984 J0.0 F1197.
X-13.59 Y-12.877 I0.0 J2.984
G01 Y-.308 F2000.
X-13.613 Y-.086 Z-.582
X-13.634 Y.137 Z-.593
X-13.654 Y.359 Z-.605
X-13.672 Y.582 Z-.617
X-13.689 Y.804 Z-.628
X-13.705 Y1.026 Z-.64
Y12.261
G03 X-16.574 Y15.13 I-2.869 J0.0 F1179.
X-19.383 Y12.849 I0.0 J-2.869
X-19.444 Y12.261 I2.808 J-.588
G01 Y-12.877 F2000.
G03 X-16.574 Y-15.746 I2.869 J0.0 F1179.
X-13.705 Y-12.877 I0.0 J2.869
G01 Y-.308 F2000.
X-13.72 Y-.086 Z-.652
X-13.734 Y.137 Z-.663
X-13.748 Y.359 Z-.675
X-13.761 Y.582 Z-.686
X-13.773 Y.804 Z-.698
X-13.785 Y1.026 Z-.71
Y12.261
G03 X-16.574 Y15.05 I-2.789 J0.0 F1165.
X-19.301 Y12.849 I0.0 J-2.789
X-19.363 Y12.261 I2.727 J-.588
G01 Y-12.877 F2000.
G03 X-16.574 Y-15.666 I2.789 J0.0 F1165.
X-13.785 Y-12.877 I0.0 J2.789
G01 Y-.308 F2000.
X-13.796 Y-.086 Z-.721
X-13.807 Y.137 Z-.733
X-13.817 Y.359 Z-.745
X-13.827 Y.582 Z-.756
X-13.836 Y.804 Z-.768
X-13.845 Y1.026 Z-.78
Y12.261
G03 X-16.574 Y14.99 I-2.729 J0.0 F1154.
X-19.303 Y12.261 I0.0 J-2.729
G01 Y-12.877 F2000.
G03 X-16.574 Y-15.606 I2.729 J0.0 F1154.
X-13.845 Y-12.877 I0.0 J2.729
G01 Y-.308 F2000.
X-13.854 Y-.086 Z-.791
X-13.862 Y.137 Z-.803
X-13.87 Y.359 Z-.815
X-13.877 Y.582 Z-.826
X-13.885 Y.804 Z-.838
X-13.892 Y1.026 Z-.85
Y12.261
G03 X-16.574 Y14.943 I-2.683 J0.0 F1146.
X-19.257 Y12.261 I0.0 J-2.683
G01 Y-12.877 F2000.
G03 X-16.574 Y-15.559 I2.683 J0.0 F1146.
X-13.892 Y-12.877 I0.0 J2.683
G01 Y-.308 F2000.
X-13.898 Y-.086 Z-.861
X-13.905 Y.137 Z-.873
X-13.911 Y.359 Z-.885
X-13.916 Y.582 Z-.896
X-13.922 Y.804 Z-.908
X-13.927 Y1.026 Z-.92
Y12.261
G03 X-16.574 Y14.908 I-2.647 J0.0 F1139.
X-19.221 Y12.261 I0.0 J-2.647
G01 Y-12.877 F2000.
G03 X-16.574 Y-15.524 I2.647 J0.0 F1139.
X-13.927 Y-12.877 I0.0 J2.647
G01 Y-.308 F2000.
X-13.932 Y-.086 Z-.931
X-13.937 Y.137 Z-.943
X-13.941 Y.359 Z-.955
X-13.946 Y.582 Z-.966
X-13.95 Y.804 Z-.978
X-13.953 Y1.026 Z-.99
Y12.261
G03 X-16.574 Y14.882 I-2.621 J0.0 F1134.
X-19.195 Y12.261 I0.0 J-2.621
G01 Y-12.877 F2000.
G03 X-16.574 Y-15.498 I2.621 J0.0 F1134.
X-13.953 Y-12.877 I0.0 J2.621
G01 Y-.308 F2000.
X-13.957 Y-.086 Z-1.001
X-13.96 Y.137 Z-1.013
X-13.964 Y.359 Z-1.024
X-13.966 Y.582 Z-1.036
X-13.969 Y.804 Z-1.048
X-13.972 Y1.026 Z-1.059
Y12.261
G03 X-16.574 Y14.863 I-2.603 J0.0 F1131.
X-19.177 Y12.261 I0.0 J-2.603
G01 Y-12.877 F2000.
G03 X-16.574 Y-15.479 I2.603 J0.0 F1131.
X-13.972 Y-12.877 I0.0 J2.603
G01 Y-.308 F2000.
X-13.974 Y-.086 Z-1.071
X-13.976 Y.137 Z-1.083
X-13.978 Y.359 Z-1.094
X-13.98 Y.582 Z-1.106
X-13.981 Y.804 Z-1.118
X-13.983 Y1.026 Z-1.129
Y12.261
G03 X-16.574 Y14.852 I-2.592 J0.0 F1129.
X-19.166 Y12.261 I0.0 J-2.592
G01 Y-12.877 F2000.
G03 X-16.574 Y-15.468 I2.592 J0.0 F1129.
X-13.983 Y-12.877 I0.0 J2.592
G01 Y-.308 F2000.
X-13.984 Y-.086 Z-1.141
X-13.985 Y.137 Z-1.153
Y.359 Z-1.164
X-13.986 Y.582 Z-1.176
Y.804 Z-1.188
X-13.985 Y1.026 Z-1.199
Y12.261
G03 X-16.574 Y14.85 I-2.589 J0.0 F1128.
X-19.163 Y12.267 I0.0 J-2.589
G01 Y-12.894 F2000.
G03 X-16.574 Y-15.466 I2.589 J.017 F1128.
X-13.985 Y-12.877 I0.0 J2.589
G01 Y-.308 F2000.
X-13.986 Y-.086 Z-1.211
Y.137 Z-1.223
Y1.026 Z-1.269
Y12.261
G03 X-16.574 Y14.849 I-2.588 J0.0 F1128.
X-19.163 Y12.261 I0.0 J-2.588
G01 Y-12.877 F2000.
G03 X-16.574 Y-15.465 I2.588 J0.0 F1128.
X-13.986 Y-12.877 I0.0 J2.588
G01 Y-.308 F2000.
Y1.026 Z-1.339
Y12.261
G03 X-16.574 Y14.849 I-2.588 J0.0 F1128.
X-19.163 Y12.261 I0.0 J-2.588
G01 Y-12.877 F2000.
G03 X-16.574 Y-15.465 I2.588 J0.0 F1128.
X-13.986 Y-12.877 I0.0 J2.588
G01 Y-.308 F2000.
Y1.026 Z-1.409
Y12.261
G03 X-16.574 Y14.849 I-2.588 J0.0 F1128.
X-19.163 Y12.261 I0.0 J-2.588
G01 Y-12.877 F2000.
G03 X-16.574 Y-15.465 I2.588 J0.0 F1128.
X-13.986 Y-12.877 I0.0 J2.588
G01 Y-.308 F2000.
Y1.026 Z-1.479
Y12.261
G03 X-16.574 Y14.849 I-2.588 J0.0 F1128.
X-19.163 Y12.261 I0.0 J-2.588
G01 Y-12.877 F2000.
G03 X-16.574 Y-15.465 I2.588 J0.0 F1128.
X-13.986 Y-12.877 I0.0 J2.588
G01 Y-.308 F2000.
Y1.026 Z-1.549
Y12.261
G03 X-16.574 Y14.849 I-2.588 J0.0 F1128.
X-19.163 Y12.261 I0.0 J-2.588
G01 Y-12.877 F2000.
G03 X-16.574 Y-15.465 I2.588 J0.0 F1128.
X-13.986 Y-12.877 I0.0 J2.588
G01 Y-.308 F2000.
Y1.026 Z-1.619
Y12.261
G03 X-16.574 Y14.849 I-2.588 J0.0 F1128.
X-19.163 Y12.261 I0.0 J-2.588
G01 Y-12.877 F2000.
G03 X-16.574 Y-15.465 I2.588 J0.0 F1128.
X-13.986 Y-12.877 I0.0 J2.588
G01 Y-.308 F2000.
Y1.026 Z-1.689
Y12.261
G03 X-16.574 Y14.849 I-2.588 J0.0 F1128.
X-19.163 Y12.261 I0.0 J-2.588
G01 Y-12.877 F2000.
G03 X-16.574 Y-15.465 I2.588 J0.0 F1128.
X-13.986 Y-12.877 I0.0 J2.588
G01 Y-.308 F2000.
Y1.026 Z-1.759
Y12.261
G03 X-16.574 Y14.849 I-2.588 J0.0 F1128.
X-19.163 Y12.261 I0.0 J-2.588
G01 Y-12.877 F2000.
G03 X-16.574 Y-15.465 I2.588 J0.0 F1128.
X-13.986 Y-12.877 I0.0 J2.588
G01 Y-.308 F2000.
Y1.026 Z-1.829
Y12.261
G03 X-16.574 Y14.849 I-2.588 J0.0 F1128.
X-19.163 Y12.261 I0.0 J-2.588
G01 Y-12.877 F2000.
G03 X-16.574 Y-15.465 I2.588 J0.0 F1128.
X-13.986 Y-12.877 I0.0 J2.588
G01 Y-.308 F2000.
Y1.026 Z-1.899
Y12.261
G03 X-16.574 Y14.849 I-2.588 J0.0 F1128.
X-19.163 Y12.261 I0.0 J-2.588
G01 Y-12.877 F2000.
G03 X-16.574 Y-15.465 I2.588 J0.0 F1128.
X-13.986 Y-12.877 I0.0 J2.588
G01 Y-.308 F2000.
Y1.026 Z-1.969
Y12.261
G03 X-16.574 Y14.849 I-2.588 J0.0 F1128.
X-19.163 Y12.261 I0.0 J-2.588
G01 Y-12.877 F2000.
G03 X-16.574 Y-15.465 I2.588 J0.0 F1128.
X-13.986 Y-12.877 I0.0 J2.588
G01 Y1.026 F2000.
X-15.986
Z.031
G00 Z2.5
X-32.683 Y-2.308
G01 Z2.43
Z-.57 F800.
G03 X-30.683 Y-.308 I0.0 J2. F400.
G01 Y12.261 F2000.
G03 X-33.668 Y15.245 I-2.984 J0.0 F1197.
X-36.593 Y12.849 I0.0 J-2.984
X-36.652 Y12.261 I2.926 J-.588
G01 Y-12.877 F2000.
G03 X-33.668 Y-15.861 I2.984 J0.0 F1197.
X-30.683 Y-12.877 I0.0 J2.984
G01 Y-.308 F2000.
X-30.707 Y-.086 Z-.582
X-30.728 Y.137 Z-.593
X-30.747 Y.359 Z-.605
X-30.765 Y.582 Z-.617
X-30.782 Y.804 Z-.628
X-30.798 Y1.026 Z-.64
Y12.261
G03 X-33.668 Y15.13 I-2.869 J0.0 F1179.
X-36.476 Y12.849 I0.0 J-2.869
X-36.537 Y12.261 I2.808 J-.588
G01 Y-12.877 F2000.
G03 X-33.668 Y-15.746 I2.869 J0.0 F1179.
X-30.798 Y-12.877 I0.0 J2.869
G01 Y-.308 F2000.
X-30.814 Y-.086 Z-.652
X-30.828 Y.137 Z-.663
X-30.842 Y.359 Z-.675
X-30.854 Y.582 Z-.686
X-30.867 Y.804 Z-.698
X-30.879 Y1.026 Z-.71
Y12.261
G03 X-33.668 Y15.05 I-2.789 J0.0 F1165.
X-36.394 Y12.849 I0.0 J-2.789
X-36.457 Y12.261 I2.727 J-.588
G01 Y-12.877 F2000.
G03 X-33.668 Y-15.666 I2.789 J0.0 F1165.
X-30.879 Y-12.877 I0.0 J2.789
G01 Y-.308 F2000.
X-30.89 Y-.086 Z-.721
X-30.9 Y.137 Z-.733
X-30.911 Y.359 Z-.745
X-30.92 Y.582 Z-.756
X-30.93 Y.804 Z-.768
X-30.939 Y1.026 Z-.78
Y12.261
G03 X-33.668 Y14.99 I-2.729 J0.0 F1154.
X-36.397 Y12.261 I0.0 J-2.729
G01 Y-12.877 F2000.
G03 X-33.668 Y-15.606 I2.729 J0.0 F1154.
X-30.939 Y-12.877 I0.0 J2.729
G01 Y-.308 F2000.
X-30.947 Y-.086 Z-.791
X-30.956 Y.137 Z-.803
X-30.963 Y.359 Z-.815
X-30.971 Y.582 Z-.826
X-30.978 Y.804 Z-.838
X-30.985 Y1.026 Z-.85
Y12.261
G03 X-33.668 Y14.943 I-2.683 J0.0 F1146.
X-36.35 Y12.261 I0.0 J-2.683
G01 Y-12.877 F2000.
G03 X-33.668 Y-15.559 I2.683 J0.0 F1146.
X-30.985 Y-12.877 I0.0 J2.683
G01 Y-.308 F2000.
X-30.992 Y-.086 Z-.861
X-30.998 Y.137 Z-.873
X-31.004 Y.359 Z-.885
X-31.01 Y.582 Z-.896
X-31.015 Y.804 Z-.908
X-31.021 Y1.026 Z-.92
Y12.261
G03 X-33.668 Y14.908 I-2.647 J0.0 F1139.
X-36.315 Y12.261 I0.0 J-2.647
G01 Y-12.877 F2000.
G03 X-33.668 Y-15.524 I2.647 J0.0 F1139.
X-31.021 Y-12.877 I0.0 J2.647
G01 Y-.308 F2000.
X-31.026 Y-.086 Z-.931
X-31.03 Y.137 Z-.943
X-31.035 Y.359 Z-.955
X-31.039 Y.582 Z-.966
X-31.043 Y.804 Z-.978
X-31.047 Y1.026 Z-.99
Y12.261
G03 X-33.668 Y14.882 I-2.621 J0.0 F1134.
X-36.289 Y12.261 I0.0 J-2.621
G01 Y-12.877 F2000.
G03 X-33.668 Y-15.498 I2.621 J0.0 F1134.
X-31.047 Y-12.877 I0.0 J2.621
G01 Y-.308 F2000.
X-31.051 Y-.086 Z-1.001
X-31.054 Y.137 Z-1.013
X-31.057 Y.359 Z-1.024
X-31.06 Y.582 Z-1.036
X-31.063 Y.804 Z-1.048
X-31.065 Y1.026 Z-1.059
Y12.261
G03 X-33.668 Y14.863 I-2.603 J0.0 F1131.
X-36.27 Y12.261 I0.0 J-2.603
G01 Y-12.877 F2000.
G03 X-33.668 Y-15.479 I2.603 J0.0 F1131.
X-31.065 Y-12.877 I0.0 J2.603
G01 Y-.308 F2000.
X-31.068 Y-.086 Z-1.071
X-31.07 Y.137 Z-1.083
X-31.072 Y.359 Z-1.094
X-31.073 Y.582 Z-1.106
X-31.075 Y.804 Z-1.118
X-31.076 Y1.026 Z-1.129
Y12.261
G03 X-33.668 Y14.852 I-2.592 J0.0 F1129.
X-36.259 Y12.261 I0.0 J-2.592
G01 Y-12.877 F2000.
G03 X-33.668 Y-15.468 I2.592 J0.0 F1129.
X-31.076 Y-12.877 I0.0 J2.592
G01 Y-.308 F2000.
X-31.077 Y-.086 Z-1.141
X-31.078 Y.137 Z-1.153
X-31.079 Y.359 Z-1.164
Y.582 Z-1.176
X-31.08 Y.804 Z-1.188
X-31.079 Y1.026 Z-1.199
Y12.261
G03 X-33.668 Y14.85 I-2.589 J0.0 F1128.
X-36.257 Y12.27 I0.0 J-2.589
G01 Y-12.897 F2000.
G03 X-33.668 Y-15.466 I2.589 J.02 F1128.
X-31.079 Y-12.877 I0.0 J2.589
G01 Y-.308 F2000.
X-31.08 Y-.086 Z-1.211
X-31.079 Y.137 Z-1.223
Y1.026 Z-1.269
Y12.261
G03 X-33.668 Y14.849 I-2.588 J0.0 F1128.
X-36.256 Y12.261 I0.0 J-2.588
G01 Y-12.877 F2000.
G03 X-33.668 Y-15.465 I2.588 J0.0 F1128.
X-31.079 Y-12.877 I0.0 J2.588
G01 Y-.308 F2000.
Y1.026 Z-1.339
Y12.261
G03 X-33.668 Y14.849 I-2.588 J0.0 F1128.
X-36.256 Y12.261 I0.0 J-2.588
G01 Y-12.877 F2000.
G03 X-33.668 Y-15.465 I2.588 J0.0 F1128.
X-31.079 Y-12.877 I0.0 J2.588
G01 Y-.308 F2000.
Y1.026 Z-1.409
Y12.261
G03 X-33.668 Y14.849 I-2.588 J0.0 F1128.
X-36.256 Y12.261 I0.0 J-2.588
G01 Y-12.877 F2000.
G03 X-33.668 Y-15.465 I2.588 J0.0 F1128.
X-31.079 Y-12.877 I0.0 J2.588
G01 Y-.308 F2000.
Y1.026 Z-1.479
Y12.261
G03 X-33.668 Y14.849 I-2.588 J0.0 F1128.
X-36.256 Y12.261 I0.0 J-2.588
G01 Y-12.877 F2000.
G03 X-33.668 Y-15.465 I2.588 J0.0 F1128.
X-31.079 Y-12.877 I0.0 J2.588
G01 Y-.308 F2000.
Y1.026 Z-1.549
Y12.261
G03 X-33.668 Y14.849 I-2.588 J0.0 F1128.
X-36.256 Y12.261 I0.0 J-2.588
G01 Y-12.877 F2000.
G03 X-33.668 Y-15.465 I2.588 J0.0 F1128.
X-31.079 Y-12.877 I0.0 J2.588
G01 Y-.308 F2000.
Y1.026 Z-1.619
Y12.261
G03 X-33.668 Y14.849 I-2.588 J0.0 F1128.
X-36.256 Y12.261 I0.0 J-2.588
G01 Y-12.877 F2000.
G03 X-33.668 Y-15.465 I2.588 J0.0 F1128.
X-31.079 Y-12.877 I0.0 J2.588
G01 Y-.308 F2000.
Y1.026 Z-1.689
Y12.261
G03 X-33.668 Y14.849 I-2.588 J0.0 F1128.
X-36.256 Y12.261 I0.0 J-2.588
G01 Y-12.877 F2000.
G03 X-33.668 Y-15.465 I2.588 J0.0 F1128.
X-31.079 Y-12.877 I0.0 J2.588
G01 Y-.308 F2000.
Y1.026 Z-1.759
Y12.261
G03 X-33.668 Y14.849 I-2.588 J0.0 F1128.
X-36.256 Y12.261 I0.0 J-2.588
G01 Y-12.877 F2000.
G03 X-33.668 Y-15.465 I2.588 J0.0 F1128.
X-31.079 Y-12.877 I0.0 J2.588
G01 Y-.308 F2000.
Y1.026 Z-1.829
Y12.261
G03 X-33.668 Y14.849 I-2.588 J0.0 F1128.
X-36.256 Y12.261 I0.0 J-2.588
G01 Y-12.877 F2000.
G03 X-33.668 Y-15.465 I2.588 J0.0 F1128.
X-31.079 Y-12.877 I0.0 J2.588
G01 Y-.308 F2000.
Y1.026 Z-1.899
Y12.261
G03 X-33.668 Y14.849 I-2.588 J0.0 F1128.
X-36.256 Y12.261 I0.0 J-2.588
G01 Y-12.877 F2000.
G03 X-33.668 Y-15.465 I2.588 J0.0 F1128.
X-31.079 Y-12.877 I0.0 J2.588
G01 Y-.308 F2000.
Y1.026 Z-1.969
Y12.261
G03 X-33.668 Y14.849 I-2.588 J0.0 F1128.
X-36.256 Y12.261 I0.0 J-2.588
G01 Y-12.877 F2000.
G03 X-33.668 Y-15.465 I2.588 J0.0 F1128.
X-31.079 Y-12.877 I0.0 J2.588
G01 Y1.026 F2000.
X-33.079
Z.031
G00 Z2.5
X-49.777 Y-2.308
G01 Z2.43
Z-.57 F800.
G03 X-47.777 Y-.308 I0.0 J2. F400.
G01 Y12.261 F2000.
G03 X-50.761 Y15.245 I-2.984 J0.0 F1197.
X-53.687 Y12.849 I0.0 J-2.984
X-53.746 Y12.261 I2.926 J-.588
G01 Y-12.877 F2000.
G03 X-50.761 Y-15.861 I2.984 J0.0 F1197.
X-47.777 Y-12.877 I0.0 J2.984
G01 Y-.308 F2000.
X-47.8 Y-.086 Z-.582
X-47.821 Y.137 Z-.593
X-47.841 Y.359 Z-.605
X-47.859 Y.582 Z-.617
X-47.876 Y.804 Z-.628
X-47.892 Y1.026 Z-.64
Y12.261
G03 X-50.761 Y15.13 I-2.869 J0.0 F1179.
X-53.57 Y12.849 I0.0 J-2.869
X-53.631 Y12.261 I2.808 J-.588
G01 Y-12.877 F2000.
G03 X-50.761 Y-15.746 I2.869 J0.0 F1179.
X-47.892 Y-12.877 I0.0 J2.869
G01 Y-.308 F2000.
X-47.907 Y-.086 Z-.652
X-47.921 Y.137 Z-.663
X-47.935 Y.359 Z-.675
X-47.948 Y.582 Z-.686
X-47.96 Y.804 Z-.698
X-47.972 Y1.026 Z-.71
Y12.261
G03 X-50.761 Y15.05 I-2.789 J0.0 F1165.
X-53.488 Y12.849 I0.0 J-2.789
X-53.55 Y12.261 I2.727 J-.588
G01 Y-12.877 F2000.
G03 X-50.761 Y-15.666 I2.789 J0.0 F1165.
X-47.972 Y-12.877 I0.0 J2.789
G01 Y-.308 F2000.
X-47.983 Y-.086 Z-.721
X-47.994 Y.137 Z-.733
X-48.004 Y.359 Z-.745
X-48.014 Y.582 Z-.756
X-48.023 Y.804 Z-.768
X-48.032 Y1.026 Z-.78
Y12.261
G03 X-50.761 Y14.99 I-2.729 J0.0 F1154.
X-53.49 Y12.261 I0.0 J-2.729
G01 Y-12.877 F2000.
G03 X-50.761 Y-15.606 I2.729 J0.0 F1154.
X-48.032 Y-12.877 I0.0 J2.729
G01 Y-.308 F2000.
X-48.041 Y-.086 Z-.791
X-48.049 Y.137 Z-.803
X-48.057 Y.359 Z-.815
X-48.064 Y.582 Z-.826
X-48.072 Y.804 Z-.838
X-48.079 Y1.026 Z-.85
Y12.261
G03 X-50.761 Y14.943 I-2.683 J0.0 F1146.
X-53.444 Y12.261 I0.0 J-2.683
G01 Y-12.877 F2000.
G03 X-50.761 Y-15.559 I2.683 J0.0 F1146.
X-48.079 Y-12.877 I0.0 J2.683
G01 Y-.308 F2000.
X-48.085 Y-.086 Z-.861
X-48.092 Y.137 Z-.873
X-48.098 Y.359 Z-.885
X-48.103 Y.582 Z-.896
X-48.109 Y.804 Z-.908
X-48.114 Y1.026 Z-.92
Y12.261
G03 X-50.761 Y14.908 I-2.647 J0.0 F1139.
X-53.408 Y12.261 I0.0 J-2.647
G01 Y-12.877 F2000.
G03 X-50.761 Y-15.524 I2.647 J0.0 F1139.
X-48.114 Y-12.877 I0.0 J2.647
G01 Y-.308 F2000.
X-48.119 Y-.086 Z-.931
X-48.124 Y.137 Z-.943
X-48.128 Y.359 Z-.955
X-48.133 Y.582 Z-.966
X-48.137 Y.804 Z-.978
X-48.14 Y1.026 Z-.99
Y12.261
G03 X-50.761 Y14.882 I-2.621 J0.0 F1134.
X-53.382 Y12.261 I0.0 J-2.621
G01 Y-12.877 F2000.
G03 X-50.761 Y-15.498 I2.621 J0.0 F1134.
X-48.14 Y-12.877 I0.0 J2.621
G01 Y-.308 F2000.
X-48.144 Y-.086 Z-1.001
X-48.147 Y.137 Z-1.013
X-48.151 Y.359 Z-1.024
X-48.153 Y.582 Z-1.036
X-48.156 Y.804 Z-1.048
X-48.159 Y1.026 Z-1.059
Y12.261
G03 X-50.761 Y14.863 I-2.603 J0.0 F1131.
X-53.364 Y12.261 I0.0 J-2.603
G01 Y-12.877 F2000.
G03 X-50.761 Y-15.479 I2.603 J0.0 F1131.
X-48.159 Y-12.877 I0.0 J2.603
G01 Y-.308 F2000.
X-48.161 Y-.086 Z-1.071
X-48.163 Y.137 Z-1.083
X-48.165 Y.359 Z-1.094
X-48.167 Y.582 Z-1.106
X-48.168 Y.804 Z-1.118
X-48.17 Y1.026 Z-1.129
Y12.261
G03 X-50.761 Y14.852 I-2.592 J0.0 F1129.
X-53.353 Y12.261 I0.0 J-2.592
G01 Y-12.877 F2000.
G03 X-50.761 Y-15.468 I2.592 J0.0 F1129.
X-48.17 Y-12.877 I0.0 J2.592
G01 Y-.308 F2000.
X-48.171 Y-.086 Z-1.141
X-48.172 Y.137 Z-1.153
Y.359 Z-1.164
X-48.173 Y.582 Z-1.176
Y.804 Z-1.188
X-48.172 Y1.026 Z-1.199
Y12.261
G03 X-50.761 Y14.851 I-2.589 J0.0 F1128.
X-53.35 Y12.308 I0.0 J-2.589
G01 Y-12.884 F2000.
G03 X-50.761 Y-15.465 I2.589 J.008 F1128.
X-48.172 Y-12.877 I0.0 J2.589
G01 Y-.308 F2000.
X-48.173 Y-.086 Z-1.211
Y.137 Z-1.223
Y1.026 Z-1.269
Y12.261
G03 X-50.761 Y14.849 I-2.588 J0.0 F1128.
X-53.35 Y12.261 I0.0 J-2.588
G01 Y-12.877 F2000.
G03 X-50.761 Y-15.465 I2.588 J0.0 F1128.
X-48.173 Y-12.877 I0.0 J2.588
G01 Y-.308 F2000.
Y1.026 Z-1.339
Y12.261
G03 X-50.761 Y14.849 I-2.588 J0.0 F1128.
X-53.35 Y12.261 I0.0 J-2.588
G01 Y-12.877 F2000.
G03 X-50.761 Y-15.465 I2.588 J0.0 F1128.
X-48.173 Y-12.877 I0.0 J2.588
G01 Y-.308 F2000.
Y1.026 Z-1.409
Y12.261
G03 X-50.761 Y14.849 I-2.588 J0.0 F1128.
X-53.35 Y12.261 I0.0 J-2.588
G01 Y-12.877 F2000.
G03 X-50.761 Y-15.465 I2.588 J0.0 F1128.
X-48.173 Y-12.877 I0.0 J2.588
G01 Y-.308 F2000.
Y1.026 Z-1.479
Y12.261
G03 X-50.761 Y14.849 I-2.588 J0.0 F1128.
X-53.35 Y12.261 I0.0 J-2.588
G01 Y-12.877 F2000.
G03 X-50.761 Y-15.465 I2.588 J0.0 F1128.
X-48.173 Y-12.877 I0.0 J2.588
G01 Y-.308 F2000.
Y1.026 Z-1.549
Y12.261
G03 X-50.761 Y14.849 I-2.588 J0.0 F1128.
X-53.35 Y12.261 I0.0 J-2.588
G01 Y-12.877 F2000.
G03 X-50.761 Y-15.465 I2.588 J0.0 F1128.
X-48.173 Y-12.877 I0.0 J2.588
G01 Y-.308 F2000.
Y1.026 Z-1.619
Y12.261
G03 X-50.761 Y14.849 I-2.588 J0.0 F1128.
X-53.35 Y12.261 I0.0 J-2.588
G01 Y-12.877 F2000.
G03 X-50.761 Y-15.465 I2.588 J0.0 F1128.
X-48.173 Y-12.877 I0.0 J2.588
G01 Y-.308 F2000.
Y1.026 Z-1.689
Y12.261
G03 X-50.761 Y14.849 I-2.588 J0.0 F1128.
X-53.35 Y12.261 I0.0 J-2.588
G01 Y-12.877 F2000.
G03 X-50.761 Y-15.465 I2.588 J0.0 F1128.
X-48.173 Y-12.877 I0.0 J2.588
G01 Y-.308 F2000.
Y1.026 Z-1.759
Y12.261
G03 X-50.761 Y14.849 I-2.588 J0.0 F1128.
X-53.35 Y12.261 I0.0 J-2.588
G01 Y-12.877 F2000.
G03 X-50.761 Y-15.465 I2.588 J0.0 F1128.
X-48.173 Y-12.877 I0.0 J2.588
G01 Y-.308 F2000.
Y1.026 Z-1.829
Y12.261
G03 X-50.761 Y14.849 I-2.588 J0.0 F1128.
X-53.35 Y12.261 I0.0 J-2.588
G01 Y-12.877 F2000.
G03 X-50.761 Y-15.465 I2.588 J0.0 F1128.
X-48.173 Y-12.877 I0.0 J2.588
G01 Y-.308 F2000.
Y1.026 Z-1.899
Y12.261
G03 X-50.761 Y14.849 I-2.588 J0.0 F1128.
X-53.35 Y12.261 I0.0 J-2.588
G01 Y-12.877 F2000.
G03 X-50.761 Y-15.465 I2.588 J0.0 F1128.
X-48.173 Y-12.877 I0.0 J2.588
G01 Y-.308 F2000.
Y1.026 Z-1.969
Y12.261
G03 X-50.761 Y14.849 I-2.588 J0.0 F1128.
X-53.35 Y12.261 I0.0 J-2.588
G01 Y-12.877 F2000.
G03 X-50.761 Y-15.465 I2.588 J0.0 F1128.
X-48.173 Y-12.877 I0.0 J2.588
G01 Y1.026 F2000.
X-50.173
Z.031
G00 Z2.5
X-66.87 Y-2.308
G01 Z2.43
Z-.57 F800.
G03 X-64.87 Y-.308 I0.0 J2. F400.
G01 Y12.261 F2000.
G03 X-67.855 Y15.245 I-2.984 J0.0 F1197.
X-70.78 Y12.849 I0.0 J-2.984
X-70.839 Y12.261 I2.926 J-.588
G01 Y-12.877 F2000.
G03 X-67.855 Y-15.861 I2.984 J0.0 F1197.
X-64.87 Y-12.877 I0.0 J2.984
G01 Y-.308 F2000.
X-64.894 Y-.086 Z-.582
X-64.915 Y.137 Z-.593
X-64.934 Y.359 Z-.605
X-64.952 Y.582 Z-.617
X-64.969 Y.804 Z-.628
X-64.985 Y1.026 Z-.64
Y12.261
G03 X-67.855 Y15.13 I-2.869 J0.0 F1179.
X-70.663 Y12.849 I0.0 J-2.869
X-70.724 Y12.261 I2.808 J-.588
G01 Y-12.877 F2000.
G03 X-67.855 Y-15.746 I2.869 J0.0 F1179.
X-64.985 Y-12.877 I0.0 J2.869
G01 Y-.308 F2000.
X-65.001 Y-.086 Z-.652
X-65.015 Y.137 Z-.663
X-65.029 Y.359 Z-.675
X-65.041 Y.582 Z-.686
X-65.054 Y.804 Z-.698
X-65.066 Y1.026 Z-.71
Y12.261
G03 X-67.855 Y15.05 I-2.789 J0.0 F1165.
X-70.581 Y12.849 I0.0 J-2.789
X-70.644 Y12.261 I2.727 J-.588
G01 Y-12.877 F2000.
G03 X-67.855 Y-15.666 I2.789 J0.0 F1165.
X-65.066 Y-12.877 I0.0 J2.789
G01 Y-.308 F2000.
X-65.077 Y-.086 Z-.721
X-65.087 Y.137 Z-.733
X-65.098 Y.359 Z-.745
X-65.107 Y.582 Z-.756
X-65.117 Y.804 Z-.768
X-65.126 Y1.026 Z-.78
Y12.261
G03 X-67.855 Y14.99 I-2.729 J0.0 F1154.
X-70.584 Y12.261 I0.0 J-2.729
G01 Y-12.877 F2000.
G03 X-67.855 Y-15.606 I2.729 J0.0 F1154.
X-65.126 Y-12.877 I0.0 J2.729
G01 Y-.308 F2000.
X-65.134 Y-.086 Z-.791
X-65.143 Y.137 Z-.803
X-65.15 Y.359 Z-.815
X-65.158 Y.582 Z-.826
X-65.165 Y.804 Z-.838
X-65.172 Y1.026 Z-.85
Y12.261
G03 X-67.855 Y14.943 I-2.683 J0.0 F1146.
X-70.537 Y12.261 I0.0 J-2.683
G01 Y-12.877 F2000.
G03 X-67.855 Y-15.559 I2.683 J0.0 F1146.
X-65.172 Y-12.877 I0.0 J2.683
G01 Y-.308 F2000.
X-65.179 Y-.086 Z-.861
X-65.185 Y.137 Z-.873
X-65.191 Y.359 Z-.885
X-65.197 Y.582 Z-.896
X-65.202 Y.804 Z-.908
X-65.208 Y1.026 Z-.92
Y12.261
G03 X-67.855 Y14.908 I-2.647 J0.0 F1139.
X-70.502 Y12.261 I0.0 J-2.647
G01 Y-12.877 F2000.
G03 X-67.855 Y-15.524 I2.647 J0.0 F1139.
X-65.208 Y-12.877 I0.0 J2.647
G01 Y-.308 F2000.
X-65.213 Y-.086 Z-.931
X-65.217 Y.137 Z-.943
X-65.222 Y.359 Z-.955
X-65.226 Y.582 Z-.966
X-65.23 Y.804 Z-.978
X-65.234 Y1.026 Z-.99
Y12.261
G03 X-67.855 Y14.882 I-2.621 J0.0 F1134.
X-70.476 Y12.261 I0.0 J-2.621
G01 Y-12.877 F2000.
G03 X-67.855 Y-15.498 I2.621 J0.0 F1134.
X-65.234 Y-12.877 I0.0 J2.621
G01 Y-.308 F2000.
X-65.238 Y-.086 Z-1.001
X-65.241 Y.137 Z-1.013
X-65.244 Y.359 Z-1.024
X-65.247 Y.582 Z-1.036
X-65.25 Y.804 Z-1.048
X-65.252 Y1.026 Z-1.059
Y12.261
G03 X-67.855 Y14.863 I-2.603 J0.0 F1131.
X-70.457 Y12.261 I0.0 J-2.603
G01 Y-12.877 F2000.
G03 X-67.855 Y-15.479 I2.603 J0.0 F1131.
X-65.252 Y-12.877 I0.0 J2.603
G01 Y-.308 F2000.
X-65.255 Y-.086 Z-1.071
X-65.257 Y.137 Z-1.083
X-65.259 Y.359 Z-1.094
X-65.26 Y.582 Z-1.106
X-65.262 Y.804 Z-1.118
X-65.263 Y1.026 Z-1.129
Y12.261
G03 X-67.855 Y14.852 I-2.592 J0.0 F1129.
X-70.446 Y12.261 I0.0 J-2.592
G01 Y-12.877 F2000.
G03 X-67.855 Y-15.468 I2.592 J0.0 F1129.
X-65.263 Y-12.877 I0.0 J2.592
G01 Y-.308 F2000.
X-65.264 Y-.086 Z-1.141
X-65.265 Y.137 Z-1.153
X-65.266 Y.359 Z-1.164
Y.582 Z-1.176
X-65.267 Y.804 Z-1.188
X-65.266 Y1.026 Z-1.199
Y12.261
G03 X-67.855 Y14.85 I-2.589 J0.0 F1128.
X-70.444 Y12.261 I0.0 J-2.589
G01 Y-12.877 F2000.
G03 X-67.855 Y-15.466 I2.589 J0.0 F1128.
X-65.266 Y-12.877 I0.0 J2.589
G01 Y-.308 F2000.
X-65.267 Y-.086 Z-1.211
X-65.266 Y.137 Z-1.223
Y1.026 Z-1.269
Y12.261
G03 X-67.855 Y14.849 I-2.588 J0.0 F1128.
X-70.443 Y12.261 I0.0 J-2.588
G01 Y-12.877 F2000.
G03 X-67.855 Y-15.465 I2.588 J0.0 F1128.
X-65.266 Y-12.877 I0.0 J2.588
G01 Y-.308 F2000.
Y1.026 Z-1.339
Y12.261
G03 X-67.855 Y14.849 I-2.588 J0.0 F1128.
X-70.443 Y12.261 I0.0 J-2.588
G01 Y-12.877 F2000.
G03 X-67.855 Y-15.465 I2.588 J0.0 F1128.
X-65.266 Y-12.877 I0.0 J2.588
G01 Y-.308 F2000.
Y1.026 Z-1.409
Y12.261
G03 X-67.855 Y14.849 I-2.588 J0.0 F1128.
X-70.443 Y12.261 I0.0 J-2.588
G01 Y-12.877 F2000.
G03 X-67.855 Y-15.465 I2.588 J0.0 F1128.
X-65.266 Y-12.877 I0.0 J2.588
G01 Y-.308 F2000.
Y1.026 Z-1.479
Y12.261
G03 X-67.855 Y14.849 I-2.588 J0.0 F1128.
X-70.443 Y12.261 I0.0 J-2.588
G01 Y-12.877 F2000.
G03 X-67.855 Y-15.465 I2.588 J0.0 F1128.
X-65.266 Y-12.877 I0.0 J2.588
G01 Y-.308 F2000.
Y1.026 Z-1.549
Y12.261
G03 X-67.855 Y14.849 I-2.588 J0.0 F1128.
X-70.443 Y12.261 I0.0 J-2.588
G01 Y-12.877 F2000.
G03 X-67.855 Y-15.465 I2.588 J0.0 F1128.
X-65.266 Y-12.877 I0.0 J2.588
G01 Y-.308 F2000.
Y1.026 Z-1.619
Y12.261
G03 X-67.855 Y14.849 I-2.588 J0.0 F1128.
X-70.443 Y12.261 I0.0 J-2.588
G01 Y-12.877 F2000.
G03 X-67.855 Y-15.465 I2.588 J0.0 F1128.
X-65.266 Y-12.877 I0.0 J2.588
G01 Y-.308 F2000.
Y1.026 Z-1.689
Y12.261
G03 X-67.855 Y14.849 I-2.588 J0.0 F1128.
X-70.443 Y12.261 I0.0 J-2.588
G01 Y-12.877 F2000.
G03 X-67.855 Y-15.465 I2.588 J0.0 F1128.
X-65.266 Y-12.877 I0.0 J2.588
G01 Y-.308 F2000.
Y1.026 Z-1.759
Y12.261
G03 X-67.855 Y14.849 I-2.588 J0.0 F1128.
X-70.443 Y12.261 I0.0 J-2.588
G01 Y-12.877 F2000.
G03 X-67.855 Y-15.465 I2.588 J0.0 F1128.
X-65.266 Y-12.877 I0.0 J2.588
G01 Y-.308 F2000.
Y1.026 Z-1.829
Y12.261
G03 X-67.855 Y14.849 I-2.588 J0.0 F1128.
X-70.443 Y12.261 I0.0 J-2.588
G01 Y-12.877 F2000.
G03 X-67.855 Y-15.465 I2.588 J0.0 F1128.
X-65.266 Y-12.877 I0.0 J2.588
G01 Y-.308 F2000.
Y1.026 Z-1.899
Y12.261
G03 X-67.855 Y14.849 I-2.588 J0.0 F1128.
X-70.443 Y12.261 I0.0 J-2.588
G01 Y-12.877 F2000.
G03 X-67.855 Y-15.465 I2.588 J0.0 F1128.
X-65.266 Y-12.877 I0.0 J2.588
G01 Y-.308 F2000.
Y1.026 Z-1.969
Y12.261
G03 X-67.855 Y14.849 I-2.588 J0.0 F1128.
X-70.443 Y12.261 I0.0 J-2.588
G01 Y-12.877 F2000.
G03 X-67.855 Y-15.465 I2.588 J0.0 F1128.
X-65.266 Y-12.877 I0.0 J2.588
G01 Y1.026 F2000.
X-67.266
Z.031
G00 Z2.5
X-83.964 Y-2.308
G01 Z2.43
Z-.57 F800.
G03 X-81.964 Y-.308 I0.0 J2. F400.
G01 Y12.261 F2000.
G03 X-84.948 Y15.245 I-2.984 J0.0 F1197.
X-87.874 Y12.849 I0.0 J-2.984
X-87.933 Y12.261 I2.926 J-.588
G01 Y-12.877 F2000.
G03 X-84.948 Y-15.861 I2.984 J0.0 F1197.
X-81.964 Y-12.877 I0.0 J2.984
G01 Y-.308 F2000.
X-81.987 Y-.086 Z-.582
X-82.008 Y.137 Z-.593
X-82.028 Y.359 Z-.605
X-82.046 Y.582 Z-.617
X-82.063 Y.804 Z-.628
X-82.079 Y1.026 Z-.64
Y12.261
G03 X-84.948 Y15.13 I-2.869 J0.0 F1179.
X-87.757 Y12.849 I0.0 J-2.869
X-87.818 Y12.261 I2.808 J-.588
G01 Y-12.877 F2000.
G03 X-84.948 Y-15.746 I2.869 J0.0 F1179.
X-82.079 Y-12.877 I0.0 J2.869
G01 Y-.308 F2000.
X-82.094 Y-.086 Z-.652
X-82.108 Y.137 Z-.663
X-82.122 Y.359 Z-.675
X-82.135 Y.582 Z-.686
X-82.147 Y.804 Z-.698
X-82.159 Y1.026 Z-.71
Y12.261
G03 X-84.948 Y15.05 I-2.789 J0.0 F1165.
X-87.675 Y12.849 I0.0 J-2.789
X-87.737 Y12.261 I2.727 J-.588
G01 Y-12.877 F2000.
G03 X-84.948 Y-15.666 I2.789 J0.0 F1165.
X-82.159 Y-12.877 I0.0 J2.789
G01 Y-.308 F2000.
X-82.17 Y-.086 Z-.721
X-82.181 Y.137 Z-.733
X-82.191 Y.359 Z-.745
X-82.201 Y.582 Z-.756
X-82.21 Y.804 Z-.768
X-82.219 Y1.026 Z-.78
Y12.261
G03 X-84.948 Y14.99 I-2.729 J0.0 F1154.
X-87.677 Y12.261 I0.0 J-2.729
G01 Y-12.877 F2000.
G03 X-84.948 Y-15.606 I2.729 J0.0 F1154.
X-82.219 Y-12.877 I0.0 J2.729
G01 Y-.308 F2000.
X-82.228 Y-.086 Z-.791
X-82.236 Y.137 Z-.803
X-82.244 Y.359 Z-.815
X-82.251 Y.582 Z-.826
X-82.259 Y.804 Z-.838
X-82.266 Y1.026 Z-.85
Y12.261
G03 X-84.948 Y14.943 I-2.683 J0.0 F1146.
X-87.631 Y12.261 I0.0 J-2.683
G01 Y-12.877 F2000.
G03 X-84.948 Y-15.559 I2.683 J0.0 F1146.
X-82.266 Y-12.877 I0.0 J2.683
G01 Y-.308 F2000.
X-82.272 Y-.086 Z-.861
X-82.279 Y.137 Z-.873
X-82.285 Y.359 Z-.885
X-82.29 Y.582 Z-.896
X-82.296 Y.804 Z-.908
X-82.301 Y1.026 Z-.92
Y12.261
G03 X-84.948 Y14.908 I-2.647 J0.0 F1139.
X-87.595 Y12.261 I0.0 J-2.647
G01 Y-12.877 F2000.
G03 X-84.948 Y-15.524 I2.647 J0.0 F1139.
X-82.301 Y-12.877 I0.0 J2.647
G01 Y-.308 F2000.
X-82.306 Y-.086 Z-.931
X-82.311 Y.137 Z-.943
X-82.315 Y.359 Z-.955
X-82.32 Y.582 Z-.966
X-82.324 Y.804 Z-.978
X-82.327 Y1.026 Z-.99
Y12.261
G03 X-84.948 Y14.882 I-2.621 J0.0 F1134.
X-87.569 Y12.261 I0.0 J-2.621
G01 Y-12.877 F2000.
G03 X-84.948 Y-15.498 I2.621 J0.0 F1134.
X-82.327 Y-12.877 I0.0 J2.621
G01 Y-.308 F2000.
X-82.331 Y-.086 Z-1.001
X-82.334 Y.137 Z-1.013
X-82.338 Y.359 Z-1.024
X-82.34 Y.582 Z-1.036
X-82.343 Y.804 Z-1.048
X-82.346 Y1.026 Z-1.059
Y12.261
G03 X-84.948 Y14.863 I-2.603 J0.0 F1131.
X-87.551 Y12.261 I0.0 J-2.603
G01 Y-12.877 F2000.
G03 X-84.948 Y-15.479 I2.603 J0.0 F1131.
X-82.346 Y-12.877 I0.0 J2.603
G01 Y-.308 F2000.
X-82.348 Y-.086 Z-1.071
X-82.35 Y.137 Z-1.083
X-82.352 Y.359 Z-1.094
X-82.354 Y.582 Z-1.106
X-82.355 Y.804 Z-1.118
X-82.357 Y1.026 Z-1.129
Y12.261
G03 X-84.948 Y14.852 I-2.592 J0.0 F1129.
X-87.54 Y12.261 I0.0 J-2.592
G01 Y-12.877 F2000.
G03 X-84.948 Y-15.468 I2.592 J0.0 F1129.
X-82.357 Y-12.877 I0.0 J2.592
G01 Y-.308 F2000.
X-82.358 Y-.086 Z-1.141
X-82.359 Y.137 Z-1.153
Y.359 Z-1.164
X-82.36 Y.582 Z-1.176
Y.804 Z-1.188
X-82.359 Y1.026 Z-1.199
Y12.261
G03 X-84.948 Y14.849 I-2.589 J0.0 F1128.
X-87.537 Y12.261 I0.0 J-2.589
G01 Y-12.877 F2000.
G03 X-84.948 Y-15.465 I2.589 J.001 F1128.
X-82.359 Y-12.883 I0.0 J2.589
G01 Y-.308 F2000.
X-82.36 Y-.086 Z-1.211
Y.137 Z-1.223
Y1.026 Z-1.269
Y12.261
G03 X-84.948 Y14.849 I-2.588 J0.0 F1128.
X-87.537 Y12.261 I0.0 J-2.588
G01 Y-12.877 F2000.
G03 X-84.948 Y-15.465 I2.588 J0.0 F1128.
X-82.36 Y-12.877 I0.0 J2.588
G01 Y-.308 F2000.
Y1.026 Z-1.339
Y12.261
G03 X-84.948 Y14.849 I-2.588 J0.0 F1128.
X-87.537 Y12.261 I0.0 J-2.588
G01 Y-12.877 F2000.
G03 X-84.948 Y-15.465 I2.588 J0.0 F1128.
X-82.36 Y-12.877 I0.0 J2.588
G01 Y-.308 F2000.
Y1.026 Z-1.409
Y12.261
G03 X-84.948 Y14.849 I-2.588 J0.0 F1128.
X-87.537 Y12.261 I0.0 J-2.588
G01 Y-12.877 F2000.
G03 X-84.948 Y-15.465 I2.588 J0.0 F1128.
X-82.36 Y-12.877 I0.0 J2.588
G01 Y-.308 F2000.
Y1.026 Z-1.479
Y12.261
G03 X-84.948 Y14.849 I-2.588 J0.0 F1128.
X-87.537 Y12.261 I0.0 J-2.588
G01 Y-12.877 F2000.
G03 X-84.948 Y-15.465 I2.588 J0.0 F1128.
X-82.36 Y-12.877 I0.0 J2.588
G01 Y-.308 F2000.
Y1.026 Z-1.549
Y12.261
G03 X-84.948 Y14.849 I-2.588 J0.0 F1128.
X-87.537 Y12.261 I0.0 J-2.588
G01 Y-12.877 F2000.
G03 X-84.948 Y-15.465 I2.588 J0.0 F1128.
X-82.36 Y-12.877 I0.0 J2.588
G01 Y-.308 F2000.
Y1.026 Z-1.619
Y12.261
G03 X-84.948 Y14.849 I-2.588 J0.0 F1128.
X-87.537 Y12.261 I0.0 J-2.588
G01 Y-12.877 F2000.
G03 X-84.948 Y-15.465 I2.588 J0.0 F1128.
X-82.36 Y-12.877 I0.0 J2.588
G01 Y-.308 F2000.
Y1.026 Z-1.689
Y12.261
G03 X-84.948 Y14.849 I-2.588 J0.0 F1128.
X-87.537 Y12.261 I0.0 J-2.588
G01 Y-12.877 F2000.
G03 X-84.948 Y-15.465 I2.588 J0.0 F1128.
X-82.36 Y-12.877 I0.0 J2.588
G01 Y-.308 F2000.
Y1.026 Z-1.759
Y12.261
G03 X-84.948 Y14.849 I-2.588 J0.0 F1128.
X-87.537 Y12.261 I0.0 J-2.588
G01 Y-12.877 F2000.
G03 X-84.948 Y-15.465 I2.588 J0.0 F1128.
X-82.36 Y-12.877 I0.0 J2.588
G01 Y-.308 F2000.
Y1.026 Z-1.829
Y12.261
G03 X-84.948 Y14.849 I-2.588 J0.0 F1128.
X-87.537 Y12.261 I0.0 J-2.588
G01 Y-12.877 F2000.
G03 X-84.948 Y-15.465 I2.588 J0.0 F1128.
X-82.36 Y-12.877 I0.0 J2.588
G01 Y-.308 F2000.
Y1.026 Z-1.899
Y12.261
G03 X-84.948 Y14.849 I-2.588 J0.0 F1128.
X-87.537 Y12.261 I0.0 J-2.588
G01 Y-12.877 F2000.
G03 X-84.948 Y-15.465 I2.588 J0.0 F1128.
X-82.36 Y-12.877 I0.0 J2.588
G01 Y-.308 F2000.
Y1.026 Z-1.969
Y12.261
G03 X-84.948 Y14.849 I-2.588 J0.0 F1128.
X-87.537 Y12.261 I0.0 J-2.588
G01 Y-12.877 F2000.
G03 X-84.948 Y-15.465 I2.588 J0.0 F1128.
X-82.36 Y-12.877 I0.0 J2.588
G01 Y1.026 F2000.
X-84.36
Z.031
G00 Z2.5
X-101.057 Y-2.308
G01 Z2.43
Z-.57 F800.
G03 X-99.057 Y-.308 I0.0 J2. F400.
G01 Y12.261 F2000.
G03 X-102.042 Y15.245 I-2.984 J0.0 F1197.
X-104.967 Y12.849 I0.0 J-2.984
X-105.026 Y12.261 I2.926 J-.588
G01 Y12.253
Y-12.874 F2000.
Y-12.877 F1197.
G03 X-102.042 Y-15.861 I2.984 J0.0
X-99.057 Y-12.877 I0.0 J2.984
G01 Y-.308 F2000.
X-99.081 Y-.086 Z-.582
X-99.102 Y.137 Z-.593
X-99.121 Y.359 Z-.605
X-99.139 Y.582 Z-.617
X-99.156 Y.804 Z-.628
X-99.172 Y1.026 Z-.64
Y12.261
G03 X-102.042 Y15.13 I-2.869 J0.0 F1179.
X-104.85 Y12.849 I0.0 J-2.869
X-104.911 Y12.261 I2.808 J-.588
G01 Y-12.877 F2000.
G03 X-102.042 Y-15.746 I2.869 J0.0 F1179.
X-99.172 Y-12.877 I0.0 J2.869
G01 Y-.308 F2000.
X-99.188 Y-.086 Z-.652
X-99.202 Y.137 Z-.663
X-99.216 Y.359 Z-.675
X-99.228 Y.582 Z-.686
X-99.241 Y.804 Z-.698
X-99.253 Y1.026 Z-.71
Y12.261
G03 X-102.042 Y15.05 I-2.789 J0.0 F1165.
X-104.768 Y12.849 I0.0 J-2.789
X-104.831 Y12.261 I2.727 J-.588
G01 Y-12.877 F2000.
G03 X-102.042 Y-15.666 I2.789 J0.0 F1165.
X-99.253 Y-12.877 I0.0 J2.789
G01 Y-.308 F2000.
X-99.264 Y-.086 Z-.721
X-99.274 Y.137 Z-.733
X-99.285 Y.359 Z-.745
X-99.294 Y.582 Z-.756
X-99.304 Y.804 Z-.768
X-99.313 Y1.026 Z-.78
Y12.261
G03 X-102.042 Y14.99 I-2.729 J0.0 F1154.
X-104.771 Y12.261 I0.0 J-2.729
G01 Y-12.877 F2000.
G03 X-102.042 Y-15.606 I2.729 J0.0 F1154.
X-99.313 Y-12.877 I0.0 J2.729
G01 Y-.308 F2000.
X-99.321 Y-.086 Z-.791
X-99.33 Y.137 Z-.803
X-99.337 Y.359 Z-.815
X-99.345 Y.582 Z-.826
X-99.352 Y.804 Z-.838
X-99.359 Y1.026 Z-.85
Y12.261
G03 X-102.042 Y14.943 I-2.683 J0.0 F1146.
X-104.724 Y12.261 I0.0 J-2.683
G01 Y-12.877 F2000.
G03 X-102.042 Y-15.559 I2.683 J0.0 F1146.
X-99.359 Y-12.877 I0.0 J2.683
G01 Y-.308 F2000.
X-99.366 Y-.086 Z-.861
X-99.372 Y.137 Z-.873
X-99.378 Y.359 Z-.885
X-99.384 Y.582 Z-.896
X-99.389 Y.804 Z-.908
X-99.395 Y1.026 Z-.92
Y12.261
G03 X-102.042 Y14.908 I-2.647 J0.0 F1139.
X-104.689 Y12.261 I0.0 J-2.647
G01 Y-12.877 F2000.
G03 X-102.042 Y-15.524 I2.647 J0.0 F1139.
X-99.395 Y-12.877 I0.0 J2.647
G01 Y-.308 F2000.
X-99.4 Y-.086 Z-.931
X-99.404 Y.137 Z-.943
X-99.409 Y.359 Z-.955
X-99.413 Y.582 Z-.966
X-99.417 Y.804 Z-.978
X-99.421 Y1.026 Z-.99
Y12.261
G03 X-102.042 Y14.882 I-2.621 J0.0 F1134.
X-104.663 Y12.261 I0.0 J-2.621
G01 Y-12.877 F2000.
G03 X-102.042 Y-15.498 I2.621 J0.0 F1134.
X-99.421 Y-12.877 I0.0 J2.621
G01 Y-.308 F2000.
X-99.425 Y-.086 Z-1.001
X-99.428 Y.137 Z-1.013
X-99.431 Y.359 Z-1.024
X-99.434 Y.582 Z-1.036
X-99.437 Y.804 Z-1.048
X-99.439 Y1.026 Z-1.059
Y12.261
G03 X-102.042 Y14.863 I-2.603 J0.0 F1131.
X-104.644 Y12.261 I0.0 J-2.603
G01 Y-12.877 F2000.
G03 X-102.042 Y-15.479 I2.603 J0.0 F1131.
X-99.439 Y-12.877 I0.0 J2.603
G01 Y-.308 F2000.
X-99.442 Y-.086 Z-1.071
X-99.444 Y.137 Z-1.083
X-99.446 Y.359 Z-1.094
X-99.447 Y.582 Z-1.106
X-99.449 Y.804 Z-1.118
X-99.45 Y1.026 Z-1.129
Y12.261
G03 X-102.042 Y14.852 I-2.592 J0.0 F1129.
X-104.633 Y12.261 I0.0 J-2.592
G01 Y-12.877 F2000.
G03 X-102.042 Y-15.468 I2.592 J0.0 F1129.
X-99.45 Y-12.877 I0.0 J2.592
G01 Y-.308 F2000.
X-99.451 Y-.086 Z-1.141
X-99.452 Y.137 Z-1.153
X-99.453 Y.359 Z-1.164
Y.582 Z-1.176
X-99.454 Y.804 Z-1.188
X-99.453 Y1.026 Z-1.199
Y12.27
G03 X-100.68 Y14.461 I-2.585 J-.008 F1128.
X-102.042 Y14.849 I-1.362 J-2.2
X-103.835 Y14.127 I0.0 J-2.588
X-104.631 Y12.263 I1.785 J-1.864 F1127.
G01 Y12.261
Y-12.877 F2000.
G03 X-102.042 Y-15.466 I2.589 J0.0 F1128.
X-99.453 Y-12.897 I0.0 J2.589
G01 Y-.308 F2000.
X-99.454 Y-.086 Z-1.211
X-99.453 Y.137 Z-1.223
Y1.026 Z-1.269
Y12.261
G03 X-102.042 Y14.849 I-2.588 J0.0 F1128.
X-104.63 Y12.261 I0.0 J-2.588
G01 Y-12.877 F2000.
G03 X-102.042 Y-15.465 I2.588 J0.0 F1128.
X-99.453 Y-12.877 I0.0 J2.588
G01 Y-.308 F2000.
Y1.026 Z-1.339
Y12.261
G03 X-102.042 Y14.849 I-2.588 J0.0 F1128.
X-104.63 Y12.261 I0.0 J-2.588
G01 Y-12.877 F2000.
G03 X-102.042 Y-15.465 I2.588 J0.0 F1128.
X-99.453 Y-12.877 I0.0 J2.588
G01 Y-.308 F2000.
Y1.026 Z-1.409
Y12.261
G03 X-102.042 Y14.849 I-2.588 J0.0 F1128.
X-104.63 Y12.261 I0.0 J-2.588
G01 Y-12.877 F2000.
G03 X-102.042 Y-15.465 I2.588 J0.0 F1128.
X-99.453 Y-12.877 I0.0 J2.588
G01 Y-.308 F2000.
Y1.026 Z-1.479
Y12.261
G03 X-102.042 Y14.849 I-2.588 J0.0 F1128.
X-104.63 Y12.261 I0.0 J-2.588
G01 Y-12.877 F2000.
G03 X-102.042 Y-15.465 I2.588 J0.0 F1128.
X-99.453 Y-12.877 I0.0 J2.588
G01 Y-.308 F2000.
Y1.026 Z-1.549
Y12.261
G03 X-102.042 Y14.849 I-2.588 J0.0 F1128.
X-104.63 Y12.261 I0.0 J-2.588
G01 Y-12.877 F2000.
G03 X-102.042 Y-15.465 I2.588 J0.0 F1128.
X-99.453 Y-12.877 I0.0 J2.588
G01 Y-.308 F2000.
Y1.026 Z-1.619
Y12.261
G03 X-102.042 Y14.849 I-2.588 J0.0 F1128.
X-104.63 Y12.261 I0.0 J-2.588
G01 Y-12.877 F2000.
G03 X-102.042 Y-15.465 I2.588 J0.0 F1128.
X-99.453 Y-12.877 I0.0 J2.588
G01 Y-.308 F2000.
Y1.026 Z-1.689
Y12.261
G03 X-102.042 Y14.849 I-2.588 J0.0 F1128.
X-104.63 Y12.261 I0.0 J-2.588
G01 Y-12.877 F2000.
G03 X-102.042 Y-15.465 I2.588 J0.0 F1128.
X-99.453 Y-12.877 I0.0 J2.588
G01 Y-.308 F2000.
Y1.026 Z-1.759
Y12.261
G03 X-102.042 Y14.849 I-2.588 J0.0 F1128.
X-104.63 Y12.261 I0.0 J-2.588
G01 Y-12.877 F2000.
G03 X-102.042 Y-15.465 I2.588 J0.0 F1128.
X-99.453 Y-12.877 I0.0 J2.588
G01 Y-.308 F2000.
Y1.026 Z-1.829
Y12.261
G03 X-102.042 Y14.849 I-2.588 J0.0 F1128.
X-104.63 Y12.261 I0.0 J-2.588
G01 Y-12.877 F2000.
G03 X-102.042 Y-15.465 I2.588 J0.0 F1128.
X-99.453 Y-12.877 I0.0 J2.588
G01 Y-.308 F2000.
Y1.026 Z-1.899
Y12.261
G03 X-102.042 Y14.849 I-2.588 J0.0 F1128.
X-104.63 Y12.261 I0.0 J-2.588
G01 Y-12.877 F2000.
G03 X-102.042 Y-15.465 I2.588 J0.0 F1128.
X-99.453 Y-12.877 I0.0 J2.588
G01 Y-.308 F2000.
Y1.026 Z-1.969
Y12.261
G03 X-102.042 Y14.849 I-2.588 J0.0 F1128.
X-104.63 Y12.261 I0.0 J-2.588
G01 Y-12.877 F2000.
G03 X-102.042 Y-15.465 I2.588 J0.0 F1128.
X-99.453 Y-12.877 I0.0 J2.588
G01 Y1.026 F2000.
X-101.453
Z.031
G00 Z2.5
X-104.031 Y21.403
G01 Z2.43
Z-.57 F800.
G03 X-102.043 Y19.617 I1.989 J.214 F400.
G02 X-94.686 Y12.261 I0.0 J-7.356 F2000.
G01 Y-12.877
G02 X-102.042 Y-20.233 I-7.356 J0.0
X-109.398 Y-12.886 I0.0 J7.356
G01 Y12.259
Y12.261
G02 X-102.043 Y19.617 I7.356 J0.0
G01 X-101.819 Y19.636 Z-.582
X-101.595 Y19.647 Z-.593
X-101.37 Y19.65 Z-.605
X-101.145 Y19.644 Z-.617
X-100.919 Y19.631 Z-.628
X-100.695 Y19.609 Z-.64
G02 X-94.571 Y12.261 I-1.347 J-7.349
G01 Y-12.877
G02 X-102.042 Y-20.348 I-7.471 J0.0
X-108.513 Y-16.61 I0.0 J7.471
X-109.513 Y-12.888 I6.472 J3.733
G01 Y12.261
G02 X-102.043 Y19.732 I7.471 J-.001
G01 X-101.819 Y19.744 Z-.652
X-101.596 Y19.748 Z-.663
X-101.372 Y19.745 Z-.675
X-101.148 Y19.735 Z-.686
X-100.924 Y19.717 Z-.698
X-100.701 Y19.692 Z-.71
G02 X-94.491 Y12.261 I-1.341 J-7.431
G01 Y-12.877
G02 X-102.042 Y-20.428 I-7.551 J0.0
X-109.593 Y-12.886 I0.0 J7.551
G01 Y12.259
Y12.261
G02 X-102.043 Y19.812 I7.551 J0.0
G01 X-101.82 Y19.82 Z-.721
X-101.597 Y19.821 Z-.733
X-101.373 Y19.814 Z-.745
X-101.15 Y19.801 Z-.756
X-100.927 Y19.781 Z-.768
X-100.704 Y19.754 Z-.78
X-100.649 Y19.743
G02 X-94.431 Y12.261 I-1.393 J-7.483
G01 Y-12.877
G02 X-102.042 Y-20.488 I-7.611 J0.0
X-108.675 Y-16.61 I0.0 J7.611
X-109.653 Y-12.887 I6.633 J3.733
G01 Y12.261
G02 X-102.043 Y19.872 I7.611 J0.0
G01 X-101.82 Y19.877 Z-.791
X-101.597 Y19.876 Z-.803
X-101.374 Y19.867 Z-.815
X-101.151 Y19.852 Z-.826
X-100.929 Y19.83 Z-.838
X-100.707 Y19.801 Z-.85
G02 X-94.384 Y12.261 I-1.335 J-7.54
G01 Y-12.877
G02 X-102.042 Y-20.534 I-7.658 J0.0
X-108.728 Y-16.61 I0.0 J7.658
X-109.699 Y-12.888 I6.686 J3.733
G01 Y12.261
G02 X-102.043 Y19.918 I7.658 J-.001
G01 X-101.82 Y19.922 Z-.861
X-101.597 Y19.918 Z-.873
X-101.374 Y19.908 Z-.885
X-101.152 Y19.891 Z-.896
X-100.93 Y19.868 Z-.908
X-100.709 Y19.837 Z-.92
G02 X-94.349 Y12.261 I-1.333 J-7.577
G01 Y-12.877
G02 X-102.042 Y-20.57 I-7.693 J0.0
X-109.735 Y-12.879 I0.0 J7.693
G01 Y12.248
Y12.261
G02 X-102.043 Y19.954 I7.693 J0.0
G01 X-101.82 Y19.956 Z-.931
X-101.597 Y19.951 Z-.943
X-101.375 Y19.939 Z-.955
X-101.153 Y19.921 Z-.966
X-100.931 Y19.896 Z-.978
X-100.71 Y19.864 Z-.99
G02 X-94.322 Y12.261 I-1.331 J-7.604
G01 Y-12.877
G02 X-102.042 Y-20.596 I-7.719 J0.0
X-109.761 Y-12.879 I0.0 J7.719
G01 Y12.249
Y12.261
G02 X-102.043 Y19.98 I7.719 J0.0
G01 X-101.82 Y19.981 Z-1.001
X-101.598 Y19.974 Z-1.013
X-101.375 Y19.961 Z-1.024
X-101.153 Y19.942 Z-1.036
X-100.932 Y19.916 Z-1.048
X-100.712 Y19.883 Z-1.059
G02 X-94.304 Y12.261 I-1.33 J-7.623
G01 Y-12.877
G02 X-102.042 Y-20.614 I-7.738 J0.0
X-109.779 Y-12.88 I0.0 J7.738
G01 Y12.249
Y12.261
G02 X-102.043 Y19.998 I7.738 J0.0
G01 X-101.82 Z-1.071
X-101.598 Y19.99 Z-1.083
X-101.376 Y19.976 Z-1.094
X-101.154 Y19.955 Z-1.106
X-100.933 Y19.928 Z-1.118
X-100.713 Y19.894 Z-1.129
G02 X-94.293 Y12.261 I-1.329 J-7.634
G01 Y-12.877
G02 X-102.042 Y-20.625 I-7.749 J0.0
X-109.79 Y-12.88 I0.0 J7.749
G01 Y12.249
Y12.261
G02 X-102.043 Y20.009 I7.749 J0.0
G01 X-101.82 Y20.007 Z-1.141
X-101.598 Y19.999 Z-1.153
X-101.376 Y19.983 Z-1.164
X-101.154 Y19.962 Z-1.176
X-100.934 Y19.934 Z-1.188
X-100.714 Y19.9 Z-1.199
G02 X-97.003 Y18.154 I-1.328 J-7.639
G01 X-96.892 Y18.057
G02 X-94.288 Y12.261 I-5.15 J-5.796
G01 Y-12.877
G02 X-96.892 Y-18.673 I-7.754 J0.0
G01 X-97.109 Y-18.859
G02 X-102.042 Y-20.631 I-4.933 J5.982
X-109.796 Y-12.877 I0.0 J7.754
G01 Y12.261
G02 X-102.043 Y20.015 I7.754 J0.0
G01 X-101.82 Y20.012 Z-1.211
X-101.598 Y20.003 Z-1.223
X-101.376 Y19.988 Z-1.234
X-101.155 Y19.967 Z-1.246
X-100.934 Y19.939 Z-1.258
X-100.714 Y19.905 Z-1.269
G02 X-96.999 Y18.158 I-1.328 J-7.644
G01 X-96.892 Y18.064
G02 X-96.766 Y17.949 I-5.15 J-5.803
G01 X-96.674 Y17.863
G02 X-94.283 Y12.261 I-5.368 J-5.602
G01 Y-12.877
G02 X-96.892 Y-18.68 I-7.759 J0.0
G01 X-97.106 Y-18.863
