%
G40 G17 G49 G54 G80
G91 G28 Z0.0
( NAME: Capful )
( PART: D:\Program Files\Siemens\NX 12.0\UGII\HM-µç¼«±à³Ì.prt )
( DATE: Sun May 27 04:50:19 2018 )
( D10 ---> D=10.00 R=0.00 )
S8000 M03
G00 G90 X-125.725 Y32.
Z15.
G17 G01 Z-5.982 F1300.
Z-8.982 F520.
Y25.5
X-90.742 F1300.
Y22.5
G40 G03 X-91.98 Y21.693 I5.794 J-10.239 F780.
G01 X-92.279 Y21.47
X-93.23 Y20.537
X-93.495 Y20.211
X-94.206 Y20.991
X-94.768 Y21.512
X-95.003 Y21.688
G03 X-96.248 Y22.5 I-7.039 J-9.427
G01 X-90.742 F1300.
Y25.5
X-73.649
Y22.5
G03 X-74.886 Y21.693 I5.794 J-10.239 F780.
G01 X-75.185 Y21.47
G03 X-76.413 Y20.223 I8.056 J-9.154
G01 X-77.113 Y20.991
X-77.674 Y21.512
X-77.91 Y21.688
G03 X-79.154 Y22.5 I-7.039 J-9.427
G01 X-73.649 F1300.
Y25.5
X-56.555
Y22.5
G03 X-57.793 Y21.693 I5.794 J-10.239 F780.
G01 X-58.092 Y21.47
G03 X-59.32 Y20.225 I8.028 J-9.146
G01 X-60.019 Y20.991
X-60.581 Y21.512
X-60.816 Y21.688
G03 X-62.061 Y22.5 I-7.039 J-9.427
G01 X-56.555 F1300.
Y25.5
X-39.462
Y22.5
G03 X-40.699 Y21.693 I5.794 J-10.239 F780.
G01 X-40.998 Y21.47
X-41.949 Y20.537
X-42.215 Y20.211
X-42.929 Y20.995
X-43.496 Y21.519
X-43.729 Y21.693
G03 X-44.967 Y22.5 I-7.032 J-9.432
G01 X-39.462 F1300.
Y25.5
X-22.368
Y22.5
G03 X-23.606 Y21.693 I5.794 J-10.239 F780.
G01 X-23.905 Y21.47
X-24.856 Y20.537
X-25.121 Y20.211
X-25.832 Y20.991
X-26.394 Y21.512
X-26.629 Y21.688
G03 X-27.874 Y22.5 I-7.039 J-9.427
G01 X-22.368 F1300.
Y25.5
X-5.275
Y22.5
G03 X-6.512 Y21.693 I5.794 J-10.239 F780.
G01 X-6.811 Y21.47
G03 X-8.04 Y20.224 I8.028 J-9.146
G01 X-8.739 Y20.991
X-9.3 Y21.512
X-9.536 Y21.688
G03 X-10.78 Y22.5 I-7.039 J-9.427
G01 X-5.275 F1300.
Y25.5
X11.819
Y22.5
G03 X10.581 Y21.693 I5.794 J-10.239 F780.
G01 X10.282 Y21.47
G03 X9.054 Y20.224 I8.028 J-9.146
G01 X8.355 Y20.991
X7.793 Y21.512
X7.558 Y21.688
G03 X6.313 Y22.5 I-7.039 J-9.427
G01 X11.819 F1300.
Y25.5
X28.912
Y22.5
G03 X27.675 Y21.693 I5.794 J-10.239 F780.
G01 X27.376 Y21.47
G03 X26.147 Y20.224 I8.028 J-9.146
G01 X25.448 Y20.991
X24.887 Y21.512
X24.651 Y21.688
G03 X23.407 Y22.5 I-7.039 J-9.427
G01 X28.912 F1300.
Y25.5
X46.006
Y22.5
G03 X44.768 Y21.693 I5.794 J-10.239 F780.
G01 X44.469 Y21.47
X43.518 Y20.537
X43.253 Y20.211
X42.542 Y20.991
X41.98 Y21.512
X41.745 Y21.688
G03 X40.5 Y22.5 I-7.039 J-9.427
G01 X46.006 F1300.
Y25.5
X63.099
Y22.5
G03 X61.862 Y21.693 I5.794 J-10.239 F780.
G01 X61.563 Y21.47
X60.612 Y20.537
X60.348 Y20.213
X59.627 Y20.999
X59.065 Y21.519
X58.832 Y21.693
G03 X57.594 Y22.5 I-7.032 J-9.432
G01 X63.099 F1300.
Y25.5
X80.193
Y22.5
G03 X78.955 Y21.693 I5.794 J-10.239 F780.
G01 X78.656 Y21.47
X77.705 Y20.537
X77.44 Y20.211
X76.729 Y20.991
X76.167 Y21.512
X75.932 Y21.688
G03 X74.687 Y22.5 I-7.039 J-9.427
G01 X80.193 F1300.
Y25.5
X97.286
Y22.5
G03 X96.049 Y21.693 I5.794 J-10.239 F780.
G01 X95.75 Y21.47
X94.799 Y20.537
X94.533 Y20.211
X93.819 Y20.995
X93.252 Y21.519
X93.019 Y21.693
G03 X91.781 Y22.5 I-7.032 J-9.432
G01 X97.286 F1300.
Y25.5
X114.38
Y22.5
G03 X113.142 Y21.693 I5.794 J-10.239 F780.
G01 X112.843 Y21.47
X111.892 Y20.537
X111.627 Y20.211
X110.916 Y20.991
X110.355 Y21.512
X110.119 Y21.688
G03 X108.874 Y22.5 I-7.039 J-9.427
G01 X114.38 F1300.
Y25.5
X130.5
G02 X133. Y23. I0.0 J-2.5
G01 Y18.442
X130.
G03 X129.029 Y19.873 I-10.55 J-6.117 F780.
G01 X128.005 Y20.996
X127.439 Y21.519
X127.206 Y21.693
G03 X125.968 Y22.5 I-7.032 J-9.432
G01 X130. F1300.
Y18.442
X133.
Y-23.
G02 X130.5 Y-25.5 I-2.5 J0.0
G01 X126.942
Y-22.5
G03 X127.721 Y-21.876 I-4.288 J6.153 F780.
X130. Y-19.057 I-7.921 J8.735
G01 Y-22.5 F1300.
X126.942
Y-25.5
X109.848
Y-22.5
G03 X110.628 Y-21.876 I-4.288 J6.153 F780.
X111.637 Y-20.841 I-7.968 J8.786
G01 X112.346 Y-21.615
X112.908 Y-22.135
X113.141 Y-22.308
G03 X113.406 Y-22.5 I7.033 J9.432
G01 X109.848 F1300.
Y-25.5
X92.755
Y-22.5
G03 X93.533 Y-21.877 I-4.289 J6.153 F780.
X94.545 Y-20.84 I-7.967 J8.786
G01 X95.248 Y-21.611
X95.815 Y-22.135
X96.048 Y-22.309
G03 X96.312 Y-22.5 I7.032 J9.432
G01 X92.755 F1300.
Y-25.5
X75.661
Y-22.5
G03 X76.44 Y-21.877 I-4.289 J6.153 F780.
X77.452 Y-20.84 I-7.967 J8.786
G01 X78.151 Y-21.607
X78.713 Y-22.128
X78.948 Y-22.304
G03 X79.219 Y-22.5 I7.039 J9.427
G01 X75.661 F1300.
Y-25.5
X58.568
Y-22.5
G03 X59.346 Y-21.877 I-4.289 J6.153 F780.
X60.358 Y-20.84 I-7.976 J8.797
G01 X61.058 Y-21.607
X61.619 Y-22.128
X61.855 Y-22.304
G03 X62.125 Y-22.5 I7.039 J9.427
G01 X58.568 F1300.
Y-25.5
X41.474
Y-22.5
G03 X42.253 Y-21.877 I-4.289 J6.153 F780.
X43.265 Y-20.84 I-7.976 J8.797
G01 X43.964 Y-21.607
X44.526 Y-22.128
X44.761 Y-22.304
G03 X45.032 Y-22.5 I7.039 J9.427
G01 X41.474 F1300.
Y-25.5
X24.381
Y-22.5
G03 X25.159 Y-21.877 I-4.289 J6.153 F780.
X26.171 Y-20.84 I-7.976 J8.797
G01 X26.871 Y-21.607
X27.432 Y-22.128
X27.668 Y-22.304
G03 X27.938 Y-22.5 I7.039 J9.427
G01 X24.381 F1300.
Y-25.5
X7.287
Y-22.5
G03 X8.066 Y-21.877 I-4.289 J6.153 F780.
X9.078 Y-20.84 I-7.976 J8.797
G01 X9.781 Y-21.611
X10.348 Y-22.135
X10.581 Y-22.309
G03 X10.845 Y-22.5 I7.032 J9.432
G01 X7.287 F1300.
Y-25.5
X-9.806
Y-22.5
G03 X-9.028 Y-21.877 I-4.289 J6.153 F780.
X-8.016 Y-20.84 I-7.967 J8.786
G01 X-7.316 Y-21.607
X-6.755 Y-22.128
X-6.519 Y-22.304
G03 X-6.249 Y-22.5 I7.039 J9.427
G01 X-9.806 F1300.
Y-25.5
X-26.9
Y-22.5
G03 X-26.121 Y-21.877 I-4.289 J6.153 F780.
X-25.109 Y-20.84 I-7.968 J8.788
G01 X-24.41 Y-21.607
X-23.848 Y-22.128
X-23.613 Y-22.304
G03 X-23.342 Y-22.5 I7.039 J9.427
G01 X-26.9 F1300.
Y-25.5
X-43.993
Y-22.5
G03 X-43.215 Y-21.877 I-4.289 J6.153 F780.
X-42.203 Y-20.84 I-7.976 J8.797
G01 X-41.503 Y-21.607
X-40.942 Y-22.128
X-40.706 Y-22.304
G03 X-40.436 Y-22.5 I7.039 J9.427
G01 X-43.993 F1300.
Y-25.5
X-61.087
Y-22.5
G03 X-60.308 Y-21.877 I-4.289 J6.153 F780.
X-59.296 Y-20.84 I-7.968 J8.788
G01 X-58.597 Y-21.607
X-58.035 Y-22.128
X-57.8 Y-22.304
G03 X-57.529 Y-22.5 I7.039 J9.427
G01 X-61.087 F1300.
Y-25.5
X-78.18
Y-22.5
G03 X-77.402 Y-21.877 I-4.289 J6.153 F780.
X-76.39 Y-20.84 I-7.968 J8.788
G01 X-75.69 Y-21.607
X-75.129 Y-22.128
X-74.893 Y-22.304
G03 X-74.623 Y-22.5 I7.039 J9.427
G01 X-78.18 F1300.
Y-25.5
X-95.274
Y-22.5
G03 X-94.495 Y-21.877 I-4.289 J6.153 F780.
X-93.483 Y-20.84 I-7.967 J8.786
G01 X-92.784 Y-21.607
X-92.222 Y-22.128
X-91.987 Y-22.304
G03 X-91.716 Y-22.5 I7.039 J9.427
G01 X-95.274 F1300.
Y-25.5
X-128.121
X-133. Y-20.621
Y-10.204
X-130.
G03 X-127.991 Y-13.952 I11.589 J3.799 F780.
G01 X-126.971 Y-15.071
X-126.409 Y-15.592
X-126.174 Y-15.768
G03 X-119.135 Y-18.106 I7.039 J9.427
X-113.016 Y-16.389 I0.0 J11.765
X-110.897 Y-20.488 I11.698 J3.448
G01 X-109.877 Y-21.607
X-109.316 Y-22.128
X-109.08 Y-22.304
G03 X-108.81 Y-22.5 I7.039 J9.427
G01 X-126.879 F1300.
X-130. Y-19.379
Y-10.204
X-133.
Y23.
G02 X-130.5 Y25.5 I2.5 J0.0
G01 X-125.725
Y22.5
X-107.836
G03 X-109.073 Y21.693 I5.794 J-10.239 F780.
G01 X-109.372 Y21.47
G03 X-113. Y15.764 I7.86 J-9.004
X-119.135 Y17.49 I-6.135 J-10.039
X-126.167 Y15.157 I0.0 J-11.765
G01 X-126.466 Y14.935
G03 X-130. Y9.51 I7.783 J-8.934
G01 Y22.5 F1300.
X-125.725
Y19.5
X-124.451
G03 X-127. Y18.221 I5.315 J-13.775
G01 Y19.5
X-125.725
Y32.
Z-5.982
G00 Z-5.932
G01 Z-6.032
Z-9.032 F520.
Y25.5
X-90.742 F1300.
Y22.5
G03 X-91.98 Y21.693 I5.794 J-10.239 F780.
G01 X-92.279 Y21.47
X-93.23 Y20.537
X-93.495 Y20.211
X-94.206 Y20.991
X-94.768 Y21.512
X-95.003 Y21.688
G03 X-96.248 Y22.5 I-7.039 J-9.427
G01 X-90.742 F1300.
Y25.5
X-73.649
Y22.5
G03 X-74.886 Y21.693 I5.794 J-10.239 F780.
G01 X-75.185 Y21.47
G03 X-76.413 Y20.223 I8.056 J-9.154
G01 X-77.113 Y20.991
X-77.674 Y21.512
X-77.91 Y21.688
G03 X-79.154 Y22.5 I-7.039 J-9.427
G01 X-73.649 F1300.
Y25.5
X-56.555
Y22.5
G03 X-57.793 Y21.693 I5.794 J-10.239 F780.
G01 X-58.092 Y21.47
G03 X-59.32 Y20.225 I8.028 J-9.146
G01 X-60.019 Y20.991
X-60.581 Y21.512
X-60.816 Y21.688
G03 X-62.061 Y22.5 I-7.039 J-9.427
G01 X-56.555 F1300.
Y25.5
X-39.462
Y22.5
G03 X-40.699 Y21.693 I5.794 J-10.239 F780.
G01 X-40.998 Y21.47
X-41.949 Y20.537
X-42.215 Y20.211
X-42.929 Y20.995
X-43.496 Y21.519
X-43.729 Y21.693
G03 X-44.967 Y22.5 I-7.032 J-9.432
G01 X-39.462 F1300.
Y25.5
X-22.368
Y22.5
G03 X-23.606 Y21.693 I5.794 J-10.239 F780.
G01 X-23.905 Y21.47
X-24.856 Y20.537
X-25.121 Y20.211
X-25.832 Y20.991
X-26.394 Y21.512
X-26.629 Y21.688
G03 X-27.874 Y22.5 I-7.039 J-9.427
G01 X-22.368 F1300.
Y25.5
X-5.275
Y22.5
G03 X-6.512 Y21.693 I5.794 J-10.239 F780.
G01 X-6.811 Y21.47
G03 X-8.04 Y20.224 I8.028 J-9.146
G01 X-8.739 Y20.991
X-9.3 Y21.512
X-9.536 Y21.688
G03 X-10.78 Y22.5 I-7.039 J-9.427
G01 X-5.275 F1300.
Y25.5
X11.819
Y22.5
G03 X10.581 Y21.693 I5.794 J-10.239 F780.
G01 X10.282 Y21.47
G03 X9.054 Y20.224 I8.028 J-9.146
G01 X8.355 Y20.991
X7.793 Y21.512
X7.558 Y21.688
G03 X6.313 Y22.5 I-7.039 J-9.427
G01 X11.819 F1300.
Y25.5
X28.912
Y22.5
G03 X27.675 Y21.693 I5.794 J-10.239 F780.
G01 X27.376 Y21.47
G03 X26.147 Y20.224 I8.028 J-9.146
G01 X25.448 Y20.991
X24.887 Y21.512
X24.651 Y21.688
G03 X23.407 Y22.5 I-7.039 J-9.427
G01 X28.912 F1300.
Y25.5
X46.006
Y22.5
G03 X44.768 Y21.693 I5.794 J-10.239 F780.
G01 X44.469 Y21.47
X43.518 Y20.537
X43.253 Y20.211
X42.542 Y20.991
X41.98 Y21.512
X41.745 Y21.688
G03 X40.5 Y22.5 I-7.039 J-9.427
G01 X46.006 F1300.
Y25.5
X63.099
Y22.5
G03 X61.862 Y21.693 I5.794 J-10.239 F780.
G01 X61.563 Y21.47
X60.612 Y20.537
X60.348 Y20.213
X59.627 Y20.999
X59.065 Y21.519
X58.832 Y21.693
G03 X57.594 Y22.5 I-7.032 J-9.432
G01 X63.099 F1300.
Y25.5
X80.193
Y22.5
G03 X78.955 Y21.693 I5.794 J-10.239 F780.
G01 X78.656 Y21.47
X77.705 Y20.537
X77.44 Y20.211
X76.729 Y20.991
X76.167 Y21.512
X75.932 Y21.688
G03 X74.687 Y22.5 I-7.039 J-9.427
G01 X80.193 F1300.
Y25.5
X97.286
Y22.5
G03 X96.049 Y21.693 I5.794 J-10.239 F780.
G01 X95.75 Y21.47
X94.799 Y20.537
X94.533 Y20.211
X93.819 Y20.995
X93.252 Y21.519
X93.019 Y21.693
G03 X91.781 Y22.5 I-7.032 J-9.432
G01 X97.286 F1300.
Y25.5
X114.38
Y22.5
G03 X113.142 Y21.693 I5.794 J-10.239 F780.
G01 X112.843 Y21.47
X111.892 Y20.537
X111.627 Y20.211
X110.916 Y20.991
X110.355 Y21.512
X110.119 Y21.688
G03 X108.874 Y22.5 I-7.039 J-9.427
G01 X114.38 F1300.
Y25.5
X130.5
G02 X133. Y23. I0.0 J-2.5
G01 Y18.442
X130.
G03 X129.029 Y19.873 I-10.55 J-6.117 F780.
G01 X128.005 Y20.996
X127.439 Y21.519
X127.206 Y21.693
G03 X125.968 Y22.5 I-7.032 J-9.432
G01 X130. F1300.
Y18.442
X133.
Y-23.
G02 X130.5 Y-25.5 I-2.5 J0.0
G01 X126.942
Y-22.5
G03 X127.721 Y-21.876 I-4.288 J6.153 F780.
X130. Y-19.057 I-7.921 J8.735
G01 Y-22.5 F1300.
X126.942
Y-25.5
X109.848
Y-22.5
G03 X110.628 Y-21.876 I-4.288 J6.153 F780.
X111.637 Y-20.841 I-7.968 J8.786
G01 X112.346 Y-21.615
X112.908 Y-22.135
X113.141 Y-22.308
G03 X113.406 Y-22.5 I7.033 J9.432
G01 X109.848 F1300.
Y-25.5
X92.755
Y-22.5
G03 X93.533 Y-21.877 I-4.289 J6.153 F780.
X94.545 Y-20.84 I-7.967 J8.786
G01 X95.248 Y-21.611
X95.815 Y-22.135
X96.048 Y-22.309
G03 X96.312 Y-22.5 I7.032 J9.432
G01 X92.755 F1300.
Y-25.5
X75.661
Y-22.5
G03 X76.44 Y-21.877 I-4.289 J6.153 F780.
X77.452 Y-20.84 I-7.967 J8.786
G01 X78.151 Y-21.607
X78.713 Y-22.128
X78.948 Y-22.304
G03 X79.219 Y-22.5 I7.039 J9.427
G01 X75.661 F1300.
Y-25.5
X58.568
Y-22.5
G03 X59.346 Y-21.877 I-4.289 J6.153 F780.
X60.358 Y-20.84 I-7.976 J8.797
G01 X61.058 Y-21.607
X61.619 Y-22.128
X61.855 Y-22.304
G03 X62.125 Y-22.5 I7.039 J9.427
G01 X58.568 F1300.
Y-25.5
X41.474
Y-22.5
G03 X42.253 Y-21.877 I-4.289 J6.153 F780.
X43.265 Y-20.84 I-7.976 J8.797
G01 X43.964 Y-21.607
X44.526 Y-22.128
X44.761 Y-22.304
G03 X45.032 Y-22.5 I7.039 J9.427
G01 X41.474 F1300.
Y-25.5
X24.381
Y-22.5
G03 X25.159 Y-21.877 I-4.289 J6.153 F780.
X26.171 Y-20.84 I-7.976 J8.797
G01 X26.871 Y-21.607
X27.432 Y-22.128
X27.668 Y-22.304
G03 X27.938 Y-22.5 I7.039 J9.427
G01 X24.381 F1300.
Y-25.5
X7.287
Y-22.5
G03 X8.066 Y-21.877 I-4.289 J6.153 F780.
X9.078 Y-20.84 I-7.976 J8.797
G01 X9.781 Y-21.611
X10.348 Y-22.135
X10.581 Y-22.309
G03 X10.845 Y-22.5 I7.032 J9.432
G01 X7.287 F1300.
Y-25.5
X-9.806
Y-22.5
G03 X-9.028 Y-21.877 I-4.289 J6.153 F780.
X-8.016 Y-20.84 I-7.967 J8.786
G01 X-7.316 Y-21.607
X-6.755 Y-22.128
X-6.519 Y-22.304
G03 X-6.249 Y-22.5 I7.039 J9.427
G01 X-9.806 F1300.
Y-25.5
X-26.9
Y-22.5
G03 X-26.121 Y-21.877 I-4.289 J6.153 F780.
X-25.109 Y-20.84 I-7.968 J8.788
G01 X-24.41 Y-21.607
X-23.848 Y-22.128
X-23.613 Y-22.304
G03 X-23.342 Y-22.5 I7.039 J9.427
G01 X-26.9 F1300.
Y-25.5
X-43.993
Y-22.5
G03 X-43.215 Y-21.877 I-4.289 J6.153 F780.
X-42.203 Y-20.84 I-7.976 J8.797
G01 X-41.503 Y-21.607
X-40.942 Y-22.128
X-40.706 Y-22.304
G03 X-40.436 Y-22.5 I7.039 J9.427
G01 X-43.993 F1300.
Y-25.5
X-61.087
Y-22.5
G03 X-60.308 Y-21.877 I-4.289 J6.153 F780.
X-59.296 Y-20.84 I-7.968 J8.788
G01 X-58.597 Y-21.607
X-58.035 Y-22.128
X-57.8 Y-22.304
G03 X-57.529 Y-22.5 I7.039 J9.427
G01 X-61.087 F1300.
Y-25.5
X-78.18
Y-22.5
G03 X-77.402 Y-21.877 I-4.289 J6.153 F780.
X-76.39 Y-20.84 I-7.968 J8.788
G01 X-75.69 Y-21.607
X-75.129 Y-22.128
X-74.893 Y-22.304
G03 X-74.623 Y-22.5 I7.039 J9.427
G01 X-78.18 F1300.
Y-25.5
X-95.274
Y-22.5
G03 X-94.495 Y-21.877 I-4.289 J6.153 F780.
X-93.483 Y-20.84 I-7.967 J8.786
G01 X-92.784 Y-21.607
X-92.222 Y-22.128
X-91.987 Y-22.304
G03 X-91.716 Y-22.5 I7.039 J9.427
G01 X-95.274 F1300.
Y-25.5
X-128.121
X-133. Y-20.621
Y-10.204
X-130.
G03 X-127.991 Y-13.952 I11.589 J3.799 F780.
G01 X-126.971 Y-15.071
X-126.409 Y-15.592
X-126.174 Y-15.768
G03 X-119.135 Y-18.106 I7.039 J9.427
X-113.016 Y-16.389 I0.0 J11.765
X-110.897 Y-20.488 I11.698 J3.448
G01 X-109.877 Y-21.607
X-109.316 Y-22.128
X-109.08 Y-22.304
G03 X-108.81 Y-22.5 I7.039 J9.427
G01 X-126.879 F1300.
X-130. Y-19.379
Y-10.204
X-133.
Y23.
G02 X-130.5 Y25.5 I2.5 J0.0
G01 X-125.725
Y22.5
X-107.836
G03 X-109.073 Y21.693 I5.794 J-10.239 F780.
G01 X-109.372 Y21.47
G03 X-113. Y15.764 I7.86 J-9.004
X-119.135 Y17.49 I-6.135 J-10.039
X-126.167 Y15.157 I0.0 J-11.765
G01 X-126.466 Y14.935
G03 X-130. Y9.51 I7.783 J-8.934
G01 Y22.5 F1300.
X-125.725
Y19.5
X-124.451
G03 X-127. Y18.221 I5.315 J-13.775
G01 Y19.5
X-125.725
Y32.
Z-6.032
G00 Z15.
M09
M05
G91 G28 Z0.0
G28 Y0.0
M30
%
(TOTAL Machine Time: 2.4 min)
