%
G40 G17 G49 G54 G80
G91 G28 Z0.0
( NAME: Capful )
( PART: D:\Program Files\Siemens\NX 12.0\UGII\HM-µç¼«±à³Ì.prt )
( DATE: Sun May 27 04:50:18 2018 )
( D10 ---> D=10.00 R=0.00 )
S6000 M03
G00 G90 X0.0 Y-30.5
Z15.
G17 G01 Z.804 F2500.
Z-.196 F1000.
Y-25.
X-121.5 F2500.
X-127. F2188.
X-132.5 F1875.
Y-19.5
Y14. F2500.
Y19.5 F2188.
Y25. F1875.
X-127.
X121.5 F2500.
X127. F2188.
X132.5 F1875.
Y19.5
Y-14. F2500.
Y-19.5 F2188.
Y-25. F1875.
X127.
X0.0 F2500.
Y-17.5
X-125.
Y17.5
X125.
Y-17.5
X0.0
Y-10.
X-117.5
Y10.
X117.5
Y-10.
X0.0
Y-2.5
X-110.
Y2.5
X110.
Y-2.5
X0.0
Y-7.5
Z.804
G00 Z1.
Y-30.5
G01 Z.607
Z-.393 F1000.
Y-25.
X-121.5 F2500.
X-127. F2188.
X-132.5 F1875.
Y-19.5
Y14. F2500.
Y19.5 F2188.
Y25. F1875.
X-127.
X121.5 F2500.
X127. F2188.
X132.5 F1875.
Y19.5
Y-14. F2500.
Y-19.5 F2188.
Y-25. F1875.
X127.
X0.0 F2500.
Y-17.5
X-125.
Y17.5
X125.
Y-17.5
X0.0
Y-10.
X-117.5
Y10.
X117.5
Y-10.
X0.0
Y-2.5
X-110.
Y2.5
X110.
Y-2.5
X0.0
Y-7.5
Z.607
G00 Z.804
Y-30.5
G01 Z.411
Z-.589 F1000.
Y-25.
X-113.89 F2500.
Y-17.5
G40 G03 X-113.54 Y-17.329 I-5.246 J11.159 F1500.
X-113.473 Y-17.5 I11.499 J4.452
G01 X-113.89 F2500.
Y-25.
X-121.5
X-127. F2188.
X-132.5 F1875.
Y-19.5
Y-17.187 F2500.
X-125.
G03 X-124.381 Y-17.5 I5.865 J10.846 F1500.
G01 X-119.135 Y-19.43
X-124.381 Y-17.5 F2500.
X-125.
Y-17.187
X-132.5
Y14.
Y19.5 F2188.
Y25. F1875.
X-127.
X-122.794 F2500.
Y17.5
G03 X-125. Y16.571 I3.659 J-11.775 F1500.
G01 Y17.5 F2500.
X-122.794
Y25.
X-113.204
Y17.5
G03 X-113.54 Y16.713 I11.162 J-5.239 F1500.
X-115.476 Y17.5 I-5.595 J-10.988
G01 X-115.921 Y16.068 F2500.
G02 X-112.658 Y14.405 I-3.214 J-10.343
X-102.042 Y23.091 I10.616 J-2.144
X-93.495 Y18.913 I0.0 J-10.83
X-84.948 Y23.091 I8.547 J-6.652
X-76.402 Y18.913 I0.0 J-10.83
X-67.855 Y23.091 I8.547 J-6.652
X-59.308 Y18.913 I0.0 J-10.83
X-50.761 Y23.091 I8.547 J-6.652
X-42.215 Y18.913 I0.0 J-10.83
X-33.668 Y23.091 I8.547 J-6.652
X-25.121 Y18.913 I0.0 J-10.83
X-16.574 Y23.091 I8.547 J-6.652
X-8.028 Y18.913 I0.0 J-10.83
X.519 Y23.091 I8.547 J-6.652
X9.066 Y18.913 I0.0 J-10.83
X17.613 Y23.091 I8.547 J-6.652
X26.16 Y18.913 I0.0 J-10.83
X34.706 Y23.091 I8.547 J-6.652
X43.253 Y18.913 I0.0 J-10.83
X51.8 Y23.091 I8.547 J-6.652
X60.347 Y18.913 I0.0 J-10.83
X68.893 Y23.091 I8.547 J-6.652
X77.44 Y18.913 I0.0 J-10.83
X85.987 Y23.091 I8.547 J-6.652
X94.534 Y18.913 I0.0 J-10.83
X103.08 Y23.091 I8.547 J-6.652
X111.627 Y18.913 I0.0 J-10.83
X120.174 Y23.091 I8.547 J-6.652
X131.004 Y12.27 I0.0 J-10.83
G01 Y-12.874
Y-12.877
G02 X120.174 Y-23.707 I-10.83 J0.0
X111.627 Y-19.529 I0.0 J10.83
X103.08 Y-23.707 I-8.547 J6.652
X94.534 Y-19.529 I0.0 J10.83
X85.987 Y-23.707 I-8.547 J6.652
X77.44 Y-19.529 I0.0 J10.83
X68.893 Y-23.707 I-8.547 J6.652
X60.347 Y-19.529 I0.0 J10.83
X51.8 Y-23.707 I-8.547 J6.652
X43.253 Y-19.529 I0.0 J10.83
X34.706 Y-23.707 I-8.547 J6.652
X26.16 Y-19.529 I0.0 J10.83
X17.613 Y-23.707 I-8.547 J6.652
X9.066 Y-19.529 I0.0 J10.83
X.519 Y-23.707 I-8.547 J6.652
X-8.028 Y-19.529 I0.0 J10.83
X-16.574 Y-23.707 I-8.547 J6.652
X-25.121 Y-19.529 I0.0 J10.83
X-33.668 Y-23.707 I-8.547 J6.652
X-42.215 Y-19.529 I0.0 J10.83
X-50.761 Y-23.707 I-8.547 J6.652
X-59.308 Y-19.529 I0.0 J10.83
X-67.855 Y-23.707 I-8.547 J6.652
X-76.402 Y-19.529 I0.0 J10.83
X-84.948 Y-23.707 I-8.547 J6.652
X-93.495 Y-19.529 I0.0 J10.83
X-102.042 Y-23.707 I-8.547 J6.652
X-112.658 Y-15.021 I0.0 J10.83
X-119.135 Y-17.171 I-6.477 J8.68
X-129.966 Y-6.341 I0.0 J10.83
G01 Y-6.337
Y5.727
G02 X-119.135 Y16.555 I10.83 J-.002
X-115.921 Y16.068 I0.0 J-10.83
G01 X-115.476 Y17.5
X-113.204
Y25.
X121.5
X127. F2188.
X132.5 F1875.
Y19.5
Y-14. F2500.
Y-19.5 F2188.
Y-25. F1875.
X127.
X0.0 F2500.
Y-30.5
Z.411
G00 Z.607
G01 Z.215
Z-.785 F1000.
Y-25.
X-113.823 F2500.
Y-17.5
G03 X-113.555 Y-17.369 I-5.312 J11.159 F1500.
X-113.503 Y-17.5 I11.514 J4.492
G01 X-113.823 F2500.
Y-25.
X-121.5
X-127. F2188.
X-132.5 F1875.
Y-19.5
Y-17.22 F2500.
X-125.
G03 X-124.447 Y-17.5 I5.865 J10.879 F1500.
G01 X-119.135 Y-19.431
X-124.447 Y-17.5 F2500.
X-125.
Y-17.22
X-132.5
Y14.
Y19.5 F2188.
Y25. F1875.
X-127.
X-122.889 F2500.
Y17.5
G03 X-125. Y16.604 I3.754 J-11.775 F1500.
G01 Y17.5 F2500.
X-122.889
Y25.
X-113.235
Y17.5
G03 X-113.555 Y16.753 I11.193 J-5.239 F1500.
X-115.382 Y17.5 I-5.58 J-11.028
G01 X-115.837 Y16.071 F2500.
G02 X-112.677 Y14.454 I-3.298 J-10.346
X-102.042 Y23.12 I10.635 J-2.194
X-93.495 Y18.959 I0.0 J-10.859
X-84.948 Y23.12 I8.547 J-6.698
X-76.402 Y18.959 I0.0 J-10.859
X-67.855 Y23.12 I8.547 J-6.698
X-59.308 Y18.959 I0.0 J-10.859
X-50.761 Y23.12 I8.547 J-6.698
X-42.215 Y18.959 I0.0 J-10.859
X-33.668 Y23.12 I8.547 J-6.698
X-25.121 Y18.959 I0.0 J-10.859
X-16.574 Y23.12 I8.547 J-6.698
X-8.028 Y18.959 I0.0 J-10.859
X.519 Y23.12 I8.547 J-6.698
X9.066 Y18.959 I0.0 J-10.859
X17.613 Y23.12 I8.547 J-6.698
X26.16 Y18.959 I0.0 J-10.859
X34.706 Y23.12 I8.547 J-6.698
X43.253 Y18.959 I0.0 J-10.859
X51.8 Y23.12 I8.547 J-6.698
X60.347 Y18.959 I0.0 J-10.859
X68.893 Y23.12 I8.547 J-6.698
X77.44 Y18.959 I0.0 J-10.859
X85.987 Y23.12 I8.547 J-6.698
X94.534 Y18.959 I0.0 J-10.859
X103.08 Y23.12 I8.547 J-6.698
X111.627 Y18.959 I0.0 J-10.859
X120.174 Y23.12 I8.547 J-6.698
X131.033 Y12.261 I0.0 J-10.859
G01 Y-12.877
G02 X120.174 Y-23.736 I-10.859 J0.0
X111.627 Y-19.575 I0.0 J10.859
X103.08 Y-23.736 I-8.547 J6.698
X94.534 Y-19.575 I0.0 J10.859
X85.987 Y-23.736 I-8.547 J6.698
X77.44 Y-19.575 I0.0 J10.859
X68.893 Y-23.736 I-8.547 J6.698
X60.347 Y-19.575 I0.0 J10.859
X51.8 Y-23.736 I-8.547 J6.698
X43.253 Y-19.575 I0.0 J10.859
X34.706 Y-23.736 I-8.547 J6.698
X26.16 Y-19.575 I0.0 J10.859
X17.613 Y-23.736 I-8.547 J6.698
X9.066 Y-19.575 I0.0 J10.859
X.519 Y-23.736 I-8.547 J6.698
X-8.028 Y-19.575 I0.0 J10.859
X-16.574 Y-23.736 I-8.547 J6.698
X-25.121 Y-19.575 I0.0 J10.859
X-33.668 Y-23.736 I-8.547 J6.698
X-42.215 Y-19.575 I0.0 J10.859
X-50.761 Y-23.736 I-8.547 J6.698
X-59.308 Y-19.575 I0.0 J10.859
X-67.855 Y-23.736 I-8.547 J6.698
X-76.402 Y-19.575 I0.0 J10.859
X-84.948 Y-23.736 I-8.547 J6.698
X-93.495 Y-19.575 I0.0 J10.859
X-102.042 Y-23.736 I-8.547 J6.698
X-112.677 Y-15.07 I0.0 J10.859
X-119.135 Y-17.2 I-6.459 J8.729
X-129.994 Y-6.341 I0.0 J10.859
G01 Y5.725
G02 X-119.135 Y16.584 I10.859 J0.0
X-115.837 Y16.071 I0.0 J-10.859
G01 X-115.382 Y17.5
X-113.235
Y25.
X121.5
X127. F2188.
X132.5 F1875.
Y19.5
Y-14. F2500.
Y-19.5 F2188.
Y-25. F1875.
X127.
X0.0 F2500.
Y-30.5
Z.215
G00 Z.411
G01 Z.018
Z-.982 F1000.
Y-25.
X-113.751 F2500.
Y-17.5
G03 X-113.556 Y-17.404 I-5.385 J11.159 F1500.
X-113.518 Y-17.5 I11.514 J4.527
G01 X-113.751 F2500.
Y-25.
X-121.5
X-127. F2188.
X-132.5 F1875.
Y-19.5
Y-17.255 F2500.
X-125.
G03 X-124.52 Y-17.5 I5.865 J10.914 F1500.
G01 X-119.135 Y-19.435
X-124.52 Y-17.5 F2500.
X-125.
Y-17.255
X-132.5
Y14.
Y19.5 F2188.
Y25. F1875.
X-127.
X-122.991 F2500.
Y17.5
G03 X-125. Y16.639 I3.856 J-11.775 F1500.
G01 Y17.5 F2500.
X-122.991
Y25.
X-113.25
Y17.5
G03 X-113.556 Y16.788 I11.209 J-5.239 F1500.
X-115.279 Y17.5 I-5.579 J-11.063
G01 X-115.746 Y16.074 F2500.
G02 X-112.682 Y14.497 I-3.389 J-10.349
X-110.147 Y19.508 I10.64 J-2.236
X-109.549 Y20.139 I9.896 J-8.786
X-108.84 Y20.769 I6.356 J-6.437
X-102.042 Y23.151 I6.798 J-8.508
X-95.526 Y20.987 I0.0 J-10.89
X-93.899 Y19.465 I-6.203 J-8.266
X-93.495 Y18.981 I-8.143 J-7.204
X-93.053 Y19.508 I8.547 J-6.721
X-91.463 Y20.987 I7.732 J-6.716
X-84.948 Y23.151 I6.515 J-8.726
X-78.433 Y20.987 I0.0 J-10.89
X-76.835 Y19.498 I-6.154 J-8.209
X-76.402 Y18.981 I-8.113 J-7.238
X-75.96 Y19.508 I8.545 J-6.722
X-74.37 Y20.987 I7.839 J-6.831
X-67.855 Y23.151 I6.515 J-8.726
X-61.339 Y20.987 I0.0 J-10.89
X-60.14 Y19.93 I-5.787 J-7.778
X-59.693 Y19.444 I-8.922 J-8.646
X-59.308 Y18.981 I-8.162 J-7.183
X-58.866 Y19.508 I8.547 J-6.721
X-57.277 Y20.987 I7.673 J-6.653
X-50.761 Y23.151 I6.515 J-8.726
X-44.246 Y20.987 I0.0 J-10.89
X-42.896 Y19.774 I-6.003 J-8.039
X-42.5 Y19.33 I-13.763 J-12.651
X-42.215 Y18.981 I-8.261 J-7.069
X-41.929 Y19.33 I8.547 J-6.721
X-41.088 Y20.222 I9.785 J-8.379
X-40.449 Y20.782 I6.194 J-6.42
X-33.668 Y23.151 I6.781 J-8.521
X-27.152 Y20.987 I0.0 J-10.89
X-25.554 Y19.498 I-6.17 J-8.227
X-25.121 Y18.981 I-8.113 J-7.238
X-24.679 Y19.508 I8.547 J-6.721
X-23.09 Y20.987 I7.786 J-6.774
X-16.574 Y23.151 I6.515 J-8.726
X-10.059 Y20.987 I0.0 J-10.89
X-8.313 Y19.33 I-6.345 J-8.431
X-8.028 Y18.981 I-8.261 J-7.069
X-7.742 Y19.33 I8.547 J-6.721
X-6.908 Y20.215 I9.375 J-7.998
X-6.087 Y20.918 I6.579 J-6.842
X.519 Y23.151 I6.607 J-8.657
X7.035 Y20.987 I0.0 J-10.89
X8.633 Y19.498 I-6.113 J-8.165
X9.066 Y18.981 I-8.113 J-7.238
X9.508 Y19.508 I8.547 J-6.721
X11.097 Y20.987 I7.79 J-6.778
X17.613 Y23.151 I6.515 J-8.726
X24.128 Y20.987 I0.0 J-10.89
X25.037 Y20.218 I-5.529 J-7.462
X25.726 Y19.498 I-8.178 J-8.516
X26.16 Y18.981 I-8.113 J-7.238
X26.601 Y19.508 I8.547 J-6.721
X27.282 Y20.218 I9.584 J-8.5
X28.191 Y20.987 I6.411 J-6.66
X34.706 Y23.151 I6.515 J-8.726
X41.222 Y20.987 I0.0 J-10.89
X42.82 Y19.498 I-6.108 J-8.16
X43.253 Y18.981 I-8.113 J-7.238
X43.695 Y19.508 I8.547 J-6.721
X45.285 Y20.987 I7.735 J-6.719
X51.8 Y23.151 I6.515 J-8.726
X58.315 Y20.987 I0.0 J-10.89
X59.916 Y19.495 I-6.233 J-8.294
X60.347 Y18.981 I-8.117 J-7.234
X60.788 Y19.508 I8.547 J-6.721
X62.378 Y20.987 I7.784 J-6.772
X68.893 Y23.151 I6.515 J-8.726
X75.411 Y20.985 I0.0 J-10.89
X76.448 Y20.092 I-5.873 J-7.861
X77.131 Y19.357 I-8.712 J-8.785
X77.44 Y18.981 I-8.238 J-7.096
X77.882 Y19.508 I8.547 J-6.721
X78.92 Y20.545 I8.608 J-7.572
X79.471 Y20.987 I6.844 J-7.987
X85.987 Y23.151 I6.515 J-8.726
X92.502 Y20.987 I0.0 J-10.89
X94.122 Y19.474 I-6.047 J-8.097
X94.534 Y18.981 I-8.135 J-7.213
X94.975 Y19.508 I8.547 J-6.721
X96.067 Y20.59 I8.226 J-7.208
X96.298 Y20.781 I5.104 J-5.93
X103.08 Y23.151 I6.783 J-8.52
X109.596 Y20.987 I0.0 J-10.89
X110.666 Y20.061 I-5.763 J-7.746
X111.337 Y19.335 I-8.779 J-8.777
X111.627 Y18.981 I-8.257 J-7.074
X112.069 Y19.508 I8.547 J-6.721
X112.689 Y20.16 I9.499 J-8.407
X113.384 Y20.775 I6.363 J-6.493
X120.174 Y23.151 I6.79 J-8.514
X126.69 Y20.987 I0.0 J-10.89
X128.328 Y19.452 I-6.26 J-8.327
X131.046 Y12.261 I-8.154 J-7.192
G01 Y-12.877
G02 X128.328 Y-20.068 I-10.873 J0.0
X127.21 Y-21.188 I-8.915 J7.782
G01 X126.758 Y-21.552
X126.69 Y-21.602
G02 X120.174 Y-23.767 I-6.516 J8.726
X113.657 Y-21.602 I0.0 J10.89
X112.008 Y-20.055 I6.092 J8.149
X111.627 Y-19.597 I8.166 J7.178
X111.185 Y-20.124 I-8.547 J6.721
X109.597 Y-21.602 I-7.627 J6.603
X103.08 Y-23.767 I-6.516 J8.726
X96.565 Y-21.603 I0.0 J10.89
X94.967 Y-20.114 I6.149 J8.204
X94.534 Y-19.597 I8.113 J7.238
X94.204 Y-19.996 I-8.547 J6.721
X93.332 Y-20.909 I-9.085 J7.809
X92.71 Y-21.444 I-6.254 J6.641
X85.987 Y-23.767 I-6.724 J8.567
X79.471 Y-21.603 I0.0 J10.89
X77.873 Y-20.114 I6.111 J8.162
X77.44 Y-19.597 I8.113 J7.238
X76.998 Y-20.124 I-8.547 J6.721
X75.409 Y-21.603 I-7.727 J6.711
X68.893 Y-23.767 I-6.515 J8.726
X62.378 Y-21.603 I0.0 J10.89
X60.78 Y-20.114 I6.172 J8.228
X60.347 Y-19.597 I8.113 J7.238
X60.017 Y-19.996 I-8.547 J6.721
X58.315 Y-21.603 I-8.01 J6.78
X51.8 Y-23.767 I-6.515 J8.726
X45.284 Y-21.603 I0.0 J10.89
X43.686 Y-20.114 I6.126 J8.178
X43.253 Y-19.597 I8.113 J7.238
X42.811 Y-20.124 I-8.547 J6.721
X41.222 Y-21.603 I-7.753 J6.739
X34.706 Y-23.767 I-6.515 J8.726
X28.191 Y-21.603 I0.0 J10.89
X26.593 Y-20.114 I6.157 J8.212
X26.16 Y-19.597 I8.113 J7.238
X25.718 Y-20.124 I-8.547 J6.721
X24.128 Y-21.603 I-7.77 J6.757
X17.613 Y-23.767 I-6.515 J8.726
X11.097 Y-21.603 I0.0 J10.89
X9.39 Y-19.99 I6.318 J8.398
X9.066 Y-19.597 I8.223 J7.113
X8.624 Y-20.124 I-8.547 J6.721
X7.035 Y-21.603 I-7.723 J6.707
X.519 Y-23.767 I-6.515 J8.726
X-5.996 Y-21.603 I0.0 J10.89
X-7.601 Y-20.106 I6.188 J8.246
X-8.028 Y-19.597 I8.121 J7.23
X-8.469 Y-20.124 I-8.547 J6.721
X-10.059 Y-21.603 I-7.92 J6.918
X-16.574 Y-23.767 I-6.515 J8.726
X-23.09 Y-21.603 I0.0 J10.89
X-24.688 Y-20.114 I6.146 J8.201
X-25.121 Y-19.597 I8.113 J7.238
X-25.563 Y-20.124 I-8.547 J6.721
X-27.152 Y-21.603 I-7.702 J6.684
X-33.668 Y-23.767 I-6.515 J8.726
X-40.183 Y-21.603 I0.0 J10.89
X-41.807 Y-20.085 I6.15 J8.208
X-42.215 Y-19.597 I8.14 J7.208
X-42.656 Y-20.124 I-8.547 J6.721
X-43.503 Y-20.988 I-8.729 J7.704
X-44.106 Y-21.497 I-6.196 J6.736
X-50.761 Y-23.767 I-6.655 J8.62
X-57.277 Y-21.603 I0.0 J10.89
X-58.363 Y-20.663 I5.741 J7.728
X-59.022 Y-19.946 I9.501 J9.401
X-59.308 Y-19.597 I8.261 J7.069
X-59.75 Y-20.124 I-8.547 J6.721
X-60.496 Y-20.896 I-8.685 J7.648
X-61.208 Y-21.503 I-6.454 J6.846
X-67.855 Y-23.767 I-6.647 J8.627
X-74.37 Y-21.603 I0.0 J10.89
X-76.013 Y-20.064 I6.151 J8.212
X-76.402 Y-19.597 I8.158 J7.187
X-76.843 Y-20.124 I-8.547 J6.721
X-78.433 Y-21.603 I-7.824 J6.815
X-84.948 Y-23.767 I-6.515 J8.726
X-91.464 Y-21.603 I0.0 J10.89
X-93.166 Y-19.996 I6.266 J8.343
X-93.495 Y-19.597 I8.217 J7.12
X-93.899 Y-20.081 I-8.547 J6.721
X-95.016 Y-21.198 I-8.915 J7.807
G01 X-95.464 Y-21.557
X-95.526 Y-21.603
G02 X-102.042 Y-23.767 I-6.515 J8.726
X-108.557 Y-21.603 I0.0 J10.89
X-110.155 Y-20.114 I6.054 J8.101
X-112.682 Y-15.113 I8.113 J7.238
X-119.135 Y-17.231 I-6.453 J8.772
X-125.651 Y-15.067 I0.0 J10.89
X-126.763 Y-14.099 I5.658 J7.62
X-127.272 Y-13.553 I7.352 J7.362
X-130.008 Y-6.341 I8.136 J7.212
G01 Y5.725
G02 X-127.24 Y12.972 I10.873 J0.0
X-125.651 Y14.451 I7.736 J-6.72
X-119.135 Y16.615 I6.515 J-8.726
X-115.746 Y16.074 I0.0 J-10.89
G01 X-115.279 Y17.5
X-113.25
Y25.
X121.5
X127. F2188.
X132.5 F1875.
Y19.5
Y-14. F2500.
Y-19.5 F2188.
Y-25. F1875.
X127.
X0.0 F2500.
Y-30.5
Z.018
G00 Z.215
G01 Z-.178
Z-1.178 F1000.
Y-25.
X-121.5 F2500.
X-127. F2188.
X-132.5 F1875.
Y-19.5
Y-17.398 F2500.
X-125.
G03 X-124.803 Y-17.5 I5.865 J11.057 F1500.
G01 X-115.964 Y-19.202
X-124.803 Y-17.5 F2500.
X-125.
Y-17.398
X-132.5
Y14.
Y19.5 F2188.
Y25. F1875.
X-127.
X-123.378 F2500.
Y17.5
G03 X-125. Y16.782 I4.243 J-11.775 F1500.
G01 Y17.5 F2500.
X-123.378
Y25.
X-113.265
Y17.5
G03 X-113.522 Y16.912 I11.224 J-5.239 F1500.
X-114.893 Y17.5 I-5.613 J-11.187
G01 X-115.401 Y16.089 F2500.
G02 X-112.665 Y14.64 I-3.734 J-10.364
X-111.049 Y18.375 I10.623 J-2.38
X-110.016 Y19.774 I12.997 J-8.515
X-108.632 Y21.088 I6.337 J-5.289
X-102.042 Y23.277 I6.591 J-8.827
X-95.462 Y21.096 I0.0 J-11.016
X-94.584 Y20.333 I-4.643 J-6.234
X-93.495 Y19.038 I-7.331 J-7.265
X-92.522 Y20.218 I8.635 J-6.126
X-91.539 Y21.088 I5.486 J-5.213
X-84.948 Y23.277 I6.591 J-8.827
X-78.352 Y21.083 I0.0 J-11.016
X-76.738 Y19.484 I-4.91 J-6.568
G01 X-76.46 Y19.119
X-76.401 Y19.037
G02 X-75.444 Y20.202 I9.057 J-6.461
X-74.577 Y20.988 I5.358 J-5.044
X-67.855 Y23.277 I6.722 J-8.727
X-61.264 Y21.088 I0.0 J-11.016
X-59.916 Y19.816 I-4.851 J-6.491
X-59.308 Y19.038 I-10.042 J-8.476
X-58.588 Y19.945 I9.691 J-6.953
X-57.353 Y21.087 I6.042 J-5.293
X-50.761 Y23.277 I6.591 J-8.826
X-44.171 Y21.088 I0.0 J-11.016
X-42.909 Y19.916 I-4.822 J-6.458
X-42.214 Y19.038 I-9.095 J-7.903
X-41.243 Y20.218 I8.993 J-6.405
X-40.258 Y21.088 I5.594 J-5.347
X-33.668 Y23.277 I6.591 J-8.827
X-27.076 Y21.087 I0.0 J-11.016
X-25.888 Y19.998 I-4.806 J-6.434
X-25.121 Y19.038 I-8.443 J-7.532
X-24.324 Y20.03 I9.436 J-6.769
X-23.166 Y21.087 I5.919 J-5.318
X-16.574 Y23.277 I6.592 J-8.826
X-9.981 Y21.085 I0.0 J-11.016
X-9.035 Y20.252 I-4.688 J-6.275
X-8.028 Y19.038 I-7.514 J-7.257
X-7.092 Y20.18 I8.738 J-6.201
X-6.143 Y21.034 I5.601 J-5.271
X.519 Y23.277 I6.662 J-8.773
X7.11 Y21.088 I0.0 J-11.016
X8.044 Y20.266 I-4.659 J-6.239
X9.066 Y19.037 I-7.569 J-7.333
X10.508 Y20.669 I7.902 J-5.53
G01 X10.955 Y21.038
X11.022 Y21.088
G02 X17.613 Y23.277 I6.591 J-8.827
X24.203 Y21.088 I0.0 J-11.016
X25.393 Y19.996 I-4.696 J-6.314
X26.16 Y19.038 I-8.774 J-7.797
X27.132 Y20.218 I9.043 J-6.453
X28.116 Y21.088 I5.675 J-5.433
X34.706 Y23.277 I6.591 J-8.827
X41.297 Y21.088 I0.0 J-11.016
X43.253 Y19.037 I-5.691 J-7.386
X44.266 Y20.261 I8.72 J-6.19
X45.209 Y21.088 I5.656 J-5.497
X51.8 Y23.277 I6.591 J-8.827
X58.365 Y21.107 I0.0 J-11.016
X59.589 Y19.987 I-4.837 J-6.518
X60.346 Y19.038 I-8.385 J-7.466
X61.319 Y20.218 I8.952 J-6.385
X62.303 Y21.088 I5.522 J-5.255
X68.893 Y23.277 I6.591 J-8.827
X75.484 Y21.088 I0.0 J-11.016
X76.907 Y19.725 I-4.892 J-6.534
G01 X77.048 Y19.552
G02 X77.44 Y19.038 I-8.643 J-6.991
X78.481 Y20.288 I8.624 J-6.122
X79.307 Y21.021 I5.355 J-5.206
X85.987 Y23.277 I6.679 J-8.76
X92.577 Y21.088 I0.0 J-11.016
X94.178 Y19.507 I-4.996 J-6.661
X94.534 Y19.038 I-6.833 J-5.541
X95.507 Y20.218 I8.868 J-6.316
X96.49 Y21.088 I5.778 J-5.544
X101.364 Y23.142 I6.591 J-8.827
X103.08 Y23.277 I1.717 J-10.881 F2188.
X106.783 Y22.636 I0.0 J-11.016
X109.671 Y21.087 I-3.703 J-10.375 F1875.
X111.236 Y19.552 I-5.034 J-6.694
G01 X111.245 Y19.544
X111.577 Y19.108
X111.627 Y19.038
G02 X112.6 Y20.218 I8.967 J-6.394
X113.583 Y21.087 I5.608 J-5.355
X115.304 Y22.142 I6.591 J-8.827
X120.174 Y23.277 I4.87 J-9.881 F2500.
X126.763 Y21.089 I0.0 J-11.016
X128.148 Y19.774 I-4.948 J-6.597
X129.185 Y18.368 I-12.455 J-10.281
X131.06 Y12.261 I-9.012 J-6.107
G01 Y-12.877
G02 X129.181 Y-18.991 I-10.886 J0.0
X128.105 Y-20.439 I-12.015 J7.809
X126.765 Y-21.703 I-6.173 J5.198
X120.174 Y-23.893 I-6.592 J8.826
X113.582 Y-21.703 I0.0 J11.016
X112.472 Y-20.698 I4.761 J6.375
X111.627 Y-19.654 I8.192 J7.493
X110.385 Y-21.107 I-8.687 J6.168
X109.672 Y-21.703 I-6.146 J6.629
X103.08 Y-23.893 I-6.591 J8.826
X96.49 Y-21.704 I0.0 J11.016
X95.24 Y-20.545 I4.794 J6.422
X94.534 Y-19.654 I8.965 J7.835
X93.675 Y-20.712 I-8.836 J6.292
X92.577 Y-21.704 I-5.619 J5.115
X85.987 Y-23.893 I-6.591 J8.827
X79.393 Y-21.701 I0.0 J11.016
X78.475 Y-20.895 I4.649 J6.221
X77.44 Y-19.654 I7.551 J7.345
X76.236 Y-21.065 I-8.47 J6.006
X75.638 Y-21.586 I-4.783 J4.883
X68.893 Y-23.893 I-6.745 J8.71
X62.303 Y-21.704 I0.0 J11.016
X61.009 Y-20.497 I4.843 J6.486
X60.347 Y-19.654 I9.197 J7.913
X59.469 Y-20.732 I-8.999 J6.427
X58.39 Y-21.704 I-5.623 J5.158
X51.8 Y-23.893 I-6.591 J8.827
X45.209 Y-21.704 I0.0 J11.016
X43.819 Y-20.381 I4.866 J6.505
G01 X43.685 Y-20.218
G02 X43.253 Y-19.654 I8.075 J6.619
X42.254 Y-20.861 I-8.824 J6.285
X41.297 Y-21.704 I-5.657 J5.461
X34.706 Y-23.893 I-6.591 J8.827
X28.112 Y-21.701 I0.0 J11.016
X26.875 Y-20.556 I4.822 J6.453
X26.159 Y-19.654 I8.818 J7.724
X24.816 Y-21.197 I-8.139 J5.728
X24.203 Y-21.704 I-4.819 J5.205
X17.613 Y-23.893 I-6.591 J8.827
X11.022 Y-21.703 I0.0 J11.016
X9.973 Y-20.764 I4.735 J6.341
X9.066 Y-19.654 I7.907 J7.385
X8.255 Y-20.663 I-9.788 J7.038
X7.11 Y-21.704 I-5.974 J5.422
X.519 Y-23.893 I-6.591 J8.827
X-6.066 Y-21.708 I0.0 J11.016
X-7.412 Y-20.441 I4.907 J6.559
X-8.027 Y-19.654 I9.68 J8.209
X-9.164 Y-21.001 I-8.564 J6.073
X-9.805 Y-21.567 I-4.875 J4.87
X-16.574 Y-23.893 I-6.769 J8.691
X-23.165 Y-21.704 I0.0 J11.016
X-24.691 Y-20.218 I5.097 J6.764
X-25.121 Y-19.654 I9.991 J8.054
X-26.348 Y-21.089 I-8.463 J5.996
X-26.873 Y-21.548 I-4.53 J4.652
X-33.668 Y-23.893 I-6.794 J8.671
X-40.258 Y-21.704 I0.0 J11.016
X-41.402 Y-20.663 I4.549 J6.145
X-42.214 Y-19.654 I8.366 J7.571
X-43.12 Y-20.765 I-9.31 J6.664
X-44.025 Y-21.593 I-5.419 J5.013
X-50.761 Y-23.893 I-6.736 J8.716
X-57.355 Y-21.701 I0.0 J11.016
X-58.527 Y-20.629 I4.8 J6.424
X-59.308 Y-19.654 I8.376 J7.506
X-60.14 Y-20.684 I-8.975 J6.396
X-61.264 Y-21.704 I-5.711 J5.167
X-67.855 Y-23.893 I-6.591 J8.827
X-74.446 Y-21.703 I0.0 J11.016
X-75.474 Y-20.786 I4.731 J6.335
X-76.401 Y-19.654 I7.793 J7.332
X-77.572 Y-21.033 I-8.449 J5.987
X-78.231 Y-21.608 I-4.975 J5.035
X-84.948 Y-23.893 I-6.717 J8.731
X-91.542 Y-21.701 I0.0 J11.016
X-92.769 Y-20.567 I4.797 J6.42
X-93.495 Y-19.654 I9.032 J7.924
X-94.346 Y-20.704 I-9.167 J6.554
X-95.451 Y-21.704 I-5.88 J5.393
X-102.042 Y-23.893 I-6.591 J8.827
X-108.632 Y-21.704 I0.0 J11.016
X-110.16 Y-20.218 I5.117 J6.789
X-111.053 Y-18.984 I13.664 J10.837
X-112.665 Y-15.256 I9.012 J6.107
X-119.135 Y-17.357 I-6.47 J8.915
X-125.726 Y-15.168 I0.0 J11.016
X-127.21 Y-13.735 I5.022 J6.689
X-128.151 Y-12.442 I13.417 J10.752
X-130.022 Y-6.341 I9.016 J6.101
G01 Y5.725
G02 X-128.142 Y11.839 I10.886 J0.0
X-127.217 Y13.109 I13.621 J-8.955
X-125.726 Y14.552 I6.46 J-5.183
X-119.135 Y16.741 I6.591 J-8.827
X-115.401 Y16.089 I0.0 J-11.016
G01 X-114.893 Y17.5
X-113.265
Y25.
X121.5
X127. F2188.
X132.5 F1875.
Y19.5
Y-14. F2500.
Y-19.5 F2188.
Y-25. F1875.
X127.
X0.0 F2500.
Y-30.5
Z-.178
G00 Z.018
G01 Z-.374
Z-1.374 F1000.
Y-25.
X-121.5 F2500.
X-127. F2188.
X-132.5 F1875.
Y-19.5
Y14. F2500.
Y19.5 F2188.
Y25. F1875.
X-127.
X-124.301 F2500.
Y17.5
G03 X-125. Y17.168 I5.166 J-11.775 F1500.
G01 Y17.5 F2500.
X-124.301
X-119.135 Y19.416 F1500.
X-124.301 Y17.5 F2500.
Y25.
X-113.281
Y17.5
G03 X-113.401 Y17.234 I11.239 J-5.239 F1500.
X-113.97 Y17.5 I-5.734 J-11.509
G01 X-114.572 Y16.126 F2500.
G02 X-112.59 Y15.008 I-4.563 J-10.401
X-111.638 Y17.43 I10.548 J-2.747
G03 X-111.005 Y18.708 I-18.251 J9.832
G02 X-110.087 Y20.159 I5.649 J-2.559
X-108.83 Y21.367 I6.529 J-5.534
X-102.042 Y23.619 I6.789 J-9.106
X-95.254 Y21.367 I0.0 J-11.358
X-93.495 Y19.482 I-4.97 J-6.398
X-91.737 Y21.367 I6.639 J-4.432
X-84.948 Y23.619 I6.789 J-9.106
X-78.16 Y21.367 I0.0 J-11.358
G01 X-78.153 Y21.361
X-78.025 Y21.263
G02 X-76.77 Y19.996 I-5.624 J-6.829
X-76.402 Y19.483 I-4.273 J-3.456
X-74.643 Y21.367 I6.622 J-4.418
X-67.855 Y23.619 I6.789 J-9.106
X-61.067 Y21.367 I0.0 J-11.358
X-59.308 Y19.482 I-4.916 J-6.348
X-57.693 Y21.255 I6.704 J-4.486
G01 X-57.554 Y21.359
X-57.55 Y21.367
G02 X-50.761 Y23.619 I6.788 J-9.106
X-43.973 Y21.367 I0.0 J-11.358
X-42.702 Y20.141 I-5.236 J-6.703
X-42.215 Y19.482 I-4.957 J-4.17
X-40.458 Y21.366 I6.611 J-4.406
X-37.326 Y23.014 I6.79 J-9.105
X-33.668 Y23.619 I3.658 J-10.753 F2188.
X-31.899 Y23.48 I0.0 J-11.358
X-26.88 Y21.367 I-1.768 J-11.22 F1875.
G01 X-26.87 Y21.35 F2500.
X-26.851 Y21.345
G02 X-25.487 Y19.991 I-5.194 J-6.594 F1875.
X-25.121 Y19.482 I-5.212 J-4.13
X-23.922 Y20.888 I6.241 J-4.11
X-23.368 Y21.359 I3.603 J-3.683
G01 X-23.363 Y21.367
G02 X-23.073 Y21.576 I6.789 J-9.106
X-16.574 Y23.619 I6.499 J-9.315 F2500.
X-9.786 Y21.367 I0.0 J-11.358
X-8.028 Y19.482 I-4.89 J-6.324
X-6.268 Y21.368 I6.678 J-4.468
X.519 Y23.619 I6.787 J-9.107
X7.307 Y21.367 I0.0 J-11.358
X8.719 Y19.968 I-5.179 J-6.636
X9.066 Y19.482 I-6.822 J-5.233
X10.824 Y21.367 I6.655 J-4.444
X17.613 Y23.619 I6.788 J-9.106
X24.401 Y21.367 I0.0 J-11.358
X26.16 Y19.48 I-4.925 J-6.353
X27.917 Y21.367 I6.549 J-4.339
X31.048 Y23.014 I6.789 J-9.106
X34.706 Y23.619 I3.658 J-10.753 F2188.
X36.475 Y23.48 I0.0 J-11.358
X41.494 Y21.367 I-1.768 J-11.22 F1875.
G01 X41.504 Y21.35 F2500.
X41.523 Y21.345
G02 X43.252 Y19.486 I-5.058 J-6.434 F1875.
G01 Y19.484
X43.254
Y19.486
G02 X44.937 Y21.309 I6.607 J-4.41
G01 X45.006 Y21.359
X45.011 Y21.367
G02 X45.304 Y21.578 I6.789 J-9.106
X51.8 Y23.619 I6.495 J-9.318 F2500.
X58.588 Y21.367 I0.0 J-11.358
G01 X58.696 Y21.285
G02 X59.693 Y20.334 I-5.925 J-7.21
X60.347 Y19.48 I-4.948 J-4.47
X62.102 Y21.365 I6.572 J-4.36
X68.893 Y23.619 I6.791 J-9.104
X75.681 Y21.367 I0.0 J-11.358
G01 X75.694 Y21.356
G02 X77.44 Y19.482 I-4.906 J-6.32
X79.198 Y21.367 I6.656 J-4.448
X85.987 Y23.619 I6.788 J-9.106
X92.72 Y21.408 I0.0 J-11.358
X94.165 Y19.996 I-4.974 J-6.538
X94.533 Y19.481 I-4.666 J-3.726
X96.289 Y21.365 I6.566 J-4.36
X99.423 Y23.014 I6.791 J-9.105
X103.08 Y23.619 I3.658 J-10.753 F2188.
X104.849 Y23.48 I0.0 J-11.358
X109.869 Y21.367 I-1.769 J-11.22 F1875.
G01 X109.881 Y21.354
X110.012 Y21.255
G02 X110.661 Y20.663 I-6.522 J-7.802
X111.627 Y19.482 I-5.077 J-5.137
X113.479 Y21.436 I6.614 J-4.415
X113.646 Y21.556 I6.695 J-9.176
X120.174 Y23.619 I6.528 J-9.295 F2500.
X126.963 Y21.367 I0.0 J-11.358
X128.35 Y19.998 I-5.11 J-6.565
X129.088 Y18.803 I-4.544 J-3.634
G03 X129.801 Y17.373 I24.61 J11.366
G02 X131.074 Y12.261 I-9.627 J-5.112
G01 Y-12.877
G02 X129.797 Y-17.995 I-10.9 J0.0
G03 X128.999 Y-19.615 I25.824 J-13.736
G02 X127.657 Y-21.375 I-6.024 J3.2
X126.781 Y-22.115 I-5.343 J5.435
X120.174 Y-24.235 I-6.607 J9.239
X113.385 Y-21.983 I0.0 J11.358
G01 X113.379 Y-21.974
X113.126 Y-21.775
G02 X112.425 Y-21.107 I7.652 J8.733
X111.627 Y-20.099 I5.097 J4.851
X110.299 Y-21.622 I-6.381 J4.223
X109.681 Y-22.12 I-4.26 J4.658
X103.08 Y-24.235 I-6.601 J9.243
X96.292 Y-21.983 I0.0 J11.358
G01 X96.287 Y-21.978
G02 X94.533 Y-20.1 I4.95 J6.38
X92.592 Y-22.115 I-6.536 J4.353
G01 X92.587 Y-22.12
G02 X85.987 Y-24.235 I-6.6 J9.244
X79.199 Y-21.983 I0.0 J11.358
G01 X79.194 Y-21.978
X79.056 Y-21.87
G02 X77.802 Y-20.603 I5.46 J6.66
X77.44 Y-20.099 I4.464 J3.586
X75.663 Y-21.996 I-6.678 J4.477
G01 X75.499 Y-22.115
X75.493 Y-22.12
G02 X72.551 Y-23.63 I-6.6 J9.244
X68.893 Y-24.235 I-3.658 J10.753 F2188.
X67.125 Y-24.096 I0.0 J11.358
X62.105 Y-21.983 I1.768 J11.22 F1875.
G01 X62.095 Y-21.972
X61.928 Y-21.845
G02 X61.144 Y-21.107 I6.557 J7.756
X60.347 Y-20.099 I5.169 J4.905
X58.406 Y-22.116 I-6.613 J4.421
X58.327 Y-22.172 I-6.606 J9.239
X51.8 Y-24.235 I-6.527 J9.295 F2500.
X45.012 Y-21.983 I0.0 J11.358
X44.716 Y-21.741 I42.081 J51.672
X43.253 Y-20.1 I5.113 J6.03
X41.171 Y-22.216 I-6.599 J4.411
X34.706 Y-24.235 I-6.465 J9.339
X33.025 Y-24.11 I0.0 J11.358
X27.989 Y-22.036 I1.681 J11.233 F2188.
X27.917 Y-21.983 I6.717 J9.159 F1875.
G01 X27.912 Y-21.975
X27.706 Y-21.814
G02 X26.605 Y-20.708 I5.843 J6.915
G01 X26.238 Y-20.218
X26.159 Y-20.099
G02 X25.04 Y-21.428 I-6.05 J3.959
X24.223 Y-22.112 I-4.799 J4.903
G01 X24.213 Y-22.12
G02 X19.151 Y-24.13 I-6.6 J9.244
X17.613 Y-24.235 I-1.538 J11.254 F2500.
X10.825 Y-21.983 I0.0 J11.358
X9.475 Y-20.663 I5.21 J6.673
G01 X9.39 Y-20.553
X9.066 Y-20.099
G02 X7.126 Y-22.116 I-6.627 J4.434
X.519 Y-24.235 I-6.607 J9.239
X-6.269 Y-21.983 I0.0 J11.358
X-7.79 Y-20.441 I5.158 J6.608
G01 X-8.027 Y-20.099
G02 X-9.356 Y-21.623 I-6.362 J4.206
X-9.808 Y-21.996 I-3.126 J3.327
G01 X-9.962 Y-22.107
X-9.968 Y-22.116
G02 X-12.916 Y-23.63 I-6.607 J9.239
X-16.574 Y-24.235 I-3.658 J10.753 F2188.
X-18.343 Y-24.096 I0.0 J11.358
X-23.362 Y-21.983 I1.768 J11.22 F1875.
G01 X-23.378 Y-21.968
X-23.475 Y-21.896
G02 X-24.712 Y-20.663 I5.629 J6.887
X-25.121 Y-20.099 I4.38 J3.606
X-26.157 Y-21.35 I-6.218 J4.099
X-26.605 Y-21.761 I-7.592 J7.807
X-26.903 Y-21.999 I-3.006 J3.463
G01 X-27.063 Y-22.113
X-27.068 Y-22.12
G02 X-27.14 Y-22.172 I-6.6 J9.244
X-33.668 Y-24.235 I-6.527 J9.295 F2500.
X-40.457 Y-21.982 I0.0 J11.358
X-42.214 Y-20.099 I5.001 J6.428
X-44.161 Y-22.12 I-6.622 J4.43
X-50.761 Y-24.235 I-6.6 J9.244
X-57.549 Y-21.983 I0.0 J11.358
X-58.899 Y-20.663 I5.277 J6.742
X-59.308 Y-20.099 I7.261 J5.707
X-61.248 Y-22.116 I-6.606 J4.412
X-67.855 Y-24.235 I-6.607 J9.239
X-74.643 Y-21.983 I0.0 J11.358
X-76.013 Y-20.637 I5.263 J6.728
X-76.402 Y-20.1 I4.612 J3.742
X-77.715 Y-21.61 I-6.387 J4.228
X-78.338 Y-22.109 I-3.78 J4.085
G01 X-78.342 Y-22.116
G02 X-81.29 Y-23.63 I-6.607 J9.239
X-84.948 Y-24.235 I-3.658 J10.753 F2188.
X-86.717 Y-24.096 I0.0 J11.358
X-91.736 Y-21.983 I1.768 J11.22 F1875.
G01 X-91.743 Y-21.974
X-91.887 Y-21.866
G02 X-92.697 Y-21.107 I6.336 J7.578
X-93.496 Y-20.099 I5.358 J5.063
X-95.272 Y-21.996 I-6.684 J4.48
G01 X-95.43 Y-22.108
X-95.435 Y-22.116
G02 X-95.514 Y-22.172 I-6.607 J9.239
X-98.384 Y-23.63 I-6.527 J9.295 F2500.
X-102.042 Y-24.235 I-3.658 J10.753 F2188.
X-103.81 Y-24.096 I0.0 J11.358
X-108.83 Y-21.983 I1.768 J11.22 F1875.
G01 X-108.84 Y-21.972
X-108.878 Y-21.946
G02 X-110.224 Y-20.606 I5.221 J6.595
X-110.977 Y-19.382 I4.549 J3.641
G03 X-111.669 Y-17.989 I-21.275 J-9.695
G02 X-111.91 Y-17.507 I9.627 J5.112
X-112.59 Y-15.624 I9.868 J4.63 F2500.
X-119.135 Y-17.699 I-6.545 J9.283
X-125.923 Y-15.448 I0.0 J11.358
X-127.21 Y-14.203 I5.312 J6.778
X-128.255 Y-12.442 I4.983 J4.146
G03 X-128.775 Y-11.428 I-44.581 J-22.257
G02 X-130.035 Y-6.341 I9.64 J5.087
G01 Y5.725
G02 X-128.762 Y10.837 I10.9 J0.0
G03 X-128.128 Y12.112 I-16.325 J8.913
G02 X-127.051 Y13.773 I5.958 J-2.683
X-125.924 Y14.831 I6.439 J-5.73
X-119.135 Y17.083 I6.789 J-9.106
X-114.572 Y16.126 I0.0 J-11.358
G01 X-113.97 Y17.5
X-113.281
Y25.
X121.5
X127. F2188.
X132.5 F1875.
Y19.5
Y-14. F2500.
Y-19.5 F2188.
Y-25. F1875.
X127.
X0.0 F2500.
Y-30.5
Z-.374
G00 Z-.178
G01 Z-.571
Z-1.571 F1000.
Y-25.
X-121.5 F2500.
X-127. F2188.
X-132.5 F1875.
Y-19.5
Y14. F2500.
Y19.5 F2188.
Y25. F1875.
X-127.
X-124.318 F2500.
Y17.5
G03 X-125. Y17.175 I5.182 J-11.775 F1500.
G01 Y17.5 F2500.
X-124.318
X-119.135 Y19.414 F1500.
X-124.318 Y17.5 F2500.
Y25.
X-113.346
Y17.5
G03 X-113.393 Y17.315 I7.299 J-1.943 F1500.
G01 X-113.417 Y17.249
G03 X-113.953 Y17.5 I-5.718 J-11.524
G01 X-114.557 Y16.127 F2500.
G02 X-112.6 Y15.023 I-4.578 J-10.402
X-112.15 Y16.376 I10.558 J-2.762
G03 X-111.953 Y16.886 I-11.417 J4.713
G02 X-111.103 Y18.885 I5.906 J-1.329
X-109.082 Y21.174 I9.247 J-6.128
X-108.835 Y21.372 I2.998 J-3.493
X-102.042 Y23.626 I6.793 J-9.111
X-95.249 Y21.373 I0.0 J-11.365
X-94.861 Y21.052 I-3.048 J-4.089
X-93.494 Y19.6 I-7.695 J-8.617
X-91.966 Y21.192 I8.711 J-6.826
X-91.742 Y21.372 I2.843 J-3.332
X-84.948 Y23.626 I6.793 J-9.111
X-78.156 Y21.373 I0.0 J-11.365
X-77.77 Y21.054 I-3.048 J-4.089
X-76.4 Y19.6 I-7.696 J-8.62
X-74.975 Y21.107 I8.924 J-7.013
X-74.648 Y21.372 I3.37 J-3.824
X-67.855 Y23.626 I6.793 J-9.112
X-61.054 Y21.366 I0.0 J-11.365
X-60.675 Y21.053 I-3.056 J-4.083
X-59.307 Y19.6 I-7.62 J-8.542
X-57.904 Y21.087 I8.891 J-6.982
X-57.554 Y21.372 I3.391 J-3.801
X-50.761 Y23.626 I6.793 J-9.112
X-43.969 Y21.373 I0.0 J-11.365
X-43.582 Y21.054 I-3.048 J-4.089
X-42.216 Y19.601 I-7.441 J-8.363
G01 X-42.211 Y19.603
G02 X-40.71 Y21.173 I8.748 J-6.862
X-40.465 Y21.369 I2.973 J-3.46
X-33.668 Y23.626 I6.797 J-9.108
X-26.865 Y21.365 I0.0 J-11.365
X-26.493 Y21.057 I-3.058 J-4.081
X-25.121 Y19.598 I-7.457 J-8.384
X-23.591 Y21.194 I8.714 J-6.827
X-23.369 Y21.371 I2.815 J-3.3
X-16.574 Y23.626 I6.795 J-9.11
X-9.77 Y21.364 I0.0 J-11.365
X-9.396 Y21.054 I-3.06 J-4.08
X-8.029 Y19.601 I-7.42 J-8.343
G01 X-8.024 Y19.603
G02 X-6.601 Y21.107 I8.913 J-7.008
X-6.274 Y21.372 I3.374 J-3.829
X.519 Y23.626 I6.793 J-9.112
X7.32 Y21.366 I0.0 J-11.365
X7.697 Y21.055 I-3.057 J-4.082
X9.066 Y19.598 I-7.43 J-8.353
X10.596 Y21.194 I8.707 J-6.82
X10.819 Y21.372 I2.831 J-3.32
X17.613 Y23.626 I6.793 J-9.111
X24.417 Y21.364 I0.0 J-11.365
X24.79 Y21.056 I-3.06 J-4.08
X26.161 Y19.6 I-7.621 J-8.55
X27.649 Y21.16 I8.779 J-6.885
X27.912 Y21.371 I3.093 J-3.583
X34.706 Y23.626 I6.794 J-9.111
X41.509 Y21.365 I0.0 J-11.365
X41.887 Y21.052 I-3.058 J-4.081
X43.253 Y19.599 I-7.491 J-8.409
X44.796 Y21.205 I8.695 J-6.811
X45.006 Y21.372 I2.73 J-3.213
X51.8 Y23.626 I6.794 J-9.111
X58.592 Y21.373 I0.0 J-11.365
X58.976 Y21.056 I-3.048 J-4.089
X60.343 Y19.603 I-7.41 J-8.338
G01 X60.348 Y19.6
G02 X61.773 Y21.107 I8.925 J-7.016
X62.098 Y21.37 I3.35 J-3.799
X68.893 Y23.626 I6.795 J-9.11
X75.699 Y21.363 I0.0 J-11.365
X76.069 Y21.057 I-3.062 J-4.079
X77.44 Y19.598 I-7.446 J-8.372
X78.668 Y20.926 I8.657 J-6.778
G01 X78.824 Y21.068
G02 X79.166 Y21.351 I3.113 J-3.41
X85.987 Y23.626 I6.821 J-9.09
X92.779 Y21.373 I0.0 J-11.365
X93.167 Y21.052 I-3.048 J-4.089
X94.533 Y19.598 I-7.397 J-8.317
X95.911 Y21.062 I8.842 J-6.94
G01 X95.96 Y21.107
X96.231 Y21.329
X96.285 Y21.371
G02 X103.08 Y23.626 I6.795 J-9.11
X109.873 Y21.373 I0.0 J-11.365
X110.255 Y21.058 I-3.048 J-4.089
X111.627 Y19.599 I-7.445 J-8.374
X113.119 Y21.162 I8.801 J-6.906
X113.38 Y21.371 I3.067 J-3.555
X120.174 Y23.626 I6.794 J-9.111
X127.005 Y21.343 I0.0 J-11.365
X127.346 Y21.059 I-2.631 J-3.498
G01 X127.545 Y20.875
G02 X129.235 Y18.886 I-7.393 J-7.995
X130.084 Y16.886 I-4.985 J-3.296
G01 X130.117 Y16.797
X130.319 Y16.283
G02 X131.088 Y12.261 I-10.146 J-4.022
G01 Y-12.877
G02 X130.282 Y-16.992 I-10.914 J0.0
G03 X130.107 Y-17.439 I24.255 J-9.765
G02 X129.204 Y-19.552 I-6.274 J1.432
G01 X129.05 Y-19.774
X128.999 Y-19.846
G02 X127.426 Y-21.604 I-9.137 J6.592
X126.785 Y-22.121 I-4.771 J5.258
X120.174 Y-24.242 I-6.611 J9.244
X113.373 Y-21.982 I0.0 J11.365
X112.983 Y-21.659 I3.056 J4.083
X111.628 Y-20.214 I7.344 J8.248
X110.333 Y-21.603 I-8.835 J6.937
X109.692 Y-22.121 I-4.772 J5.258
X103.08 Y-24.242 I-6.611 J9.244
X96.276 Y-21.98 I0.0 J11.365
X95.889 Y-21.659 I3.06 J4.08
X94.534 Y-20.214 I7.42 J8.322
X93.238 Y-21.604 I-8.782 J6.886
X92.597 Y-22.122 I-4.771 J5.258
X85.987 Y-24.242 I-6.61 J9.245
X79.183 Y-21.98 I0.0 J11.365
X78.798 Y-21.661 I3.059 J4.081
X77.441 Y-20.214 I7.408 J8.312
X76.145 Y-21.604 I-8.832 J6.935
X75.504 Y-22.122 I-4.771 J5.258
X68.893 Y-24.242 I-6.61 J9.245
X62.089 Y-21.98 I0.0 J11.365
X61.706 Y-21.662 I3.06 J4.08
X60.347 Y-20.215 I7.447 J8.355
X59.051 Y-21.604 I-8.815 J6.92
X58.41 Y-22.121 I-4.771 J5.258
X51.8 Y-24.242 I-6.61 J9.245
X44.998 Y-21.982 I0.0 J11.365
X44.614 Y-21.663 I3.057 J4.082
X43.253 Y-20.214 I7.47 J8.377
X41.951 Y-21.61 I-8.78 J6.883
X41.317 Y-22.121 I-4.764 J5.264
X34.706 Y-24.242 I-6.611 J9.245
X27.914 Y-21.989 I0.0 J11.365
X27.518 Y-21.661 I3.048 J4.089
X26.161 Y-20.216 I7.416 J8.322
G01 X26.157 Y-20.217
X25.934 Y-20.493
G02 X24.864 Y-21.604 I-8.531 J7.14
X24.223 Y-22.122 I-4.771 J5.258
X17.613 Y-24.242 I-6.61 J9.245
X10.82 Y-21.989 I0.0 J11.365
X10.425 Y-21.661 I3.048 J4.089
X9.066 Y-20.215 I7.43 J8.336
X7.771 Y-21.604 I-8.822 J6.926
X7.13 Y-22.121 I-4.771 J5.258
X.519 Y-24.242 I-6.61 J9.245
X-6.284 Y-21.981 I0.0 J11.365
X-6.671 Y-21.659 I3.059 J4.081
X-8.027 Y-20.215 I7.441 J8.342
X-9.323 Y-21.604 I-8.817 J6.921
X-9.964 Y-22.122 I-4.771 J5.258
X-16.574 Y-24.242 I-6.61 J9.245
X-23.375 Y-21.982 I0.0 J11.365
X-23.764 Y-21.66 I3.057 J4.082
X-25.12 Y-20.214 I7.432 J8.332
X-26.416 Y-21.604 I-8.827 J6.93
X-27.057 Y-22.122 I-4.771 J5.258
X-33.668 Y-24.242 I-6.61 J9.245
X-40.469 Y-21.982 I0.0 J11.365
X-40.854 Y-21.663 I3.057 J4.082
X-42.214 Y-20.215 I7.413 J8.323
X-43.51 Y-21.605 I-8.832 J6.935
X-44.151 Y-22.122 I-4.771 J5.259
X-50.761 Y-24.242 I-6.61 J9.245
X-57.565 Y-21.98 I0.0 J11.365
X-58.068 Y-21.549 I3.059 J4.081
G01 X-58.074 Y-21.547
G02 X-59.308 Y-20.214 I7.419 J8.104
X-60.603 Y-21.604 I-8.798 J6.9
X-61.244 Y-22.121 I-4.771 J5.258
X-67.855 Y-24.242 I-6.61 J9.245
X-74.647 Y-21.989 I0.0 J11.365
X-75.043 Y-21.661 I3.048 J4.089
X-76.401 Y-20.214 I7.464 J8.368
X-77.697 Y-21.604 I-8.761 J6.865
X-78.338 Y-22.121 I-4.771 J5.258
X-84.948 Y-24.242 I-6.61 J9.245
X-91.75 Y-21.982 I0.0 J11.365
X-92.137 Y-21.66 I3.057 J4.082
X-93.495 Y-20.214 I7.449 J8.351
X-94.79 Y-21.604 I-8.784 J6.889
X-95.431 Y-22.122 I-4.771 J5.258
X-102.042 Y-24.242 I-6.61 J9.245
X-108.846 Y-21.98 I0.0 J11.365
X-109.23 Y-21.661 I3.06 J4.08
X-111.104 Y-19.5 I7.409 J8.318
X-111.9 Y-17.712 I4.912 J3.258
G01 X-111.911 Y-17.669
G03 X-112.095 Y-17.125 I-3.77 J-.97
G02 X-112.6 Y-15.639 I10.053 J4.248
X-119.135 Y-17.706 I-6.535 J9.298
X-125.928 Y-15.453 I0.0 J11.365
X-126.324 Y-15.125 I3.048 J4.089
X-128.105 Y-13.104 I7.464 J8.37
X-128.953 Y-11.331 I5.028 J3.495
G01 X-129.07 Y-10.904
G03 X-129.098 Y-10.821 I-.744 J-.204
G01 X-129.249 Y-10.443
G02 X-130.049 Y-6.341 I10.114 J4.102
G01 Y5.725
G02 X-129.243 Y9.841 I10.914 J0.0
G01 X-129.222 Y9.893
X-129.022 Y10.443
G02 X-128.137 Y12.442 I5.859 J-1.398
X-126.3 Y14.531 I9.347 J-6.367
X-125.928 Y14.836 I3.308 J-3.647
X-119.135 Y17.09 I6.793 J-9.111
X-114.557 Y16.127 I0.0 J-11.365
G01 X-113.953 Y17.5
X-113.346
Y25.
X121.5
X127. F2188.
X132.5 F1875.
Y19.5
Y-14. F2500.
Y-19.5 F2188.
Y-25. F1875.
X127.
X0.0 F2500.
Y-30.5
Z-.571
G00 Z-.374
G01 Z-.767
Z-1.767 F1000.
Y-25.
X-121.5 F2500.
X-127. F2188.
X-132.5 F1875.
Y-19.5
Y14. F2500.
Y19.5 F2188.
Y25. F1875.
X-127.
X-124.318 F2500.
Y17.5
G03 X-125. Y17.175 I5.182 J-11.775 F1500.
G01 Y17.5 F2500.
X-124.318
X-119.135 Y19.414 F1500.
X-124.318 Y17.5 F2500.
Y25.
X-113.516
Y17.5
G03 X-113.575 Y17.327 I7.274 J-2.593 F1500.
X-113.953 Y17.5 I-5.56 J-11.602
G01 X-114.557 Y16.127 F2500.
G02 X-112.612 Y15.032 I-4.578 J-10.402
X-112.539 Y15.296 I10.57 J-2.771
G01 X-112.404 Y15.775
G02 X-111.726 Y17.847 I6.162 J-.868
G01 X-111.646 Y17.997
G02 X-109.162 Y21.107 I10.076 J-5.499
G01 X-108.878 Y21.34
X-108.835 Y21.372
G02 X-102.042 Y23.626 I6.793 J-9.112
X-95.249 Y21.373 I0.0 J-11.365
X-94.861 Y21.052 I-3.048 J-4.089
X-93.494 Y19.6 I-7.693 J-8.615
X-91.967 Y21.192 I8.711 J-6.827
X-91.742 Y21.372 I2.849 J-3.338
X-84.948 Y23.626 I6.793 J-9.111
X-78.156 Y21.373 I0.0 J-11.365
X-77.77 Y21.054 I-3.048 J-4.089
X-76.4 Y19.6 I-7.694 J-8.619
X-74.975 Y21.107 I8.922 J-7.012
X-74.648 Y21.372 I3.366 J-3.819
X-67.855 Y23.626 I6.793 J-9.112
X-61.054 Y21.366 I0.0 J-11.365
X-60.675 Y21.053 I-3.056 J-4.083
X-59.307 Y19.6 I-7.618 J-8.541
X-57.904 Y21.087 I8.889 J-6.981
X-57.554 Y21.372 I3.39 J-3.8
X-50.761 Y23.626 I6.793 J-9.112
X-43.969 Y21.373 I0.0 J-11.365
X-43.582 Y21.054 I-3.048 J-4.089
X-42.216 Y19.601 I-7.44 J-8.361
G01 X-42.211 Y19.603
G02 X-40.71 Y21.173 I8.747 J-6.861
X-40.465 Y21.369 I2.976 J-3.463
X-33.668 Y23.626 I6.797 J-9.108
X-26.865 Y21.365 I0.0 J-11.365
X-26.493 Y21.057 I-3.058 J-4.081
X-25.121 Y19.598 I-7.455 J-8.382
X-23.591 Y21.193 I8.714 J-6.827
X-23.369 Y21.371 I2.818 J-3.304
X-16.574 Y23.626 I6.795 J-9.11
X-9.782 Y21.373 I0.0 J-11.365
X-9.396 Y21.054 I-3.048 J-4.089
X-8.029 Y19.601 I-7.418 J-8.341
G01 X-8.024 Y19.603
G02 X-6.601 Y21.107 I8.912 J-7.007
X-6.274 Y21.372 I3.367 J-3.82
X.519 Y23.626 I6.793 J-9.112
X7.32 Y21.366 I0.0 J-11.365
X7.697 Y21.055 I-3.057 J-4.082
X9.066 Y19.598 I-7.439 J-8.363
X10.595 Y21.193 I8.708 J-6.821
X10.819 Y21.372 I2.837 J-3.325
X17.613 Y23.626 I6.794 J-9.111
X24.417 Y21.364 I0.0 J-11.365
X24.79 Y21.056 I-3.06 J-4.08
X26.161 Y19.6 I-7.619 J-8.548
X27.648 Y21.16 I8.778 J-6.884
X27.912 Y21.371 I3.096 J-3.586
X34.706 Y23.626 I6.794 J-9.111
X41.509 Y21.365 I0.0 J-11.365
X41.887 Y21.052 I-3.058 J-4.081
X43.253 Y19.599 I-7.485 J-8.403
X44.796 Y21.204 I8.696 J-6.811
X45.006 Y21.371 I2.732 J-3.215
X51.8 Y23.626 I6.794 J-9.111
X58.592 Y21.373 I0.0 J-11.365
X58.976 Y21.056 I-3.048 J-4.089
X60.343 Y19.603 I-7.409 J-8.337
G01 X60.348 Y19.6
G02 X61.773 Y21.107 I8.923 J-7.014
X62.098 Y21.37 I3.346 J-3.794
X68.893 Y23.626 I6.795 J-9.11
X75.699 Y21.363 I0.0 J-11.365
X76.069 Y21.057 I-3.062 J-4.079
X77.44 Y19.598 I-7.45 J-8.375
X78.668 Y20.926 I8.659 J-6.78
G01 X78.824 Y21.068
G02 X79.166 Y21.351 I3.114 J-3.412
X85.987 Y23.626 I6.821 J-9.091
X92.779 Y21.373 I0.0 J-11.365
X93.167 Y21.052 I-3.048 J-4.089
X94.533 Y19.598 I-7.396 J-8.317
X95.911 Y21.062 I8.842 J-6.94
G01 X95.96 Y21.107
X96.231 Y21.329
X96.285 Y21.371
G02 X103.08 Y23.626 I6.795 J-9.11
X109.873 Y21.373 I0.0 J-11.365
X110.255 Y21.058 I-3.048 J-4.089
X111.627 Y19.599 I-7.444 J-8.373
X113.119 Y21.162 I8.802 J-6.908
X113.38 Y21.371 I3.067 J-3.555
X120.174 Y23.626 I6.794 J-9.111
X126.974 Y21.367 I0.0 J-11.365
G01 X127.21 Y21.179
G02 X130.006 Y17.552 I-7.457 J-8.64
X130.519 Y15.852 I-5.322 J-2.534
G01 X130.536 Y15.775
X130.671 Y15.297
G02 X131.101 Y12.261 I-10.497 J-3.036
G01 Y-12.877
G02 X130.671 Y-15.912 I-10.927 J0.0
G01 X130.532 Y-16.402
G02 X129.982 Y-18.219 I-6.029 J.832
X127.427 Y-21.603 I-10.249 J5.082
X126.784 Y-22.121 I-4.772 J5.257
X120.174 Y-24.242 I-6.611 J9.245
X113.373 Y-21.982 I0.0 J11.365
X112.983 Y-21.659 I3.056 J4.083
X111.628 Y-20.214 I7.344 J8.248
X110.334 Y-21.603 I-8.834 J6.936
X109.691 Y-22.121 I-4.772 J5.257
X103.08 Y-24.242 I-6.611 J9.244
X96.276 Y-21.98 I0.0 J11.365
X95.889 Y-21.659 I3.06 J4.08
X94.534 Y-20.214 I7.419 J8.321
X93.239 Y-21.604 I-8.781 J6.885
X92.597 Y-22.122 I-4.772 J5.258
X85.987 Y-24.242 I-6.61 J9.245
X79.183 Y-21.98 I0.0 J11.365
X78.798 Y-21.661 I3.059 J4.081
X77.441 Y-20.214 I7.407 J8.311
X76.146 Y-21.604 I-8.831 J6.934
X75.503 Y-22.122 I-4.772 J5.258
X68.893 Y-24.242 I-6.61 J9.245
X62.089 Y-21.98 I0.0 J11.365
X61.706 Y-21.662 I3.06 J4.08
X60.347 Y-20.215 I7.445 J8.353
X59.052 Y-21.604 I-8.814 J6.919
X58.41 Y-22.121 I-4.771 J5.258
X51.8 Y-24.242 I-6.61 J9.245
X44.998 Y-21.982 I0.0 J11.365
X44.614 Y-21.663 I3.057 J4.082
X43.253 Y-20.214 I7.468 J8.375
X41.951 Y-21.61 I-8.779 J6.883
X41.317 Y-22.121 I-4.764 J5.264
X34.706 Y-24.242 I-6.611 J9.245
X27.914 Y-21.989 I0.0 J11.365
X27.518 Y-21.661 I3.048 J4.089
X26.161 Y-20.216 I7.414 J8.321
G01 X26.157 Y-20.217
X25.934 Y-20.493
G02 X24.865 Y-21.604 I-8.529 J7.137
X24.223 Y-22.122 I-4.772 J5.258
X17.613 Y-24.242 I-6.61 J9.245
X10.82 Y-21.989 I0.0 J11.365
X10.425 Y-21.661 I3.048 J4.089
X9.066 Y-20.215 I7.428 J8.335
X7.771 Y-21.604 I-8.821 J6.925
X7.13 Y-22.121 I-4.771 J5.258
X.519 Y-24.242 I-6.61 J9.245
X-6.284 Y-21.981 I0.0 J11.365
X-6.671 Y-21.659 I3.059 J4.081
X-8.027 Y-20.215 I7.44 J8.342
X-9.322 Y-21.604 I-8.816 J6.92
X-9.964 Y-22.122 I-4.772 J5.258
X-16.574 Y-24.242 I-6.61 J9.245
X-23.375 Y-21.982 I0.0 J11.365
X-23.764 Y-21.66 I3.057 J4.082
X-25.12 Y-20.214 I7.431 J8.331
X-26.415 Y-21.604 I-8.825 J6.929
X-27.058 Y-22.122 I-4.772 J5.258
X-33.668 Y-24.242 I-6.61 J9.245
X-40.469 Y-21.982 I0.0 J11.365
X-40.854 Y-21.663 I3.057 J4.082
X-42.214 Y-20.215 I7.412 J8.322
X-43.51 Y-21.605 I-8.831 J6.934
X-44.151 Y-22.122 I-4.771 J5.259
X-50.761 Y-24.242 I-6.61 J9.245
X-57.565 Y-21.98 I0.0 J11.365
X-58.068 Y-21.549 I3.059 J4.081
G01 X-58.074 Y-21.547
G02 X-59.308 Y-20.214 I7.418 J8.103
X-60.602 Y-21.604 I-8.795 J6.898
X-61.244 Y-22.121 I-4.772 J5.258
X-67.855 Y-24.242 I-6.61 J9.245
X-74.647 Y-21.989 I0.0 J11.365
X-75.043 Y-21.661 I3.048 J4.089
X-76.401 Y-20.214 I7.462 J8.366
X-77.696 Y-21.604 I-8.76 J6.865
X-78.338 Y-22.121 I-4.772 J5.258
X-84.948 Y-24.242 I-6.61 J9.245
X-91.75 Y-21.982 I0.0 J11.365
X-92.137 Y-21.66 I3.057 J4.082
X-93.495 Y-20.214 I7.447 J8.35
X-94.789 Y-21.604 I-8.782 J6.887
X-95.432 Y-22.122 I-4.772 J5.258
X-102.042 Y-24.242 I-6.61 J9.245
X-108.846 Y-21.98 I0.0 J11.365
X-109.23 Y-21.661 I3.06 J4.08
X-111.85 Y-18.219 I7.619 J8.517
X-112.392 Y-16.441 I5.334 J2.596
G01 X-112.539 Y-15.913
G02 X-112.612 Y-15.648 I10.497 J3.036
X-119.135 Y-17.706 I-6.523 J9.307
X-125.928 Y-15.453 I0.0 J11.365
X-126.324 Y-15.125 I3.048 J4.089
X-128.899 Y-11.776 I7.661 J8.553
X-129.469 Y-9.998 I5.224 J2.655
G03 X-129.632 Y-9.377 I-11.513 J-2.702
G02 X-130.063 Y-6.341 I10.497 J3.036
G01 Y5.725
G02 X-129.602 Y8.866 I10.927 J0.0
G03 X-129.478 Y9.332 I-7.256 J2.177
G01 X-129.443 Y9.554
G02 X-128.924 Y11.109 I6.056 J-1.157
X-126.2 Y14.62 I10.263 J-5.152
G01 X-125.98 Y14.797
X-125.928 Y14.836
G02 X-119.135 Y17.09 I6.793 J-9.111
X-114.557 Y16.127 I0.0 J-11.365
G01 X-113.953 Y17.5
X-113.516
Y25.
X121.5
X127. F2188.
X132.5 F1875.
Y19.5
Y-14. F2500.
Y-19.5 F2188.
Y-25. F1875.
X127.
X0.0 F2500.
Y-30.5
Z-.767
G00 Z-.571
G01 Z-.963
Z-1.963 F1000.
Y-25.
X-121.5 F2500.
X-127. F2188.
X-132.5 F1875.
Y-19.5
Y14. F2500.
Y19.5 F2188.
Y25. F1875.
X-127.
X-124.318 F2500.
Y17.5
G03 X-125. Y17.175 I5.182 J-11.775 F1500.
G01 Y17.5 F2500.
X-124.318
X-119.135 Y19.414 F1500.
X-124.318 Y17.5 F2500.
Y25.
X-113.552
Y17.5
G03 X-113.616 Y17.346 I12.146 J-5.126 F1500.
X-113.953 Y17.5 I-5.52 J-11.621
G01 X-114.557 Y16.127 F2500.
G02 X-112.682 Y15.08 I-4.578 J-10.402
X-112.273 Y16.664 I6.241 J-.767
X-109.772 Y20.529 I10.867 J-4.29
X-108.835 Y21.372 I6.45 J-6.227
X-102.042 Y23.626 I6.793 J-9.112
X-95.249 Y21.373 I0.0 J-11.365
X-94.861 Y21.052 I-3.048 J-4.089
X-93.494 Y19.6 I-7.691 J-8.613
X-91.968 Y21.191 I8.712 J-6.828
X-91.742 Y21.372 I2.855 J-3.344
X-84.948 Y23.626 I6.794 J-9.111
X-78.156 Y21.373 I0.0 J-11.365
X-77.77 Y21.054 I-3.048 J-4.089
X-76.4 Y19.6 I-7.692 J-8.617
X-74.975 Y21.107 I8.921 J-7.011
X-74.648 Y21.372 I3.363 J-3.815
X-67.855 Y23.626 I6.793 J-9.112
X-61.054 Y21.366 I0.0 J-11.365
X-60.675 Y21.053 I-3.056 J-4.083
X-59.307 Y19.6 I-7.616 J-8.539
X-57.904 Y21.087 I8.888 J-6.98
X-57.554 Y21.372 I3.39 J-3.799
X-50.761 Y23.626 I6.793 J-9.112
X-43.969 Y21.373 I0.0 J-11.365
X-43.582 Y21.054 I-3.048 J-4.089
X-42.216 Y19.601 I-7.438 J-8.36
G01 X-42.211 Y19.603
G02 X-40.71 Y21.172 I8.746 J-6.86
X-40.465 Y21.369 I2.979 J-3.466
X-33.668 Y23.626 I6.797 J-9.108
X-26.865 Y21.365 I0.0 J-11.365
X-26.493 Y21.057 I-3.058 J-4.081
X-25.121 Y19.598 I-7.453 J-8.381
X-23.594 Y21.191 I8.714 J-6.827
X-23.367 Y21.372 I2.86 J-3.35
X-16.574 Y23.626 I6.793 J-9.112
X-9.782 Y21.373 I0.0 J-11.365
X-9.396 Y21.054 I-3.048 J-4.089
X-8.029 Y19.601 I-7.416 J-8.34
G01 X-8.024 Y19.603
G02 X-6.601 Y21.107 I8.911 J-7.006
X-6.274 Y21.372 I3.368 J-3.821
X.519 Y23.626 I6.793 J-9.112
X7.32 Y21.366 I0.0 J-11.365
X7.697 Y21.055 I-3.057 J-4.082
X9.066 Y19.599 I-7.444 J-8.368
X10.583 Y21.183 I8.77 J-6.882
X10.818 Y21.371 I2.907 J-3.393
X17.613 Y23.626 I6.794 J-9.11
X24.417 Y21.364 I0.0 J-11.365
X24.79 Y21.056 I-3.06 J-4.08
X26.161 Y19.6 I-7.617 J-8.547
X27.648 Y21.159 I8.777 J-6.884
X27.912 Y21.371 I3.098 J-3.588
X34.706 Y23.626 I6.794 J-9.111
X41.509 Y21.365 I0.0 J-11.365
X41.887 Y21.052 I-3.058 J-4.081
X43.253 Y19.599 I-7.488 J-8.406
X44.795 Y21.204 I8.696 J-6.812
X45.005 Y21.371 I2.735 J-3.218
X51.8 Y23.626 I6.794 J-9.11
X58.592 Y21.373 I0.0 J-11.365
X58.976 Y21.056 I-3.048 J-4.089
X60.343 Y19.603 I-7.408 J-8.336
G01 X60.348 Y19.6
G02 X61.773 Y21.107 I8.921 J-7.012
X62.098 Y21.37 I3.342 J-3.788
X68.893 Y23.626 I6.795 J-9.11
X75.699 Y21.363 I0.0 J-11.365
X76.069 Y21.057 I-3.062 J-4.079
X77.44 Y19.598 I-7.453 J-8.38
X78.668 Y20.926 I8.66 J-6.781
G01 X78.824 Y21.068
G02 X79.166 Y21.351 I3.116 J-3.415
X85.987 Y23.626 I6.821 J-9.091
X92.779 Y21.373 I0.0 J-11.365
X93.167 Y21.052 I-3.048 J-4.089
X94.533 Y19.598 I-7.395 J-8.316
X95.911 Y21.062 I8.842 J-6.94
G01 X95.96 Y21.107
X96.231 Y21.329
X96.285 Y21.371
G02 X103.08 Y23.626 I6.795 J-9.11
X109.873 Y21.373 I0.0 J-11.365
X110.255 Y21.058 I-3.048 J-4.089
X111.627 Y19.599 I-7.442 J-8.371
X113.119 Y21.162 I8.803 J-6.909
X113.379 Y21.371 I3.067 J-3.555
X120.174 Y23.626 I6.794 J-9.11
X126.974 Y21.367 I0.0 J-11.365
X127.294 Y21.107 I-3.044 J-4.078
X130.5 Y16.41 I-7.678 J-8.684
X130.83 Y14.906 I-5.735 J-2.043
G03 X130.872 Y14.61 I2.853 J.254
G02 X131.038 Y13.553 I-14.37 J-2.81
X131.115 Y12.261 I-10.865 J-1.292
G01 Y-12.877
G02 X131.009 Y-14.398 I-10.941 J0.0
G01 X131.003 Y-14.442
X130.933 Y-14.886
X130.873 Y-15.231
G03 X130.812 Y-15.669 I6.689 J-1.163
G02 X130.441 Y-17.185 I-5.874 J.632
G01 X130.385 Y-17.33
G02 X127.428 Y-21.602 I-10.77 J4.295
X126.784 Y-22.122 I-4.773 J5.256
X120.174 Y-24.242 I-6.61 J9.245
X113.373 Y-21.982 I0.0 J11.365
X112.983 Y-21.659 I3.056 J4.083
X111.628 Y-20.214 I7.344 J8.249
X110.334 Y-21.602 I-8.833 J6.935
X109.691 Y-22.121 I-4.773 J5.256
X103.08 Y-24.242 I-6.61 J9.245
X96.276 Y-21.98 I0.0 J11.365
X95.889 Y-21.659 I3.06 J4.08
X94.534 Y-20.214 I7.418 J8.32
X93.24 Y-21.603 I-8.771 J6.875
X92.596 Y-22.122 I-4.772 J5.257
X85.987 Y-24.242 I-6.61 J9.245
X79.183 Y-21.98 I0.0 J11.365
X78.798 Y-21.661 I3.059 J4.081
X77.441 Y-20.214 I7.407 J8.311
X76.146 Y-21.603 I-8.83 J6.933
X75.503 Y-22.122 I-4.772 J5.257
X68.893 Y-24.242 I-6.61 J9.245
X62.089 Y-21.98 I0.0 J11.365
X61.706 Y-21.662 I3.06 J4.08
X60.347 Y-20.215 I7.443 J8.351
X59.052 Y-21.604 I-8.813 J6.918
X58.41 Y-22.121 I-4.771 J5.258
X51.8 Y-24.242 I-6.61 J9.245
X44.998 Y-21.982 I0.0 J11.365
X44.614 Y-21.663 I3.057 J4.082
X43.253 Y-20.214 I7.466 J8.374
X41.958 Y-21.604 I-8.776 J6.881
X41.317 Y-22.121 I-4.771 J5.258
X34.706 Y-24.242 I-6.611 J9.245
X27.914 Y-21.989 I0.0 J11.365
X27.518 Y-21.661 I3.048 J4.089
X26.161 Y-20.216 I7.413 J8.32
G01 X26.157 Y-20.217
G02 X24.866 Y-21.603 I-8.779 J6.888
X24.222 Y-22.122 I-4.772 J5.257
X17.613 Y-24.242 I-6.61 J9.245
X10.82 Y-21.989 I0.0 J11.365
X10.425 Y-21.661 I3.048 J4.089
X9.066 Y-20.215 I7.427 J8.334
X7.771 Y-21.604 I-8.82 J6.924
X7.13 Y-22.121 I-4.771 J5.258
X.519 Y-24.242 I-6.61 J9.245
X-6.284 Y-21.981 I0.0 J11.365
X-6.671 Y-21.659 I3.059 J4.081
X-8.027 Y-20.215 I7.439 J8.341
X-9.321 Y-21.603 I-8.815 J6.92
X-9.965 Y-22.122 I-4.772 J5.257
X-16.574 Y-24.242 I-6.61 J9.245
X-23.375 Y-21.982 I0.0 J11.365
X-23.764 Y-21.66 I3.057 J4.082
X-25.12 Y-20.214 I7.429 J8.33
X-26.415 Y-21.604 I-8.824 J6.927
X-27.058 Y-22.122 I-4.772 J5.258
X-33.668 Y-24.242 I-6.61 J9.245
X-40.469 Y-21.982 I0.0 J11.365
X-40.854 Y-21.663 I3.057 J4.082
X-42.214 Y-20.215 I7.411 J8.321
X-43.51 Y-21.605 I-8.829 J6.933
X-44.152 Y-22.122 I-4.771 J5.259
X-50.761 Y-24.242 I-6.61 J9.245
X-57.565 Y-21.98 I0.0 J11.365
X-58.068 Y-21.549 I3.059 J4.081
G01 X-58.074 Y-21.547
G02 X-59.308 Y-20.214 I7.418 J8.103
X-60.602 Y-21.603 I-8.793 J6.896
X-61.244 Y-22.121 I-4.772 J5.257
X-67.855 Y-24.242 I-6.61 J9.245
X-74.647 Y-21.989 I0.0 J11.365
X-75.043 Y-21.661 I3.048 J4.089
X-76.401 Y-20.214 I7.461 J8.365
X-77.695 Y-21.603 I-8.759 J6.864
X-78.338 Y-22.121 I-4.772 J5.257
X-84.948 Y-24.242 I-6.61 J9.245
X-91.75 Y-21.982 I0.0 J11.365
X-92.137 Y-21.66 I3.057 J4.082
X-93.495 Y-20.214 I7.445 J8.348
X-94.789 Y-21.603 I-8.78 J6.885
X-95.432 Y-22.122 I-4.772 J5.257
X-102.042 Y-24.242 I-6.61 J9.245
X-108.846 Y-21.98 I0.0 J11.365
X-109.23 Y-21.661 I3.06 J4.08
X-112.253 Y-17.33 I7.743 J8.625
G01 X-112.304 Y-17.2
G02 X-112.681 Y-15.695 I5.723 J2.234
X-119.135 Y-17.706 I-6.454 J9.354
X-125.928 Y-15.453 I0.0 J11.365
X-126.324 Y-15.125 I3.048 J4.089
X-129.222 Y-11.091 I7.72 J8.604
G01 X-129.309 Y-10.887
G02 X-129.744 Y-9.381 I5.986 J2.545
G03 X-129.866 Y-8.518 I-11.482 J-1.179
G02 X-129.963 Y-7.913 I16.212 J2.914
X-130.076 Y-6.341 I10.828 J1.572
G01 Y5.725
G02 X-129.97 Y7.246 I10.941 J0.0
X-129.848 Y7.999 I19.23 J-2.733
G03 X-129.772 Y8.529 I-7.777 J1.386
G02 X-129.373 Y10.106 I5.824 J-.634
G01 X-129.236 Y10.443
G02 X-126.2 Y14.62 I10.633 J-4.537
G01 X-125.98 Y14.797
X-125.928 Y14.836
G02 X-119.135 Y17.09 I6.793 J-9.111
X-114.557 Y16.127 I0.0 J-11.365
G01 X-113.953 Y17.5
X-113.552
Y25.
X121.5
X127. F2188.
X132.5 F1875.
Y19.5
Y-14. F2500.
Y-19.5 F2188.
Y-25. F1875.
X127.
X0.0 F2500.
Y-30.5
Z-.963
G00 Z-.767
G01 Z-1.16
Z-2.16 F1000.
Y-25.
X-121.5 F2500.
X-127. F2188.
X-132.5 F1875.
Y-19.5
Y14. F2500.
Y19.5 F2188.
Y25. F1875.
X-127.
X-124.318 F2500.
Y17.5
G03 X-125. Y17.175 I5.182 J-11.775 F1500.
G01 Y17.5 F2500.
X-124.318
X-119.135 Y19.414 F1500.
X-124.318 Y17.5 F2500.
Y25.
X-113.552
Y17.5
G03 X-113.616 Y17.346 I12.215 J-5.168 F1500.
X-113.953 Y17.5 I-5.519 J-11.621
G01 X-114.557 Y16.127 F2500.
G02 X-112.761 Y15.134 I-4.578 J-10.402
X-110.065 Y20.218 I11.425 J-2.803
G01 X-109.833 Y20.464
G02 X-108.835 Y21.372 I6.425 J-6.062
X-102.042 Y23.626 I6.793 J-9.112
X-95.249 Y21.373 I0.0 J-11.365
X-94.861 Y21.052 I-3.048 J-4.089
X-93.494 Y19.6 I-7.689 J-8.611
X-91.966 Y21.192 I8.703 J-6.819
X-91.741 Y21.372 I2.849 J-3.34
X-84.948 Y23.626 I6.793 J-9.111
X-78.156 Y21.373 I0.0 J-11.365
X-77.77 Y21.054 I-3.048 J-4.089
X-76.4 Y19.6 I-7.691 J-8.615
X-74.975 Y21.107 I8.92 J-7.01
X-74.648 Y21.372 I3.359 J-3.811
X-67.855 Y23.626 I6.793 J-9.112
X-61.054 Y21.366 I0.0 J-11.365
X-60.675 Y21.053 I-3.056 J-4.083
X-59.307 Y19.6 I-7.615 J-8.537
X-57.904 Y21.087 I8.887 J-6.979
X-57.554 Y21.372 I3.389 J-3.798
X-50.761 Y23.626 I6.793 J-9.112
X-43.969 Y21.373 I0.0 J-11.365
X-43.582 Y21.054 I-3.048 J-4.089
X-42.216 Y19.601 I-7.437 J-8.358
G01 X-42.211 Y19.603
G02 X-40.71 Y21.172 I8.745 J-6.859
X-40.465 Y21.369 I2.982 J-3.469
X-33.668 Y23.626 I6.797 J-9.108
X-26.865 Y21.365 I0.0 J-11.365
X-26.493 Y21.057 I-3.058 J-4.081
X-25.121 Y19.598 I-7.451 J-8.379
X-23.595 Y21.19 I8.714 J-6.826
X-23.367 Y21.372 I2.863 J-3.354
X-16.574 Y23.626 I6.793 J-9.111
X-9.782 Y21.373 I0.0 J-11.365
X-9.396 Y21.054 I-3.048 J-4.089
X-8.029 Y19.601 I-7.415 J-8.339
G01 X-8.024 Y19.603
G02 X-6.601 Y21.107 I8.91 J-7.005
X-6.274 Y21.372 I3.367 J-3.82
X.519 Y23.626 I6.793 J-9.112
X7.32 Y21.366 I0.0 J-11.365
X7.697 Y21.055 I-3.057 J-4.082
X9.066 Y19.599 I-7.443 J-8.367
X10.581 Y21.182 I8.772 J-6.884
X10.818 Y21.371 I2.912 J-3.398
X17.613 Y23.626 I6.795 J-9.11
X24.417 Y21.364 I0.0 J-11.365
X24.79 Y21.056 I-3.06 J-4.08
X26.161 Y19.6 I-7.615 J-8.545
X27.648 Y21.159 I8.777 J-6.883
X27.912 Y21.371 I3.101 J-3.591
X34.706 Y23.626 I6.794 J-9.111
X41.509 Y21.365 I0.0 J-11.365
X41.887 Y21.052 I-3.058 J-4.081
X43.253 Y19.599 I-7.484 J-8.402
X44.794 Y21.203 I8.697 J-6.813
X45.005 Y21.371 I2.737 J-3.22
X51.8 Y23.626 I6.795 J-9.11
X58.592 Y21.373 I0.0 J-11.365
X58.976 Y21.056 I-3.048 J-4.089
X60.343 Y19.603 I-7.407 J-8.335
G01 X60.348 Y19.6
G02 X61.773 Y21.107 I8.919 J-7.01
X62.098 Y21.37 I3.337 J-3.783
X68.893 Y23.626 I6.795 J-9.11
X75.699 Y21.363 I0.0 J-11.365
X76.069 Y21.057 I-3.062 J-4.079
X77.44 Y19.598 I-7.457 J-8.384
X78.668 Y20.926 I8.662 J-6.783
G01 X78.824 Y21.069
G02 X79.166 Y21.351 I3.118 J-3.417
X85.987 Y23.626 I6.821 J-9.091
X92.779 Y21.373 I0.0 J-11.365
X93.167 Y21.052 I-3.048 J-4.089
X94.533 Y19.598 I-7.394 J-8.315
X95.911 Y21.062 I8.842 J-6.94
G01 X95.96 Y21.107
X96.231 Y21.329
X96.285 Y21.371
G02 X103.08 Y23.626 I6.795 J-9.11
X109.873 Y21.373 I0.0 J-11.365
X110.255 Y21.058 I-3.048 J-4.089
X111.627 Y19.599 I-7.441 J-8.37
X113.119 Y21.162 I8.804 J-6.911
X113.379 Y21.371 I3.067 J-3.555
X120.174 Y23.626 I6.794 J-9.11
X127. Y21.347 I0.0 J-11.365
X127.349 Y21.056 I-2.678 J-3.565
G01 X127.657 Y20.771
X127.77 Y20.663
G02 X130.9 Y15.108 I-8.264 J-8.317
X131.062 Y13.997 I-6.481 J-1.511
G01 X131.119 Y13.109
G02 X131.143 Y12.322 I-13.288 J-.787
G01 Y12.261
Y-12.877
Y-12.953
G02 X131.085 Y-14.234 I-14.35 J0.0
X130.936 Y-15.561 I-8.168 J.246
X127.428 Y-21.602 I-11.361 J2.559
X126.784 Y-22.122 I-4.774 J5.256
X120.174 Y-24.242 I-6.61 J9.245
X113.373 Y-21.982 I0.0 J11.365
X112.983 Y-21.659 I3.056 J4.083
X111.628 Y-20.214 I7.344 J8.249
X110.335 Y-21.601 I-8.831 J6.934
X109.69 Y-22.122 I-4.774 J5.255
X103.08 Y-24.242 I-6.61 J9.245
X96.276 Y-21.98 I0.0 J11.365
X95.889 Y-21.659 I3.06 J4.08
X94.534 Y-20.214 I7.417 J8.319
X93.241 Y-21.602 I-8.77 J6.874
X92.596 Y-22.122 I-4.773 J5.256
X85.987 Y-24.242 I-6.609 J9.246
X79.183 Y-21.98 I0.0 J11.365
X78.798 Y-21.661 I3.059 J4.081
X77.441 Y-20.214 I7.406 J8.311
X76.146 Y-21.603 I-8.829 J6.932
X75.502 Y-22.122 I-4.772 J5.257
X68.893 Y-24.242 I-6.609 J9.246
X62.089 Y-21.98 I0.0 J11.365
X61.706 Y-21.662 I3.06 J4.08
X60.347 Y-20.215 I7.441 J8.349
X59.052 Y-21.604 I-8.811 J6.917
X58.41 Y-22.121 I-4.771 J5.258
X51.8 Y-24.242 I-6.61 J9.245
X44.998 Y-21.982 I0.0 J11.365
X44.614 Y-21.663 I3.057 J4.082
X43.253 Y-20.214 I7.464 J8.372
X41.958 Y-21.604 I-8.775 J6.88
X41.317 Y-22.121 I-4.771 J5.258
X34.706 Y-24.242 I-6.611 J9.245
X27.914 Y-21.989 I0.0 J11.365
X27.518 Y-21.661 I3.048 J4.089
X26.161 Y-20.216 I7.412 J8.319
G01 X26.157 Y-20.217
G02 X24.867 Y-21.602 I-8.777 J6.887
X24.222 Y-22.122 I-4.773 J5.256
X17.613 Y-24.242 I-6.609 J9.246
X10.82 Y-21.989 I0.0 J11.365
X10.425 Y-21.661 I3.048 J4.089
X9.066 Y-20.215 I7.426 J8.332
X7.771 Y-21.604 I-8.818 J6.923
X7.13 Y-22.121 I-4.771 J5.258
X.519 Y-24.242 I-6.61 J9.245
X-6.284 Y-21.981 I0.0 J11.365
X-6.671 Y-21.659 I3.059 J4.081
X-8.027 Y-20.215 I7.438 J8.34
X-9.32 Y-21.602 I-8.814 J6.919
X-9.965 Y-22.122 I-4.773 J5.256
X-16.574 Y-24.242 I-6.609 J9.246
X-23.375 Y-21.982 I0.0 J11.365
X-23.764 Y-21.66 I3.057 J4.082
X-25.12 Y-20.214 I7.428 J8.329
X-26.415 Y-21.604 I-8.822 J6.925
X-27.059 Y-22.122 I-4.772 J5.258
X-33.668 Y-24.242 I-6.609 J9.246
X-40.469 Y-21.982 I0.0 J11.365
X-40.854 Y-21.663 I3.057 J4.082
X-42.214 Y-20.215 I7.41 J8.321
X-43.51 Y-21.605 I-8.828 J6.932
X-44.152 Y-22.122 I-4.771 J5.259
X-50.761 Y-24.242 I-6.609 J9.246
X-57.565 Y-21.98 I0.0 J11.365
X-58.068 Y-21.549 I3.059 J4.081
G01 X-58.074 Y-21.547
G02 X-59.308 Y-20.214 I7.417 J8.103
X-60.601 Y-21.602 I-8.791 J6.894
X-61.244 Y-22.121 I-4.773 J5.256
X-67.855 Y-24.242 I-6.61 J9.245
X-74.647 Y-21.989 I0.0 J11.365
X-75.043 Y-21.661 I3.048 J4.089
X-76.401 Y-20.214 I7.459 J8.363
X-77.694 Y-21.602 I-8.758 J6.864
X-78.338 Y-22.121 I-4.773 J5.256
X-84.948 Y-24.242 I-6.61 J9.245
X-91.75 Y-21.982 I0.0 J11.365
X-92.137 Y-21.66 I3.057 J4.082
X-93.495 Y-20.214 I7.444 J8.347
X-94.789 Y-21.603 I-8.778 J6.884
X-95.433 Y-22.122 I-4.772 J5.257
X-102.042 Y-24.242 I-6.609 J9.246
X-108.846 Y-21.98 I0.0 J11.365
X-109.23 Y-21.661 I3.06 J4.08
X-112.161 Y-17.552 I7.724 J8.609
X-112.762 Y-15.751 I10.78 J4.603
X-119.135 Y-17.706 I-6.373 J9.41
X-125.928 Y-15.453 I0.0 J11.365
X-126.324 Y-15.125 I3.048 J4.089
X-128.999 Y-11.576 I7.683 J8.572
G01 X-129.009 Y-11.553
X-129.042 Y-11.485
G02 X-129.784 Y-9.494 I10.971 J5.224
X-130.042 Y-7.776 I6.959 J1.921
X-130.104 Y-6.341 I17.441 J1.478
G01 Y5.725
G02 X-130.042 Y7.163 I17.421 J-.03
X-129.797 Y8.82 I6.991 J-.187
G01 X-129.771 Y8.915
G02 X-126.861 Y13.997 I11.283 J-3.086
G01 X-126.763 Y14.096
G02 X-125.928 Y14.836 I6.029 J-5.961
X-119.135 Y17.09 I6.793 J-9.111
X-114.557 Y16.127 I0.0 J-11.365
G01 X-113.953 Y17.5
X-113.552
Y25.
X121.5
X127. F2188.
X132.5 F1875.
Y19.5
Y-14. F2500.
Y-19.5 F2188.
Y-25. F1875.
X127.
X0.0 F2500.
Y-30.5
Z-1.16
G00 Z-.963
G01 Z-1.356
Z-2.356 F1000.
Y-25.
X-121.5 F2500.
X-127. F2188.
X-132.5 F1875.
Y-19.5
Y14. F2500.
Y19.5 F2188.
Y25. F1875.
X-127.
X-124.318 F2500.
Y17.5
G03 X-125. Y17.175 I5.182 J-11.775 F1500.
G01 Y17.5 F2500.
X-124.318
X-119.135 Y19.414 F1500.
X-124.318 Y17.5 F2500.
Y25.
X-113.552
Y17.5
G03 X-113.616 Y17.346 I12.234 J-5.18 F1500.
X-113.953 Y17.5 I-5.519 J-11.621
G01 X-114.557 Y16.127 F2500.
G02 X-112.762 Y15.135 I-4.578 J-10.402
X-110.065 Y20.218 I11.444 J-2.815
G01 X-109.833 Y20.464
G02 X-108.835 Y21.372 I6.425 J-6.062
X-102.042 Y23.626 I6.793 J-9.112
X-95.249 Y21.373 I0.0 J-11.365
X-94.861 Y21.052 I-3.048 J-4.089
X-93.494 Y19.6 I-7.687 J-8.61
X-91.967 Y21.192 I8.704 J-6.82
X-91.741 Y21.372 I2.855 J-3.346
X-84.948 Y23.626 I6.793 J-9.111
X-78.156 Y21.373 I0.0 J-11.365
X-77.77 Y21.054 I-3.048 J-4.089
X-76.4 Y19.6 I-7.689 J-8.614
X-74.975 Y21.107 I8.919 J-7.009
X-74.648 Y21.372 I3.355 J-3.806
X-67.855 Y23.626 I6.793 J-9.112
X-61.054 Y21.366 I0.0 J-11.365
X-60.675 Y21.053 I-3.056 J-4.083
X-59.307 Y19.6 I-7.613 J-8.535
X-57.904 Y21.087 I8.885 J-6.977
X-57.554 Y21.372 I3.388 J-3.798
X-50.761 Y23.626 I6.793 J-9.112
X-43.969 Y21.373 I0.0 J-11.365
X-43.582 Y21.054 I-3.048 J-4.089
X-42.216 Y19.601 I-7.435 J-8.357
G01 X-42.211 Y19.603
G02 X-40.711 Y21.172 I8.744 J-6.858
X-40.465 Y21.369 I2.984 J-3.473
X-33.668 Y23.626 I6.797 J-9.109
X-26.865 Y21.365 I0.0 J-11.365
X-26.493 Y21.057 I-3.058 J-4.081
X-25.121 Y19.598 I-7.449 J-8.377
X-23.595 Y21.19 I8.714 J-6.826
X-23.367 Y21.372 I2.866 J-3.357
X-16.574 Y23.626 I6.793 J-9.111
X-9.782 Y21.373 I0.0 J-11.365
X-9.396 Y21.054 I-3.048 J-4.089
X-8.029 Y19.601 I-7.413 J-8.337
G01 X-8.024 Y19.603
G02 X-6.601 Y21.107 I8.909 J-7.004
X-6.274 Y21.372 I3.365 J-3.818
X.519 Y23.626 I6.793 J-9.112
X7.32 Y21.366 I0.0 J-11.365
X7.697 Y21.055 I-3.057 J-4.082
X9.066 Y19.599 I-7.442 J-8.366
X10.58 Y21.181 I8.774 J-6.886
X10.818 Y21.371 I2.918 J-3.403
X17.613 Y23.626 I6.795 J-9.11
X24.417 Y21.364 I0.0 J-11.365
X24.79 Y21.056 I-3.06 J-4.08
X26.161 Y19.6 I-7.613 J-8.543
X27.647 Y21.159 I8.776 J-6.882
X27.912 Y21.371 I3.103 J-3.594
X34.706 Y23.626 I6.794 J-9.111
X41.509 Y21.365 I0.0 J-11.365
X41.887 Y21.052 I-3.058 J-4.081
X43.253 Y19.599 I-7.481 J-8.401
X44.794 Y21.203 I8.698 J-6.813
X45.005 Y21.371 I2.74 J-3.222
X51.8 Y23.626 I6.795 J-9.11
X58.592 Y21.373 I0.0 J-11.365
X58.976 Y21.056 I-3.048 J-4.089
X60.343 Y19.603 I-7.406 J-8.334
G01 X60.348 Y19.6
G02 X61.773 Y21.107 I8.917 J-7.008
X62.098 Y21.37 I3.333 J-3.778
X68.893 Y23.626 I6.795 J-9.11
X75.699 Y21.363 I0.0 J-11.365
X76.069 Y21.057 I-3.062 J-4.079
X77.439 Y19.6 I-7.456 J-8.383
X78.92 Y21.153 I9.067 J-7.161
X79.194 Y21.372 I3.301 J-3.85
X85.987 Y23.626 I6.793 J-9.112
X92.779 Y21.373 I0.0 J-11.365
X93.167 Y21.052 I-3.048 J-4.089
X94.533 Y19.598 I-7.393 J-8.314
X95.911 Y21.062 I8.842 J-6.94
G01 X95.96 Y21.107
X96.231 Y21.329
X96.285 Y21.371
G02 X103.08 Y23.626 I6.795 J-9.11
X109.873 Y21.373 I0.0 J-11.365
X110.255 Y21.058 I-3.048 J-4.089
X111.627 Y19.599 I-7.451 J-8.38
X113.119 Y21.162 I8.804 J-6.911
X113.379 Y21.371 I3.067 J-3.555
X120.174 Y23.626 I6.794 J-9.11
X127. Y21.347 I0.0 J-11.365
X127.349 Y21.056 I-2.676 J-3.562
G01 X127.657 Y20.771
X127.77 Y20.663
G02 X130.845 Y15.33 I-8.268 J-8.32
G01 X130.901 Y15.108
G02 X131.243 Y12.282 I-11.515 J-2.826
G01 Y12.256
Y-12.87
G02 X131.202 Y-13.854 I-13.159 J.05
X128.641 Y-20.315 I-11.768 J.927
X127.428 Y-21.602 I-8.681 J6.966
X126.783 Y-22.122 I-4.774 J5.256
X120.174 Y-24.242 I-6.609 J9.245
X113.373 Y-21.982 I0.0 J11.365
X112.983 Y-21.659 I3.056 J4.083
X111.628 Y-20.214 I7.343 J8.249
X110.336 Y-21.601 I-8.83 J6.933
X109.69 Y-22.122 I-4.775 J5.255
X103.08 Y-24.242 I-6.61 J9.245
X96.276 Y-21.98 I0.0 J11.365
X95.889 Y-21.659 I3.06 J4.08
X94.534 Y-20.214 I7.416 J8.318
X93.241 Y-21.602 I-8.769 J6.874
X92.596 Y-22.123 I-4.773 J5.256
X85.987 Y-24.242 I-6.609 J9.246
X79.183 Y-21.98 I0.0 J11.365
X78.798 Y-21.661 I3.059 J4.081
X77.441 Y-20.214 I7.406 J8.311
X76.146 Y-21.603 I-8.827 J6.931
X75.502 Y-22.123 I-4.772 J5.257
X68.893 Y-24.242 I-6.609 J9.246
X62.089 Y-21.98 I0.0 J11.365
X61.706 Y-21.662 I3.06 J4.08
X60.347 Y-20.215 I7.439 J8.347
X59.052 Y-21.604 I-8.81 J6.916
X58.41 Y-22.121 I-4.771 J5.258
X51.8 Y-24.242 I-6.61 J9.245
X44.998 Y-21.982 I0.0 J11.365
X44.614 Y-21.663 I3.057 J4.082
X43.253 Y-20.214 I7.463 J8.371
X41.958 Y-21.604 I-8.775 J6.879
X41.317 Y-22.121 I-4.771 J5.258
X34.706 Y-24.242 I-6.611 J9.245
X27.914 Y-21.989 I0.0 J11.365
X27.518 Y-21.661 I3.048 J4.089
X26.161 Y-20.216 I7.411 J8.319
G01 X26.157 Y-20.217
G02 X24.868 Y-21.601 I-8.775 J6.885
X24.222 Y-22.123 I-4.774 J5.255
X17.613 Y-24.242 I-6.609 J9.246
X10.82 Y-21.989 I0.0 J11.365
X10.425 Y-21.661 I3.048 J4.089
X9.066 Y-20.215 I7.425 J8.331
X7.771 Y-21.604 I-8.817 J6.922
X7.13 Y-22.121 I-4.771 J5.258
X.519 Y-24.242 I-6.61 J9.245
X-6.284 Y-21.981 I0.0 J11.365
X-6.671 Y-21.659 I3.059 J4.081
X-8.027 Y-20.215 I7.437 J8.339
X-9.319 Y-21.601 I-8.813 J6.918
X-9.965 Y-22.123 I-4.774 J5.255
X-16.574 Y-24.242 I-6.609 J9.246
X-23.375 Y-21.982 I0.0 J11.365
X-23.764 Y-21.66 I3.057 J4.082
X-25.12 Y-20.214 I7.427 J8.328
X-26.415 Y-21.604 I-8.82 J6.924
X-27.059 Y-22.123 I-4.772 J5.258
X-33.668 Y-24.242 I-6.609 J9.246
X-40.469 Y-21.982 I0.0 J11.365
X-40.854 Y-21.663 I3.057 J4.082
X-42.214 Y-20.215 I7.409 J8.32
X-43.51 Y-21.605 I-8.827 J6.931
X-44.152 Y-22.123 I-4.771 J5.259
X-50.761 Y-24.242 I-6.609 J9.246
X-57.565 Y-21.98 I0.0 J11.365
X-58.068 Y-21.549 I3.059 J4.081
G01 X-58.074 Y-21.547
G02 X-59.308 Y-20.214 I7.417 J8.102
X-60.601 Y-21.602 I-8.788 J6.892
X-61.244 Y-22.121 I-4.773 J5.256
X-67.855 Y-24.242 I-6.61 J9.245
X-74.647 Y-21.989 I0.0 J11.365
X-75.043 Y-21.661 I3.048 J4.089
X-76.401 Y-20.214 I7.457 J8.362
X-77.693 Y-21.601 I-8.757 J6.863
X-78.338 Y-22.121 I-4.774 J5.255
X-84.948 Y-24.242 I-6.61 J9.245
X-91.75 Y-21.982 I0.0 J11.365
X-92.137 Y-21.66 I3.057 J4.082
X-93.495 Y-20.214 I7.442 J8.346
X-94.789 Y-21.603 I-8.776 J6.882
X-95.433 Y-22.123 I-4.772 J5.257
X-102.042 Y-24.242 I-6.609 J9.246
X-108.846 Y-21.98 I0.0 J11.365
X-109.23 Y-21.661 I3.06 J4.08
X-112.161 Y-17.552 I7.724 J8.609
X-112.763 Y-15.751 I10.783 J4.604
X-119.135 Y-17.706 I-6.373 J9.41
X-125.928 Y-15.453 I0.0 J11.365
X-126.324 Y-15.125 I3.048 J4.089
X-128.999 Y-11.576 I7.682 J8.572
G01 X-129.009 Y-11.553
X-129.052 Y-11.463
G02 X-130.204 Y-6.364 I10.709 J5.099
G01 Y5.72
G02 X-129.988 Y7.999 I12.24 J-.009
X-126.987 Y13.868 I11.581 J-2.221
G01 X-126.861 Y13.997
G02 X-125.928 Y14.836 I6.269 J-6.034
X-119.135 Y17.09 I6.793 J-9.111
X-114.557 Y16.127 I0.0 J-11.365
G01 X-113.953 Y17.5
X-113.552
Y25.
X121.5
X127. F2188.
X132.5 F1875.
Y19.5
Y-14. F2500.
Y-19.5 F2188.
Y-25. F1875.
X127.
X0.0 F2500.
Y-30.5
Z-1.356
G00 Z-1.16
G01 Z-1.552
Z-2.552 F1000.
Y-25.
X-121.5 F2500.
X-127. F2188.
X-132.5 F1875.
Y-19.5
Y14. F2500.
Y19.5 F2188.
Y25. F1875.
X-127.
X-124.318 F2500.
Y17.5
G03 X-125. Y17.175 I5.182 J-11.775 F1500.
G01 Y17.5 F2500.
X-124.318
X-119.135 Y19.414 F1500.
X-124.318 Y17.5 F2500.
Y25.
X-113.552
Y17.5
G03 X-113.616 Y17.346 I12.234 J-5.18 F1500.
X-113.953 Y17.5 I-5.519 J-11.621
G01 X-114.557 Y16.127 F2500.
G02 X-112.762 Y15.135 I-4.578 J-10.402
X-110.065 Y20.218 I11.444 J-2.815
G01 X-109.833 Y20.464
G02 X-108.835 Y21.372 I6.425 J-6.062
X-102.042 Y23.626 I6.793 J-9.112
X-95.249 Y21.373 I0.0 J-11.365
X-94.861 Y21.052 I-3.048 J-4.089
X-93.494 Y19.6 I-7.685 J-8.608
X-91.968 Y21.191 I8.705 J-6.821
X-91.741 Y21.372 I2.862 J-3.353
X-84.948 Y23.626 I6.793 J-9.111
X-78.156 Y21.373 I0.0 J-11.365
X-77.77 Y21.054 I-3.048 J-4.089
X-76.4 Y19.6 I-7.687 J-8.612
X-74.975 Y21.107 I8.918 J-7.009
X-74.648 Y21.372 I3.359 J-3.811
X-67.855 Y23.626 I6.793 J-9.112
X-61.054 Y21.366 I0.0 J-11.365
X-60.675 Y21.053 I-3.056 J-4.083
X-59.307 Y19.6 I-7.611 J-8.534
X-57.904 Y21.087 I8.884 J-6.976
X-57.554 Y21.372 I3.388 J-3.797
X-50.761 Y23.626 I6.793 J-9.112
X-43.969 Y21.373 I0.0 J-11.365
X-43.582 Y21.054 I-3.048 J-4.089
X-42.216 Y19.601 I-7.433 J-8.355
G01 X-42.211 Y19.603
G02 X-40.711 Y21.172 I8.743 J-6.857
X-40.465 Y21.369 I2.987 J-3.476
X-33.668 Y23.626 I6.797 J-9.109
X-26.865 Y21.365 I0.0 J-11.365
X-26.493 Y21.057 I-3.058 J-4.081
X-25.121 Y19.598 I-7.447 J-8.376
X-23.596 Y21.19 I8.714 J-6.826
X-23.368 Y21.372 I2.869 J-3.36
X-16.574 Y23.626 I6.793 J-9.111
X-9.782 Y21.373 I0.0 J-11.365
X-9.396 Y21.054 I-3.048 J-4.089
X-8.029 Y19.601 I-7.412 J-8.336
G01 X-8.024 Y19.603
G02 X-6.601 Y21.107 I8.908 J-7.003
X-6.274 Y21.372 I3.363 J-3.816
X.519 Y23.626 I6.793 J-9.112
X7.32 Y21.366 I0.0 J-11.365
X7.697 Y21.055 I-3.057 J-4.082
X9.066 Y19.599 I-7.441 J-8.365
X10.577 Y21.178 I8.776 J-6.887
X10.82 Y21.372 I2.958 J-3.448
X17.613 Y23.626 I6.793 J-9.111
X24.417 Y21.364 I0.0 J-11.365
X24.79 Y21.056 I-3.06 J-4.08
X26.161 Y19.6 I-7.611 J-8.541
X27.647 Y21.158 I8.776 J-6.882
X27.912 Y21.371 I3.106 J-3.597
X34.706 Y23.626 I6.794 J-9.111
X41.509 Y21.365 I0.0 J-11.365
X41.887 Y21.052 I-3.058 J-4.081
X43.253 Y19.599 I-7.479 J-8.399
X44.793 Y21.202 I8.698 J-6.814
X45.005 Y21.371 I2.743 J-3.225
X51.8 Y23.626 I6.795 J-9.11
X58.592 Y21.373 I0.0 J-11.365
X58.976 Y21.056 I-3.048 J-4.089
X60.343 Y19.603 I-7.405 J-8.333
G01 X60.348 Y19.6
G02 X61.773 Y21.107 I8.915 J-7.006
X62.098 Y21.37 I3.328 J-3.772
X68.893 Y23.626 I6.795 J-9.11
X75.699 Y21.363 I0.0 J-11.365
X76.069 Y21.057 I-3.062 J-4.079
X77.439 Y19.6 I-7.455 J-8.382
X78.92 Y21.153 I9.067 J-7.16
X79.194 Y21.372 I3.299 J-3.847
X85.987 Y23.626 I6.793 J-9.112
X92.779 Y21.373 I0.0 J-11.365
X93.167 Y21.052 I-3.048 J-4.089
X94.533 Y19.598 I-7.392 J-8.313
X95.911 Y21.062 I8.842 J-6.94
G01 X95.96 Y21.107
X96.231 Y21.329
X96.285 Y21.371
G02 X103.08 Y23.626 I6.795 J-9.11
X109.873 Y21.373 I0.0 J-11.365
X110.255 Y21.058 I-3.048 J-4.089
X111.627 Y19.599 I-7.45 J-8.38
X113.119 Y21.162 I8.803 J-6.91
X113.379 Y21.371 I3.066 J-3.554
X120.174 Y23.626 I6.794 J-9.11
X127.001 Y21.347 I0.0 J-11.365
X127.349 Y21.057 I-2.675 J-3.56
G01 X127.657 Y20.771
X127.77 Y20.663
G02 X130.845 Y15.33 I-8.268 J-8.32
G01 X130.901 Y15.108
G02 X131.245 Y12.261 I-11.669 J-2.854
G01 Y-12.87
G02 X131.172 Y-14.18 I-12.915 J.064
X128.35 Y-20.663 I-11.744 J1.256
X127.428 Y-21.602 I-8.378 J7.302
X126.783 Y-22.123 I-4.774 J5.256
X120.174 Y-24.242 I-6.609 J9.246
X113.373 Y-21.982 I0.0 J11.365
X112.983 Y-21.659 I3.056 J4.083
X111.628 Y-20.214 I7.343 J8.249
X110.336 Y-21.601 I-8.829 J6.932
X109.69 Y-22.122 I-4.775 J5.255
X103.08 Y-24.242 I-6.609 J9.246
X96.276 Y-21.98 I0.0 J11.365
X95.889 Y-21.659 I3.06 J4.08
X94.534 Y-20.214 I7.415 J8.317
X93.241 Y-21.602 I-8.768 J6.873
X92.595 Y-22.123 I-4.773 J5.256
X85.987 Y-24.242 I-6.608 J9.246
X79.183 Y-21.98 I0.0 J11.365
X78.798 Y-21.661 I3.059 J4.081
X77.441 Y-20.214 I7.405 J8.31
X76.146 Y-21.603 I-8.826 J6.93
X75.502 Y-22.123 I-4.772 J5.257
X68.893 Y-24.242 I-6.608 J9.246
X62.089 Y-21.98 I0.0 J11.365
X61.706 Y-21.662 I3.06 J4.08
X60.347 Y-20.215 I7.437 J8.345
X59.052 Y-21.604 I-8.809 J6.915
X58.41 Y-22.121 I-4.771 J5.258
X51.8 Y-24.242 I-6.61 J9.245
X44.998 Y-21.982 I0.0 J11.365
X44.614 Y-21.663 I3.057 J4.082
X43.253 Y-20.214 I7.461 J8.369
X41.958 Y-21.604 I-8.774 J6.878
X41.317 Y-22.121 I-4.771 J5.258
X34.706 Y-24.242 I-6.611 J9.245
X27.914 Y-21.989 I0.0 J11.365
X27.518 Y-21.661 I3.048 J4.089
X26.161 Y-20.216 I7.41 J8.318
G01 X26.157 Y-20.217
G02 X24.868 Y-21.601 I-8.774 J6.884
X24.221 Y-22.123 I-4.775 J5.255
X17.613 Y-24.242 I-6.608 J9.246
X10.82 Y-21.989 I0.0 J11.365
X10.425 Y-21.661 I3.048 J4.089
X9.066 Y-20.215 I7.423 J8.33
X7.771 Y-21.604 I-8.816 J6.92
X7.13 Y-22.121 I-4.771 J5.258
X.519 Y-24.242 I-6.61 J9.245
X-6.284 Y-21.981 I0.0 J11.365
X-6.671 Y-21.659 I3.059 J4.081
X-8.027 Y-20.215 I7.436 J8.338
X-9.319 Y-21.601 I-8.812 J6.917
X-9.966 Y-22.123 I-4.775 J5.255
X-16.574 Y-24.242 I-6.608 J9.246
X-23.375 Y-21.982 I0.0 J11.365
X-23.764 Y-21.66 I3.057 J4.082
X-25.12 Y-20.214 I7.426 J8.327
X-26.415 Y-21.604 I-8.817 J6.922
X-27.059 Y-22.123 I-4.772 J5.258
X-33.668 Y-24.242 I-6.608 J9.246
X-40.46 Y-21.989 I0.0 J11.365
X-40.854 Y-21.663 I3.048 J4.089
X-42.214 Y-20.215 I7.408 J8.319
X-43.51 Y-21.605 I-8.826 J6.93
X-44.153 Y-22.123 I-4.771 J5.259
X-50.761 Y-24.242 I-6.608 J9.246
X-57.565 Y-21.98 I0.0 J11.365
X-58.068 Y-21.549 I3.059 J4.081
G01 X-58.074 Y-21.547
G02 X-59.308 Y-20.214 I7.416 J8.102
X-60.601 Y-21.602 I-8.786 J6.89
X-61.244 Y-22.121 I-4.773 J5.256
X-67.855 Y-24.242 I-6.61 J9.245
X-74.647 Y-21.989 I0.0 J11.365
X-75.043 Y-21.661 I3.048 J4.089
X-76.401 Y-20.214 I7.456 J8.361
X-77.693 Y-21.601 I-8.757 J6.863
X-78.338 Y-22.121 I-4.775 J5.255
X-84.948 Y-24.242 I-6.611 J9.245
X-91.741 Y-21.989 I0.0 J11.365
X-92.137 Y-21.66 I3.048 J4.089
X-93.495 Y-20.214 I7.44 J8.344
X-94.789 Y-21.603 I-8.774 J6.88
X-95.433 Y-22.123 I-4.772 J5.257
X-102.042 Y-24.242 I-6.608 J9.246
X-108.846 Y-21.98 I0.0 J11.365
X-109.23 Y-21.661 I3.06 J4.08
X-112.161 Y-17.552 I7.723 J8.609
X-112.763 Y-15.751 I10.787 J4.606
X-119.135 Y-17.706 I-6.373 J9.41
X-125.928 Y-15.453 I0.0 J11.365
X-126.324 Y-15.125 I3.048 J4.089
X-128.999 Y-11.576 I7.682 J8.572
G01 X-129.104 Y-11.35
G02 X-130.206 Y-6.353 I10.773 J4.998
G01 Y5.725
G02 X-129.894 Y8.443 I12.206 J-.028
X-126.987 Y13.868 I11.471 J-2.655
G01 X-126.861 Y13.997
G02 X-125.928 Y14.836 I6.267 J-6.032
X-119.135 Y17.09 I6.793 J-9.111
X-114.557 Y16.127 I0.0 J-11.365
G01 X-113.953 Y17.5
X-113.552
Y25.
X121.5
X127. F2188.
X132.5 F1875.
Y19.5
Y-14. F2500.
Y-19.5 F2188.
Y-25. F1875.
X127.
X0.0 F2500.
Y-30.5
Z-1.552
G00 Z-1.356
G01 Z-1.749
Z-2.749 F1000.
Y-25.
X-121.5 F2500.
X-127. F2188.
X-132.5 F1875.
Y-19.5
Y14. F2500.
Y19.5 F2188.
Y25. F1875.
X-127.
X-124.318 F2500.
Y17.5
G03 X-125. Y17.175 I5.182 J-11.775 F1500.
G01 Y17.5 F2500.
X-124.318
X-119.135 Y19.414 F1500.
X-124.318 Y17.5 F2500.
Y25.
X-113.552
Y17.5
G03 X-113.616 Y17.346 I12.234 J-5.18 F1500.
X-113.953 Y17.5 I-5.519 J-11.621
G01 X-114.557 Y16.127 F2500.
G02 X-112.762 Y15.135 I-4.578 J-10.402
X-110.065 Y20.218 I11.444 J-2.815
G01 X-109.833 Y20.464
G02 X-108.835 Y21.372 I6.425 J-6.062
X-102.042 Y23.626 I6.793 J-9.112
X-95.249 Y21.373 I0.0 J-11.365
X-94.861 Y21.052 I-3.048 J-4.089
X-93.494 Y19.6 I-7.683 J-8.606
X-91.969 Y21.19 I8.706 J-6.822
X-91.742 Y21.372 I2.868 J-3.359
X-84.948 Y23.626 I6.793 J-9.111
X-78.156 Y21.373 I0.0 J-11.365
X-77.77 Y21.054 I-3.048 J-4.089
X-76.4 Y19.6 I-7.685 J-8.611
X-74.975 Y21.107 I8.917 J-7.008
X-74.648 Y21.372 I3.356 J-3.807
X-67.855 Y23.626 I6.793 J-9.112
X-61.054 Y21.366 I0.0 J-11.365
X-60.675 Y21.053 I-3.056 J-4.083
X-59.307 Y19.6 I-7.609 J-8.532
X-57.904 Y21.087 I8.882 J-6.975
X-57.554 Y21.372 I3.387 J-3.796
X-50.761 Y23.626 I6.793 J-9.112
X-43.969 Y21.373 I0.0 J-11.365
X-43.582 Y21.054 I-3.048 J-4.089
X-42.216 Y19.601 I-7.431 J-8.354
G01 X-42.211 Y19.603
G02 X-40.711 Y21.172 I8.742 J-6.856
X-40.464 Y21.369 I2.99 J-3.479
X-33.668 Y23.626 I6.797 J-9.109
X-26.865 Y21.365 I0.0 J-11.365
X-26.493 Y21.057 I-3.058 J-4.081
X-25.121 Y19.598 I-7.445 J-8.374
X-23.596 Y21.189 I8.714 J-6.826
X-23.368 Y21.372 I2.872 J-3.363
X-16.574 Y23.626 I6.793 J-9.111
X-9.782 Y21.373 I0.0 J-11.365
X-9.396 Y21.054 I-3.048 J-4.089
X-8.029 Y19.601 I-7.41 J-8.334
G01 X-8.024 Y19.603
G02 X-6.601 Y21.107 I8.907 J-7.002
X-6.274 Y21.372 I3.362 J-3.814
X.519 Y23.626 I6.793 J-9.112
X7.32 Y21.366 I0.0 J-11.365
X7.697 Y21.055 I-3.057 J-4.082
X9.066 Y19.599 I-7.44 J-8.364
X10.576 Y21.177 I8.778 J-6.889
X10.819 Y21.372 I2.964 J-3.453
X17.613 Y23.626 I6.793 J-9.111
X24.417 Y21.364 I0.0 J-11.365
X24.79 Y21.056 I-3.06 J-4.08
X26.161 Y19.6 I-7.609 J-8.539
X27.647 Y21.158 I8.775 J-6.881
X27.912 Y21.371 I3.109 J-3.599
X34.706 Y23.626 I6.794 J-9.111
X41.509 Y21.365 I0.0 J-11.365
X41.887 Y21.052 I-3.058 J-4.081
X43.253 Y19.599 I-7.477 J-8.397
X44.79 Y21.2 I8.699 J-6.814
X45.007 Y21.372 I2.783 J-3.27
X51.8 Y23.626 I6.793 J-9.111
X58.592 Y21.373 I0.0 J-11.365
X58.976 Y21.056 I-3.048 J-4.089
X60.343 Y19.603 I-7.403 J-8.333
G01 X60.348 Y19.6
G02 X61.773 Y21.107 I8.913 J-7.004
X62.098 Y21.37 I3.324 J-3.767
X68.893 Y23.626 I6.795 J-9.11
X75.699 Y21.363 I0.0 J-11.365
X76.069 Y21.057 I-3.062 J-4.079
X77.439 Y19.6 I-7.453 J-8.38
X78.92 Y21.153 I9.067 J-7.16
X79.194 Y21.372 I3.297 J-3.845
X85.987 Y23.626 I6.793 J-9.112
X92.779 Y21.373 I0.0 J-11.365
X93.167 Y21.052 I-3.048 J-4.089
X94.533 Y19.598 I-7.391 J-8.312
X95.911 Y21.062 I8.842 J-6.94
G01 X95.96 Y21.107
X96.231 Y21.329
X96.285 Y21.371
G02 X103.08 Y23.626 I6.795 J-9.11
X109.873 Y21.373 I0.0 J-11.365
X110.255 Y21.058 I-3.048 J-4.089
X111.627 Y19.599 I-7.449 J-8.379
X113.118 Y21.161 I8.812 J-6.919
X113.379 Y21.371 I3.072 J-3.558
X120.174 Y23.626 I6.795 J-9.11
X127.001 Y21.347 I0.0 J-11.365
X127.349 Y21.057 I-2.673 J-3.557
G01 X127.657 Y20.771
X127.77 Y20.663
G02 X130.845 Y15.33 I-8.268 J-8.32
G01 X130.901 Y15.108
G02 X131.245 Y12.261 I-11.668 J-2.853
G01 Y-12.87
G02 X131.172 Y-14.18 I-12.914 J.064
X128.35 Y-20.663 I-11.743 J1.256
X127.428 Y-21.602 I-8.37 J7.295
X126.782 Y-22.123 I-4.774 J5.256
X120.174 Y-24.242 I-6.609 J9.246
X113.373 Y-21.982 I0.0 J11.365
X112.983 Y-21.659 I3.056 J4.083
X111.628 Y-20.215 I7.343 J8.249
X110.336 Y-21.601 I-8.828 J6.932
X109.689 Y-22.123 I-4.775 J5.255
X103.08 Y-24.242 I-6.609 J9.246
X96.276 Y-21.98 I0.0 J11.365
X95.889 Y-21.659 I3.06 J4.08
X94.534 Y-20.214 I7.414 J8.317
X93.241 Y-21.602 I-8.767 J6.872
X92.595 Y-22.123 I-4.773 J5.256
X85.987 Y-24.242 I-6.608 J9.247
X79.183 Y-21.98 I0.0 J11.365
X78.798 Y-21.661 I3.059 J4.081
X77.441 Y-20.214 I7.405 J8.31
X76.146 Y-21.603 I-8.825 J6.929
X75.501 Y-22.123 I-4.772 J5.257
X68.893 Y-24.242 I-6.608 J9.247
X62.101 Y-21.989 I0.0 J11.365
X61.706 Y-21.662 I3.048 J4.089
X60.347 Y-20.215 I7.434 J8.343
X59.052 Y-21.604 I-8.808 J6.914
X58.41 Y-22.121 I-4.771 J5.258
X51.8 Y-24.242 I-6.61 J9.245
X44.998 Y-21.982 I0.0 J11.365
X44.614 Y-21.663 I3.057 J4.082
X43.253 Y-20.214 I7.458 J8.367
X41.958 Y-21.604 I-8.773 J6.878
X41.317 Y-22.121 I-4.771 J5.258
X34.706 Y-24.242 I-6.611 J9.245
X27.914 Y-21.989 I0.0 J11.365
X27.518 Y-21.661 I3.048 J4.089
X26.161 Y-20.216 I7.409 J8.317
G01 X26.157 Y-20.217
G02 X24.869 Y-21.6 I-8.772 J6.882
X24.221 Y-22.123 I-4.776 J5.254
X17.613 Y-24.242 I-6.608 J9.247
X10.82 Y-21.989 I0.0 J11.365
X10.425 Y-21.661 I3.048 J4.089
X9.066 Y-20.215 I7.422 J8.329
X7.771 Y-21.604 I-8.814 J6.919
X7.13 Y-22.121 I-4.771 J5.258
X.519 Y-24.242 I-6.61 J9.245
X-6.284 Y-21.981 I0.0 J11.365
X-6.671 Y-21.659 I3.059 J4.081
X-8.027 Y-20.215 I7.435 J8.337
X-9.319 Y-21.601 I-8.811 J6.917
X-9.966 Y-22.123 I-4.775 J5.255
X-16.574 Y-24.242 I-6.608 J9.247
X-23.375 Y-21.982 I0.0 J11.365
X-23.764 Y-21.66 I3.057 J4.082
X-25.12 Y-20.215 I7.424 J8.326
X-26.415 Y-21.604 I-8.815 J6.92
X-27.06 Y-22.123 I-4.772 J5.258
X-33.668 Y-24.242 I-6.608 J9.247
X-40.46 Y-21.989 I0.0 J11.365
X-40.854 Y-21.663 I3.048 J4.089
X-42.214 Y-20.215 I7.406 J8.318
X-43.51 Y-21.605 I-8.824 J6.929
X-44.153 Y-22.123 I-4.771 J5.259
X-50.761 Y-24.242 I-6.608 J9.247
X-57.565 Y-21.98 I0.0 J11.365
X-58.068 Y-21.549 I3.059 J4.081
G01 X-58.074 Y-21.547
G02 X-59.308 Y-20.214 I7.416 J8.102
X-60.601 Y-21.602 I-8.784 J6.888
X-61.244 Y-22.121 I-4.773 J5.256
X-67.855 Y-24.242 I-6.61 J9.245
X-74.647 Y-21.989 I0.0 J11.365
X-75.043 Y-21.661 I3.048 J4.089
X-76.401 Y-20.214 I7.454 J8.359
X-77.692 Y-21.6 I-8.756 J6.862
X-78.338 Y-22.121 I-4.775 J5.254
X-84.948 Y-24.242 I-6.611 J9.245
X-91.741 Y-21.989 I0.0 J11.365
X-92.137 Y-21.66 I3.048 J4.089
X-93.495 Y-20.215 I7.439 J8.343
X-94.789 Y-21.603 I-8.772 J6.879
X-95.434 Y-22.123 I-4.772 J5.257
X-102.042 Y-24.242 I-6.608 J9.247
X-108.846 Y-21.98 I0.0 J11.365
X-109.23 Y-21.661 I3.06 J4.08
X-112.161 Y-17.552 I7.723 J8.608
X-112.763 Y-15.751 I10.79 J4.607
X-119.135 Y-17.706 I-6.373 J9.41
X-125.928 Y-15.453 I0.0 J11.365
X-126.324 Y-15.125 I3.048 J4.089
X-128.999 Y-11.576 I7.682 J8.572
G01 X-129.101 Y-11.356
G02 X-130.206 Y-6.352 I10.773 J5.004
G01 Y5.725
G02 X-129.894 Y8.443 I12.203 J-.028
X-126.987 Y13.868 I11.471 J-2.655
G01 X-126.861 Y13.997
G02 X-125.928 Y14.836 I6.265 J-6.03
X-119.135 Y17.09 I6.793 J-9.111
X-114.557 Y16.127 I0.0 J-11.365
G01 X-113.953 Y17.5
X-113.552
Y25.
X121.5
X127. F2188.
X132.5 F1875.
Y19.5
Y-14. F2500.
Y-19.5 F2188.
Y-25. F1875.
X127.
X0.0 F2500.
Y-30.5
Z-1.749
G00 Z-1.552
G01 Z-1.945
Z-2.945 F1000.
Y-25.
X-121.5 F2500.
X-127. F2188.
X-132.5 F1875.
Y-19.5
Y14. F2500.
Y19.5 F2188.
Y25. F1875.
X-127.
X-124.318 F2500.
Y17.5
G03 X-125. Y17.175 I5.182 J-11.775 F1500.
G01 Y17.5 F2500.
X-124.318
X-119.135 Y19.414 F1500.
X-124.318 Y17.5 F2500.
Y25.
X-113.552
Y17.5
G03 X-113.616 Y17.346 I12.234 J-5.18 F1500.
X-113.953 Y17.5 I-5.519 J-11.621
G01 X-114.557 Y16.127 F2500.
G02 X-112.762 Y15.135 I-4.578 J-10.402
X-110.065 Y20.218 I11.444 J-2.815
G01 X-109.833 Y20.464
G02 X-108.835 Y21.372 I6.424 J-6.061
X-102.042 Y23.626 I6.793 J-9.112
X-95.249 Y21.373 I0.0 J-11.365
X-94.861 Y21.052 I-3.048 J-4.089
X-93.494 Y19.6 I-7.681 J-8.604
X-91.97 Y21.189 I8.707 J-6.823
X-91.742 Y21.372 I2.874 J-3.366
X-84.948 Y23.626 I6.793 J-9.111
X-78.156 Y21.373 I0.0 J-11.365
X-77.77 Y21.054 I-3.048 J-4.089
X-76.4 Y19.6 I-7.683 J-8.609
X-74.975 Y21.107 I8.916 J-7.007
X-74.648 Y21.372 I3.352 J-3.802
X-67.855 Y23.626 I6.793 J-9.112
X-61.054 Y21.366 I0.0 J-11.365
X-60.675 Y21.053 I-3.056 J-4.083
X-59.307 Y19.6 I-7.606 J-8.53
X-57.904 Y21.087 I8.881 J-6.974
X-57.554 Y21.372 I3.379 J-3.786
X-50.761 Y23.626 I6.793 J-9.112
X-43.969 Y21.373 I0.0 J-11.365
X-43.582 Y21.054 I-3.048 J-4.089
X-42.216 Y19.601 I-7.43 J-8.352
G01 X-42.211 Y19.603
G02 X-40.711 Y21.172 I8.741 J-6.855
X-40.464 Y21.369 I2.993 J-3.482
X-33.668 Y23.626 I6.797 J-9.109
X-26.865 Y21.365 I0.0 J-11.365
X-26.493 Y21.057 I-3.058 J-4.081
X-25.121 Y19.599 I-7.443 J-8.372
X-23.597 Y21.189 I8.714 J-6.826
X-23.368 Y21.372 I2.875 J-3.366
X-16.574 Y23.626 I6.794 J-9.111
X-9.782 Y21.373 I0.0 J-11.365
X-9.396 Y21.054 I-3.048 J-4.089
X-8.029 Y19.601 I-7.408 J-8.333
G01 X-8.024 Y19.603
G02 X-6.601 Y21.107 I8.906 J-7.001
X-6.274 Y21.372 I3.36 J-3.812
X.519 Y23.626 I6.793 J-9.112
X7.32 Y21.366 I0.0 J-11.365
X7.697 Y21.055 I-3.057 J-4.082
X9.066 Y19.599 I-7.438 J-8.363
X10.575 Y21.176 I8.78 J-6.891
X10.819 Y21.372 I2.969 J-3.458
X17.613 Y23.626 I6.794 J-9.111
X24.417 Y21.364 I0.0 J-11.365
X24.79 Y21.056 I-3.06 J-4.08
X26.161 Y19.6 I-7.607 J-8.538
X27.646 Y21.158 I8.774 J-6.881
X27.912 Y21.371 I3.111 J-3.602
X34.706 Y23.626 I6.794 J-9.11
X41.509 Y21.365 I0.0 J-11.365
X41.887 Y21.052 I-3.058 J-4.081
X43.253 Y19.599 I-7.475 J-8.395
X44.79 Y21.199 I8.7 J-6.815
X45.006 Y21.372 I2.785 J-3.272
X51.8 Y23.626 I6.793 J-9.111
X58.592 Y21.373 I0.0 J-11.365
X58.976 Y21.056 I-3.048 J-4.089
X60.343 Y19.603 I-7.402 J-8.332
G01 X60.348 Y19.601
G02 X61.773 Y21.107 I8.911 J-7.003
X62.098 Y21.37 I3.32 J-3.762
X68.893 Y23.626 I6.795 J-9.11
X75.699 Y21.363 I0.0 J-11.365
X76.069 Y21.057 I-3.062 J-4.079
X77.439 Y19.6 I-7.452 J-8.379
X78.92 Y21.153 I9.066 J-7.16
X79.194 Y21.372 I3.294 J-3.842
X85.987 Y23.626 I6.793 J-9.112
X92.779 Y21.373 I0.0 J-11.365
X93.167 Y21.052 I-3.048 J-4.089
X94.533 Y19.599 I-7.389 J-8.311
X95.911 Y21.063 I8.842 J-6.94
G01 X95.96 Y21.107
X96.231 Y21.329
X96.285 Y21.371
G02 X103.08 Y23.626 I6.795 J-9.11
X109.873 Y21.373 I0.0 J-11.365
X110.255 Y21.058 I-3.048 J-4.089
X111.627 Y19.599 I-7.448 J-8.378
X113.118 Y21.161 I8.812 J-6.918
X113.379 Y21.371 I3.071 J-3.558
X120.174 Y23.626 I6.795 J-9.11
X127.001 Y21.346 I0.0 J-11.365
X127.348 Y21.057 I-2.671 J-3.554
G01 X127.657 Y20.771
X127.77 Y20.663
G02 X130.845 Y15.33 I-8.268 J-8.32
G01 X130.901 Y15.108
G02 X131.245 Y12.261 I-11.667 J-2.853
G01 Y-12.87
G02 X131.172 Y-14.178 I-12.913 J.063
X128.35 Y-20.663 I-11.743 J1.254
X127.428 Y-21.602 I-8.363 J7.288
X126.782 Y-22.123 I-4.774 J5.256
X120.174 Y-24.242 I-6.608 J9.246
X113.373 Y-21.982 I0.0 J11.365
X112.983 Y-21.659 I3.056 J4.083
X111.628 Y-20.215 I7.343 J8.249
X110.336 Y-21.601 I-8.827 J6.931
X109.689 Y-22.123 I-4.775 J5.255
X103.08 Y-24.242 I-6.608 J9.246
X96.276 Y-21.98 I0.0 J11.365
X95.889 Y-21.659 I3.06 J4.08
X94.534 Y-20.214 I7.413 J8.316
X93.241 Y-21.602 I-8.766 J6.871
X92.594 Y-22.124 I-4.773 J5.256
X85.987 Y-24.242 I-6.608 J9.247
X79.183 Y-21.98 I0.0 J11.365
X78.798 Y-21.661 I3.059 J4.081
X77.441 Y-20.215 I7.405 J8.31
X76.146 Y-21.603 I-8.824 J6.928
X75.501 Y-22.124 I-4.772 J5.257
X68.893 Y-24.242 I-6.608 J9.247
X62.101 Y-21.989 I0.0 J11.365
X61.706 Y-21.662 I3.048 J4.089
X60.347 Y-20.215 I7.432 J8.342
X59.052 Y-21.604 I-8.806 J6.913
X58.41 Y-22.121 I-4.771 J5.258
X51.8 Y-24.242 I-6.61 J9.245
X44.998 Y-21.982 I0.0 J11.365
X44.614 Y-21.663 I3.057 J4.082
X43.253 Y-20.214 I7.458 J8.366
X41.958 Y-21.604 I-8.772 J6.877
X41.317 Y-22.121 I-4.771 J5.258
X34.706 Y-24.242 I-6.611 J9.245
X27.914 Y-21.989 I0.0 J11.365
X27.518 Y-21.661 I3.048 J4.089
X26.161 Y-20.216 I7.407 J8.315
G01 X26.157 Y-20.217
G02 X24.869 Y-21.6 I-8.77 J6.881
X24.22 Y-22.124 I-4.776 J5.254
X17.613 Y-24.242 I-6.608 J9.247
X10.82 Y-21.989 I0.0 J11.365
X10.425 Y-21.661 I3.048 J4.089
X9.066 Y-20.215 I7.42 J8.328
X7.771 Y-21.604 I-8.813 J6.918
X7.13 Y-22.121 I-4.771 J5.258
X.519 Y-24.242 I-6.61 J9.245
X-6.284 Y-21.981 I0.0 J11.365
X-6.671 Y-21.659 I3.059 J4.081
X-8.027 Y-20.215 I7.434 J8.336
X-9.319 Y-21.601 I-8.811 J6.916
X-9.967 Y-22.124 I-4.775 J5.255
X-16.574 Y-24.242 I-6.608 J9.247
X-23.375 Y-21.982 I0.0 J11.365
X-23.764 Y-21.66 I3.057 J4.082
X-25.12 Y-20.215 I7.423 J8.325
X-26.415 Y-21.604 I-8.813 J6.918
X-27.06 Y-22.124 I-4.772 J5.258
X-33.668 Y-24.242 I-6.608 J9.247
X-40.46 Y-21.989 I0.0 J11.365
X-40.854 Y-21.663 I3.048 J4.089
X-42.214 Y-20.215 I7.405 J8.317
X-43.51 Y-21.605 I-8.823 J6.928
X-44.154 Y-22.124 I-4.771 J5.259
X-50.761 Y-24.242 I-6.608 J9.247
X-57.565 Y-21.98 I0.0 J11.365
X-58.068 Y-21.549 I3.059 J4.081
G01 X-58.074 Y-21.547
G02 X-59.308 Y-20.215 I7.415 J8.101
X-60.601 Y-21.602 I-8.781 J6.886
X-61.244 Y-22.121 I-4.773 J5.256
X-67.855 Y-24.242 I-6.61 J9.245
X-74.647 Y-21.989 I0.0 J11.365
X-75.043 Y-21.661 I3.048 J4.089
X-76.401 Y-20.214 I7.453 J8.358
X-77.692 Y-21.6 I-8.755 J6.862
X-78.338 Y-22.121 I-4.775 J5.254
X-84.948 Y-24.242 I-6.611 J9.245
X-91.741 Y-21.989 I0.0 J11.365
X-92.137 Y-21.66 I3.048 J4.089
X-93.495 Y-20.215 I7.437 J8.341
X-94.789 Y-21.603 I-8.77 J6.877
X-95.434 Y-22.124 I-4.772 J5.257
X-102.042 Y-24.242 I-6.608 J9.247
X-108.846 Y-21.98 I0.0 J11.365
X-109.23 Y-21.661 I3.06 J4.08
X-112.161 Y-17.552 I7.723 J8.608
X-112.763 Y-15.751 I10.793 J4.608
X-119.135 Y-17.706 I-6.373 J9.41
X-125.928 Y-15.453 I0.0 J11.365
X-126.324 Y-15.125 I3.048 J4.089
X-128.999 Y-11.576 I7.681 J8.571
G01 X-129.098 Y-11.362
G02 X-130.206 Y-6.352 I10.773 J5.01
G01 Y5.725
G02 X-129.894 Y8.443 I12.199 J-.027
X-126.987 Y13.868 I11.471 J-2.655
G01 X-126.861 Y13.997
G02 X-125.928 Y14.836 I6.264 J-6.028
X-119.135 Y17.09 I6.793 J-9.111
X-114.557 Y16.127 I0.0 J-11.365
G01 X-113.953 Y17.5
X-113.552
Y25.
X121.5
X127. F2188.
X132.5 F1875.
Y19.5
Y-14. F2500.
Y-19.5 F2188.
Y-25. F1875.
X127.
X0.0 F2500.
Y-30.5
Z-1.945
G00 Z-1.749
G01 Z-2.141
Z-3.141 F1000.
Y-25.
X-121.5 F2500.
X-127. F2188.
X-132.5 F1875.
Y-19.5
Y14. F2500.
Y19.5 F2188.
Y25. F1875.
X-127.
X-124.318 F2500.
Y17.5
G03 X-125. Y17.175 I5.182 J-11.775 F1500.
G01 Y17.5 F2500.
X-124.318
X-119.135 Y19.414 F1500.
X-124.318 Y17.5 F2500.
Y25.
X-113.552
Y17.5
G03 X-113.616 Y17.346 I12.234 J-5.18 F1500.
X-113.953 Y17.5 I-5.519 J-11.621
G01 X-114.557 Y16.127 F2500.
G02 X-112.762 Y15.135 I-4.578 J-10.402
X-110.065 Y20.218 I11.444 J-2.815
G01 X-109.833 Y20.464
G02 X-108.835 Y21.372 I6.424 J-6.061
X-102.042 Y23.626 I6.793 J-9.112
X-95.249 Y21.373 I0.0 J-11.365
X-94.861 Y21.052 I-3.048 J-4.089
X-93.494 Y19.6 I-7.679 J-8.602
X-91.971 Y21.189 I8.708 J-6.823
X-91.742 Y21.372 I2.88 J-3.372
X-84.948 Y23.626 I6.793 J-9.111
X-78.156 Y21.373 I0.0 J-11.365
X-77.77 Y21.054 I-3.048 J-4.089
X-76.4 Y19.6 I-7.681 J-8.607
X-74.975 Y21.107 I8.915 J-7.006
X-74.648 Y21.372 I3.348 J-3.798
X-67.855 Y23.626 I6.793 J-9.112
X-61.054 Y21.366 I0.0 J-11.365
X-60.675 Y21.053 I-3.056 J-4.083
X-59.307 Y19.6 I-7.604 J-8.528
X-57.904 Y21.087 I8.88 J-6.973
X-57.554 Y21.372 I3.378 J-3.786
X-50.761 Y23.626 I6.793 J-9.112
X-43.969 Y21.373 I0.0 J-11.365
X-43.582 Y21.054 I-3.048 J-4.089
X-42.216 Y19.601 I-7.428 J-8.351
G01 X-42.211 Y19.603
G02 X-40.712 Y21.171 I8.74 J-6.854
X-40.464 Y21.37 I2.996 J-3.486
X-33.668 Y23.626 I6.797 J-9.109
X-26.875 Y21.373 I0.0 J-11.365
X-26.493 Y21.057 I-3.048 J-4.089
X-25.121 Y19.599 I-7.441 J-8.371
X-23.597 Y21.188 I8.714 J-6.826
X-23.368 Y21.372 I2.878 J-3.369
X-16.574 Y23.626 I6.794 J-9.111
X-9.782 Y21.373 I0.0 J-11.365
X-9.396 Y21.054 I-3.048 J-4.089
X-8.029 Y19.601 I-7.407 J-8.332
G01 X-8.024 Y19.603
G02 X-6.601 Y21.107 I8.905 J-7.
X-6.274 Y21.372 I3.358 J-3.81
X.519 Y23.626 I6.793 J-9.112
X7.32 Y21.366 I0.0 J-11.365
X7.697 Y21.055 I-3.057 J-4.082
X9.066 Y19.599 I-7.436 J-8.361
X10.573 Y21.175 I8.782 J-6.893
X10.819 Y21.371 I2.974 J-3.463
X17.613 Y23.626 I6.794 J-9.111
X24.405 Y21.373 I0.0 J-11.365
X24.79 Y21.056 I-3.048 J-4.089
X26.161 Y19.6 I-7.605 J-8.536
X27.646 Y21.157 I8.774 J-6.88
X27.912 Y21.371 I3.114 J-3.605
X34.706 Y23.626 I6.794 J-9.11
X41.499 Y21.373 I0.0 J-11.365
X41.887 Y21.052 I-3.048 J-4.089
X43.253 Y19.599 I-7.473 J-8.393
X44.789 Y21.199 I8.7 J-6.815
X45.006 Y21.372 I2.788 J-3.275
X51.8 Y23.626 I6.794 J-9.111
X58.592 Y21.373 I0.0 J-11.365
X58.976 Y21.056 I-3.048 J-4.089
X60.343 Y19.603 I-7.401 J-8.331
G01 X60.348 Y19.601
G02 X61.773 Y21.107 I8.909 J-7.001
X62.098 Y21.37 I3.315 J-3.756
X68.893 Y23.626 I6.795 J-9.11
X75.699 Y21.363 I0.0 J-11.365
X76.069 Y21.057 I-3.062 J-4.079
X77.439 Y19.6 I-7.45 J-8.378
X78.92 Y21.153 I9.066 J-7.16
X79.194 Y21.372 I3.292 J-3.84
X85.987 Y23.626 I6.793 J-9.112
X92.779 Y21.373 I0.0 J-11.365
X93.167 Y21.052 I-3.048 J-4.089
X94.533 Y19.599 I-7.388 J-8.31
X95.911 Y21.063 I8.841 J-6.94
G01 X95.96 Y21.107
X96.231 Y21.329
X96.285 Y21.371
G02 X103.08 Y23.626 I6.795 J-9.11
X109.873 Y21.373 I0.0 J-11.365
X110.255 Y21.058 I-3.048 J-4.089
X111.627 Y19.599 I-7.446 J-8.377
X113.118 Y21.161 I8.811 J-6.918
X113.379 Y21.371 I3.07 J-3.557
X120.174 Y23.626 I6.795 J-9.11
X127.002 Y21.346 I0.0 J-11.365
X127.348 Y21.057 I-2.664 J-3.544
G01 X127.657 Y20.771
X127.77 Y20.663
G02 X130.845 Y15.33 I-8.268 J-8.32
G01 X130.901 Y15.108
G02 X131.245 Y12.261 I-11.666 J-2.853
G01 Y-12.87
G02 X131.172 Y-14.176 I-12.912 J.063
X128.35 Y-20.663 I-11.744 J1.252
X127.428 Y-21.602 I-8.356 J7.281
X126.782 Y-22.123 I-4.774 J5.256
X120.174 Y-24.242 I-6.608 J9.247
X113.373 Y-21.982 I0.0 J11.365
X112.983 Y-21.659 I3.056 J4.083
X111.628 Y-20.215 I7.343 J8.249
X110.336 Y-21.601 I-8.826 J6.93
X109.688 Y-22.123 I-4.775 J5.255
X103.08 Y-24.242 I-6.608 J9.246
X96.276 Y-21.98 I0.0 J11.365
X95.889 Y-21.659 I3.06 J4.08
X94.534 Y-20.214 I7.412 J8.315
X93.241 Y-21.602 I-8.765 J6.871
X92.594 Y-22.124 I-4.773 J5.256
X85.987 Y-24.242 I-6.607 J9.247
X79.183 Y-21.98 I0.0 J11.365
X78.798 Y-21.661 I3.059 J4.081
X77.441 Y-20.215 I7.404 J8.31
X76.146 Y-21.603 I-8.823 J6.927
X75.5 Y-22.124 I-4.772 J5.257
X68.893 Y-24.242 I-6.607 J9.247
X62.101 Y-21.989 I0.0 J11.365
X61.706 Y-21.662 I3.048 J4.089
X60.347 Y-20.215 I7.43 J8.34
X59.052 Y-21.604 I-8.805 J6.912
X58.41 Y-22.121 I-4.771 J5.258
X51.8 Y-24.242 I-6.61 J9.245
X44.998 Y-21.982 I0.0 J11.365
X44.614 Y-21.663 I3.057 J4.082
X43.253 Y-20.214 I7.456 J8.365
X41.958 Y-21.604 I-8.771 J6.876
X41.317 Y-22.121 I-4.771 J5.258
X34.706 Y-24.242 I-6.611 J9.245
X27.914 Y-21.989 I0.0 J11.365
X27.518 Y-21.661 I3.048 J4.089
X26.161 Y-20.217 I7.406 J8.314
G01 X26.157
G02 X24.869 Y-21.6 I-8.768 J6.879
X24.22 Y-22.124 I-4.776 J5.254
X17.613 Y-24.242 I-6.607 J9.247
X10.82 Y-21.989 I0.0 J11.365
X10.425 Y-21.661 I3.048 J4.089
X9.066 Y-20.215 I7.419 J8.327
X7.771 Y-21.604 I-8.812 J6.917
X7.13 Y-22.121 I-4.771 J5.258
X.519 Y-24.242 I-6.61 J9.245
X-6.284 Y-21.981 I0.0 J11.365
X-6.671 Y-21.659 I3.059 J4.081
X-8.027 Y-20.215 I7.433 J8.336
X-9.319 Y-21.601 I-8.81 J6.916
X-9.967 Y-22.124 I-4.775 J5.255
X-16.574 Y-24.242 I-6.607 J9.247
X-23.375 Y-21.982 I0.0 J11.365
X-23.764 Y-21.66 I3.057 J4.082
X-25.12 Y-20.215 I7.422 J8.324
X-26.415 Y-21.604 I-8.811 J6.917
X-27.061 Y-22.124 I-4.772 J5.258
X-33.668 Y-24.242 I-6.607 J9.247
X-40.46 Y-21.989 I0.0 J11.365
X-40.854 Y-21.663 I3.048 J4.089
X-42.214 Y-20.215 I7.404 J8.316
X-43.51 Y-21.605 I-8.822 J6.927
X-44.154 Y-22.124 I-4.771 J5.259
X-50.761 Y-24.242 I-6.607 J9.247
X-57.565 Y-21.98 I0.0 J11.365
X-58.068 Y-21.549 I3.059 J4.081
G01 X-58.074 Y-21.547
G02 X-59.308 Y-20.215 I7.415 J8.101
X-60.601 Y-21.602 I-8.779 J6.884
X-61.244 Y-22.121 I-4.773 J5.256
X-67.855 Y-24.242 I-6.61 J9.245
X-74.647 Y-21.989 I0.0 J11.365
X-75.043 Y-21.661 I3.048 J4.089
X-76.401 Y-20.214 I7.451 J8.356
X-77.692 Y-21.6 I-8.755 J6.861
X-78.338 Y-22.121 I-4.775 J5.254
X-84.948 Y-24.242 I-6.611 J9.245
X-91.741 Y-21.989 I0.0 J11.365
X-92.137 Y-21.66 I3.048 J4.089
X-93.495 Y-20.215 I7.435 J8.34
X-94.789 Y-21.603 I-8.778 J6.884
X-95.435 Y-22.124 I-4.772 J5.257
X-102.042 Y-24.242 I-6.607 J9.247
X-108.834 Y-21.989 I0.0 J11.365
X-109.23 Y-21.661 I3.048 J4.089
X-112.161 Y-17.552 I7.722 J8.608
X-112.763 Y-15.751 I10.796 J4.609
X-119.135 Y-17.706 I-6.373 J9.41
X-125.928 Y-15.453 I0.0 J11.365
X-126.324 Y-15.125 I3.048 J4.089
X-128.999 Y-11.576 I7.681 J8.571
G01 X-129.096 Y-11.368
G02 X-130.206 Y-6.352 I10.773 J5.016
G01 Y5.725
G02 X-129.894 Y8.443 I12.196 J-.027
X-126.987 Y13.868 I11.471 J-2.655
G01 X-126.861 Y13.997
G02 X-125.928 Y14.836 I6.262 J-6.026
X-119.135 Y17.09 I6.793 J-9.111
X-114.557 Y16.127 I0.0 J-11.365
G01 X-113.953 Y17.5
X-113.552
Y25.
X121.5
X127. F2188.
X132.5 F1875.
Y19.5
Y-14. F2500.
Y-19.5 F2188.
Y-25. F1875.
X127.
X0.0 F2500.
Y-30.5
Z-2.141
G00 Z-1.945
G01 Z-2.338
Z-3.338 F1000.
Y-25.
X-121.5 F2500.
X-127. F2188.
X-132.5 F1875.
Y-19.5
Y14. F2500.
Y19.5 F2188.
Y25. F1875.
X-127.
X-124.318 F2500.
Y17.5
G03 X-125. Y17.175 I5.182 J-11.775 F1500.
G01 Y17.5 F2500.
X-124.318
X-119.135 Y19.414 F1500.
X-124.318 Y17.5 F2500.
Y25.
X-113.552
Y17.5
G03 X-113.616 Y17.346 I12.234 J-5.18 F1500.
X-113.953 Y17.5 I-5.519 J-11.621
G01 X-114.557 Y16.127 F2500.
G02 X-112.762 Y15.135 I-4.578 J-10.402
X-110.065 Y20.218 I11.444 J-2.815
G01 X-109.833 Y20.464
G02 X-108.835 Y21.372 I6.424 J-6.061
X-102.042 Y23.626 I6.793 J-9.112
X-95.249 Y21.373 I0.0 J-11.365
X-94.861 Y21.052 I-3.048 J-4.089
X-93.494 Y19.6 I-7.677 J-8.601
X-91.972 Y21.188 I8.709 J-6.824
X-91.742 Y21.372 I2.887 J-3.379
X-84.948 Y23.626 I6.794 J-9.111
X-78.156 Y21.373 I0.0 J-11.365
X-77.77 Y21.054 I-3.048 J-4.089
X-76.4 Y19.6 I-7.679 J-8.606
X-74.975 Y21.107 I8.914 J-7.005
X-74.648 Y21.372 I3.345 J-3.793
X-67.855 Y23.626 I6.793 J-9.112
X-61.054 Y21.366 I0.0 J-11.365
X-60.675 Y21.053 I-3.056 J-4.083
X-59.307 Y19.6 I-7.602 J-8.527
X-57.904 Y21.087 I8.878 J-6.971
X-57.554 Y21.372 I3.378 J-3.785
X-50.761 Y23.626 I6.793 J-9.112
X-43.969 Y21.373 I0.0 J-11.365
X-43.582 Y21.054 I-3.048 J-4.089
X-42.216 Y19.601 I-7.427 J-8.35
G01 X-42.211 Y19.603
G02 X-40.712 Y21.171 I8.739 J-6.853
X-40.464 Y21.37 I2.999 J-3.489
X-33.668 Y23.626 I6.796 J-9.109
X-26.875 Y21.373 I0.0 J-11.365
X-26.493 Y21.057 I-3.048 J-4.089
X-25.121 Y19.599 I-7.439 J-8.369
X-23.598 Y21.188 I8.714 J-6.826
X-23.368 Y21.371 I2.881 J-3.372
X-16.574 Y23.626 I6.794 J-9.111
X-9.782 Y21.373 I0.0 J-11.365
X-9.396 Y21.054 I-3.048 J-4.089
X-8.029 Y19.601 I-7.405 J-8.33
G01 X-8.024 Y19.603
G02 X-6.601 Y21.107 I8.904 J-7.
X-6.274 Y21.372 I3.356 J-3.808
X.519 Y23.626 I6.793 J-9.112
X7.32 Y21.366 I0.0 J-11.365
X7.697 Y21.055 I-3.057 J-4.082
X9.066 Y19.599 I-7.435 J-8.36
X10.572 Y21.174 I8.784 J-6.894
X10.819 Y21.371 I2.98 J-3.468
X17.613 Y23.626 I6.794 J-9.11
X24.405 Y21.373 I0.0 J-11.365
X24.79 Y21.056 I-3.048 J-4.089
X26.161 Y19.6 I-7.603 J-8.534
X27.645 Y21.157 I8.773 J-6.88
X27.912 Y21.371 I3.117 J-3.608
X34.706 Y23.626 I6.794 J-9.11
X41.499 Y21.373 I0.0 J-11.365
X41.887 Y21.052 I-3.048 J-4.089
X43.253 Y19.599 I-7.471 J-8.391
X44.788 Y21.198 I8.701 J-6.816
X45.006 Y21.372 I2.79 J-3.277
X51.8 Y23.626 I6.794 J-9.111
X58.592 Y21.373 I0.0 J-11.365
X58.976 Y21.056 I-3.048 J-4.089
X60.343 Y19.603 I-7.4 J-8.33
G01 X60.348 Y19.601
G02 X61.773 Y21.107 I8.907 J-6.999
X62.098 Y21.37 I3.311 J-3.751
X68.893 Y23.626 I6.795 J-9.11
X75.699 Y21.363 I0.0 J-11.365
X76.069 Y21.057 I-3.062 J-4.079
X77.439 Y19.6 I-7.449 J-8.376
X78.92 Y21.153 I9.066 J-7.16
X79.194 Y21.372 I3.289 J-3.836
X85.987 Y23.626 I6.793 J-9.112
X92.779 Y21.373 I0.0 J-11.365
X93.167 Y21.052 I-3.048 J-4.089
X94.533 Y19.599 I-7.387 J-8.309
X95.911 Y21.063 I8.841 J-6.939
G01 X95.96 Y21.107
X96.231 Y21.329
X96.285 Y21.371
G02 X103.08 Y23.626 I6.795 J-9.11
X109.873 Y21.373 I0.0 J-11.365
X110.255 Y21.058 I-3.048 J-4.089
X111.627 Y19.599 I-7.445 J-8.376
X113.118 Y21.162 I8.81 J-6.917
X113.379 Y21.371 I3.07 J-3.557
X120.174 Y23.626 I6.795 J-9.11
X127.003 Y21.345 I0.0 J-11.365
X127.348 Y21.057 I-2.662 J-3.541
G01 X127.657 Y20.771
X127.77 Y20.663
G02 X130.845 Y15.33 I-8.268 J-8.32
G01 X130.901 Y15.108
G02 X131.245 Y12.261 I-11.665 J-2.853
G01 Y-12.87
G02 X131.173 Y-14.174 I-12.911 J.063
X128.35 Y-20.663 I-11.744 J1.25
X127.428 Y-21.602 I-8.349 J7.274
X126.781 Y-22.124 I-4.774 J5.256
X120.174 Y-24.242 I-6.607 J9.247
X113.373 Y-21.982 I0.0 J11.365
X112.983 Y-21.659 I3.056 J4.083
X111.628 Y-20.215 I7.343 J8.249
X110.336 Y-21.601 I-8.825 J6.929
X109.688 Y-22.123 I-4.775 J5.255
X103.08 Y-24.242 I-6.608 J9.247
X96.276 Y-21.98 I0.0 J11.365
X95.889 Y-21.659 I3.06 J4.08
X94.534 Y-20.215 I7.411 J8.314
X93.241 Y-21.602 I-8.764 J6.87
X92.593 Y-22.124 I-4.773 J5.256
X85.987 Y-24.242 I-6.607 J9.247
X79.183 Y-21.98 I0.0 J11.365
X78.798 Y-21.661 I3.059 J4.081
X77.441 Y-20.215 I7.404 J8.309
X76.146 Y-21.603 I-8.821 J6.926
X75.5 Y-22.124 I-4.772 J5.257
X68.893 Y-24.242 I-6.607 J9.247
X62.101 Y-21.989 I0.0 J11.365
X61.706 Y-21.662 I3.048 J4.089
X60.347 Y-20.215 I7.428 J8.338
X59.052 Y-21.604 I-8.804 J6.911
X58.41 Y-22.121 I-4.771 J5.258
X51.8 Y-24.242 I-6.61 J9.245
X44.998 Y-21.982 I0.0 J11.365
X44.614 Y-21.663 I3.057 J4.082
X43.253 Y-20.215 I7.455 J8.364
X41.958 Y-21.604 I-8.77 J6.876
X41.317 Y-22.121 I-4.771 J5.258
X34.706 Y-24.242 I-6.611 J9.245
X27.914 Y-21.989 I0.0 J11.365
X27.518 Y-21.661 I3.048 J4.089
X26.161 Y-20.217 I7.405 J8.314
G01 X26.157
G02 X24.869 Y-21.6 I-8.767 J6.878
X24.219 Y-22.124 I-4.776 J5.254
X17.613 Y-24.242 I-6.607 J9.247
X10.82 Y-21.989 I0.0 J11.365
X10.425 Y-21.661 I3.048 J4.089
X9.066 Y-20.215 I7.418 J8.326
X7.771 Y-21.604 I-8.81 J6.916
X7.13 Y-22.121 I-4.771 J5.258
X.519 Y-24.242 I-6.61 J9.245
X-6.284 Y-21.981 I0.0 J11.365
X-6.671 Y-21.659 I3.059 J4.081
X-8.027 Y-20.215 I7.432 J8.335
X-9.319 Y-21.601 I-8.809 J6.915
X-9.968 Y-22.124 I-4.775 J5.255
X-16.574 Y-24.242 I-6.607 J9.247
X-23.367 Y-21.989 I0.0 J11.365
X-23.764 Y-21.66 I3.048 J4.089
X-25.12 Y-20.215 I7.421 J8.323
X-26.415 Y-21.604 I-8.809 J6.915
X-27.061 Y-22.124 I-4.772 J5.258
X-33.668 Y-24.242 I-6.607 J9.247
X-40.46 Y-21.989 I0.0 J11.365
X-40.854 Y-21.663 I3.048 J4.089
X-42.214 Y-20.215 I7.403 J8.315
X-43.51 Y-21.605 I-8.82 J6.926
X-44.155 Y-22.124 I-4.771 J5.259
X-50.761 Y-24.242 I-6.607 J9.247
X-57.565 Y-21.98 I0.0 J11.365
X-58.068 Y-21.549 I3.059 J4.081
G01 X-58.074 Y-21.547
G02 X-59.308 Y-20.215 I7.414 J8.101
X-60.601 Y-21.602 I-8.777 J6.882
X-61.244 Y-22.121 I-4.773 J5.256
X-67.855 Y-24.242 I-6.61 J9.245
X-74.647 Y-21.989 I0.0 J11.365
X-75.043 Y-21.661 I3.048 J4.089
X-76.401 Y-20.215 I7.449 J8.355
X-77.692 Y-21.6 I-8.754 J6.861
X-78.338 Y-22.121 I-4.775 J5.254
X-84.948 Y-24.242 I-6.611 J9.245
X-91.741 Y-21.989 I0.0 J11.365
X-92.137 Y-21.66 I3.048 J4.089
X-93.495 Y-20.215 I7.434 J8.338
X-94.789 Y-21.603 I-8.776 J6.882
X-95.435 Y-22.124 I-4.772 J5.257
X-102.042 Y-24.242 I-6.607 J9.247
X-108.834 Y-21.989 I0.0 J11.365
X-109.23 Y-21.661 I3.048 J4.089
X-112.161 Y-17.552 I7.722 J8.608
X-112.763 Y-15.751 I10.802 J4.611
X-119.135 Y-17.706 I-6.373 J9.41
X-125.928 Y-15.453 I0.0 J11.365
X-126.324 Y-15.125 I3.048 J4.089
X-128.999 Y-11.576 I7.68 J8.571
G01 X-129.093 Y-11.373
G02 X-130.206 Y-6.352 I10.772 J5.022
G01 Y5.725
G02 X-129.894 Y8.443 I12.192 J-.027
X-126.987 Y13.868 I11.471 J-2.655
G01 X-126.861 Y13.997
G02 X-125.928 Y14.836 I6.26 J-6.024
X-119.135 Y17.09 I6.793 J-9.111
X-114.557 Y16.127 I0.0 J-11.365
G01 X-113.953 Y17.5
X-113.552
Y25.
X121.5
X127. F2188.
X132.5 F1875.
Y19.5
Y-14. F2500.
Y-19.5 F2188.
Y-25. F1875.
X127.
X0.0 F2500.
Y-30.5
Z-2.338
G00 Z-2.141
G01 Z-2.534
Z-3.534 F1000.
Y-25.
X-121.5 F2500.
X-127. F2188.
X-132.5 F1875.
Y-19.5
Y14. F2500.
Y19.5 F2188.
Y25. F1875.
X-127.
X-124.318 F2500.
Y17.5
G03 X-125. Y17.175 I5.182 J-11.775 F1500.
G01 Y17.5 F2500.
X-124.318
X-119.135 Y19.414 F1500.
X-124.318 Y17.5 F2500.
Y25.
X-113.552
Y17.5
G03 X-113.616 Y17.346 I12.234 J-5.18 F1500.
X-113.953 Y17.5 I-5.519 J-11.621
G01 X-114.557 Y16.127 F2500.
G02 X-112.762 Y15.135 I-4.578 J-10.402
X-110.065 Y20.218 I11.445 J-2.816
G01 X-109.833 Y20.464
G02 X-108.835 Y21.372 I6.424 J-6.061
X-102.042 Y23.626 I6.793 J-9.112
X-95.249 Y21.373 I0.0 J-11.365
X-94.861 Y21.052 I-3.048 J-4.089
X-93.494 Y19.6 I-7.675 J-8.599
X-91.973 Y21.187 I8.709 J-6.825
X-91.742 Y21.372 I2.893 J-3.385
X-84.948 Y23.626 I6.794 J-9.111
X-78.156 Y21.373 I0.0 J-11.365
X-77.77 Y21.054 I-3.048 J-4.089
X-76.4 Y19.6 I-7.678 J-8.604
X-74.975 Y21.107 I8.913 J-7.004
X-74.648 Y21.372 I3.341 J-3.789
X-67.855 Y23.626 I6.793 J-9.112
X-61.054 Y21.366 I0.0 J-11.365
X-60.675 Y21.053 I-3.056 J-4.083
X-59.307 Y19.6 I-7.601 J-8.525
X-57.904 Y21.087 I8.877 J-6.97
X-57.554 Y21.372 I3.377 J-3.784
X-50.761 Y23.626 I6.793 J-9.112
X-43.969 Y21.373 I0.0 J-11.365
X-43.582 Y21.054 I-3.048 J-4.089
X-42.216 Y19.601 I-7.425 J-8.348
G01 X-42.211 Y19.603
G02 X-40.712 Y21.171 I8.738 J-6.853
X-40.464 Y21.37 I3.002 J-3.492
X-33.668 Y23.626 I6.796 J-9.109
X-26.875 Y21.373 I0.0 J-11.365
X-26.493 Y21.057 I-3.048 J-4.089
X-25.121 Y19.599 I-7.438 J-8.367
X-23.599 Y21.188 I8.714 J-6.826
X-23.368 Y21.371 I2.884 J-3.375
X-16.574 Y23.626 I6.794 J-9.111
X-9.782 Y21.373 I0.0 J-11.365
X-9.396 Y21.054 I-3.048 J-4.089
X-8.029 Y19.601 I-7.404 J-8.329
G01 X-8.024 Y19.603
G02 X-6.601 Y21.107 I8.903 J-6.999
X-6.274 Y21.372 I3.355 J-3.806
X.519 Y23.626 I6.793 J-9.112
X7.32 Y21.366 I0.0 J-11.365
X7.697 Y21.055 I-3.057 J-4.082
X9.066 Y19.599 I-7.434 J-8.359
X10.571 Y21.173 I8.786 J-6.896
X10.818 Y21.371 I2.985 J-3.473
X17.613 Y23.626 I6.795 J-9.11
X24.405 Y21.373 I0.0 J-11.365
X24.79 Y21.056 I-3.048 J-4.089
X26.161 Y19.6 I-7.601 J-8.532
X27.645 Y21.157 I8.773 J-6.879
X27.912 Y21.371 I3.119 J-3.611
X34.706 Y23.626 I6.794 J-9.11
X41.499 Y21.373 I0.0 J-11.365
X41.887 Y21.052 I-3.048 J-4.089
X43.253 Y19.599 I-7.469 J-8.39
X44.788 Y21.198 I8.702 J-6.817
X45.006 Y21.371 I2.793 J-3.279
X51.8 Y23.626 I6.794 J-9.111
X58.592 Y21.373 I0.0 J-11.365
X58.976 Y21.056 I-3.048 J-4.089
X60.343 Y19.603 I-7.399 J-8.329
G01 X60.348 Y19.601
G02 X61.773 Y21.107 I8.905 J-6.997
X62.098 Y21.37 I3.307 J-3.746
X68.893 Y23.626 I6.795 J-9.11
X75.699 Y21.363 I0.0 J-11.365
X76.069 Y21.057 I-3.062 J-4.079
X77.439 Y19.6 I-7.447 J-8.375
X78.92 Y21.153 I9.065 J-7.159
X79.194 Y21.372 I3.286 J-3.832
X85.987 Y23.626 I6.793 J-9.112
X92.779 Y21.373 I0.0 J-11.365
X93.167 Y21.052 I-3.048 J-4.089
X94.533 Y19.599 I-7.386 J-8.308
X95.911 Y21.063 I8.841 J-6.939
G01 X95.96 Y21.107
X96.231 Y21.329
X96.285 Y21.371
G02 X103.08 Y23.626 I6.795 J-9.11
X109.873 Y21.373 I0.0 J-11.365
X110.255 Y21.058 I-3.048 J-4.089
X111.627 Y19.599 I-7.444 J-8.375
X113.118 Y21.162 I8.809 J-6.916
X113.379 Y21.371 I3.069 J-3.556
X120.174 Y23.626 I6.795 J-9.11
X127.003 Y21.345 I0.0 J-11.365
X127.348 Y21.057 I-2.66 J-3.539
G01 X127.657 Y20.771
X127.77 Y20.663
G02 X130.845 Y15.33 I-8.268 J-8.32
G01 X130.901 Y15.108
G02 X131.245 Y12.261 I-11.664 J-2.852
G01 Y-12.87
G02 X131.173 Y-14.172 I-12.91 J.063
X128.35 Y-20.663 I-11.744 J1.248
X127.428 Y-21.602 I-8.342 J7.267
X126.781 Y-22.124 I-4.774 J5.256
X120.174 Y-24.242 I-6.607 J9.247
X113.373 Y-21.982 I0.0 J11.365
X112.983 Y-21.659 I3.056 J4.083
X111.628 Y-20.215 I7.343 J8.249
X110.336 Y-21.601 I-8.824 J6.928
X109.688 Y-22.124 I-4.775 J5.255
X103.08 Y-24.242 I-6.607 J9.247
X96.276 Y-21.98 I0.0 J11.365
X95.889 Y-21.659 I3.06 J4.08
X94.534 Y-20.215 I7.41 J8.313
X93.241 Y-21.602 I-8.763 J6.869
X92.593 Y-22.124 I-4.773 J5.256
X85.987 Y-24.242 I-6.606 J9.248
X79.183 Y-21.98 I0.0 J11.365
X78.798 Y-21.661 I3.059 J4.081
X77.441 Y-20.215 I7.403 J8.309
X76.146 Y-21.603 I-8.82 J6.925
X75.5 Y-22.124 I-4.772 J5.257
X68.893 Y-24.242 I-6.606 J9.248
X62.101 Y-21.989 I0.0 J11.365
X61.706 Y-21.662 I3.048 J4.089
X60.347 Y-20.215 I7.426 J8.336
X59.052 Y-21.604 I-8.803 J6.91
X58.41 Y-22.121 I-4.771 J5.258
X51.8 Y-24.242 I-6.61 J9.245
X44.998 Y-21.982 I0.0 J11.365
X44.614 Y-21.663 I3.057 J4.082
X43.253 Y-20.215 I7.453 J8.362
X41.958 Y-21.604 I-8.769 J6.875
X41.317 Y-22.121 I-4.771 J5.258
X34.706 Y-24.242 I-6.611 J9.245
X27.914 Y-21.989 I0.0 J11.365
X27.518 Y-21.661 I3.048 J4.089
X26.161 Y-20.217 I7.404 J8.313
G01 X26.157
G02 X24.869 Y-21.6 I-8.765 J6.876
X24.223 Y-22.121 I-4.776 J5.254
X17.613 Y-24.242 I-6.611 J9.245
X10.82 Y-21.989 I0.0 J11.365
