%
G40 G17 G49 G54 G80
G91 G28 Z0.0
( NAME: Capful )
( PART: D:\Program Files\Siemens\NX 12.0\UGII\HM-µç¼«±à³Ì.prt )
( DATE: Sun May 27 04:50:19 2018 )
( D10 ---> D=10.00 R=0.00 )
S8000 M03
G00 G90 X-5. Y35.6
Z14.5
G17 G01 Z-18.032 F1000.
Z-19.032 F400.
Y34.1
G40 G03 X0.0 Y29.1 I5. J0.0
G01 X130.5 F1000.
G02 X136.6 Y23. I0.0 J-6.1
G01 Y-23.
G02 X130.5 Y-29.1 I-6.1 J0.0
G01 X-127.5
G02 X-131.106 Y-27.606 I0.0 J5.1
G01 X-135.106 Y-23.606
G02 X-136.6 Y-20. I3.606 J3.606
G01 Y23.
G02 X-130.5 Y29.1 I6.1 J0.0
G01 X0.0
X3.
G03 X8. Y34.1 I0.0 J5.
G01 X-5. Y34.05
G03 X0.0 Y29.05 I5. J0.0 F400.
G01 X130.5 F1000.
G02 X136.55 Y23. I0.0 J-6.05
G01 Y-23.
G02 X130.5 Y-29.05 I-6.05 J0.0
G01 X-127.5
G02 X-131.071 Y-27.571 I0.0 J5.05
G01 X-135.071 Y-23.571
G02 X-136.55 Y-20. I3.571 J3.571
G01 Y23.
G02 X-130.5 Y29.05 I6.05 J0.0
G01 X0.0
X3.
G03 X8. Y34.05 I0.0 J5.
G01 X-5. Y34.
G03 X0.0 Y29. I5. J0.0 F400.
G01 X130.5 F1000.
G02 X136.5 Y23. I0.0 J-6.
G01 Y-23.
G02 X130.5 Y-29. I-6. J0.0
G01 X-127.5
G02 X-131.036 Y-27.536 I0.0 J5.
G01 X-135.036 Y-23.536
G02 X-136.5 Y-20. I3.536 J3.536
G01 Y23.
G02 X-130.5 Y29. I6. J0.0
G01 X0.0
X3.
G03 X8. Y34. I0.0 J5.
G01 Y35.55
Z-18.032
G00 Z14.5
M09
M05
G91 G28 Z0.0
G28 Y0.0
M30
%
(TOTAL Machine Time: 2.3 min)
