%
G40 G17 G49 G54 G80
G91 G28 Z0.0
( NAME: Administrator )
( PART: H:\CNC-File\2018-7\兴鼎杰\030\030-后模仁-电极\HMR02.prt )
( DATE: Fri Jul 27 12:59:52 2018 )
( D4 ---> D=4.00 R=0.00 )
S12000 M03
G00 G90 X.503 Y-6.361
Z15.002
G17 G01 X.5 Z-4.347 F1300.
Z-7.347 F520.
Y-1.961
X-1.795 Y-1.853 F1300.
X-1.772 Y-1.826 F780.
X-1.545 Y-.958
Y1.241
X-1.744 Y1.808
X.815 Y1.698 Z-7.348 F1300.
X2.698 Y1.805
X2.545 Y1.123 F780.
Y-.912
X2.691 Y-1.596
X2.843 Y-1.851
X.5 Y-1.961 Z-7.347 F1300.
Y-.761
X.21
X-.345 Y-.731
Y.527
X1.345 Z-7.348
Y-.731
X.79 Y-.761
X.5 Z-7.347
Y-6.361
Z-4.347
G00 X.503 Z15.002
M09
M05
G91 G28 Z0.0
G28 Y0.0
M30
%
(TOTAL Machine Time: 0.3 min)
