%
G40 G17 G49 G54 G80
G91 G28 Z0.0
( NAME: Administrator )
( PART: H:\CNC-File\2018-7\兴鼎杰\030\030-后模仁-电极\HMR02.prt )
( DATE: Fri Jul 27 12:59:53 2018 )
( D4 ---> D=4.00 R=0.00 )
S12000 M03
G00 G90 X.5 Y5.947
Z15.
G17 G01 Z-4.346 F1300.
Z-7.346 F520.
Y1.547
G40 G03 X2.845 Y1.605 I0.0 J47.953 F1300.
G01 X2.722 Y1.336 F780.
Y-1.09
X2.964 Y-1.697
G02 X.5 Y-1.756 I-2.464 J51.197 F1300.
X-1.924 Y-1.699 I0.0 J51.256
G01 X-1.722 Y-.982 F780.
Y1.255
X-1.85 Y1.605
G03 X.5 Y1.547 I2.35 J47.895 F1300.
G01 Y.347
G03 X1.522 Y.358 I0.0 J49.153
G01 Y-.546
G02 X.5 Y-.556 I-1.022 J50.046
X-.522 Y-.546 I0.0 J50.056
G01 Y.358
G03 X.5 Y.347 I1.022 J49.142
G01 Y5.947
Z-4.346
G00 Z15.
M09
M05
G91 G28 Z0.0
G28 Y0.0
M30
%
(TOTAL Machine Time: 0.3 min)
