%
G40 G17 G49 G54 G80
G91 G28 Z0.0
( NAME: Capful-PC )
( PART: H:\CNC-File\2018-8\灿坤\2443-T\2443-T-电热管改斜度-电极-编程.prt )
( DATE: Mon Oct  8 12:20:20 2018 )
( D10 ---> D=10.00 R=0.00 )
S9000 M03
G00 G90 X-25.56 Y-3.5
Z14.53
G17 G01 Z-16.297 F400.
Z-19.297 F320.
X-24.06
G40 G03 X-19.06 Y1.5 I0.0 J5.
G01 Y13. F800.
G02 X-13. Y19.06 I6.06 J0.0
G01 X13.
G02 X19.06 Y13. I0.0 J-6.06
G01 Y-13.
G02 X13. Y-19.06 I-6.06 J0.0
G01 X-10.
G02 X-13.578 Y-17.578 I0.0 J5.06
G01 X-17.578 Y-13.578
G02 X-19.06 Y-10. I3.578 J3.578
G01 Y1.5
Y4.5
G03 X-24.06 Y9.5 I-5. J0.0
G01 X-24.03 Y-3.5
G03 X-19.03 Y1.5 I0.0 J5. F320.
G01 Y13. F800.
G02 X-13. Y19.03 I6.03 J0.0
G01 X13.
G02 X19.03 Y13. I0.0 J-6.03
G01 Y-13.
G02 X13. Y-19.03 I-6.03 J0.0
G01 X-10.
G02 X-13.557 Y-17.557 I0.0 J5.03
G01 X-17.557 Y-13.557
G02 X-19.03 Y-10. I3.557 J3.557
G01 Y1.5
Y4.5
G03 X-24.03 Y9.5 I-5. J0.0
G01 X-24. Y-3.5
G03 X-19. Y1.5 I0.0 J5. F320.
G01 Y13. F800.
G02 X-13. Y19. I6. J0.0
G01 X13.
G02 X19. Y13. I0.0 J-6.
G01 Y-13.
G02 X13. Y-19. I-6. J0.0
G01 X-10.
G02 X-13.536 Y-17.536 I0.0 J5.
G01 X-17.536 Y-13.536
G02 X-19. Y-10. I3.536 J3.536
G01 Y1.5
Y4.5
G03 X-24. Y9.5 I-5. J0.0
G01 X-25.53
Z-16.297
G00 Z14.53
M09
M05
G91 G28 Z0.0
G28 Y0.0
M30
%
(TOTAL Machine Time: 1.0 min)
