%
G40 G17 G49 G54 G80
G91 G28 Z0.0
( NAME: Administrator )
( PART: H:\CNC-File\2018-11\²ÓÀ¤\2978\2978-ÉÏ¸ÇºóÄ£¿ò.prt )
( DATE: Thu Dec  6 19:57:44 2018 )
( D35R0.8 ---> D=35.00 R=0.80 )
S2500 M03
G00 G90 X7.638 Y-182.45
Z87.92
G17 G01 Z.2 F750.
X0.0 Z0.0 F600.
X-173. F900.
G40 G02 X-187.3 Y-168.15 I0.0 J14.3
G01 Y168.15
G02 X-173. Y182.45 I14.3 J0.0
G01 X173.
G02 X187.3 Y168.15 I0.0 J-14.3
G01 Y-168.15
G02 X173. Y-182.45 I-14.3 J0.0
G01 X0.0
Y-160.74 F1500.
X-165.59
Y160.74
X165.59
Y-160.74
X0.0
Y-139.03
X-143.88
Y139.03
X143.88
Y-139.03
X0.0
Y-117.32
X-122.17
Y117.32
X122.17
Y-117.32
X0.0
Y-95.61
X-100.46
Y95.61
X100.46
Y-95.61
X0.0
Y-73.9
X-78.75
Y73.9
X78.75
Y-73.9
X0.0
Y-52.19
X-57.04
Y52.19
X57.04
Y-52.19
X0.0
Y-30.48
X-35.33
Y30.48
X35.33
Y-30.48
X0.0
Y-8.77
X-13.62
Y8.77
X13.62
Y-8.77
X0.0
Y-11.77
Z3.
G00 Z87.92
M09
M05
G91 G28 Z0.0
G28 Y0.0
M30
%
(TOTAL Machine Time: 5.8 min)
