%
G40 G17 G49 G54 G80
G91 G28 Z0.0
( NAME: Administrator )
( PART: H:\CNC-File\2018-11\²ÓÀ¤\2978\2978-ÉÏ¸ÇºóÄ£¿ò.prt )
( DATE: Thu Dec  6 20:08:12 2018 )
( D35R0.8 ---> D=35.00 R=0.80 )
S2500 M03
G00 G90 X7.638 Y-182.15
Z88.22
G17 G01 Z.2 F750.
X0.0 Z0.0 F600.
X-173. F900.
G40 G02 X-187. Y-168.15 I0.0 J14.
G01 Y168.15
G02 X-173. Y182.15 I14. J0.0
G01 X173.
G02 X187. Y168.15 I0.0 J-14.
G01 Y-168.15
G02 X173. Y-182.15 I-14. J0.0
G01 X0.0
Y-160.44 F1500.
X-165.29
Y160.44
X165.29
Y-160.44
X0.0
Y-138.73
X-143.58
Y138.73
X143.58
Y-138.73
X0.0
Y-117.02
X-121.87
Y117.02
X121.87
Y-117.02
X0.0
Y-95.31
X-100.16
Y95.31
X100.16
Y-95.31
X0.0
Y-73.6
X-78.45
Y73.6
X78.45
Y-73.6
X0.0
Y-51.89
X-56.74
Y51.89
X56.74
Y-51.89
X0.0
Y-30.18
X-35.03
Y30.18
X35.03
Y-30.18
X0.0
Y-8.47
X-13.32
Y8.47
X13.32
Y-8.47
X0.0
Y-11.47
Z3.
G00 Z88.22
M09
M05
G91 G28 Z0.0
G28 Y0.0
M30
%
(TOTAL Machine Time: 5.8 min)
