%
G40 G17 G49 G54 G80
G91 G28 Z0.0
( NAME: Administrator )
( PART: H:\CNC-File\2018-11\²ÓÀ¤\2978\2978-ÉÏ¸ÇºóÄ£¿ò.prt )
( DATE: Fri Dec  7 11:12:26 2018 )
( E21R0.8 ---> D=21.00 R=0.80 )
S2500 M03
G00 G90 X8.447 Y-200.976
Z87.92
G17 G01 Z.2 F750.
X.81 Y-201.043 Z0.0 F600.
X-194.3 Y-202.739 F1500.
Y-32. F900.
G40 G02 X-173. Y-10.7 I21.3 J0.0
G01 X173.
G02 X194.3 Y-32. I0.0 J-21.3
G01 Y-199.36
X.81 Y-201.043 F1500.
X.708 Y-189.403
X-182.66 Y-190.998
Y-32.
G02 X-173. Y-22.34 I9.66 J0.0
G01 X173.
G02 X182.66 Y-32. I0.0 J-9.66
G01 Y-187.821
X.708 Y-189.403
X.607 Y-177.763
X-171.02 Y-179.256
Y-33.98
X171.02
Y-176.282
X.607 Y-177.763
X.506 Y-166.124
X-159.38 Y-167.514
Y-45.62
X159.38
Y-164.742
X.506 Y-166.124
X.405 Y-154.484
X-147.74 Y-155.773
Y-57.26
X147.74
Y-153.203
X.405 Y-154.484
X.304 Y-142.845
X-136.1 Y-144.031
Y-68.9
X136.1
Y-141.664
X.304 Y-142.845
X.202 Y-131.205
X-124.46 Y-132.289
Y-80.54
X124.46
Y-130.125
X.202 Y-131.205
X.101 Y-119.566
X-112.82 Y-120.548
Y-92.18
X112.82
Y-118.586
X.101 Y-119.566
X0.0 Y-107.926
X-101.18 Y-108.806
Y-103.82
X101.18
Y-107.046
X0.0 Y-107.926
X.026 Y-110.926
Z3.
G00 Z87.92
M09
M05
G91 G28 Z0.0
G28 Y0.0
M30
%
(TOTAL Machine Time: 5.4 min)
