%
G40 G17 G49 G54 G80
G91 G28 Z0.0
( NAME: Administrator )
( PART: H:\CNC-File\2018-11\²ÓÀ¤\2978\Ä£½Å.prt )
( DATE: Wed Nov 28 16:52:42 2018 )
( D10 ---> D=10.00 R=0.00 )
S2500 M03
G00 G90 X678.078 Y-24.3
Z15.5
G17 G01 Z2.904 F1000.
Z-.096 F800.
X670.
X0.0 F2000.
Z-.294
X670.
Z-.493
X0.0
Z-.691
X670.
Z-.89
X0.0
Z-1.088
X670.
Z-1.287
X0.0
Z-1.485
X670.
Z-1.684
X0.0
Z-1.882
X670.
Z-2.081
X0.0
Z-2.279
X670.
Z-2.478
X0.0
Z-2.676
X670.
Z-2.875
X0.0
Z-3.074
X670.
Z-3.272
X0.0
Z-3.471
X670.
Z-3.669
X0.0
Z-3.868
X670.
Z-4.066
X0.0
Z-4.265
X670.
Z-4.463
X0.0
Z-4.662
X670.
Z-4.86
X0.0
Z-5.059
X670.
Z-5.257
X0.0
Z-5.456
X670.
Z-5.654
X0.0
Z-5.853
X670.
Z-6.051
X0.0
Z-6.25
X670.
Z-6.449
X0.0
Z-6.647
X670.
Z-6.846
X0.0
Z-7.044
X670.
Z-7.243
X0.0
Z-7.441
X670.
Z-7.64
X0.0
Z-7.838
X670.
Z-8.037
X0.0
Z-8.235
X670.
Z-8.434
X0.0
Z-8.632
X670.
Z-8.831
X0.0
Z-9.029
X670.
Z-9.228
X0.0
Z-9.426
X670.
Z-9.625
X0.0
Z-9.824
X670.
Z-10.022
X0.0
Z-10.221
X670.
Z-10.419
X0.0
Z-10.618
X670.
Z-10.816
X0.0
Z-11.015
X670.
Z-11.213
X0.0
Z-11.412
X670.
Z-11.61
X0.0
Z-11.809
X670.
Z-12.007
X0.0
Z-12.206
X670.
Z-12.404
X0.0
Z-12.603
X670.
Z-12.801
X0.0
Z-13.
X670.
X678.078
Z-10.
G00 Z15.5
M09
M05
G91 G28 Z0.0
G28 Y0.0
M30
%
(TOTAL Machine Time: 22.4 min)
