%
G40 G17 G49 G54 G80
G91 G28 Z0.0
( NAME: Administrator )
( PART: H:\CNC-File\2019-2\ÓÀÊ¢½Ü\W1D\W1D-Ç°Ä£ÈÊ.prt )
( DATE: Fri Feb 22 10:55:29 2019 )
( Z6 ---> D=6.00 R=0.00 )
S1000 M03
G00 G90 X-180. Y-95.
Z5.
G17 G01 Z-1.5 F120.
G00 Z5.
Y95.
G01 Z-1.5
G00 Z5.
X0.0
G01 Z-1.5
G00 Z5.
Y-32.
G01 Z-1.5
G00 Z5.
X180. Y-95.
G01 Z-1.5
G00 Z5.
Y95.
G01 Z-1.5
G00 Z5.
( Z6 ---> D=6.00 R=0.00 )
S1000 M03
G00 X-105. Y30.
Z5.
G01 Z-12.5 F120.
G00 Z5.
X-75. Y-20.
G01 Z-12.5
G00 Z5.
X75. Y30.
G01 Z-12.5
G00 Z5.
X105. Y-20.
G01 Z-12.5
G00 Z5.
M09
M05
G91 G28 Z0.0
G28 Y0.0
M30
%
(TOTAL Machine Time: 1.2 min)
