%
G40 G17 G49 G54 G80
G91 G28 Z0.0
( NAME: HZK-PC )
( PART: H:\CNC-File\2019-3\ºÀÌ©\HT-2019-02\HT-2019-02-Ç°Ä£¿ò.prt )
( DATE: Sat Mar 23 17:12:13 2019 )
( Z6 ---> D=6.00 R=0.00 )
S1000 M03
G00 G90 X14. Y-29.
Z-93.
G17 G01 Z-99.5 F120.
G00 Z-93.
Y29.
G01 Z-99.5
G00 Z-93.
X44. Y-28.
G01 Z-99.5
G00 Z-93.
Y28.
G01 Z-99.5
G00 Z-93.
M09
M05
G91 G28 Z0.0
G28 Y0.0
M30
%
(TOTAL Machine Time: 0.4 min)
