%
G40 G17 G49 G54 G80
G91 G28 Z0.0
( NAME: HZK-PC )
( PART: H:\CNC-File\2019-2\ÓÀÊ¢½Ü\W1D\W1D-Ç°Ä£¿ò.prt )
( DATE: Mon Mar  4 17:03:09 2019 )
( Z6 ---> D=6.00 R=0.00 )
S1000 M03
G00 G90 X-180. Y-75.
Z5.
G17 G01 Z-14.5 F120.
G00 Z5.
Y115.
G01 Z-14.5
G00 Z5.
X0.0
G01 Z-14.5
G00 Z5.
Y-12.
G01 Z-14.5
G00 Z5.
X180. Y-75.
G01 Z-14.5
G00 Z5.
Y115.
G01 Z-14.5
G00 Z5.
M09
M05
G91 G28 Z0.0
G28 Y0.0
M30
%
(TOTAL Machine Time: 1.2 min)
