%
G40 G17 G49 G54 G80
G91 G28 Z0.0
( NAME: Capful )
( PART: D:\Program Files\Siemens\NX 12.0\UGII\HM-µç¼«±à³Ì.prt )
( DATE: Sun May 27 04:56:59 2018 )
( D10 ---> D=10.00 R=0.00 )
S8000 M03
G00 G90 X-5. Y30.6
Z14.5
G17 G01 Z-18.032 F1000.
Z-19.032 F400.
Y29.1
G40 G03 X0.0 Y24.1 I5. J0.0
G01 X130.5 F1000.
G02 X136.6 Y18. I0.0 J-6.1
G01 Y-6.515
G02 X135.106 Y-10.121 I-5.1 J0.0
G01 X122.621 Y-22.606
G02 X119.015 Y-24.1 I-3.606 J3.606
G01 X-116.5
G02 X-136.6 Y-4. I0.0 J20.1
G01 Y18.
G02 X-130.5 Y24.1 I6.1 J0.0
G01 X0.0
X3.
G03 X8. Y29.1 I0.0 J5.
G01 X-5. Y29.05
G03 X0.0 Y24.05 I5. J0.0 F400.
G01 X130.5 F1000.
G02 X136.55 Y18. I0.0 J-6.05
G01 Y-6.515
G02 X135.071 Y-10.086 I-5.05 J0.0
G01 X122.586 Y-22.571
G02 X119.015 Y-24.05 I-3.571 J3.571
G01 X-116.5
G02 X-136.55 Y-4. I0.0 J20.05
G01 Y18.
G02 X-130.5 Y24.05 I6.05 J0.0
G01 X0.0
X3.
G03 X8. Y29.05 I0.0 J5.
G01 X-5. Y29.
G03 X0.0 Y24. I5. J0.0 F400.
G01 X130.5 F1000.
G02 X136.5 Y18. I0.0 J-6.
G01 Y-6.515
G02 X135.036 Y-10.05 I-5. J0.0
G01 X122.55 Y-22.536
G02 X119.015 Y-24. I-3.536 J3.536
G01 X-116.5
G02 X-136.5 Y-4. I0.0 J20.
G01 Y18.
G02 X-130.5 Y24. I6. J0.0
G01 X0.0
X3.
G03 X8. Y29. I0.0 J5.
G01 Y30.55
Z-18.032
G00 Z14.5
M09
M05
G91 G28 Z0.0
G28 Y0.0
M30
%
(TOTAL Machine Time: 2.2 min)
