%
G40 G17 G49 G54 G80
G91 G28 Z0.0
( NAME: Capful )
( PART: D:\Program Files\Siemens\NX 12.0\UGII\HM-µç¼«±à³Ì.prt )
( DATE: Sun May 27 04:56:58 2018 )
( D10 ---> D=10.00 R=0.00 )
S6000 M03
G00 G90 X0.0 Y25.5
Z15.
G17 G01 Z.802 F2500.
Z-.198 F1000.
Y20.
X121.5 F2500.
X127. F2188.
X132.5 F1875.
Y14.5
Y-9. F2500.
Y-14.5 F2188.
Y-20. F1875.
X127.
X-121.5 F2500.
X-127. F2188.
X-132.5 F1875.
Y-14.5
Y9. F2500.
Y14.5 F2188.
Y20. F1875.
X-127.
X0.0 F2500.
Y12.5
X125.
Y-12.5
X-125.
Y12.5
X0.0
Y5.
X117.5
Y-5.
X-117.5
Y5.
X0.0
Y.5
X113.
Y-.5
X-113.
Y.5
X0.0
Y5.5
Z.802
G00 Z1.
Y25.5
G01 Z.603
Z-.397 F1000.
Y20.
X121.5 F2500.
X127. F2188.
X132.5 F1875.
Y14.5
Y-9. F2500.
Y-14.5 F2188.
Y-20. F1875.
X127.
X-121.5 F2500.
X-127. F2188.
X-132.5 F1875.
Y-14.5
Y9. F2500.
Y14.5 F2188.
Y20. F1875.
X-127.
X0.0 F2500.
Y12.5
X125.
Y-12.5
X-125.
Y12.5
X0.0
Y5.
X117.5
Y-5.
X-117.5
Y5.
X0.0
Y.5
X113.
Y-.5
X-113.
Y.5
X0.0
Y5.5
Z.603
G00 Z.802
Y25.5
G01 Z.405
Z-.595 F1000.
Y20.
X121.5 F2500.
X127. F2188.
X132.5 F1875.
Y14.5
Y-9. F2500.
Y-14.5 F2188.
Y-20. F1875.
X127.
X116.712 F2500.
Y-12.5
G40 G03 X117.408 Y-8.416 I-11.637 J4.084 F1500.
X116.452 Y-3.655 I-12.333 J0.0
G01 X119.356
G03 X125. Y-2.286 I-.004 J12.333
G01 Y-12.5 F2500.
X116.712
Y-20.
X-121.5
X-127. F2188.
X-132.5 F1875.
Y-14.5
Y-2.286 F2500.
X-125.
G03 X-119.357 Y-3.655 I5.647 J10.964 F1500.
G01 X-116.452
G03 X-117.408 Y-8.416 I11.377 J-4.761
X-116.712 Y-12.5 I12.333 J0.0
G01 X-125. F2500.
Y-2.286
X-132.5
Y9.
Y14.5 F2188.
Y20. F1875.
X-127.
X0.0 F2500.
Y12.5
X2.854
G03 X2.247 Y8.678 I11.726 J-3.822 F1500.
X5.688 Y.131 I12.333 J0.0
X2.247 Y-8.416 I8.891 J-8.547
X2.943 Y-12.5 I12.333 J0.0
G01 X4.358 Y-12.003 F2500.
G02 X3.747 Y-8.416 I10.222 J3.588
X7.923 Y.131 I10.833 J0.0
X3.747 Y8.678 I6.656 J8.547
X14.577 Y19.511 I10.833 J0.0
G01 X119.354
G02 X130.186 Y8.678 I-.001 J-10.833
X119.356 Y-2.155 I-10.833 J0.0
G01 X113.915
G02 X115.908 Y-8.416 I-8.841 J-6.261
X105.076 Y-19.249 I-10.833 J0.0
G01 X14.576
G02 X4.358 Y-12.003 I.004 J10.833
G01 X2.943 Y-12.5
X-2.943
G03 X-2.247 Y-8.416 I-11.637 J4.084 F1500.
X-5.688 Y.131 I-12.333 J0.0
X-3.898 Y2.514 I-8.891 J8.547
G01 X0.0 Y.265 F2500.
G03 X.078 Y.131 I14.58 J8.413
X0.0 Y-.003 I14.502 J-8.547
X-.078 Y.131 I-14.58 J-8.413
X0.0 Y.265 I-14.502 J8.547
G01 X-3.898 Y2.514
G03 X-2.247 Y8.678 I-10.682 J6.164 F1500.
X-2.854 Y12.5 I-12.333 J0.0
G01 X-4.28 Y12.035 F2500.
G02 X-3.747 Y8.678 I-10.3 J-3.357
X-7.923 Y.131 I-10.833 J0.0
X-3.747 Y-8.416 I-6.656 J-8.547
X-14.576 Y-19.249 I-10.833 J0.0
G01 X-105.076
G02 X-115.908 Y-8.416 I.001 J10.833
X-113.915 Y-2.155 I10.833 J0.0
G01 X-119.356
G02 X-130.186 Y8.678 I.004 J10.833
X-119.355 Y19.511 I10.833 J0.0
G01 X-14.574
G02 X-4.28 Y12.035 I-.006 J-10.833
G01 X-2.854 Y12.5
X0.0
Y25.5
Z.405
G00 Z.603
G01 Z.206
Z-.794 F1000.
Y20.
X121.5 F2500.
X127. F2188.
X132.5 F1875.
Y14.5
Y-9. F2500.
Y-14.5 F2188.
Y-20. F1875.
X127.
X116.74 F2500.
Y-12.5
G03 X117.434 Y-8.416 I-11.665 J4.084 F1500.
X116.492 Y-3.682 I-12.359 J0.0
G01 X119.353
G03 X125. Y-2.316 I0.0 J12.359
G01 Y-12.5 F2500.
X116.74
Y-20.
X-121.5
X-127. F2188.
X-132.5 F1875.
Y-14.5
Y-2.316 F2500.
X-125.
G03 X-119.353 Y-3.682 I5.647 J10.994 F1500.
G01 X-116.492
G03 X-117.434 Y-8.416 I11.417 J-4.734
X-116.74 Y-12.5 I12.359 J0.0
G01 X-125. F2500.
Y-2.316
X-132.5
Y9.
Y14.5 F2188.
Y20. F1875.
X-127.
X0.0 F2500.
Y12.5
X2.826
G03 X2.22 Y8.678 I11.754 J-3.822 F1500.
X5.652 Y.131 I12.359 J0.0
X2.22 Y-8.416 I8.928 J-8.547
X2.915 Y-12.5 I12.359 J0.0
G01 X4.33 Y-12.004 F2500.
G02 X3.72 Y-8.416 I10.249 J3.589
X7.88 Y.131 I10.859 J0.0
X3.72 Y8.678 I6.699 J8.547
X14.58 Y19.537 I10.859 J0.0
G01 X119.353
G02 X130.212 Y8.678 I0.0 J-10.859
X119.353 Y-2.182 I-10.859 J0.0
G01 X113.967
G02 X115.934 Y-8.416 I-8.892 J-6.234
X105.075 Y-19.275 I-10.859 J0.0
G01 X14.58
G02 X4.33 Y-12.004 I0.0 J10.859
G01 X2.915 Y-12.5
X-2.915
G03 X-2.22 Y-8.416 I-11.665 J4.084 F1500.
X-5.652 Y.131 I-12.359 J0.0
X-3.892 Y2.471 I-8.928 J8.547
G01 X0.0 Y.212 F2500.
G03 X.047 Y.131 I14.58 J8.466
X0.0 Y.05 I14.533 J-8.547
X-.047 Y.131 I-14.58 J-8.466
X0.0 Y.212 I-14.533 J8.547
G01 X-3.892 Y2.471
G03 X-2.22 Y8.678 I-10.688 J6.206 F1500.
X-2.826 Y12.5 I-12.359 J0.0
G01 X-4.253 Y12.036 F2500.
G02 X-3.72 Y8.678 I-10.327 J-3.358
X-7.88 Y.131 I-10.859 J0.0
X-3.72 Y-8.416 I-6.699 J-8.547
X-14.58 Y-19.275 I-10.859 J0.0
G01 X-105.075
G02 X-115.934 Y-8.416 I0.0 J10.859
X-113.967 Y-2.182 I10.859 J0.0
G01 X-119.353
G02 X-130.212 Y8.678 I0.0 J10.859
X-119.353 Y19.537 I10.859 J0.0
G01 X-14.58
G02 X-4.253 Y12.036 I0.0 J-10.859
G01 X-2.826 Y12.5
X0.0
Y25.5
Z.206
G00 Z.405
G01 Z.008
Z-.992 F1000.
Y20.
X121.5 F2500.
X127. F2188.
X132.5 F1875.
Y14.5
Y-9. F2500.
Y-14.5 F2188.
Y-20. F1875.
X127.
X116.777 F2500.
Y-12.5
G03 X117.469 Y-8.416 I-11.702 J4.084 F1500.
X116.535 Y-3.696 I-12.394 J0.0
G01 X119.353
G03 X125. Y-2.332 I0.0 J12.373
G01 Y-12.5 F2500.
X116.777
Y-20.
X-121.5
X-127. F2188.
X-132.5 F1875.
Y-14.5
Y-2.332 F2500.
X-125.
G03 X-119.353 Y-3.696 I5.647 J11.009 F1500.
G01 X-116.535
G03 X-117.469 Y-8.416 I11.46 J-4.72
X-116.777 Y-12.5 I12.394 J0.0
G01 X-125. F2500.
Y-2.332
X-132.5
Y9.
Y14.5 F2188.
Y20. F1875.
X-127.
X0.0 F2500.
Y12.5
X2.79
G03 X2.186 Y8.678 I11.79 J-3.822 F1500.
X4.656 Y1.253 I12.394 J0.0
G01 X4.842 Y1.008
X4.872 Y.97
G03 X5.618 Y.131 I9.682 J7.858
X5.395 Y-.103 I9.493 J-9.262
X4.783 Y-.824 I7.749 J-7.201
X2.186 Y-8.416 I9.797 J-7.591
X2.878 Y-12.5 I12.394 J0.0
G01 X4.294 Y-12.006 F2500.
G02 X3.686 Y-8.416 I10.286 J3.59
X5.968 Y-1.743 I10.894 J0.0
X6.494 Y-1.124 I7.176 J-5.56
X7.601 Y-.077 I8.617 J-8.007
X7.858 Y.131 I6.978 J-8.339
X7.406 Y.506 I6.722 J8.547
X6.036 Y1.915 I7.147 J8.321
G01 X5.85 Y2.16
G02 X3.686 Y8.678 I8.729 J6.518
X5.85 Y15.196 I10.894 J0.0
X7.414 Y16.856 I8.232 J-6.186
X14.58 Y19.551 I7.166 J-8.178
G01 X119.353
G02 X126.526 Y16.849 I0.0 J-10.873
X127.66 Y15.723 I-7.317 J-8.496
X127.857 Y15.486 I-5.515 J-4.81
X130.247 Y8.678 I-8.504 J-6.809
X127.405 Y1.34 I-10.894 J0.0
X126.973 Y.901 I-5.795 J5.28
X126.272 Y.29 I-8.898 J9.49
X119.353 Y-2.196 I-6.919 J8.388
G01 X114.019
G02 X115.969 Y-8.416 I-8.944 J-6.22
X105.075 Y-19.31 I-10.894 J0.0
G01 X69.705
X69.558
G02 X68.571 Y-19.289 I0.0 J22.91
G01 X14.58
G02 X7.581 Y-16.737 I0.0 J10.873
X6.49 Y-15.703 I7.637 J9.151
X5.998 Y-15.126 I6.498 J6.043
X4.294 Y-12.006 I8.582 J6.71
G01 X2.878 Y-12.5
X-2.878
G03 X-2.186 Y-8.416 I-11.702 J4.084 F1500.
X-4.852 Y-.736 I-12.394 J0.0
X-5.249 Y-.263 I-7.772 J-6.136
X-5.616 Y.129 I-9.569 J-8.575
X-4.649 Y1.262 I-8.286 J8.046
X-3.884 Y2.416 I-9.931 J7.416
G01 X0.0 Y.143 F2500.
X.007 Y.131
X0.0 Y.119
X-.007 Y.131
X0.0 Y.143
X-3.884 Y2.416
G03 X-2.186 Y8.678 I-10.696 J6.261 F1500.
X-2.79 Y12.5 I-12.394 J0.0
G01 X-4.217 Y12.037 F2500.
G02 X-3.686 Y8.678 I-10.363 J-3.36
X-5.85 Y2.16 I-10.894 J0.0
X-7.414 Y.5 I-8.051 J6.015
X-7.858 Y.131 I-7.166 J8.178
X-7.431 Y-.223 I-6.722 J-8.547
X-6.367 Y-1.264 I-7.388 J-8.615
X-6.029 Y-1.665 I-6.257 J-5.607
X-3.686 Y-8.416 I-8.55 J-6.751
X-5.896 Y-14.995 I-10.894 J0.0
X-6.602 Y-15.822 I-7.561 J5.728
X-7.414 Y-16.594 I-8.426 J8.057
X-14.58 Y-19.289 I-7.166 J8.178
G01 X-68.583
X-68.635 Y-19.291
X-69.546 Y-19.311
X-69.716 Y-19.31
X-105.075
G02 X-115.969 Y-8.416 I0.0 J10.894
X-114.019 Y-2.196 I10.894 J0.0
G01 X-119.353
G02 X-126.212 Y.241 I0.0 J10.873
X-127.21 Y1.132 I6.81 J8.636
X-127.552 Y1.504 I4.362 J4.342
X-130.247 Y8.678 I8.199 J7.174
X-128.082 Y15.196 I10.894 J0.0
X-126.519 Y16.856 I8.27 J-6.221
X-119.353 Y19.551 I7.166 J-8.178
G01 X-14.58
G02 X-7.406 Y16.849 I0.0 J-10.873
X-6.26 Y15.708 I-7.208 J-8.384
X-6.039 Y15.441 I-5.888 J-5.105
X-4.217 Y12.037 I-8.54 J-6.763
G01 X-2.79 Y12.5
X0.0
Y25.5
Z.008
G00 Z.206
G01 Z-.191
Z-1.191 F1000.
Y20.
X121.5 F2500.
X127. F2188.
X132.5 F1875.
Y14.5
Y-9. F2500.
Y-14.5 F2188.
Y-20. F1875.
X127.
X116.92 F2500.
Y-12.5
G03 X117.605 Y-8.416 I-11.845 J4.084 F1500.
X116.687 Y-3.709 I-12.53 J0.0
G01 X119.353
G03 X125. Y-2.347 I0.0 J12.387
G01 Y-12.5 F2500.
X116.92
Y-20.
X-121.5
X-127. F2188.
X-132.5 F1875.
Y-14.5
Y-2.347 F2500.
X-125.
G03 X-119.353 Y-3.709 I5.647 J11.025 F1500.
G01 X-116.687
G03 X-117.605 Y-8.416 I11.612 J-4.706
X-116.92 Y-12.5 I12.53 J0.0
G01 X-125. F2500.
Y-2.347
X-132.5
Y9.
Y14.5 F2188.
Y20. F1875.
X-127.
X0.0 F2500.
Y12.5
X2.647
G03 X2.05 Y8.678 I11.933 J-3.822 F1500.
X4.633 Y1.058 I12.53 J0.0
X5.296 Y.292 I6.753 J5.173
X5.455 Y.132 I8.191 J7.99
X4.542 Y-.916 I6.759 J-6.807
X2.05 Y-8.416 I10.038 J-7.499
X2.734 Y-12.5 I12.53 J0.0
G01 X4.152 Y-12.011 F2500.
G02 X3.55 Y-8.416 I10.427 J3.595
X5.742 Y-1.817 I11.03 J0.0
X7.047 Y-.446 I6.473 J-4.858
X7.791 Y.132 I8.793 J-10.536
X6.37 Y1.339 I5.697 J8.149
X5.824 Y1.971 I5.016 J4.892
X3.55 Y8.678 I8.756 J6.707
X5.742 Y15.277 I11.03 J0.0
X7.378 Y16.918 I6.803 J-5.146
X8.57 Y17.756 I12.063 J-15.891
X14.58 Y19.565 I6.01 J-9.078
G01 X119.353
G02 X125.384 Y17.742 I0.0 J-10.887
X126.763 Y16.75 I-8.956 J-13.912
X128.191 Y15.277 I-5.093 J-6.362
X130.383 Y8.678 I-8.838 J-6.599
X127.705 Y1.474 I-11.03 J0.0
X126.613 Y.446 I-5.296 J4.532
X125.343 Y-.414 I-9.66 J12.905
X119.353 Y-2.209 I-5.99 J9.091
G01 X114.193
G02 X116.105 Y-8.416 I-9.118 J-6.206
X105.075 Y-19.446 I-11.03 J0.0
G01 X69.705
G02 X68.635 Y-19.388 I.076 J11.321
G01 X68.188 Y-19.331
X67.91 Y-19.304
X67.894 Y-19.303
X14.58
G02 X8.719 Y-17.591 I0.0 J10.887
X7.378 Y-16.653 I10.383 J16.278
X5.742 Y-15.015 I5.053 J6.682
X4.152 Y-12.011 I8.838 J6.599
G01 X2.734 Y-12.5
X-2.734
G03 X-2.05 Y-8.416 I-11.845 J4.084 F1500.
X-4.538 Y-.922 I-12.53 J0.0
X-5.455 Y.129 I-6.993 J-5.176
X-4.539 Y1.183 I-6.536 J6.607
X-2.05 Y8.678 I-10.041 J7.495
X-2.647 Y12.5 I-12.53 J0.0
G01 X-4.076 Y12.042 F2500.
G02 X-3.55 Y8.678 I-10.504 J-3.365
X-5.742 Y2.079 I-11.03 J0.0
X-6.834 Y.893 I-6.249 J4.657
X-7.791 Y.13 I-7.917 J8.951
X-6.483 Y-.963 I-5.771 J-8.233
X-5.742 Y-1.817 I-5.047 J-5.135
X-3.55 Y-8.416 I-8.838 J-6.599
X-5.742 Y-15.015 I-11.03 J0.0
X-7.378 Y-16.653 I-6.694 J5.048
X-8.54 Y-17.474 I-10.956 J14.277
X-14.58 Y-19.303 I-6.04 J9.058
G01 X-67.84
G03 X-68.188 Y-19.335 I.107 J-3.106
G02 X-69.716 Y-19.446 I-1.536 J10.571
G01 X-105.075
G02 X-116.105 Y-8.416 I0.0 J11.03
X-114.193 Y-2.209 I11.03 J0.0
G01 X-119.353
G02 X-125.198 Y-.507 I0.0 J10.887
X-126.228 Y.157 I16.774 J27.143
X-127.627 Y1.384 I4.062 J6.041
X-130.383 Y8.678 I8.274 J7.294
X-128.191 Y15.277 I11.03 J0.0
X-126.763 Y16.75 I6.535 J-4.903
X-125.358 Y17.759 I10.43 J-13.045
X-119.353 Y19.565 I6.005 J-9.081
G01 X-14.58
G02 X-8.532 Y17.731 I0.0 J-10.887
X-7.155 Y16.737 I-8.637 J-13.421
X-5.742 Y15.277 I-5.068 J-6.319
X-4.076 Y12.042 I-8.838 J-6.599
G01 X-2.647 Y12.5
X0.0
Y25.5
Z-.191
G00 Z.008
G01 Z-.389
Z-1.389 F1000.
Y20.
X121.5 F2500.
X127. F2188.
X132.5 F1875.
Y14.5
Y-9. F2500.
Y-14.5 F2188.
Y-20. F1875.
X127.
X117.272 F2500.
Y-12.5
G03 X117.937 Y-8.416 I-12.197 J4.084 F1500.
X117.051 Y-3.723 I-12.863 J0.0
G01 X119.353
G03 X125. Y-2.363 I0.0 J12.401
G01 Y-12.5 F2500.
X117.272
Y-20.
X-121.5
X-127. F2188.
X-132.5 F1875.
Y-14.5
Y-2.363 F2500.
X-125.
G03 X-119.353 Y-3.723 I5.647 J11.041 F1500.
G01 X-117.051
G03 X-117.937 Y-8.416 I11.976 J-4.692
X-117.272 Y-12.5 I12.863 J0.0
G01 X-125. F2500.
Y-2.363
X-132.5
Y9.
Y14.5 F2188.
Y20. F1875.
X-127.
X0.0 F2500.
Y12.5
X2.298
G03 X1.717 Y8.678 I12.282 J-3.822 F1500.
X4.283 Y.969 I12.863 J0.0
X5.015 Y.131 I7.499 J5.809
X4.294 Y-.694 I7.563 J-7.348
G01 X4.27 Y-.725
G03 X1.717 Y-8.416 I10.31 J-7.691
X2.383 Y-12.5 I12.863 J0.0
G01 X3.805 Y-12.024 F2500.
G02 X3.217 Y-8.416 I10.775 J3.608
X5.472 Y-1.622 I11.363 J0.0
X6.707 Y-.337 I7.106 J-5.595
X7.328 Y.131 I4.42 J-5.223
X6.151 Y1.116 I4.169 J6.18
X5.469 Y1.887 I5.632 J5.662
X3.217 Y8.678 I9.11 J6.791
X5.47 Y15.469 I11.363 J0.0
X6.204 Y16.291 I6.473 J-5.041
G01 X6.434 Y16.514
G02 X8.272 Y17.742 I4.48 J-4.717
G03 X9.104 Y18.121 I-3.032 J7.757
G01 X9.543 Y18.345
G02 X14.58 Y19.579 I5.037 J-9.668
G01 X119.353
G02 X124.08 Y18.5 I0.0 J-10.901
G01 X124.482 Y18.299
X124.527 Y18.276
X124.682 Y18.195
G03 X125.587 Y17.77 I5.034 J9.534
G02 X126.951 Y16.976 I-2.272 J-5.479
X128.497 Y15.423 I-5.267 J-6.787
X130.716 Y8.678 I-9.144 J-6.745
X127.961 Y1.261 I-11.363 J0.0
X126.763 Y.159 I-6.107 J5.441
X124.751 Y-.807 I-3.484 J4.675
G01 X124.396 Y-.987
G02 X119.353 Y-2.223 I-5.043 J9.665
G01 X114.602
G02 X116.437 Y-8.416 I-9.527 J-6.192
X105.081 Y-19.778 I-11.363 J0.0
G01 X69.739 Y-19.777
G02 X69.083 Y-19.744 I0.0 J6.464
X67.029 Y-19.317 I.401 J7.085
G01 X14.58
G02 X9.543 Y-18.083 I0.0 J10.901
G03 X8.631 Y-17.63 I-11.453 J-21.88
G01 X8.496 Y-17.575
G02 X6.731 Y-16.514 I2.473 J6.111
X5.469 Y-15.206 I5.857 J6.912
X3.805 Y-12.024 I9.111 J6.79
G01 X2.383 Y-12.5
X-2.383
G03 X-1.717 Y-8.416 I-12.197 J4.084 F1500.
X-4.267 Y-.728 I-12.863 J0.0
X-4.851 Y-.045 I-5.677 J-4.258
X-5.015 Y.131 I-6.805 J-6.202
X-4.293 Y.956 I-7.703 J7.473
G01 X-4.268 Y.989
G03 X-1.717 Y8.678 I-10.312 J7.689
X-2.298 Y12.5 I-12.863 J0.0
G01 X-3.73 Y12.054 F2500.
G02 X-3.217 Y8.678 I-10.849 J-3.377
X-5.471 Y1.885 I-11.363 J0.0
X-6.624 Y.669 I-7.248 J5.719
X-7.327 Y.13 I-4.371 J4.973
X-5.944 Y-1.073 I-4.329 J-6.377
X-5.47 Y-1.624 I-4.001 J-3.914
X-3.217 Y-8.416 I-9.11 J-6.791
X-5.469 Y-15.205 I-11.363 J0.0
X-6.632 Y-16.429 I-7.092 J5.58
X-8.631 Y-17.63 I-4.386 J5.034
G03 X-9.543 Y-18.083 I11.954 J-25.187
G02 X-14.58 Y-19.317 I-5.037 J9.668
G01 X-67.008
G02 X-68.88 Y-19.739 I-2.379 J6.179
X-69.878 Y-19.778 I-.998 J12.992
G01 X-69.977 Y-19.777
X-105.077 Y-19.778
G02 X-116.437 Y-8.416 I.002 J11.363
X-114.602 Y-2.223 I11.363 J0.0
G01 X-119.353
G02 X-124.403 Y-.983 I0.0 J10.901
G01 X-124.663 Y-.853
G02 X-126.763 Y.149 I1.422 J5.685
X-128.012 Y1.321 I4.855 J6.426
X-130.716 Y8.678 I8.66 J7.357
X-128.463 Y15.469 I11.363 J0.0
X-126.947 Y16.981 I6.972 J-5.475
X-125.691 Y17.72 I3.439 J-4.404
G03 X-124.589 Y18.244 I-5.637 J13.278
G01 X-124.527 Y18.276
X-124.08 Y18.5
G02 X-119.353 Y19.579 I4.727 J-9.823
G01 X-14.58
G02 X-9.543 Y18.345 I0.0 J-10.901
G03 X-8.613 Y17.88 I17.378 J33.514
G02 X-6.685 Y16.737 I-2.184 J-5.886
X-5.568 Y15.594 I-6.139 J-7.116
X-5.47 Y15.47 I-2.538 J-2.089
X-3.73 Y12.054 I-9.109 J-6.792
G01 X-2.298 Y12.5
X0.0
Y25.5
Z-.389
G00 Z-.191
G01 Z-.588
Z-1.588 F1000.
Y20.
X121.5 F2500.
X127. F2188.
X132.5 F1875.
Y14.5
Y-9. F2500.
Y-14.5 F2188.
Y-20. F1875.
X127.
X117.274 F2500.
Y-12.5
G03 X117.94 Y-8.416 I-12.199 J4.084 F1500.
X117.059 Y-3.737 I-12.865 J0.0
G01 X119.353
G03 X123.939 Y-2.859 I0.0 J12.415
G01 X124.168 Y-2.771
G03 X125. Y-2.552 I-1.447 J7.189
G01 Y-12.5 F2500.
X117.274
Y-20.
X-121.5
X-127. F2188.
X-132.5 F1875.
Y-14.5
Y-2.565 F2500.
X-125.
G03 X-124.08 Y-2.802 I2.294 J6.985 F1500.
X-119.353 Y-3.737 I4.727 J11.48
G01 X-117.059
G03 X-117.94 Y-8.416 I11.984 J-4.679
X-117.274 Y-12.5 I12.865 J0.0
G01 X-125. F2500.
Y-2.565
X-132.5
Y9.
Y14.5 F2188.
Y20. F1875.
X-127.
X0.0 F2500.
Y12.5
X2.296
G03 X1.715 Y8.678 I12.284 J-3.822 F1500.
X4.267 Y.986 I12.865 J0.0
X4.49 Y.706 I4.534 J3.382
X5.011 Y.13 I9.581 J8.137
X4.838 Y-.055 I8.754 J-8.364
G01 X4.642 Y-.269
G03 X4.306 Y-.672 I4.038 J-3.699
X1.715 Y-8.416 I10.274 J-7.743
X2.38 Y-12.5 I12.865 J0.0
G01 X3.803 Y-12.024 F2500.
G02 X3.215 Y-8.416 I10.777 J3.608
X5.504 Y-1.575 I11.365 J0.0
X5.748 Y-1.282 I3.175 J-2.393
G01 X5.944 Y-1.068
G02 X7.242 Y.131 I7.821 J-7.166
X5.633 Y1.677 I6.829 J8.713
X5.47 Y1.883 I3.168 J2.691
X3.215 Y8.678 I9.11 J6.795
X5.476 Y15.481 I11.365 J0.0
X5.959 Y16.037 I4.081 J-3.059
G01 X5.962 Y16.047
G02 X8.13 Y17.853 I8.087 J-7.504
X10.061 Y18.636 I3.181 J-5.072
G01 X10.549 Y18.821
G02 X14.58 Y19.593 I4.031 J-10.143
G01 X119.353
G02 X123.314 Y18.849 I0.0 J-10.915
G01 X123.857 Y18.64
G02 X125.869 Y17.812 I-1.243 J-5.877
X127.953 Y16.068 I-6.083 J-9.386
G01 X127.986 Y16.031
X127.988 Y16.023
G02 X128.465 Y15.47 I-3.612 J-3.601
X130.718 Y8.678 I-9.112 J-6.793
X127.962 Y1.259 I-11.365 J0.0
X125.645 Y-.629 I-7.161 J6.423
X123.783 Y-1.318 I-2.925 J5.047
G01 X123.712 Y-1.339
X123.392 Y-1.462
G02 X119.353 Y-2.237 I-4.039 J10.14
G01 X114.614
G02 X116.44 Y-8.416 I-9.539 J-6.179
X105.081 Y-19.781 I-11.365 J0.0
G01 X86.968
X69.713
G02 X69.33 Y-19.767 I0.0 J5.372
G01 X68.082 Y-19.678
G02 X66.4 Y-19.331 I.464 J6.497
G01 X14.58
G02 X10.554 Y-18.561 I0.0 J10.915
G01 X10.508 Y-18.543
X10.061 Y-18.374
G02 X8.048 Y-17.539 I1.24 J5.835
X5.684 Y-15.477 I6.097 J9.377
X5.469 Y-15.21 I3.598 J3.111
X3.803 Y-12.024 I9.11 J6.794
G01 X2.38 Y-12.5
X-2.38
G03 X-1.715 Y-8.416 I-12.199 J4.084 F1500.
X-4.265 Y-.727 I-12.865 J0.0
X-4.79 Y-.107 I-5.291 J-3.945
X-4.845 Y-.044 I-1.155 J-.957
X-5.01 Y.131 I-9.293 J-8.614
X-4.83 Y.323 I-9.011 J8.651
G01 X-4.653 Y.516
X-4.639 Y.532
G03 X-4.266 Y.987 I-4.967 J4.438
X-1.715 Y8.678 I-10.313 J7.69
X-2.296 Y12.5 I-12.865 J0.0
G01 X-3.728 Y12.054 F2500.
G02 X-3.215 Y8.678 I-10.852 J-3.377
X-5.469 Y1.884 I-11.365 J0.0
X-5.757 Y1.531 I-4.137 J3.085
G01 X-5.934 Y1.339
G02 X-7.242 Y.131 I-8.087 J7.443
X-5.945 Y-1.063 I-6.896 J-8.788
G01 X-5.943 Y-1.073
G02 X-5.468 Y-1.623 I-3.614 J-3.599
X-3.215 Y-8.416 I-9.112 J-6.793
X-5.467 Y-15.207 I-11.365 J0.0
G01 X-5.589 Y-15.364
G02 X-8.048 Y-17.538 I-8.475 J7.109
X-10.061 Y-18.374 I-3.255 J4.996
G01 X-10.455 Y-18.523
X-10.549 Y-18.559
G02 X-14.58 Y-19.331 I-4.031 J10.143
G01 X-66.413
G02 X-67.807 Y-19.654 I-2.035 J5.612
G01 X-68.188 Y-19.695
G02 X-69.87 Y-19.781 I-1.682 J16.342
G01 X-69.977
X-105.083
G02 X-116.44 Y-8.416 I.008 J11.365
X-114.614 Y-2.237 I11.365 J0.0
G01 X-119.353
G02 X-123.51 Y-1.414 I0.0 J10.915
G03 X-123.798 Y-1.329 I-.563 J-1.366
G02 X-125.645 Y-.64 I1.091 J5.75
X-127.905 Y1.193 I4.848 J8.286
X-130.718 Y8.678 I8.552 J7.485
X-128.456 Y15.481 I11.365 J0.0
X-127.972 Y16.038 I4.081 J-3.059
G01 X-127.974 Y16.048
X-127.965 Y16.053
G02 X-125.869 Y17.81 I8.056 J-7.483
X-123.857 Y18.64 I3.236 J-4.995
G01 X-123.314 Y18.849
G02 X-119.353 Y19.593 I3.961 J-10.171
G01 X-14.58
G02 X-10.554 Y18.823 I0.0 J-10.915
G01 X-10.061 Y18.636
G02 X-8.048 Y17.802 I-1.248 J-5.855
X-5.98 Y16.068 I-6.101 J-9.379
G01 X-5.948 Y16.034
X-5.946 Y16.023
G02 X-5.468 Y15.47 I-3.611 J-3.601
X-3.728 Y12.054 I-9.112 J-6.793
G01 X-2.296 Y12.5
X0.0
Y25.5
Z-.588
G00 Z-.389
G01 Z-.786
Z-1.786 F1000.
Y20.
X121.5 F2500.
X127. F2188.
X132.5 F1875.
Y14.5
Y-9. F2500.
Y-14.5 F2188.
Y-20. F1875.
X127.
X117.274 F2500.
Y-12.5
G03 X117.94 Y-8.416 I-12.199 J4.084 F1500.
X117.064 Y-3.751 I-12.865 J0.0
G01 X119.353
G03 X122.655 Y-3.304 I0.0 J12.429
G01 X123.051 Y-3.197
G03 X124.579 Y-2.81 I-1.348 J8.545
G01 X124.625 Y-2.793
G03 X125. Y-2.64 I-4.381 J11.243
G01 Y-12.5 F2500.
X117.274
Y-20.
X-121.5
X-127. F2188.
X-132.5 F1875.
Y-14.5
Y-2.644 F2500.
X-125.
G03 X-124.459 Y-2.854 I4.293 J10.257 F1500.
G01 X-124.414 Y-2.869
G03 X-123.052 Y-3.196 I2.806 J8.684
G01 X-122.665 Y-3.302
G03 X-119.353 Y-3.751 I3.312 J11.979
G01 X-117.064
G03 X-117.94 Y-8.416 I11.99 J-4.665
X-117.274 Y-12.5 I12.865 J0.0
G01 X-125. F2500.
Y-2.644
X-132.5
Y9.
Y14.5 F2188.
Y20. F1875.
X-127.
X0.0 F2500.
Y12.5
X2.296
G03 X1.715 Y8.678 I12.284 J-3.822 F1500.
X4.268 Y.986 I12.865 J0.0
X4.491 Y.706 I4.537 J3.384
X5.011 Y.13 I9.581 J8.139
X4.838 Y-.055 I8.754 J-8.364
G01 X4.642 Y-.269
G03 X4.306 Y-.672 I4.037 J-3.699
X1.715 Y-8.416 I10.274 J-7.743
X2.38 Y-12.5 I12.865 J0.0
G01 X3.803 Y-12.024 F2500.
G02 X3.215 Y-8.416 I10.777 J3.608
X5.504 Y-1.575 I11.365 J0.0
X5.748 Y-1.282 I3.175 J-2.393
G01 X5.944 Y-1.068
G02 X7.242 Y.131 I7.821 J-7.166
X5.634 Y1.677 I6.83 J8.713
X5.47 Y1.883 I3.171 J2.693
X3.215 Y8.678 I9.11 J6.795
X5.476 Y15.481 I11.365 J0.0
X5.959 Y16.037 I4.081 J-3.059
G01 X5.962 Y16.047
X5.966 Y16.052
G02 X9.255 Y18.496 I8.357 J-7.808
X10.981 Y19.044 I2.651 J-5.362
G03 X11.382 Y19.131 I-.535 J3.422
G01 X11.7 Y19.22
G02 X14.58 Y19.607 I2.88 J-10.543
G01 X119.353
G02 X122.266 Y19.211 I0.0 J-10.929
G01 X122.743 Y19.081
G02 X123.569 Y18.915 I-1.624 J-10.238
X124.751 Y18.461 I-1.695 J-6.175
G01 X124.975 Y18.344
G02 X127.953 Y16.068 I-5.399 J-10.15
G01 X127.986 Y16.031
X127.988 Y16.023
G02 X128.465 Y15.47 I-3.612 J-3.601
X130.718 Y8.678 I-9.112 J-6.793
X127.962 Y1.259 I-11.365 J0.0
X125.869 Y-.496 I-7.217 J6.483
G01 X125.735 Y-.578
G02 X124.08 Y-1.395 I-5.491 J9.028
X122.739 Y-1.727 I-2.378 J6.744
G01 X122.292 Y-1.849
X122.273 Y-1.854
G02 X119.353 Y-2.251 I-2.921 J10.531
G01 X114.623
G02 X116.44 Y-8.416 I-9.548 J-6.165
X105.081 Y-19.781 I-11.365 J0.0
G01 X86.968
X69.977
X69.53 Y-19.777
G02 X67.294 Y-19.612 I4.873 J80.832
X65.989 Y-19.345 I.624 J6.374
G01 X14.58
G02 X11.659 Y-18.947 I0.0 J10.929
G01 X11.178 Y-18.816
X10.88 Y-18.764
G02 X9.179 Y-18.198 I1.064 J6.036
X6.036 Y-15.866 I5.212 J10.31
G01 X5.811 Y-15.622
G02 X5.468 Y-15.209 I3.717 J3.433
X3.803 Y-12.024 I9.112 J6.793
G01 X2.38 Y-12.5
X-2.38
G03 X-1.715 Y-8.416 I-12.199 J4.084 F1500.
X-4.265 Y-.727 I-12.865 J0.0
X-4.79 Y-.107 I-5.291 J-3.945
X-4.845 Y-.044 I-1.156 J-.956
X-5.01 Y.131 I-9.292 J-8.613
X-4.83 Y.323 I-9.011 J8.651
G01 X-4.653 Y.516
X-4.639 Y.532
G03 X-4.266 Y.987 I-4.971 J4.441
X-1.715 Y8.678 I-10.313 J7.69
X-2.296 Y12.5 I-12.865 J0.0
G01 X-3.728 Y12.054 F2500.
G02 X-3.215 Y8.678 I-10.852 J-3.377
X-5.469 Y1.884 I-11.365 J0.0
X-5.757 Y1.531 I-4.141 J3.088
G01 X-5.934 Y1.339
G02 X-7.242 Y.131 I-8.088 J7.444
X-5.945 Y-1.063 I-6.896 J-8.788
G01 X-5.943 Y-1.073
G02 X-5.468 Y-1.623 I-3.614 J-3.599
X-3.215 Y-8.416 I-9.112 J-6.793
X-5.472 Y-15.214 I-11.365 J0.0
X-5.698 Y-15.493 I-3.794 J2.832
X-9.39 Y-18.299 I-8.634 J7.528
X-10.731 Y-18.738 I-2.541 J5.506
G01 X-11.178 Y-18.816
X-11.662 Y-18.948
G02 X-14.58 Y-19.345 I-2.918 J10.532
G01 X-66.011
G02 X-67.294 Y-19.609 I-1.826 J5.616
G01 X-68.188 Y-19.695
G02 X-69.87 Y-19.781 I-1.681 J16.338
G01 X-69.977
X-105.083
G02 X-116.44 Y-8.416 I.008 J11.365
X-114.623 Y-2.251 I11.365 J0.0
G01 X-119.353
G02 X-122.268 Y-1.855 I0.0 J10.929
G01 X-122.739 Y-1.727
G02 X-123.953 Y-1.442 I1.131 J7.542
X-125.598 Y-.669 I3.245 J9.055
X-127.905 Y1.193 I4.864 J8.384
X-130.718 Y8.678 I8.552 J7.485
X-128.456 Y15.481 I11.365 J0.0
X-127.972 Y16.038 I4.081 J-3.059
G01 X-127.97 Y16.053
X-127.957 Y16.061
G02 X-124.527 Y18.567 I8.324 J-7.794
X-123.186 Y19.002 I2.489 J-5.392
G01 X-122.739 Y19.082
X-122.27 Y19.21
G02 X-119.353 Y19.607 I2.918 J-10.532
G01 X-14.58
G02 X-11.7 Y19.22 I0.0 J-10.929
G01 X-11.189 Y19.081
G02 X-10.295 Y18.895 I-1.398 J-8.964
X-9.166 Y18.453 I-1.696 J-5.996
G01 X-8.943 Y18.336
G02 X-5.98 Y16.068 I-5.418 J-10.146
G01 X-5.948 Y16.034
X-5.946 Y16.023
G02 X-5.468 Y15.47 I-3.611 J-3.601
X-3.728 Y12.054 I-9.112 J-6.793
G01 X-2.296 Y12.5
X0.0
Y25.5
Z-.786
G00 Z-.588
G01 Z-.985
Z-1.985 F1000.
Y20.
X121.5 F2500.
X127. F2188.
X132.5 F1875.
Y14.5
Y-9. F2500.
Y-14.5 F2188.
Y-20. F1875.
X127.
X117.274 F2500.
Y-12.5
G03 X117.94 Y-8.416 I-12.199 J4.084 F1500.
X117.07 Y-3.765 I-12.865 J0.0
G01 X119.353
G03 X121.095 Y-3.642 I0.0 J12.443
X122.026 Y-3.502 I-6.862 J48.515
X124.179 Y-3. I-.661 J7.704
X125. Y-2.649 I-6.584 J16.548
G01 Y-12.5 F2500.
X117.274
Y-20.
X-121.5
X-127. F2188.
X-132.5 F1875.
Y-14.5
Y-2.652 F2500.
X-125.
G03 X-124.297 Y-2.952 I7.959 J17.665 F1500.
X-122.034 Y-3.5 I2.947 J7.222
X-120.866 Y-3.673 I4.522 J26.572
X-119.353 Y-3.765 I1.513 J12.35
G01 X-117.07
G03 X-117.94 Y-8.416 I11.995 J-4.651
X-117.274 Y-12.5 I12.865 J0.0
G01 X-125. F2500.
Y-2.652
X-132.5
Y9.
Y14.5 F2188.
Y20. F1875.
X-127.
X0.0 F2500.
Y12.5
X2.296
G03 X1.715 Y8.678 I12.284 J-3.822 F1500.
X4.266 Y.988 I12.865 J0.0
X4.494 Y.702 I4.592 J3.423
X5.011 Y.13 I9.579 J8.143
X4.838 Y-.055 I8.754 J-8.364
G01 X4.642 Y-.269
G03 X4.306 Y-.672 I4.037 J-3.698
X1.715 Y-8.416 I10.273 J-7.744
X2.38 Y-12.5 I12.865 J0.0
G01 X3.803 Y-12.024 F2500.
G02 X3.215 Y-8.416 I10.777 J3.608
X5.504 Y-1.575 I11.365 J0.0
X5.748 Y-1.282 I3.174 J-2.392
G01 X5.944 Y-1.068
G02 X7.242 Y.131 I7.821 J-7.166
X5.637 Y1.674 I6.831 J8.714
X5.468 Y1.885 I3.221 J2.738
X3.215 Y8.678 I9.111 J6.793
X5.476 Y15.481 I11.365 J0.0
X5.959 Y16.037 I4.081 J-3.059
G01 X5.962 Y16.047
X6.036 Y16.127
G02 X10.599 Y19.065 I8.378 J-7.999
X11.871 Y19.343 I1.79 J-5.129
G03 X12.37 Y19.41 I-.643 J6.713
G02 X13.242 Y19.538 I3.143 J-18.3
X14.58 Y19.62 I1.338 J-10.861
G01 X119.353
G02 X120.893 Y19.512 I0.0 J-10.943
X121.823 Y19.371 I-7.345 J-51.656
X123.569 Y18.981 I-.497 J-6.339
X127.953 Y16.068 I-4.083 J-10.898
G01 X127.986 Y16.031
X127.988 Y16.023
G02 X128.465 Y15.47 I-3.612 J-3.601
X130.718 Y8.678 I-9.112 J-6.793
X127.962 Y1.259 I-11.365 J0.0
X125.422 Y-.761 I-7.289 J6.561
X123.633 Y-1.603 I-7.828 J14.308
X121.845 Y-2.011 I-2.268 J5.805
X120.885 Y-2.157 I-7.611 J46.885
X119.353 Y-2.265 I-1.532 J10.835
G01 X114.631
G02 X116.44 Y-8.416 I-9.557 J-6.151
X105.081 Y-19.781 I-11.365 J0.0
G01 X86.968
X69.754
G02 X69.385 Y-19.769 I0.0 J5.852
X66.847 Y-19.572 I5.665 J89.588
X65.63 Y-19.358 I.644 J7.237
G01 X14.58
G02 X13.329 Y-19.287 I0.0 J10.943
G01 X12.743 Y-19.209
G03 X11.849 Y-19.08 I-2.119 J-11.507
G02 X10.508 Y-18.771 I.627 J5.779
X6.232 Y-16.068 I3.939 J10.964
X5.468 Y-15.209 I6.079 J6.174
X3.803 Y-12.024 I9.112 J6.793
G01 X2.38 Y-12.5
X-2.38
G03 X-1.715 Y-8.416 I-12.199 J4.084 F1500.
X-4.265 Y-.727 I-12.865 J0.0
X-4.79 Y-.107 I-5.291 J-3.945
X-4.845 Y-.044 I-1.156 J-.956
X-5.01 Y.131 I-9.292 J-8.613
X-4.83 Y.323 I-9.012 J8.652
G01 X-4.69 Y.476
G03 X-4.274 Y.977 I-4.741 J4.355
X-1.715 Y8.678 I-10.306 J7.7
X-2.296 Y12.5 I-12.865 J0.0
G01 X-3.728 Y12.054 F2500.
G02 X-3.215 Y8.678 I-10.852 J-3.377
X-5.475 Y1.875 I-11.365 J0.0
X-5.795 Y1.49 I-3.956 J2.956
G01 X-5.934 Y1.339
G02 X-7.242 Y.131 I-8.088 J7.444
X-5.945 Y-1.063 I-6.895 J-8.787
G01 X-5.943 Y-1.073
G02 X-5.468 Y-1.623 I-3.614 J-3.599
X-3.215 Y-8.416 I-9.112 J-6.793
X-5.471 Y-15.212 I-11.365 J0.0
X-6.233 Y-16.068 I-7.028 J5.489
X-10.508 Y-18.771 I-8.211 J8.255
X-11.849 Y-19.08 I-1.982 J5.526
G03 X-12.743 Y-19.209 I1.232 J-11.716
G01 X-13.191 Y-19.27
X-13.242 Y-19.276
G02 X-14.58 Y-19.358 I-1.338 J10.861
G01 X-65.628
G02 X-66.847 Y-19.572 I-1.837 J6.913
G03 X-68.188 Y-19.695 I4.511 J-56.49
G02 X-69.869 Y-19.781 I-1.681 J16.334
G01 X-69.977
X-105.083
G02 X-116.44 Y-8.416 I.008 J11.365
X-114.631 Y-2.265 I11.365 J0.0
G01 X-119.353
G02 X-120.679 Y-2.184 I0.0 J10.943
X-121.845 Y-2.011 I3.167 J25.256
X-123.732 Y-1.562 I.495 J6.28
X-125.071 Y-.957 I6.692 J16.575
X-127.905 Y1.193 I4.391 J8.733
X-130.718 Y8.678 I8.552 J7.485
X-128.456 Y15.481 I11.365 J0.0
X-127.972 Y16.038 I4.081 J-3.059
G01 X-127.971 Y16.047
X-127.951 Y16.068
G02 X-123.378 Y19.049 I8.426 J-7.93
X-121.845 Y19.367 I1.995 J-5.744
G01 X-121.398 Y19.437
X-120.95 Y19.506
G02 X-120.503 Y19.56 I2.802 J-21.369
X-119.353 Y19.62 I1.15 J-10.882
G01 X-14.58
G02 X-13.329 Y19.549 I0.0 J-10.943
X-12.296 Y19.397 I-2.153 J-18.272
G01 X-12.074 Y19.366
X-11.925 Y19.351
G02 X-10.301 Y18.958 I-.614 J-6.077
G01 X-10.141 Y18.895
G02 X-5.98 Y16.068 I-4.288 J-10.788
G01 X-5.948 Y16.034
X-5.946 Y16.023
G02 X-5.468 Y15.47 I-3.611 J-3.601
X-3.728 Y12.054 I-9.112 J-6.793
G01 X-2.296 Y12.5
X0.0
Y25.5
Z-.985
G00 Z-.786
G01 Z-1.183
Z-2.183 F1000.
Y20.
X121.5 F2500.
X127. F2188.
X132.5 F1875.
Y14.5
Y-9. F2500.
Y-14.5 F2188.
Y-20. F1875.
X127.
X117.274 F2500.
Y-12.5
G03 X117.94 Y-8.416 I-12.199 J4.084 F1500.
X117.083 Y-3.799 I-12.865 J0.0
G01 X119.353
G03 X121.328 Y-3.71 I-.063 J23.316
X122.713 Y-3.467 I-.713 J8.128
G01 X122.901 Y-3.417
G03 X124.557 Y-2.845 I-3.144 J11.794
X125. Y-2.649 I-7.293 J17.051
G01 Y-12.5 F2500.
X117.274
Y-20.
X-121.5
X-127. F2188.
X-132.5 F1875.
Y-14.5
Y-2.651 F2500.
X-125.
G03 X-123.152 Y-3.345 I5.679 J12.314 F1500.
G01 X-122.928 Y-3.409
G03 X-121.598 Y-3.684 I2.635 J9.385
G01 X-121.552 Y-3.69
G03 X-120.583 Y-3.758 I1.522 J14.667
X-119.388 Y-3.799 I1.195 J17.449
G01 X-119.351
X-117.083
G03 X-117.94 Y-8.416 I12.008 J-4.617
X-117.274 Y-12.5 I12.865 J0.0
G01 X-125. F2500.
Y-2.651
X-132.5
Y9.
Y14.5 F2188.
Y20. F1875.
X-127.
X0.0 F2500.
Y12.5
X2.296
G03 X1.715 Y8.678 I12.284 J-3.822 F1500.
X4.266 Y.988 I12.865 J0.0
X4.494 Y.701 I4.594 J3.426
X5.011 Y.13 I9.579 J8.145
X4.837 Y-.055 I8.753 J-8.364
G01 X4.642 Y-.269
G03 X4.306 Y-.672 I4.036 J-3.698
X1.715 Y-8.416 I10.273 J-7.744
X2.38 Y-12.5 I12.865 J0.0
G01 X3.803 Y-12.024 F2500.
G02 X3.215 Y-8.416 I10.777 J3.608
X5.504 Y-1.575 I11.365 J0.0
X5.748 Y-1.282 I3.174 J-2.392
G01 X5.943 Y-1.069
G02 X7.242 Y.131 I7.821 J-7.165
X5.637 Y1.673 I6.832 J8.715
X5.469 Y1.884 I3.223 J2.74
X3.215 Y8.678 I9.111 J6.793
X5.476 Y15.481 I11.365 J0.0
X5.959 Y16.037 I4.081 J-3.059
G01 X5.962 Y16.047
G02 X9.837 Y18.768 I8.407 J-7.854
X11.719 Y19.402 I4.681 J-10.776
X12.951 Y19.587 I1.623 J-6.616
G01 X13.846 Y19.638
X14.085 Y19.65
X14.532 Y19.658
X14.58 Y19.655
X119.162
X119.469 Y19.657
X119.544 Y19.658
G02 X120.108 Y19.638 I0.0 J-8.229
X121.426 Y19.549 I-.542 J-17.795
X123.378 Y19.052 I-1.427 J-9.674
G01 X123.451 Y19.025
G02 X127.953 Y16.068 I-3.966 J-10.942
G01 X127.986 Y16.031
X127.988 Y16.023
G02 X128.465 Y15.47 I-3.612 J-3.601
X130.718 Y8.678 I-9.112 J-6.793
X127.963 Y1.259 I-11.365 J0.0
X125.422 Y-.761 I-7.289 J6.561
X123.967 Y-1.466 I-8.157 J14.966
X122.515 Y-1.967 I-4.21 J9.844
G01 X122.327 Y-2.017
G02 X121.197 Y-2.216 I-1.712 J6.436
X119.353 Y-2.299 I-1.907 J21.733
G01 X114.653
G02 X116.44 Y-8.416 I-9.579 J-6.117
X105.081 Y-19.781 I-11.365 J0.0
G01 X86.968
X69.781
G02 X69.325 Y-19.766 I0.0 J6.932
X65.943 Y-19.49 I7.15 J108.546
G01 X65.486 Y-19.415
X65.374 Y-19.393
X14.58
G02 X13.174 Y-19.341 I.033 J20.037
G01 X12.841 Y-19.319
G02 X11.951 Y-19.192 I.38 J5.849
X6.232 Y-16.068 I2.542 J11.448
X5.468 Y-15.209 I6.079 J6.174
X3.803 Y-12.024 I9.112 J6.793
G01 X2.38 Y-12.5
X-2.38
G03 X-1.715 Y-8.416 I-12.199 J4.084 F1500.
X-4.265 Y-.727 I-12.865 J0.0
X-4.789 Y-.107 I-5.291 J-3.945
X-4.845 Y-.044 I-1.156 J-.956
X-5.01 Y.131 I-9.291 J-8.612
X-4.83 Y.323 I-9.012 J8.652
G01 X-4.69 Y.475
G03 X-4.274 Y.977 I-4.74 J4.355
X-1.715 Y8.678 I-10.306 J7.701
X-2.296 Y12.5 I-12.865 J0.0
G01 X-3.728 Y12.054 F2500.
G02 X-3.215 Y8.678 I-10.852 J-3.377
X-5.476 Y1.875 I-11.365 J0.0
X-5.795 Y1.49 I-3.955 J2.955
G01 X-5.934 Y1.339
G02 X-7.242 Y.131 I-8.089 J7.445
X-5.945 Y-1.063 I-6.895 J-8.787
G01 X-5.943 Y-1.073
G02 X-5.468 Y-1.623 I-3.614 J-3.599
X-3.215 Y-8.416 I-9.112 J-6.793
X-5.471 Y-15.212 I-11.365 J0.0
X-6.233 Y-16.068 I-7.021 J5.483
X-11.947 Y-19.192 I-8.265 J8.329
X-12.743 Y-19.313 I-1.681 J8.391
G01 X-13.409 Y-19.356
G02 X-14.559 Y-19.393 I-1.15 J17.9
G01 X-65.374
G02 X-66.303 Y-19.527 I-1.411 J6.481
G03 X-68.188 Y-19.695 I5.472 J-72.07
G02 X-69.869 Y-19.781 I-1.681 J16.33
G01 X-69.977
X-105.083
G02 X-116.44 Y-8.416 I.008 J11.365
X-114.653 Y-2.299 I11.365 J0.0
G01 X-119.353
X-119.388
G02 X-120.503 Y-2.26 I0.0 J15.99
X-121.398 Y-2.198 I.473 J13.237
X-122.515 Y-1.967 I1.104 J8.173
G01 X-122.739 Y-1.903
G02 X-124.527 Y-1.216 I3.418 J11.566
X-127.21 Y.502 I4.057 J9.29
X-127.905 Y1.193 I5.884 J6.61
X-130.718 Y8.678 I8.552 J7.485
X-128.812 Y14.977 I11.365 J0.0
X-128.456 Y15.481 I9.459 J-6.299 F2188.
X-127.972 Y16.038 I4.081 J-3.059
G01 X-127.97 Y16.053
X-127.957 Y16.061
G02 X-124.67 Y18.502 I8.422 J-7.911
X-124.08 Y18.774 I5.135 J-10.352 F1875.
X-122.069 Y19.437 I4.656 J-10.751
X-120.95 Y19.593 I1.504 J-6.698
X-119.609 Y19.658 I3.235 J-52.568
G01 X-119.352
X-119.341 Y19.655
X-113.853
X-14.58 F2500.
G02 X-13.191 Y19.604 I-.031 J-19.874
G01 X-12.931 Y19.587
G02 X-11.708 Y19.399 I-.453 J-7.017
X-6.421 Y16.514 I-2.806 J-11.43
X-5.98 Y16.068 I-7.097 J-7.452
G01 X-5.948 Y16.034
X-5.946 Y16.023
G02 X-5.468 Y15.47 I-3.611 J-3.601
X-3.728 Y12.054 I-9.112 J-6.793
G01 X-2.296 Y12.5
X0.0
Y25.5
Z-1.183
G00 Z-.985
G01 Z-1.382
Z-2.382 F1000.
Y20.
X121.5 F2500.
X127. F2188.
X132.5 F1875.
Y14.5
Y-9. F2500.
Y-14.5 F2188.
Y-20. F1875.
X127.
X117.274 F2500.
Y-12.5
G03 X117.94 Y-8.416 I-12.199 J4.084 F1500.
X117.119 Y-3.893 I-12.865 J0.0
G01 X119.353
G03 X124.189 Y-2.996 I-.016 J13.56
X125. Y-2.649 I-6.595 J16.545
G01 Y-12.5 F2500.
X117.274
Y-20.
X-121.5
X-127. F2188.
X-132.5 F1875.
Y-14.5
Y-2.651 F2500.
X-125.
G03 X-119.354 Y-3.893 I5.656 J12.254 F1500.
G01 X-117.119
G03 X-117.94 Y-8.416 I12.044 J-4.522
X-117.274 Y-12.5 I12.865 J0.0
G01 X-125. F2500.
Y-2.651
X-132.5
Y9.
Y14.5 F2188.
Y20. F1875.
X-127.
X0.0 F2500.
Y12.5
X2.296
G03 X1.715 Y8.678 I12.284 J-3.822 F1500.
X4.266 Y.988 I12.865 J0.0
X4.495 Y.701 I4.597 J3.428
X5.011 Y.13 I9.579 J8.146
X4.837 Y-.055 I8.753 J-8.364
G01 X4.642 Y-.269
G03 X4.307 Y-.672 I4.036 J-3.697
X1.715 Y-8.416 I10.273 J-7.744
X2.38 Y-12.5 I12.865 J0.0
G01 X3.803 Y-12.024 F2500.
G02 X3.215 Y-8.416 I10.777 J3.608
X5.504 Y-1.575 I11.365 J0.0
X5.748 Y-1.282 I3.173 J-2.392
G01 X5.943 Y-1.069
G02 X7.242 Y.131 I7.821 J-7.165
X5.638 Y1.672 I6.832 J8.716
X5.469 Y1.884 I3.226 J2.743
X3.215 Y8.678 I9.111 J6.794
X5.476 Y15.481 I11.365 J0.0
X5.959 Y16.037 I4.081 J-3.059
G01 X5.962 Y16.047
G02 X8.518 Y18.097 I8.375 J-7.825
X14.575 Y19.749 I6.058 J-10.279
G01 X14.58
X119.162
X119.258
G02 X120.394 Y19.701 I0.0 J-13.451
X127.041 Y16.937 I-.998 J-11.776
X127.953 Y16.068 I-6.998 J-8.249
G01 X127.986 Y16.031
X127.988 Y16.023
G02 X128.465 Y15.47 I-3.612 J-3.601
X130.718 Y8.678 I-9.112 J-6.793
X127.963 Y1.259 I-11.365 J0.0
X125.422 Y-.761 I-7.289 J6.561
X123.633 Y-1.603 I-7.828 J14.31
X119.353 Y-2.393 I-4.295 J11.269
G01 X114.713
G02 X116.44 Y-8.416 I-9.638 J-6.022
X105.081 Y-19.781 I-11.365 J0.0
G01 X86.968
X69.763
G02 X69.347 Y-19.767 I0.0 J6.368
X66.4 Y-19.533 I6.903 J105.544
G03 X65.509 Y-19.487 I-1.002 J-10.795
G01 X14.58
G02 X11.941 Y-19.192 I.031 J12.228
X6.232 Y-16.068 I2.569 J11.473
X5.468 Y-15.209 I6.078 J6.173
X3.803 Y-12.024 I9.112 J6.793
G01 X2.38 Y-12.5
X-2.38
G03 X-1.715 Y-8.416 I-12.199 J4.084 F1500.
X-4.265 Y-.727 I-12.865 J0.0
X-4.789 Y-.107 I-5.291 J-3.945
X-4.845 Y-.044 I-1.156 J-.956
X-5.01 Y.131 I-9.291 J-8.612
X-4.83 Y.323 I-9.013 J8.653
G01 X-4.69 Y.475
G03 X-4.274 Y.977 I-4.739 J4.354
X-1.715 Y8.678 I-10.305 J7.701
X-2.296 Y12.5 I-12.865 J0.0
G01 X-3.728 Y12.054 F2500.
G02 X-3.215 Y8.678 I-10.852 J-3.377
X-5.476 Y1.874 I-11.365 J0.0
X-5.795 Y1.49 I-3.953 J2.954
G01 X-5.934 Y1.339
G02 X-7.242 Y.131 I-8.089 J7.445
X-5.945 Y-1.063 I-6.894 J-8.786
G01 X-5.943 Y-1.073
G02 X-5.468 Y-1.623 I-3.614 J-3.599
X-3.215 Y-8.416 I-9.112 J-6.793
X-5.471 Y-15.212 I-11.365 J0.0
X-6.171 Y-16.007 I-7.015 J5.477
X-12.178 Y-19.243 I-8.338 J8.283
G01 X-12.296 Y-19.267
G02 X-14.58 Y-19.487 I-2.291 J11.814
G01 X-65.505
X-65.511
G03 X-65.953 Y-19.502 I0.0 J-6.456
X-68.188 Y-19.695 I4.742 J-68.057
G02 X-69.869 Y-19.781 I-1.68 J16.326
G01 X-69.977
X-105.083
G02 X-116.44 Y-8.416 I.008 J11.365
X-114.713 Y-2.393 I11.365 J0.0
G01 X-119.353
G02 X-124.527 Y-1.216 I.009 J11.997
X-127.21 Y.502 I4.057 J9.289
X-127.905 Y1.193 I5.885 J6.611
X-130.718 Y8.678 I8.552 J7.485
X-128.456 Y15.481 I11.365 J0.0
X-127.972 Y16.038 I4.081 J-3.059
G01 X-127.97 Y16.053
X-127.958 Y16.061
G02 X-124.147 Y18.746 I8.426 J-7.915
G01 X-124.08 Y18.774
G02 X-119.359 Y19.749 I4.721 J-10.947
G01 X-119.347
X-14.58
G02 X-12.296 Y19.529 I-.032 J-12.289
X-6.421 Y16.514 I-2.229 J-11.577
X-5.98 Y16.068 I-7.094 J-7.45
G01 X-5.948 Y16.034
X-5.946 Y16.023
G02 X-5.468 Y15.47 I-3.611 J-3.601
X-3.728 Y12.054 I-9.112 J-6.793
G01 X-2.296 Y12.5
X0.0
Y25.5
Z-1.382
G00 Z-1.183
G01 Z-1.58
Z-2.58 F1000.
Y20.
X121.5 F2500.
X127. F2188.
X132.5 F1875.
Y14.5
Y-9. F2500.
Y-14.5 F2188.
Y-20. F1875.
X127.
X117.274 F2500.
Y-12.5
G03 X117.94 Y-8.416 I-12.199 J4.084 F1500.
X117.119 Y-3.893 I-12.865 J0.0
G01 X119.353
G03 X124.189 Y-2.996 I-.015 J13.559
X125. Y-2.649 I-6.595 J16.546
G01 Y-12.5 F2500.
X117.274
Y-20.
X-121.5
X-127. F2188.
X-132.5 F1875.
Y-14.5
Y-2.651 F2500.
X-125.
G03 X-119.354 Y-3.893 I5.656 J12.254 F1500.
G01 X-117.119
G03 X-117.94 Y-8.416 I12.044 J-4.522
X-117.274 Y-12.5 I12.865 J0.0
G01 X-125. F2500.
Y-2.651
X-132.5
Y9.
Y14.5 F2188.
Y20. F1875.
X-127.
X0.0 F2500.
Y12.5
X2.296
G03 X1.715 Y8.678 I12.284 J-3.822 F1500.
X4.266 Y.987 I12.865 J0.0
X4.496 Y.7 I4.6 J3.43
X5.011 Y.13 I9.579 J8.148
X4.837 Y-.055 I8.753 J-8.364
G01 X4.642 Y-.269
G03 X4.307 Y-.671 I4.035 J-3.697
X1.715 Y-8.416 I10.273 J-7.744
X2.38 Y-12.5 I12.865 J0.0
G01 X3.803 Y-12.024 F2500.
G02 X3.215 Y-8.416 I10.777 J3.608
X5.505 Y-1.574 I11.365 J0.0
X5.748 Y-1.282 I3.172 J-2.392
G01 X5.943 Y-1.069
G02 X7.242 Y.131 I7.821 J-7.165
X5.638 Y1.672 I6.833 J8.717
X5.469 Y1.884 I3.228 J2.746
X3.215 Y8.678 I9.111 J6.794
X5.476 Y15.481 I11.365 J0.0
X5.959 Y16.037 I4.081 J-3.059
G01 X5.962 Y16.047
G02 X8.521 Y18.099 I8.375 J-7.825
X14.575 Y19.749 I6.055 J-10.281
G01 X14.58
X119.162
X119.259
G02 X120.395 Y19.701 I0.0 J-13.437
X127.039 Y16.94 I-.999 J-11.776
X127.953 Y16.068 I-6.998 J-8.254
G01 X127.986 Y16.032
X127.988 Y16.023
G02 X128.465 Y15.47 I-3.612 J-3.601
X130.718 Y8.678 I-9.112 J-6.793
X127.963 Y1.259 I-11.365 J0.0
X125.422 Y-.761 I-7.289 J6.561
X123.633 Y-1.603 I-7.828 J14.311
X119.353 Y-2.393 I-4.295 J11.268
G01 X114.713
G02 X116.44 Y-8.416 I-9.638 J-6.022
X105.081 Y-19.781 I-11.365 J0.0
G01 X86.968
X69.763
G02 X69.346 Y-19.767 I0.0 J6.379
X66.4 Y-19.533 I6.914 J105.662
G03 X65.509 Y-19.487 I-1.004 J-10.837
G01 X14.58
G02 X11.941 Y-19.192 I.031 J12.228
X6.232 Y-16.068 I2.569 J11.473
X5.468 Y-15.209 I6.078 J6.173
X3.803 Y-12.024 I9.112 J6.793
G01 X2.38 Y-12.5
X-2.38
G03 X-1.715 Y-8.416 I-12.199 J4.084 F1500.
X-4.265 Y-.727 I-12.865 J0.0
X-4.789 Y-.108 I-5.291 J-3.945
X-4.845 Y-.044 I-1.156 J-.956
X-5.01 Y.131 I-9.29 J-8.611
X-4.83 Y.323 I-9.013 J8.654
G01 X-4.691 Y.475
G03 X-4.275 Y.976 I-4.738 J4.353
X-1.715 Y8.678 I-10.305 J7.702
X-2.296 Y12.5 I-12.865 J0.0
G01 X-3.728 Y12.054 F2500.
G02 X-3.215 Y8.678 I-10.852 J-3.377
X-5.476 Y1.874 I-11.365 J0.0
X-5.795 Y1.49 I-3.952 J2.954
G01 X-5.934 Y1.339
G02 X-7.242 Y.131 I-8.09 J7.446
X-5.945 Y-1.063 I-6.894 J-8.786
G01 X-5.943 Y-1.073
G02 X-5.468 Y-1.623 I-3.614 J-3.599
X-3.215 Y-8.416 I-9.112 J-6.793
X-5.471 Y-15.212 I-11.365 J0.0
X-6.17 Y-16.005 I-7.008 J5.472
X-12.178 Y-19.243 I-8.339 J8.282
G01 X-12.296 Y-19.267
G02 X-14.58 Y-19.487 I-2.291 J11.813
G01 X-65.505
X-65.509
G03 X-65.953 Y-19.502 I0.0 J-6.494
X-68.188 Y-19.695 I4.733 J-67.956
G02 X-69.868 Y-19.781 I-1.68 J16.322
G01 X-69.977
X-105.083
G02 X-116.44 Y-8.416 I.008 J11.365
X-114.713 Y-2.393 I11.365 J0.0
G01 X-119.353
G02 X-124.527 Y-1.216 I.008 J11.996
X-127.21 Y.502 I4.056 J9.289
X-127.905 Y1.193 I5.886 J6.612
X-130.718 Y8.678 I8.552 J7.485
X-128.456 Y15.481 I11.365 J0.0
X-127.972 Y16.038 I4.081 J-3.059
G01 X-127.97 Y16.053
X-127.958 Y16.061
G02 X-124.08 Y18.774 I8.422 J-7.911
G01 X-123.982 Y18.816
G02 X-119.364 Y19.749 I4.618 J-10.96
G01 X-14.58
G02 X-12.296 Y19.529 I-.031 J-12.284
X-6.421 Y16.514 I-2.229 J-11.577
X-5.98 Y16.068 I-7.091 J-7.447
G01 X-5.948 Y16.034
X-5.946 Y16.023
G02 X-5.468 Y15.47 I-3.611 J-3.601
X-3.728 Y12.054 I-9.112 J-6.793
G01 X-2.296 Y12.5
X0.0
Y25.5
Z-1.58
G00 Z-1.382
G01 Z-1.779
Z-2.779 F1000.
Y20.
X121.5 F2500.
X127. F2188.
X132.5 F1875.
Y14.5
Y-9. F2500.
Y-14.5 F2188.
Y-20. F1875.
X127.
X117.274 F2500.
Y-12.5
G03 X117.94 Y-8.416 I-12.199 J4.084 F1500.
X117.119 Y-3.893 I-12.865 J0.0
G01 X119.353
G03 X124.189 Y-2.996 I-.015 J13.558
X125. Y-2.649 I-6.595 J16.547
G01 Y-12.5 F2500.
X117.274
Y-20.
X-121.5
X-127. F2188.
X-132.5 F1875.
Y-14.5
Y-2.651 F2500.
X-125.
G03 X-119.354 Y-3.893 I5.655 J12.253 F1500.
G01 X-117.119
G03 X-117.94 Y-8.416 I12.044 J-4.522
X-117.274 Y-12.5 I12.865 J0.0
G01 X-125. F2500.
Y-2.651
X-132.5
Y9.
Y14.5 F2188.
Y20. F1875.
X-127.
X0.0 F2500.
Y12.5
X2.296
G03 X1.715 Y8.678 I12.284 J-3.822 F1500.
X4.267 Y.987 I12.865 J0.0
X4.496 Y.699 I4.603 J3.432
X5.011 Y.13 I9.58 J8.149
X4.837 Y-.055 I8.753 J-8.364
G01 X4.642 Y-.269
G03 X4.307 Y-.671 I4.035 J-3.697
X1.715 Y-8.416 I10.273 J-7.744
X2.38 Y-12.5 I12.865 J0.0
G01 X3.803 Y-12.024 F2500.
G02 X3.215 Y-8.416 I10.777 J3.608
X5.505 Y-1.574 I11.365 J0.0
X5.748 Y-1.282 I3.172 J-2.391
G01 X5.943 Y-1.069
G02 X7.242 Y.131 I7.821 J-7.165
X5.639 Y1.671 I6.834 J8.718
X5.469 Y1.884 I3.231 J2.748
X3.215 Y8.678 I9.111 J6.794
X5.468 Y15.47 I11.365 J0.0
X5.959 Y16.037 I4.089 J-3.048
G01 X5.962 Y16.047
G02 X8.454 Y18.059 I8.372 J-7.822
X14.574 Y19.749 I6.12 J-10.235
G01 X14.58
X119.162
X119.26
G02 X120.395 Y19.701 I0.0 J-13.423
X127.034 Y16.943 I-.999 J-11.777
X127.953 Y16.068 I-6.996 J-8.26
G01 X127.986 Y16.032
X127.988 Y16.023
G02 X128.465 Y15.47 I-3.612 J-3.601
X130.718 Y8.678 I-9.112 J-6.793
X127.963 Y1.259 I-11.365 J0.0
X125.422 Y-.761 I-7.289 J6.56
X123.633 Y-1.603 I-7.828 J14.312
X119.353 Y-2.393 I-4.295 J11.267
G01 X114.713
G02 X116.44 Y-8.416 I-9.638 J-6.022
X105.081 Y-19.781 I-11.365 J0.0
G01 X86.968
X69.763
G02 X69.346 Y-19.767 I0.0 J6.39
X66.4 Y-19.533 I6.926 J105.779
G03 X65.509 Y-19.487 I-1.006 J-10.879
G01 X14.58
G02 X11.941 Y-19.192 I.03 J12.229
X6.232 Y-16.068 I2.57 J11.475
X5.468 Y-15.209 I6.078 J6.173
X3.803 Y-12.024 I9.112 J6.793
G01 X2.38 Y-12.5
X-2.38
G03 X-1.715 Y-8.416 I-12.199 J4.084 F1500.
X-4.265 Y-.727 I-12.865 J0.0
X-4.789 Y-.108 I-5.291 J-3.945
X-4.845 Y-.044 I-1.156 J-.956
X-5.01 Y.131 I-9.29 J-8.611
X-4.83 Y.323 I-9.013 J8.654
G01 X-4.691 Y.475
G03 X-4.275 Y.976 I-4.736 J4.352
X-1.715 Y8.678 I-10.305 J7.702
X-2.296 Y12.5 I-12.865 J0.0
G01 X-3.728 Y12.054 F2500.
G02 X-3.215 Y8.678 I-10.852 J-3.377
X-5.477 Y1.874 I-11.365 J0.0
X-5.795 Y1.489 I-3.95 J2.953
G01 X-5.934 Y1.339
G02 X-7.242 Y.131 I-8.09 J7.446
X-5.945 Y-1.063 I-6.893 J-8.785
G01 X-5.943 Y-1.073
G02 X-5.468 Y-1.623 I-3.614 J-3.599
X-3.215 Y-8.416 I-9.112 J-6.793
X-5.471 Y-15.212 I-11.365 J0.0
X-6.169 Y-16.004 I-7.002 J5.466
X-12.178 Y-19.243 I-8.34 J8.281
G01 X-12.296 Y-19.267
G02 X-14.58 Y-19.487 I-2.291 J11.813
G01 X-65.505
X-65.507
G03 X-65.953 Y-19.502 I0.0 J-6.533
X-68.188 Y-19.695 I4.724 J-67.856
G02 X-69.868 Y-19.781 I-1.68 J16.318
G01 X-69.977
X-105.083
G02 X-116.44 Y-8.416 I.008 J11.365
X-114.713 Y-2.393 I11.365 J0.0
G01 X-119.353
G02 X-124.527 Y-1.216 I.008 J11.996
X-127.21 Y.502 I4.056 J9.288
X-127.905 Y1.193 I5.886 J6.613
X-130.718 Y8.678 I8.552 J7.485
X-128.456 Y15.481 I11.365 J0.0
X-127.972 Y16.038 I4.081 J-3.059
G01 X-127.97 Y16.053
X-127.958 Y16.062
G02 X-124.08 Y18.774 I8.423 J-7.911
G01 X-123.982 Y18.816
G02 X-119.363 Y19.749 I4.619 J-10.964
G01 X-14.58
G02 X-12.296 Y19.529 I-.03 J-12.28
X-6.421 Y16.514 I-2.229 J-11.577
X-5.98 Y16.068 I-7.088 J-7.444
G01 X-5.948 Y16.034
X-5.946 Y16.023
G02 X-5.468 Y15.47 I-3.611 J-3.601
X-3.728 Y12.054 I-9.112 J-6.793
G01 X-2.296 Y12.5
X0.0
Y25.5
Z-1.779
G00 Z-1.58
G01 Z-1.977
Z-2.977 F1000.
Y20.
X121.5 F2500.
X127. F2188.
X132.5 F1875.
Y14.5
Y-9. F2500.
Y-14.5 F2188.
Y-20. F1875.
X127.
X117.274 F2500.
Y-12.5
G03 X117.94 Y-8.416 I-12.199 J4.084 F1500.
X117.119 Y-3.893 I-12.865 J0.0
G01 X119.353
G03 X124.302 Y-2.951 I-.011 J13.525
X125. Y-2.649 I-6.837 J16.76
G01 Y-12.5 F2500.
X117.274
Y-20.
X-121.5
X-127. F2188.
X-132.5 F1875.
Y-14.5
Y-2.651 F2500.
X-125.
G03 X-119.354 Y-3.893 I5.655 J12.253 F1500.
G01 X-117.119
G03 X-117.94 Y-8.416 I12.044 J-4.522
X-117.274 Y-12.5 I12.865 J0.0
G01 X-125. F2500.
Y-2.651
X-132.5
Y9.
Y14.5 F2188.
Y20. F1875.
X-127.
X0.0 F2500.
Y12.5
X2.296
G03 X1.715 Y8.678 I12.284 J-3.822 F1500.
X4.267 Y.987 I12.865 J0.0
X4.497 Y.698 I4.605 J3.435
X5.011 Y.13 I9.58 J8.151
X4.837 Y-.056 I8.753 J-8.363
G01 X4.642 Y-.269
G03 X4.307 Y-.671 I4.035 J-3.696
X1.715 Y-8.416 I10.273 J-7.745
X2.38 Y-12.5 I12.865 J0.0
G01 X3.803 Y-12.024 F2500.
G02 X3.215 Y-8.416 I10.777 J3.608
X5.505 Y-1.574 I11.365 J0.0
X5.748 Y-1.282 I3.171 J-2.391
G01 X5.943 Y-1.069
G02 X7.242 Y.131 I7.821 J-7.165
X5.639 Y1.67 I6.835 J8.718
X5.469 Y1.883 I3.233 J2.751
X3.215 Y8.678 I9.11 J6.794
X5.468 Y15.47 I11.365 J0.0
X5.959 Y16.037 I4.089 J-3.048
G01 X5.962 Y16.047
G02 X8.457 Y18.061 I8.373 J-7.823
X14.574 Y19.749 I6.117 J-10.237
G01 X14.58
X119.162
X119.261
G02 X120.397 Y19.701 I0.0 J-13.409
X127.032 Y16.945 I-1.001 J-11.777
X127.953 Y16.068 I-6.997 J-8.264
G01 X127.986 Y16.032
X127.988 Y16.023
G02 X128.465 Y15.47 I-3.612 J-3.601
X130.718 Y8.678 I-9.112 J-6.793
X127.963 Y1.259 I-11.365 J0.0
X125.422 Y-.761 I-7.289 J6.56
X123.735 Y-1.562 I-7.957 J14.57
X119.353 Y-2.393 I-4.393 J11.194
G01 X114.713
G02 X116.44 Y-8.416 I-9.638 J-6.022
X105.081 Y-19.781 I-11.365 J0.0
G01 X86.968
X69.763
G02 X69.345 Y-19.767 I0.0 J6.4
X66.4 Y-19.533 I6.937 J105.897
G03 X65.509 Y-19.487 I-1.008 J-10.921
G01 X14.58
G02 X11.941 Y-19.192 I.03 J12.23
X6.232 Y-16.068 I2.571 J11.475
X5.468 Y-15.209 I6.078 J6.173
X3.803 Y-12.024 I9.112 J6.793
G01 X2.38 Y-12.5
X-2.38
G03 X-1.715 Y-8.416 I-12.199 J4.084 F1500.
X-4.265 Y-.727 I-12.865 J0.0
X-4.789 Y-.108 I-5.291 J-3.945
X-4.845 Y-.044 I-1.156 J-.955
X-5.01 Y.131 I-9.289 J-8.611
X-4.83 Y.323 I-9.014 J8.655
G01 X-4.691 Y.474
G03 X-4.276 Y.975 I-4.735 J4.351
X-1.715 Y8.678 I-10.304 J7.703
X-2.296 Y12.5 I-12.865 J0.0
G01 X-3.728 Y12.054 F2500.
G02 X-3.215 Y8.678 I-10.852 J-3.377
X-5.477 Y1.873 I-11.365 J0.0
X-5.795 Y1.489 I-3.949 J2.952
G01 X-5.934 Y1.339
G02 X-7.242 Y.131 I-8.091 J7.447
X-5.945 Y-1.063 I-6.893 J-8.785
G01 X-5.943 Y-1.073
G02 X-5.468 Y-1.623 I-3.614 J-3.599
X-3.215 Y-8.416 I-9.112 J-6.793
X-5.471 Y-15.212 I-11.365 J0.0
X-6.168 Y-16.003 I-6.995 J5.46
X-12.179 Y-19.243 I-8.342 J8.28
G01 X-12.296 Y-19.267
G02 X-14.58 Y-19.487 I-2.291 J11.812
G01 X-65.505
G03 X-65.953 Y-19.502 I0.0 J-6.572
X-68.188 Y-19.695 I4.715 J-67.756
G02 X-69.868 Y-19.781 I-1.68 J16.314
G01 X-69.977
X-105.083
G02 X-116.44 Y-8.416 I.008 J11.365
X-114.713 Y-2.393 I11.365 J0.0
G01 X-119.353
G02 X-124.527 Y-1.216 I.008 J11.995
X-127.21 Y.502 I4.055 J9.287
X-127.905 Y1.193 I5.887 J6.614
X-130.718 Y8.678 I8.552 J7.485
X-128.456 Y15.481 I11.365 J0.0
X-127.972 Y16.038 I4.081 J-3.059
G01 X-127.97 Y16.053
X-127.958 Y16.062
G02 X-124.08 Y18.774 I8.423 J-7.911
G01 X-123.981 Y18.816
G02 X-119.363 Y19.749 I4.618 J-10.963
G01 X-14.58
G02 X-12.296 Y19.529 I-.03 J-12.275
X-6.421 Y16.514 I-2.23 J-11.577
X-5.98 Y16.068 I-7.085 J-7.442
G01 X-5.948 Y16.034
X-5.946 Y16.023
G02 X-5.468 Y15.47 I-3.611 J-3.601
X-3.728 Y12.054 I-9.112 J-6.793
G01 X-2.296 Y12.5
X0.0
Y25.5
Z-1.977
G00 Z-1.779
G01 Z-2.176
Z-3.176 F1000.
Y20.
X121.5 F2500.
X127. F2188.
X132.5 F1875.
Y14.5
Y-9. F2500.
Y-14.5 F2188.
Y-20. F1875.
X127.
X117.274 F2500.
Y-12.5
G03 X117.94 Y-8.416 I-12.199 J4.084 F1500.
X117.119 Y-3.893 I-12.865 J0.0
G01 X119.353
G03 X124.302 Y-2.951 I-.011 J13.524
X125. Y-2.649 I-6.839 J16.766
G01 Y-12.5 F2500.
X117.274
Y-20.
X-121.5
X-127. F2188.
X-132.5 F1875.
Y-14.5
Y-2.651 F2500.
X-125.
G03 X-119.354 Y-3.893 I5.655 J12.252 F1500.
G01 X-117.119
G03 X-117.94 Y-8.416 I12.044 J-4.522
X-117.274 Y-12.5 I12.865 J0.0
G01 X-125. F2500.
Y-2.651
X-132.5
Y9.
Y14.5 F2188.
Y20. F1875.
X-127.
X0.0 F2500.
Y12.5
X2.296
G03 X1.715 Y8.678 I12.284 J-3.822 F1500.
X4.267 Y.986 I12.865 J0.0
X4.497 Y.698 I4.608 J3.437
X5.011 Y.13 I9.58 J8.152
X4.837 Y-.056 I8.753 J-8.363
G01 X4.642 Y-.269
G03 X4.307 Y-.671 I4.034 J-3.696
X1.715 Y-8.416 I10.273 J-7.745
X2.38 Y-12.5 I12.865 J0.0
G01 X3.803 Y-12.024 F2500.
G02 X3.215 Y-8.416 I10.777 J3.608
X5.505 Y-1.574 I11.365 J0.0
X5.748 Y-1.282 I3.171 J-2.391
G01 X5.943 Y-1.069
G02 X7.242 Y.131 I7.821 J-7.164
X5.64 Y1.67 I6.835 J8.719
X5.47 Y1.883 I3.236 J2.753
X3.215 Y8.678 I9.11 J6.795
X5.468 Y15.47 I11.365 J0.0
X5.959 Y16.037 I4.089 J-3.048
G01 X5.962 Y16.047
G02 X8.457 Y18.061 I8.373 J-7.824
X14.574 Y19.749 I6.117 J-10.236
G01 X14.58
X119.162
X119.262
G02 X120.398 Y19.701 I0.0 J-13.395
X127.03 Y16.947 I-1.003 J-11.777
X127.953 Y16.068 I-6.997 J-8.269
G01 X127.986 Y16.032
X127.988 Y16.023
G02 X128.465 Y15.47 I-3.612 J-3.601
X130.718 Y8.678 I-9.112 J-6.793
X127.963 Y1.259 I-11.365 J0.0
X125.422 Y-.761 I-7.288 J6.56
X123.735 Y-1.562 I-7.959 J14.575
X119.353 Y-2.393 I-4.393 J11.193
G01 X114.713
G02 X116.44 Y-8.416 I-9.638 J-6.022
X105.081 Y-19.781 I-11.365 J0.0
G01 X86.968
X69.763
G02 X69.344 Y-19.767 I0.0 J6.411
X66.4 Y-19.533 I6.948 J106.015
G03 X65.509 Y-19.487 I-1.011 J-10.963
G01 X14.58
G02 X11.941 Y-19.192 I.03 J12.231
X6.232 Y-16.068 I2.571 J11.475
X5.468 Y-15.209 I6.078 J6.172
X3.803 Y-12.024 I9.112 J6.793
G01 X2.38 Y-12.5
X-2.38
G03 X-1.715 Y-8.416 I-12.199 J4.084 F1500.
X-4.265 Y-.727 I-12.865 J0.0
X-4.789 Y-.108 I-5.291 J-3.945
X-4.845 Y-.044 I-1.156 J-.955
X-5.01 Y.131 I-9.289 J-8.61
X-4.83 Y.323 I-9.014 J8.655
G01 X-4.691 Y.474
G03 X-4.276 Y.975 I-4.735 J4.351
X-1.715 Y8.678 I-10.304 J7.703
X-2.296 Y12.5 I-12.865 J0.0
G01 X-3.728 Y12.054 F2500.
G02 X-3.215 Y8.678 I-10.852 J-3.377
X-5.477 Y1.873 I-11.365 J0.0
X-5.796 Y1.489 I-3.949 J2.952
G01 X-5.934 Y1.339
G02 X-7.242 Y.131 I-8.091 J7.448
X-5.945 Y-1.063 I-6.892 J-8.784
G01 X-5.943 Y-1.073
G02 X-5.468 Y-1.623 I-3.614 J-3.599
X-3.215 Y-8.416 I-9.112 J-6.793
X-5.471 Y-15.212 I-11.365 J0.0
X-6.166 Y-16.002 I-6.989 J5.454
X-12.179 Y-19.243 I-8.343 J8.279
G01 X-12.296 Y-19.267
G02 X-14.58 Y-19.487 I-2.29 J11.811
G01 X-65.505
G03 X-65.953 Y-19.502 I.002 J-6.611
X-68.188 Y-19.695 I5.02 J-71.302
G02 X-69.868 Y-19.781 I-1.679 J16.31
G01 X-69.977
X-105.083
G02 X-116.44 Y-8.416 I.008 J11.365
X-114.713 Y-2.393 I11.365 J0.0
G01 X-119.353
G02 X-124.527 Y-1.216 I.008 J11.995
X-127.21 Y.502 I4.055 J9.287
X-127.905 Y1.193 I5.888 J6.614
X-130.718 Y8.678 I8.552 J7.485
X-128.456 Y15.481 I11.365 J0.0
X-127.972 Y16.038 I4.081 J-3.059
G01 X-127.97 Y16.053
X-127.958 Y16.062
G02 X-124.08 Y18.774 I8.423 J-7.911
G01 X-123.981 Y18.816
G02 X-119.363 Y19.749 I4.617 J-10.963
G01 X-14.58
G02 X-11.849 Y19.433 I-.028 J-12.218
X-6.421 Y16.514 I-2.672 J-11.474
X-5.98 Y16.068 I-7.082 J-7.439
G01 X-5.948 Y16.034
X-5.946 Y16.023
G02 X-5.468 Y15.47 I-3.611 J-3.601
X-3.728 Y12.054 I-9.112 J-6.793
G01 X-2.296 Y12.5
X0.0
Y25.5
Z-2.176
G00 Z-1.977
G01 Z-2.374
Z-3.374 F1000.
Y20.
X121.5 F2500.
X127. F2188.
X132.5 F1875.
Y14.5
Y-9. F2500.
Y-14.5 F2188.
Y-20. F1875.
X127.
X117.274 F2500.
Y-12.5
G03 X117.94 Y-8.416 I-12.199 J4.084 F1500.
X117.119 Y-3.893 I-12.865 J0.0
G01 X119.353
G03 X124.302 Y-2.951 I-.011 J13.524
X125. Y-2.649 I-6.843 J16.773
G01 Y-12.5 F2500.
X117.274
Y-20.
X-121.5
X-127. F2188.
X-132.5 F1875.
Y-14.5
Y-2.651 F2500.
X-125.
G03 X-119.354 Y-3.893 I5.655 J12.252 F1500.
G01 X-117.119
G03 X-117.94 Y-8.416 I12.044 J-4.522
X-117.274 Y-12.5 I12.865 J0.0
G01 X-125. F2500.
Y-2.651
X-132.5
Y9.
Y14.5 F2188.
Y20. F1875.
X-127.
X0.0 F2500.
Y12.5
X2.296
G03 X1.715 Y8.678 I12.284 J-3.822 F1500.
X4.267 Y.986 I12.865 J0.0
X4.498 Y.697 I4.611 J3.439
X5.011 Y.13 I9.58 J8.154
X4.837 Y-.056 I8.753 J-8.363
G01 X4.642 Y-.269
G03 X4.307 Y-.671 I4.034 J-3.695
X1.715 Y-8.416 I10.272 J-7.745
X2.38 Y-12.5 I12.865 J0.0
G01 X3.803 Y-12.024 F2500.
G02 X3.215 Y-8.416 I10.777 J3.608
X5.505 Y-1.574 I11.365 J0.0
X5.748 Y-1.282 I3.17 J-2.39
G01 X5.943 Y-1.069
G02 X7.242 Y.131 I7.821 J-7.164
X5.64 Y1.669 I6.836 J8.72
X5.47 Y1.883 I3.238 J2.756
X3.215 Y8.678 I9.11 J6.795
X5.468 Y15.47 I11.365 J0.0
X5.959 Y16.037 I4.089 J-3.048
G01 X5.962 Y16.047
G02 X8.453 Y18.058 I8.373 J-7.824
X14.574 Y19.749 I6.121 J-10.233
G01 X14.58
X119.162
X119.262
G02 X120.401 Y19.701 I0.0 J-13.381
X127.028 Y16.949 I-1.005 J-11.777
X127.953 Y16.068 I-6.998 J-8.273
G01 X127.986 Y16.032
X127.988 Y16.023
G02 X128.465 Y15.47 I-3.612 J-3.601
X130.718 Y8.678 I-9.112 J-6.793
X127.963 Y1.259 I-11.365 J0.0
X125.422 Y-.761 I-7.288 J6.56
X123.735 Y-1.562 I-7.963 J14.583
X119.353 Y-2.393 I-4.393 J11.192
G01 X114.713
G02 X116.44 Y-8.416 I-9.638 J-6.022
X105.081 Y-19.781 I-11.365 J0.0
G01 X86.968
X69.763
G02 X69.343 Y-19.767 I0.0 J6.422
X66.4 Y-19.533 I6.959 J106.133
G03 X65.509 Y-19.487 I-1.013 J-11.005
G01 X14.58
G02 X11.941 Y-19.192 I.03 J12.231
X6.232 Y-16.068 I2.571 J11.475
X5.468 Y-15.209 I6.078 J6.172
X3.803 Y-12.024 I9.112 J6.793
G01 X2.38 Y-12.5
X-2.38
G03 X-1.715 Y-8.416 I-12.199 J4.084 F1500.
X-4.265 Y-.727 I-12.865 J0.0
X-4.789 Y-.108 I-5.291 J-3.945
X-4.845 Y-.044 I-1.157 J-.955
X-5.01 Y.131 I-9.289 J-8.61
X-4.83 Y.323 I-9.015 J8.656
G01 X-4.691 Y.474
G03 X-4.276 Y.975 I-4.737 J4.353
X-1.715 Y8.678 I-10.304 J7.703
X-2.296 Y12.5 I-12.865 J0.0
G01 X-3.728 Y12.054 F2500.
G02 X-3.215 Y8.678 I-10.852 J-3.377
X-5.477 Y1.873 I-11.365 J0.0
X-5.796 Y1.489 I-3.951 J2.954
G01 X-5.934 Y1.339
G02 X-7.242 Y.131 I-8.092 J7.448
X-5.945 Y-1.063 I-6.892 J-8.784
G01 X-5.943 Y-1.073
G02 X-5.468 Y-1.623 I-3.614 J-3.599
X-3.215 Y-8.416 I-9.112 J-6.793
X-5.471 Y-15.212 I-11.365 J0.0
X-6.165 Y-16.001 I-6.982 J5.448
X-12.179 Y-19.243 I-8.344 J8.277
G01 X-12.296 Y-19.267
G02 X-14.58 Y-19.487 I-2.29 J11.811
G01 X-65.505
G03 X-65.953 Y-19.502 I.003 J-6.651
X-68.188 Y-19.695 I5.009 J-71.186
G02 X-69.867 Y-19.781 I-1.679 J16.306
G01 X-69.977
X-105.083
G02 X-116.44 Y-8.416 I.008 J11.365
X-114.713 Y-2.393 I11.365 J0.0
G01 X-119.353
G02 X-124.527 Y-1.216 I.008 J11.994
X-127.21 Y.502 I4.055 J9.286
X-127.905 Y1.193 I5.889 J6.615
X-130.718 Y8.678 I8.552 J7.485
X-128.456 Y15.481 I11.365 J0.0
X-127.972 Y16.038 I4.081 J-3.059
G01 X-127.97 Y16.053
X-127.958 Y16.062
G02 X-124.08 Y18.774 I8.423 J-7.911
G01 X-123.98 Y18.817
G02 X-119.364 Y19.749 I4.616 J-10.962
G01 X-14.58
G02 X-11.849 Y19.433 I-.028 J-12.214
X-6.421 Y16.514 I-2.672 J-11.474
X-5.98 Y16.068 I-7.079 J-7.437
G01 X-5.948 Y16.034
X-5.946 Y16.023
G02 X-5.468 Y15.47 I-3.611 J-3.601
X-3.728 Y12.054 I-9.112 J-6.793
G01 X-2.296 Y12.5
X0.0
Y25.5
Z-2.374
G00 Z-2.176
G01 Z-2.573
Z-3.573 F1000.
Y20.
X121.5 F2500.
X127. F2188.
X132.5 F1875.
Y14.5
Y-9. F2500.
Y-14.5 F2188.
Y-20. F1875.
X127.
X117.274 F2500.
Y-12.5
G03 X117.94 Y-8.416 I-12.199 J4.084 F1500.
X117.119 Y-3.893 I-12.865 J0.0
G01 X119.353
G03 X124.302 Y-2.951 I-.011 J13.523
X125. Y-2.649 I-6.847 J16.781
G01 Y-12.5 F2500.
X117.274
Y-20.
X-121.5
X-127. F2188.
X-132.5 F1875.
Y-14.5
Y-2.651 F2500.
X-125.
G03 X-119.354 Y-3.893 I5.655 J12.252 F1500.
G01 X-117.119
G03 X-117.94 Y-8.416 I12.044 J-4.522
X-117.274 Y-12.5 I12.865 J0.0
G01 X-125. F2500.
Y-2.651
X-132.5
Y9.
Y14.5 F2188.
Y20. F1875.
X-127.
X0.0 F2500.
Y12.5
X2.296
G03 X1.715 Y8.678 I12.284 J-3.822 F1500.
X4.266 Y.988 I12.865 J0.0
X4.501 Y.693 I4.663 J3.476
X5.011 Y.13 I9.578 J8.158
X4.837 Y-.056 I8.753 J-8.363
G01 X4.642 Y-.269
G03 X4.308 Y-.671 I4.033 J-3.695
X1.715 Y-8.416 I10.272 J-7.745
X2.38 Y-12.5 I12.865 J0.0
G01 X3.803 Y-12.024 F2500.
G02 X3.215 Y-8.416 I10.777 J3.608
X5.505 Y-1.574 I11.365 J0.0
X5.748 Y-1.282 I3.17 J-2.39
G01 X5.943 Y-1.069
G02 X7.242 Y.131 I7.821 J-7.164
X5.643 Y1.666 I6.837 J8.721
X5.468 Y1.885 I3.286 J2.799
X3.215 Y8.678 I9.112 J6.793
X5.468 Y15.47 I11.365 J0.0
X5.959 Y16.037 I4.089 J-3.048
G01 X5.962 Y16.047
G02 X8.448 Y18.056 I8.373 J-7.824
X14.573 Y19.749 I6.125 J-10.23
G01 X14.58
X119.162
X119.263
G02 X120.407 Y19.7 I0.0 J-13.368
X127.03 Y16.947 I-1.011 J-11.775
X127.953 Y16.068 I-7.002 J-8.275
G01 X127.986 Y16.032
X127.988 Y16.023
G02 X128.465 Y15.47 I-3.612 J-3.601
X130.718 Y8.678 I-9.112 J-6.793
X127.963 Y1.259 I-11.365 J0.0
X125.422 Y-.761 I-7.288 J6.559
X123.735 Y-1.562 I-7.967 J14.591
X119.353 Y-2.393 I-4.393 J11.192
G01 X114.713
G02 X116.44 Y-8.416 I-9.638 J-6.022
X105.081 Y-19.781 I-11.365 J0.0
G01 X86.968
X69.763
G02 X69.342 Y-19.767 I0.0 J6.433
X66.4 Y-19.533 I6.97 J106.252
G03 X65.509 Y-19.487 I-1.015 J-11.044
G01 X14.58
G02 X11.941 Y-19.192 I.03 J12.231
X6.232 Y-16.068 I2.571 J11.475
X5.468 Y-15.209 I6.078 J6.172
X3.803 Y-12.024 I9.112 J6.793
G01 X2.38 Y-12.5
X-2.38
G03 X-1.715 Y-8.416 I-12.199 J4.084 F1500.
X-4.265 Y-.727 I-12.865 J0.0
X-4.788 Y-.108 I-5.291 J-3.945
X-4.845 Y-.044 I-1.157 J-.955
X-5.01 Y.131 I-9.288 J-8.609
X-4.83 Y.323 I-9.015 J8.656
G01 X-4.692 Y.473
G03 X-4.276 Y.974 I-4.736 J4.353
X-1.715 Y8.678 I-10.304 J7.704
X-2.296 Y12.5 I-12.865 J0.0
G01 X-3.728 Y12.054 F2500.
G02 X-3.215 Y8.678 I-10.852 J-3.377
X-5.478 Y1.872 I-11.365 J0.0
X-5.796 Y1.488 I-3.95 J2.954
G01 X-5.933 Y1.339
G02 X-7.242 Y.131 I-8.092 J7.449
X-5.945 Y-1.063 I-6.892 J-8.784
G01 X-5.943 Y-1.073
G02 X-5.468 Y-1.623 I-3.614 J-3.599
X-3.215 Y-8.416 I-9.112 J-6.793
X-5.471 Y-15.212 I-11.365 J0.0
X-6.164 Y-15.999 I-6.976 J5.442
X-12.179 Y-19.243 I-8.345 J8.276
G01 X-12.296 Y-19.267
G02 X-14.58 Y-19.487 I-2.29 J11.81
G01 X-65.505
G03 X-65.953 Y-19.502 I.005 J-6.691
X-68.188 Y-19.695 I4.999 J-71.069
G02 X-69.867 Y-19.781 I-1.679 J16.302
G01 X-69.977
X-105.083
G02 X-116.44 Y-8.416 I.008 J11.365
X-114.713 Y-2.393 I11.365 J0.0
G01 X-119.353
G02 X-124.527 Y-1.216 I.008 J11.994
X-127.21 Y.502 I4.054 J9.285
X-127.905 Y1.193 I5.89 J6.616
X-130.718 Y8.678 I8.552 J7.485
X-128.456 Y15.481 I11.365 J0.0
X-127.972 Y16.038 I4.081 J-3.059
G01 X-127.97 Y16.053
X-127.958 Y16.062
G02 X-124.08 Y18.774 I8.423 J-7.911
G01 X-123.979 Y18.817
G02 X-119.364 Y19.749 I4.615 J-10.962
G01 X-14.58
G02 X-11.773 Y19.415 I-.027 J-12.194
X-6.421 Y16.514 I-2.744 J-11.452
X-5.98 Y16.068 I-7.077 J-7.434
G01 X-5.948 Y16.034
X-5.946 Y16.023
G02 X-5.468 Y15.47 I-3.611 J-3.601
X-3.728 Y12.054 I-9.112 J-6.793
G01 X-2.296 Y12.5
X0.0
Y25.5
Z-2.573
G00 Z-2.374
G01 Z-2.771
Z-3.771 F1000.
Y20.
X121.5 F2500.
X127. F2188.
X132.5 F1875.
Y14.5
Y-9. F2500.
Y-14.5 F2188.
Y-20. F1875.
X127.
X117.274 F2500.
Y-12.5
G03 X117.94 Y-8.416 I-12.199 J4.084 F1500.
X117.119 Y-3.893 I-12.865 J0.0
G01 X119.353
G03 X124.302 Y-2.951 I-.011 J13.522
X125. Y-2.649 I-6.838 J16.762
G01 Y-12.5 F2500.
X117.274
Y-20.
X-121.5
X-127. F2188.
X-132.5 F1875.
Y-14.5
Y-2.651 F2500.
X-125.
G03 X-119.354 Y-3.893 I5.655 J12.251 F1500.
G01 X-117.119
G03 X-117.94 Y-8.416 I12.044 J-4.522
X-117.274 Y-12.5 I12.865 J0.0
G01 X-125. F2500.
Y-2.651
X-132.5
Y9.
Y14.5 F2188.
Y20. F1875.
X-127.
X0.0 F2500.
Y12.5
X2.296
G03 X1.715 Y8.678 I12.284 J-3.822 F1500.
X4.266 Y.988 I12.865 J0.0
X4.502 Y.692 I4.666 J3.479
X5.011 Y.13 I9.578 J8.16
X4.837 Y-.056 I8.753 J-8.363
G01 X4.642 Y-.269
G03 X4.308 Y-.67 I4.033 J-3.694
X1.715 Y-8.416 I10.272 J-7.745
X2.38 Y-12.5 I12.865 J0.0
G01 X3.803 Y-12.024 F2500.
G02 X3.215 Y-8.416 I10.777 J3.608
X5.505 Y-1.573 I11.365 J0.0
X5.748 Y-1.282 I3.169 J-2.39
G01 X5.943 Y-1.069
G02 X7.242 Y.131 I7.821 J-7.164
X5.643 Y1.665 I6.838 J8.722
X5.468 Y1.885 I3.288 J2.801
X3.215 Y8.678 I9.111 J6.793
X5.468 Y15.47 I11.365 J0.0
X5.959 Y16.037 I4.089 J-3.048
G01 X5.962 Y16.047
G02 X8.444 Y18.053 I8.374 J-7.824
X14.573 Y19.749 I6.129 J-10.226
G01 X14.58
X119.162
X119.264
G02 X120.409 Y19.7 I0.0 J-13.354
X127.028 Y16.948 I-1.014 J-11.775
X127.953 Y16.068 I-7.003 J-8.279
G01 X127.986 Y16.032
X127.988 Y16.023
G02 X128.465 Y15.47 I-3.612 J-3.601
X130.718 Y8.678 I-9.112 J-6.793
X127.963 Y1.259 I-11.365 J0.0
X125.422 Y-.761 I-7.288 J6.559
X123.735 Y-1.562 I-7.957 J14.572
X119.353 Y-2.393 I-4.393 J11.191
G01 X114.713
G02 X116.44 Y-8.416 I-9.638 J-6.022
X105.081 Y-19.781 I-11.365 J0.0
G01 X86.968
X69.763
G02 X69.341 Y-19.767 I0.0 J6.443
X66.4 Y-19.533 I6.982 J106.371
G03 X65.509 Y-19.487 I-1.017 J-11.084
G01 X14.58
G02 X11.94 Y-19.192 I.03 J12.232
X6.232 Y-16.068 I2.571 J11.475
X5.468 Y-15.209 I6.077 J6.171
X3.803 Y-12.024 I9.112 J6.793
G01 X2.38 Y-12.5
X-2.38
G03 X-1.715 Y-8.416 I-12.199 J4.084 F1500.
X-4.265 Y-.727 I-12.865 J0.0
X-4.788 Y-.108 I-5.291 J-3.945
X-4.845 Y-.044 I-1.157 J-.955
X-5.01 Y.131 I-9.288 J-8.609
X-4.83 Y.323 I-9.016 J8.657
G01 X-4.692 Y.473
G03 X-4.276 Y.974 I-4.736 J4.352
X-1.715 Y8.678 I-10.303 J7.704
X-2.296 Y12.5 I-12.865 J0.0
G01 X-3.728 Y12.054 F2500.
G02 X-3.215 Y8.678 I-10.852 J-3.377
X-5.478 Y1.872 I-11.365 J0.0
X-5.796 Y1.488 I-3.95 J2.953
G01 X-5.933 Y1.339
G02 X-7.242 Y.131 I-8.093 J7.449
X-5.945 Y-1.063 I-6.891 J-8.783
G01 X-5.943 Y-1.073
G02 X-5.468 Y-1.623 I-3.614 J-3.599
X-3.215 Y-8.416 I-9.112 J-6.793
X-5.471 Y-15.212 I-11.365 J0.0
X-6.163 Y-15.998 I-6.969 J5.437
X-12.179 Y-19.243 I-8.347 J8.275
G01 X-12.296 Y-19.267
G02 X-14.58 Y-19.487 I-2.29 J11.809
G01 X-65.505
G03 X-65.953 Y-19.502 I.007 J-6.732
X-68.188 Y-19.695 I4.988 J-70.953
G02 X-69.867 Y-19.781 I-1.679 J16.298
G01 X-69.977
X-105.083
G02 X-116.44 Y-8.416 I.008 J11.365
X-114.713 Y-2.393 I11.365 J0.0
G01 X-119.353
G02 X-124.527 Y-1.216 I.008 J11.993
X-127.21 Y.502 I4.054 J9.285
X-127.905 Y1.193 I5.891 J6.617
X-130.718 Y8.678 I8.552 J7.485
X-128.456 Y15.481 I11.365 J0.0
X-127.972 Y16.038 I4.081 J-3.059
G01 X-127.97 Y16.053
X-127.958 Y16.062
G02 X-124.08 Y18.774 I8.423 J-7.911
G01 X-123.978 Y18.817
G02 X-119.364 Y19.749 I4.614 J-10.962
G01 X-14.58
G02 X-11.773 Y19.415 I-.026 J-12.189
X-6.421 Y16.514 I-2.744 J-11.452
X-5.98 Y16.068 I-7.074 J-7.431
G01 X-5.948 Y16.034
X-5.946 Y16.023
G02 X-5.468 Y15.47 I-3.611 J-3.601
X-3.728 Y12.054 I-9.112 J-6.793
G01 X-2.296 Y12.5
X0.0
Y25.5
Z-2.771
G00 Z-2.573
G01 Z-2.97
Z-3.97 F1000.
Y20.
X121.5 F2500.
X127. F2188.
X132.5 F1875.
Y14.5
Y-9. F2500.
Y-14.5 F2188.
Y-20. F1875.
X127.
X117.274 F2500.
Y-12.5
G03 X117.94 Y-8.416 I-12.199 J4.084 F1500.
X117.119 Y-3.893 I-12.865 J0.0
G01 X119.353
G03 X124.302 Y-2.951 I-.011 J13.522
X125. Y-2.649 I-6.841 J16.77
G01 Y-12.5 F2500.
X117.274
Y-20.
X-121.5
X-127. F2188.
X-132.5 F1875.
Y-14.5
Y-2.651 F2500.
X-125.
G03 X-119.354 Y-3.893 I5.655 J12.251 F1500.
G01 X-117.119
G03 X-117.94 Y-8.416 I12.044 J-4.522
X-117.274 Y-12.5 I12.865 J0.0
G01 X-125. F2500.
Y-2.651
X-132.5
Y9.
Y14.5 F2188.
Y20. F1875.
X-127.
X0.0 F2500.
Y12.5
X2.296
G03 X1.715 Y8.678 I12.284 J-3.822 F1500.
X4.266 Y.988 I12.865 J0.0
X4.502 Y.692 I4.668 J3.481
X5.011 Y.13 I9.578 J8.162
X4.837 Y-.056 I8.753 J-8.363
G01 X4.642 Y-.269
G03 X4.308 Y-.67 I4.033 J-3.694
X1.715 Y-8.416 I10.272 J-7.746
X2.38 Y-12.5 I12.865 J0.0
G01 X3.803 Y-12.024 F2500.
G02 X3.215 Y-8.416 I10.777 J3.608
X5.505 Y-1.573 I11.365 J0.0
X5.748 Y-1.282 I3.169 J-2.389
G01 X5.943 Y-1.069
G02 X7.242 Y.131 I7.821 J-7.164
X5.644 Y1.665 I6.839 J8.723
X5.469 Y1.884 I3.291 J2.804
X3.215 Y8.678 I9.111 J6.793
X5.468 Y15.47 I11.365 J0.0
X5.959 Y16.037 I4.089 J-3.048
G01 X5.962 Y16.047
G02 X8.44 Y18.05 I8.374 J-7.825
X14.573 Y19.749 I6.133 J-10.223
G01 X14.58
X119.162
X119.265
G02 X120.407 Y19.7 I0.0 J-13.34
X127.037 Y16.941 I-1.012 J-11.777
X127.986 Y16.032 I-6.981 J-8.237
G01 X127.988 Y16.023
G02 X128.465 Y15.47 I-3.612 J-3.601
X130.718 Y8.678 I-9.112 J-6.793
X127.963 Y1.259 I-11.365 J0.0
X125.422 Y-.761 I-7.288 J6.558
X123.735 Y-1.562 I-7.961 J14.58
X119.353 Y-2.393 I-4.393 J11.191
G01 X114.713
G02 X116.44 Y-8.416 I-9.638 J-6.022
X105.081 Y-19.781 I-11.365 J0.0
G01 X86.968
X69.763
G02 X69.34 Y-19.767 I0.0 J6.454
X66.4 Y-19.533 I6.993 J106.49
G03 X65.509 Y-19.487 I-1.019 J-11.123
G01 X14.58
G02 X11.849 Y-19.171 I.03 J12.225
X6.232 Y-16.068 I2.662 J11.453
X5.468 Y-15.209 I6.077 J6.171
X3.803 Y-12.024 I9.112 J6.793
G01 X2.38 Y-12.5
X-2.38
G03 X-1.715 Y-8.416 I-12.199 J4.084 F1500.
X-4.265 Y-.727 I-12.865 J0.0
X-4.788 Y-.109 I-5.291 J-3.945
X-4.845 Y-.044 I-1.157 J-.955
X-5.01 Y.131 I-9.287 J-8.608
X-4.83 Y.323 I-9.016 J8.658
G01 X-4.692 Y.473
G03 X-4.277 Y.973 I-4.735 J4.352
X-1.715 Y8.678 I-10.303 J7.704
X-2.296 Y12.5 I-12.865 J0.0
G01 X-3.728 Y12.054 F2500.
G02 X-3.215 Y8.678 I-10.852 J-3.377
X-5.478 Y1.872 I-11.365 J0.0
X-5.796 Y1.488 I-3.949 J2.953
G01 X-5.933 Y1.339
G02 X-7.242 Y.131 I-8.093 J7.45
X-5.945 Y-1.063 I-6.891 J-8.783
G01 X-5.943 Y-1.073
G02 X-5.468 Y-1.623 I-3.614 J-3.599
X-3.215 Y-8.416 I-9.112 J-6.793
X-5.471 Y-15.212 I-11.365 J0.0
X-6.162 Y-15.997 I-6.963 J5.431
X-12.179 Y-19.243 I-8.348 J8.274
G01 X-12.296 Y-19.267
G02 X-14.58 Y-19.487 I-2.29 J11.809
G01 X-65.505
G03 X-65.953 Y-19.502 I.009 J-6.774
X-68.188 Y-19.695 I4.978 J-70.838
G02 X-69.867 Y-19.781 I-1.678 J16.294
G01 X-69.977
X-105.083
G02 X-116.44 Y-8.416 I.008 J11.365
X-114.713 Y-2.393 I11.365 J0.0
G01 X-119.353
G02 X-124.527 Y-1.216 I.008 J11.993
X-127.21 Y.502 I4.053 J9.284
X-127.905 Y1.193 I5.892 J6.618
X-130.718 Y8.678 I8.552 J7.485
X-128.456 Y15.481 I11.365 J0.0
X-127.972 Y16.038 I4.081 J-3.059
G01 X-127.97 Y16.053
X-127.958 Y16.062
G02 X-124.08 Y18.774 I8.423 J-7.911
G01 X-123.978 Y18.818
G02 X-119.364 Y19.749 I4.614 J-10.962
G01 X-14.58
G02 X-11.7 Y19.397 I-.025 J-12.171
X-6.421 Y16.514 I-2.815 J-11.429
X-5.98 Y16.068 I-7.071 J-7.429
G01 X-5.948 Y16.034
X-5.946 Y16.023
G02 X-5.468 Y15.47 I-3.611 J-3.601
X-3.728 Y12.054 I-9.112 J-6.793
G01 X-2.296 Y12.5
X0.0
Y25.5
Z-2.97
G00 Z-2.771
G01 Z-3.168
Z-4.168 F1000.
Y20.
X121.5 F2500.
X127. F2188.
X132.5 F1875.
Y14.5
Y-9. F2500.
Y-14.5 F2188.
Y-20. F1875.
X127.
X117.274 F2500.
Y-12.5
G03 X117.94 Y-8.416 I-12.199 J4.084 F1500.
X117.119 Y-3.893 I-12.865 J0.0
G01 X119.353
G03 X124.302 Y-2.951 I-.01 J13.521
X125. Y-2.649 I-6.845 J16.778
G01 Y-12.5 F2500.
X117.274
Y-20.
X-121.5
X-127. F2188.
X-132.5 F1875.
Y-14.5
Y-2.651 F2500.
X-125.
G03 X-119.354 Y-3.893 I5.655 J12.25 F1500.
G01 X-117.119
G03 X-117.94 Y-8.416 I12.044 J-4.522
X-117.274 Y-12.5 I12.865 J0.0
G01 X-125. F2500.
Y-2.651
X-132.5
Y9.
Y14.5 F2188.
Y20. F1875.
X-127.
X0.0 F2500.
Y12.5
X2.296
G03 X1.715 Y8.678 I12.284 J-3.822 F1500.
X4.266 Y.987 I12.865 J0.0
X4.503 Y.691 I4.671 J3.483
X5.011 Y.13 I9.578 J8.163
X4.836 Y-.056 I8.752 J-8.363
G01 X4.642 Y-.269
G03 X4.308 Y-.67 I4.032 J-3.693
X1.715 Y-8.416 I10.272 J-7.746
X2.38 Y-12.5 I12.865 J0.0
G01 X3.803 Y-12.024 F2500.
G02 X3.215 Y-8.416 I10.777 J3.608
X5.506 Y-1.573 I11.365 J0.0
X5.748 Y-1.282 I3.168 J-2.389
G01 X5.943 Y-1.069
G02 X7.242 Y.131 I7.821 J-7.163
X5.644 Y1.664 I6.839 J8.723
X5.469 Y1.884 I3.293 J2.806
X3.215 Y8.678 I9.111 J6.794
X5.468 Y15.47 I11.365 J0.0
X5.959 Y16.037 I4.089 J-3.048
G01 X5.962 Y16.047
G02 X8.508 Y18.091 I8.378 J-7.828
X14.574 Y19.749 I6.066 J-10.269
G01 X14.58
X119.162
X119.266
G02 X120.409 Y19.7 I0.0 J-13.326
X127.035 Y16.943 I-1.014 J-11.777
X127.986 Y16.032 I-6.982 J-8.242
G01 X127.988 Y16.023
G02 X128.465 Y15.47 I-3.612 J-3.601
X130.718 Y8.678 I-9.112 J-6.793
X127.959 Y1.255 I-11.365 J0.0
X125.422 Y-.761 I-7.287 J6.567
X123.735 Y-1.562 I-7.965 J14.587
X119.353 Y-2.393 I-4.393 J11.19
G01 X114.713
G02 X116.44 Y-8.416 I-9.638 J-6.022
X105.081 Y-19.781 I-11.365 J0.0
G01 X86.968
X69.754
G02 X69.349 Y-19.767 I0.0 J6.19
X66.4 Y-19.533 I6.978 J106.407
G03 X65.509 Y-19.487 I-1.021 J-11.163
G01 X14.58
G02 X11.849 Y-19.171 I.03 J12.224
X6.232 Y-16.068 I2.662 J11.453
X5.468 Y-15.209 I6.077 J6.171
X3.803 Y-12.024 I9.112 J6.793
G01 X2.38 Y-12.5
X-2.38
G03 X-1.715 Y-8.416 I-12.199 J4.084 F1500.
X-4.265 Y-.727 I-12.865 J0.0
X-4.788 Y-.109 I-5.291 J-3.945
X-4.845 Y-.044 I-1.157 J-.955
X-5.01 Y.131 I-9.287 J-8.608
X-4.83 Y.323 I-9.017 J8.658
G01 X-4.692 Y.473
G03 X-4.277 Y.973 I-4.734 J4.351
X-1.715 Y8.678 I-10.303 J7.705
X-2.296 Y12.5 I-12.865 J0.0
G01 X-3.728 Y12.054 F2500.
G02 X-3.215 Y8.678 I-10.852 J-3.377
X-5.478 Y1.871 I-11.365 J0.0
X-5.797 Y1.488 I-3.948 J2.953
G01 X-5.933 Y1.339
G02 X-7.241 Y.131 I-8.094 J7.45
X-5.945 Y-1.063 I-6.89 J-8.782
G01 X-5.943 Y-1.073
G02 X-5.468 Y-1.623 I-3.614 J-3.599
X-3.215 Y-8.416 I-9.112 J-6.793
X-5.471 Y-15.212 I-11.365 J0.0
X-6.161 Y-15.996 I-6.956 J5.425
X-12.179 Y-19.243 I-8.349 J8.273
G01 X-12.296 Y-19.267
G02 X-14.58 Y-19.487 I-2.29 J11.808
G01 X-65.505
G03 X-65.953 Y-19.502 I.011 J-6.816
X-68.188 Y-19.695 I4.967 J-70.722
G02 X-69.866 Y-19.781 I-1.678 J16.29
G01 X-69.977
X-105.083
G02 X-116.44 Y-8.416 I.008 J11.365
X-114.713 Y-2.393 I11.365 J0.0
G01 X-119.353
G02 X-124.527 Y-1.216 I.008 J11.992
X-127.21 Y.502 I4.053 J9.283
X-127.905 Y1.193 I5.893 J6.619
X-130.718 Y8.678 I8.552 J7.485
X-128.456 Y15.481 I11.365 J0.0
X-127.972 Y16.038 I4.081 J-3.059
G01 X-127.971 Y16.047
X-127.952 Y16.068
G02 X-124.08 Y18.774 I8.417 J-7.917
G01 X-123.977 Y18.818
G02 X-119.364 Y19.749 I4.613 J-10.962
G01 X-14.58
G02 X-11.178 Y19.256 I-.024 J-12.144
X-5.98 Y16.068 I-3.296 J-11.207
G01 X-5.948 Y16.034
X-5.946 Y16.023
G02 X-5.468 Y15.47 I-3.611 J-3.601
X-3.728 Y12.054 I-9.112 J-6.793
G01 X-2.296 Y12.5
X0.0
Y25.5
Z-3.168
G00 Z-2.97
G01 Z-3.367
Z-4.367 F1000.
Y20.
X121.5 F2500.
X127. F2188.
X132.5 F1875.
Y14.5
Y-9. F2500.
Y-14.5 F2188.
Y-20. F1875.
X127.
X117.274 F2500.
Y-12.5
G03 X117.94 Y-8.416 I-12.199 J4.084 F1500.
X117.119 Y-3.893 I-12.865 J0.0
G01 X119.353
G03 X124.302 Y-2.951 I-.01 J13.521
X125. Y-2.649 I-6.848 J16.785
G01 Y-12.5 F2500.
X117.274
Y-20.
X-121.5
X-127. F2188.
X-132.5 F1875.
Y-14.5
Y-2.651 F2500.
X-125.
G03 X-119.354 Y-3.893 I5.655 J12.25 F1500.
G01 X-117.119
G03 X-117.94 Y-8.416 I12.044 J-4.522
X-117.274 Y-12.5 I12.865 J0.0
G01 X-125. F2500.
Y-2.651
X-132.5
Y9.
Y14.5 F2188.
Y20. F1875.
X-127.
X0.0 F2500.
Y12.5
X2.296
G03 X1.715 Y8.678 I12.284 J-3.822 F1500.
X4.267 Y.987 I12.865 J0.0
X4.503 Y.69 I4.674 J3.485
X5.011 Y.13 I9.578 J8.165
X4.836 Y-.056 I8.752 J-8.363
G01 X4.642 Y-.269
G03 X4.308 Y-.67 I4.032 J-3.693
X1.715 Y-8.416 I10.272 J-7.746
X2.38 Y-12.5 I12.865 J0.0
G01 X3.803 Y-12.024 F2500.
G02 X3.215 Y-8.416 I10.777 J3.608
X5.506 Y-1.573 I11.365 J0.0
X5.748 Y-1.282 I3.168 J-2.389
G01 X5.943 Y-1.069
G02 X7.242 Y.131 I7.82 J-7.163
X5.645 Y1.663 I6.84 J8.724
X5.469 Y1.884 I3.295 J2.809
X3.215 Y8.678 I9.111 J6.794
X5.468 Y15.47 I11.365 J0.0
X5.959 Y16.037 I4.089 J-3.048
G01 X5.962 Y16.047
G02 X8.509 Y18.092 I8.378 J-7.829
X14.574 Y19.749 I6.065 J-10.269
G01 X14.58
X119.162
X119.267
G02 X120.412 Y19.7 I0.0 J-13.313
X127.033 Y16.944 I-1.017 J-11.777
X127.986 Y16.032 I-6.984 J-8.247
G01 X127.988 Y16.023
G02 X128.465 Y15.47 I-3.612 J-3.601
X130.718 Y8.678 I-9.112 J-6.793
X127.959 Y1.255 I-11.365 J0.0
X125.422 Y-.761 I-7.287 J6.567
X123.735 Y-1.562 I-7.968 J14.595
X119.353 Y-2.393 I-4.392 J11.189
G01 X114.713
G02 X116.44 Y-8.416 I-9.638 J-6.022
X105.081 Y-19.781 I-11.365 J0.0
G01 X86.968
X69.754
G02 X69.348 Y-19.767 I0.0 J6.202
X66.4 Y-19.533 I6.988 J106.507
G03 X65.509 Y-19.487 I-1.023 J-11.202
G01 X14.58
G02 X11.849 Y-19.171 I.03 J12.224
X6.232 Y-16.068 I2.661 J11.452
X5.468 Y-15.209 I6.077 J6.171
X3.803 Y-12.024 I9.112 J6.793
G01 X2.38 Y-12.5
X-2.38
G03 X-1.715 Y-8.416 I-12.199 J4.084 F1500.
X-4.265 Y-.727 I-12.865 J0.0
X-4.788 Y-.109 I-5.291 J-3.945
X-4.845 Y-.044 I-1.157 J-.954
X-5.01 Y.131 I-9.286 J-8.607
X-4.83 Y.323 I-9.017 J8.659
G01 X-4.692 Y.472
G03 X-4.277 Y.973 I-4.734 J4.351
X-1.715 Y8.678 I-10.302 J7.705
X-2.296 Y12.5 I-12.865 J0.0
G01 X-3.728 Y12.054 F2500.
G02 X-3.215 Y8.678 I-10.852 J-3.377
X-5.479 Y1.871 I-11.365 J0.0
X-5.797 Y1.488 I-3.948 J2.952
G01 X-5.933 Y1.339
G02 X-7.241 Y.131 I-8.094 J7.451
X-5.945 Y-1.063 I-6.89 J-8.782
G01 X-5.943 Y-1.073
G02 X-5.468 Y-1.623 I-3.614 J-3.599
X-3.215 Y-8.416 I-9.112 J-6.793
X-5.471 Y-15.212 I-11.365 J0.0
X-6.159 Y-15.995 I-6.95 J5.419
X-12.179 Y-19.243 I-8.35 J8.272
G01 X-12.296 Y-19.267
G02 X-14.58 Y-19.487 I-2.289 J11.807
G01 X-65.505
G03 X-65.953 Y-19.502 I.012 J-6.856
X-68.188 Y-19.695 I4.957 J-70.608
G02 X-69.866 Y-19.781 I-1.678 J16.286
G01 X-69.977
X-105.083
G02 X-116.44 Y-8.416 I.008 J11.365
X-114.713 Y-2.393 I11.365 J0.0
G01 X-119.353
G02 X-124.527 Y-1.216 I.007 J11.992
X-127.21 Y.502 I4.052 J9.283
X-127.905 Y1.193 I5.893 J6.619
X-130.718 Y8.678 I8.552 J7.485
X-128.456 Y15.481 I11.365 J0.0
X-127.972 Y16.038 I4.081 J-3.059
G01 X-127.971 Y16.047
X-127.952 Y16.068
G02 X-124.08 Y18.774 I8.417 J-7.917
G01 X-123.977 Y18.818
G02 X-119.364 Y19.749 I4.612 J-10.962
G01 X-14.58
G02 X-10.955 Y19.187 I-.023 J-12.13
X-5.98 Y16.068 I-3.518 J-11.137
G01 X-5.948 Y16.034
X-5.946 Y16.023
G02 X-5.468 Y15.47 I-3.611 J-3.601
X-3.728 Y12.054 I-9.112 J-6.793
G01 X-2.296 Y12.5
X0.0
Y25.5
Z-3.367
G00 Z-3.168
G01 Z-3.565
Z-4.565 F1000.
Y20.
X121.5 F2500.
X127. F2188.
X132.5 F1875.
Y14.5
Y-9. F2500.
Y-14.5 F2188.
Y-20. F1875.
X127.
X117.274 F2500.
Y-12.5
G03 X117.94 Y-8.416 I-12.199 J4.084 F1500.
X117.119 Y-3.893 I-12.865 J0.0
G01 X119.353
G03 X124.302 Y-2.951 I-.01 J13.52
X125. Y-2.649 I-6.852 J16.793
G01 Y-12.5 F2500.
X117.274
Y-20.
X-121.5
X-127. F2188.
X-132.5 F1875.
Y-14.5
Y-2.651 F2500.
X-125.
G03 X-119.354 Y-3.893 I5.654 J12.249 F1500.
G01 X-117.119
G03 X-117.94 Y-8.416 I12.044 J-4.522
X-117.274 Y-12.5 I12.865 J0.0
G01 X-125. F2500.
Y-2.651
X-132.5
Y9.
Y14.5 F2188.
Y20. F1875.
X-127.
X0.0 F2500.
Y12.5
X2.296
G03 X1.715 Y8.678 I12.284 J-3.822 F1500.
X4.267 Y.987 I12.865 J0.0
X4.504 Y.69 I4.676 J3.487
X5.011 Y.13 I9.578 J8.166
X4.836 Y-.056 I8.752 J-8.362
G01 X4.642 Y-.269
G03 X4.308 Y-.67 I4.031 J-3.692
X1.715 Y-8.416 I10.272 J-7.746
X2.38 Y-12.5 I12.865 J0.0
G01 X3.803 Y-12.024 F2500.
G02 X3.215 Y-8.416 I10.777 J3.608
X5.506 Y-1.573 I11.365 J0.0
X5.748 Y-1.282 I3.167 J-2.389
G01 X5.942 Y-1.069
G02 X7.242 Y.131 I7.82 J-7.163
X5.645 Y1.663 I6.841 J8.725
X5.469 Y1.883 I3.298 J2.811
X3.215 Y8.678 I9.11 J6.794
X5.468 Y15.47 I11.365 J0.0
X5.959 Y16.037 I4.089 J-3.048
G01 X5.962 Y16.047
G02 X8.51 Y18.092 I8.379 J-7.829
X14.574 Y19.749 I6.064 J-10.269
G01 X14.58
X119.162
X119.267
G02 X120.414 Y19.7 I0.0 J-13.299
X127.031 Y16.946 I-1.019 J-11.776
X127.987 Y16.032 I-6.985 J-8.252
G01 X127.988 Y16.023
G02 X128.465 Y15.47 I-3.612 J-3.601
X130.718 Y8.678 I-9.112 J-6.793
X127.959 Y1.255 I-11.365 J0.0
X125.422 Y-.761 I-7.287 J6.567
X123.735 Y-1.562 I-7.972 J14.603
X119.353 Y-2.393 I-4.392 J11.189
G01 X114.713
G02 X116.44 Y-8.416 I-9.638 J-6.022
X105.081 Y-19.781 I-11.365 J0.0
G01 X86.968
X69.753
G02 X69.345 Y-19.767 I0.0 J6.205
X66.4 Y-19.533 I7.115 J108.035
G03 X65.509 Y-19.487 I-1.025 J-11.24
G01 X14.58
G02 X11.849 Y-19.171 I.029 J12.223
X6.232 Y-16.068 I2.661 J11.452
X5.468 Y-15.209 I6.077 J6.17
X3.803 Y-12.024 I9.112 J6.793
G01 X2.38 Y-12.5
X-2.38
G03 X-1.715 Y-8.416 I-12.199 J4.084 F1500.
X-4.265 Y-.727 I-12.865 J0.0
X-4.788 Y-.109 I-5.291 J-3.945
X-4.845 Y-.044 I-1.157 J-.954
X-5.01 Y.131 I-9.286 J-8.607
X-4.83 Y.323 I-9.018 J8.659
G01 X-4.693 Y.472
G03 X-4.278 Y.972 I-4.733 J4.351
X-1.715 Y8.678 I-10.302 J7.706
X-2.296 Y12.5 I-12.865 J0.0
G01 X-3.728 Y12.054 F2500.
G02 X-3.215 Y8.678 I-10.852 J-3.377
X-5.479 Y1.871 I-11.365 J0.0
X-5.797 Y1.487 I-3.947 J2.952
G01 X-5.933 Y1.339
G02 X-7.241 Y.131 I-8.095 J7.452
X-5.945 Y-1.063 I-6.889 J-8.781
G01 X-5.943 Y-1.073
G02 X-5.468 Y-1.623 I-3.614 J-3.599
X-3.215 Y-8.416 I-9.112 J-6.793
X-5.471 Y-15.212 I-11.365 J0.0
X-6.158 Y-15.994 I-6.944 J5.413
X-12.179 Y-19.243 I-8.351 J8.271
G01 X-12.296 Y-19.267
G02 X-14.58 Y-19.487 I-2.289 J11.807
G01 X-65.505
G03 X-65.953 Y-19.502 I.014 J-6.892
X-68.188 Y-19.695 I4.947 J-70.494
G02 X-69.866 Y-19.781 I-1.677 J16.282
G01 X-69.977
X-105.083
G02 X-116.44 Y-8.416 I.008 J11.365
X-114.713 Y-2.393 I11.365 J0.0
G01 X-119.353
G02 X-124.527 Y-1.216 I.007 J11.991
X-127.21 Y.502 I4.052 J9.282
X-127.905 Y1.193 I5.894 J6.62
X-130.718 Y8.678 I8.552 J7.485
X-128.456 Y15.481 I11.365 J0.0
X-127.972 Y16.038 I4.081 J-3.059
G01 X-127.971 Y16.047
X-127.952 Y16.068
G02 X-124.08 Y18.774 I8.417 J-7.917
G01 X-123.976 Y18.818
G02 X-119.364 Y19.749 I4.611 J-10.962
G01 X-14.58
G02 X-10.955 Y19.187 I-.023 J-12.127
X-5.98 Y16.068 I-3.518 J-11.138
G01 X-5.948 Y16.034
X-5.946 Y16.023
G02 X-5.468 Y15.47 I-3.611 J-3.601
X-3.728 Y12.054 I-9.112 J-6.793
G01 X-2.296 Y12.5
X0.0
Y25.5
Z-3.565
G00 Z-3.367
G01 Z-3.764
Z-4.764 F1000.
Y20.
X121.5 F2500.
X127. F2188.
X132.5 F1875.
Y14.5
Y-9. F2500.
Y-14.5 F2188.
Y-20. F1875.
X127.
X117.274 F2500.
Y-12.5
G03 X117.94 Y-8.416 I-12.199 J4.084 F1500.
X117.119 Y-3.893 I-12.865 J0.0
G01 X119.353
G03 X124.302 Y-2.951 I-.01 J13.52
X125. Y-2.649 I-6.856 J16.801
G01 Y-12.5 F2500.
X117.274
Y-20.
X-121.5
X-127. F2188.
X-132.5 F1875.
Y-14.5
Y-2.651 F2500.
X-125.
G03 X-119.354 Y-3.893 I5.654 J12.249 F1500.
G01 X-117.119
G03 X-117.94 Y-8.416 I12.044 J-4.522
X-117.274 Y-12.5 I12.865 J0.0
G01 X-125. F2500.
Y-2.651
X-132.5
Y9.
Y14.5 F2188.
Y20. F1875.
X-127.
X0.0 F2500.
Y12.5
X2.296
G03 X1.715 Y8.678 I12.284 J-3.822 F1500.
X4.267 Y.986 I12.865 J0.0
X4.505 Y.689 I4.679 J3.489
X5.011 Y.13 I9.579 J8.168
X4.836 Y-.056 I8.752 J-8.362
G01 X4.642 Y-.269
G03 X4.308 Y-.669 I4.031 J-3.692
X1.715 Y-8.416 I10.271 J-7.746
X2.38 Y-12.5 I12.865 J0.0
G01 X3.803 Y-12.024 F2500.
G02 X3.215 Y-8.416 I10.777 J3.608
X5.506 Y-1.573 I11.365 J0.0
X5.748 Y-1.282 I3.167 J-2.388
G01 X5.942 Y-1.069
G02 X7.242 Y.131 I7.82 J-7.163
X5.646 Y1.662 I6.842 J8.726
X5.47 Y1.883 I3.3 J2.814
X3.215 Y8.678 I9.11 J6.795
X5.468 Y15.47 I11.365 J0.0
X5.959 Y16.037 I4.089 J-3.048
G01 X5.962 Y16.047
G02 X8.51 Y18.093 I8.379 J-7.83
X14.573 Y19.749 I6.063 J-10.269
G01 X14.58
X119.162
X119.268
G02 X120.417 Y19.7 I0.0 J-13.285
X127.029 Y16.948 I-1.022 J-11.776
X127.987 Y16.032 I-6.986 J-8.257
G01 X127.988 Y16.023
G02 X128.465 Y15.47 I-3.612 J-3.601
X130.718 Y8.678 I-9.112 J-6.793
X127.959 Y1.255 I-11.365 J0.0
X125.422 Y-.761 I-7.287 J6.566
X123.735 Y-1.562 I-7.975 J14.611
X119.353 Y-2.393 I-4.392 J11.188
G01 X114.713
G02 X116.44 Y-8.416 I-9.638 J-6.022
X105.081 Y-19.781 I-11.365 J0.0
G01 X86.968
X69.753
G02 X69.344 Y-19.767 I0.0 J6.223
X66.4 Y-19.533 I7.129 J108.185
G03 X65.509 Y-19.487 I-1.027 J-11.277
G01 X14.58
G02 X11.94 Y-19.192 I.03 J12.229
X6.232 Y-16.068 I2.571 J11.474
X5.468 Y-15.209 I6.077 J6.17
X3.803 Y-12.024 I9.112 J6.793
G01 X2.38 Y-12.5
X-2.38
G03 X-1.715 Y-8.416 I-12.199 J4.084 F1500.
X-4.265 Y-.727 I-12.865 J0.0
X-4.788 Y-.109 I-5.291 J-3.945
X-4.845 Y-.044 I-1.157 J-.954
X-5.01 Y.131 I-9.285 J-8.606
X-4.83 Y.323 I-9.018 J8.66
G01 X-4.693 Y.472
G03 X-4.278 Y.972 I-4.733 J4.35
X-1.715 Y8.678 I-10.302 J7.706
X-2.296 Y12.5 I-12.865 J0.0
G01 X-3.728 Y12.054 F2500.
G02 X-3.215 Y8.678 I-10.852 J-3.377
X-5.479 Y1.87 I-11.365 J0.0
X-5.797 Y1.487 I-3.946 J2.952
G01 X-5.933 Y1.339
G02 X-7.241 Y.131 I-8.095 J7.452
X-5.945 Y-1.063 I-6.889 J-8.781
G01 X-5.943 Y-1.073
G02 X-5.468 Y-1.623 I-3.614 J-3.599
X-3.215 Y-8.416 I-9.112 J-6.793
X-5.471 Y-15.212 I-11.365 J0.0
X-6.157 Y-15.993 I-6.937 J5.408
X-12.179 Y-19.243 I-8.353 J8.27
G01 X-12.296 Y-19.267
G02 X-14.58 Y-19.487 I-2.289 J11.806
G01 X-65.505
G03 X-65.953 Y-19.502 I.016 J-6.929
X-68.188 Y-19.695 I4.937 J-70.391
G02 X-69.865 Y-19.781 I-1.677 J16.278
G01 X-69.977
X-105.083
G02 X-116.44 Y-8.416 I.008 J11.365
X-114.713 Y-2.393 I11.365 J0.0
G01 X-119.353
G02 X-124.527 Y-1.216 I.007 J11.991
X-127.21 Y.502 I4.051 J9.281
X-127.905 Y1.193 I5.895 J6.621
X-130.718 Y8.678 I8.552 J7.485
X-128.456 Y15.481 I11.365 J0.0
X-127.972 Y16.038 I4.081 J-3.059
G01 X-127.971 Y16.047
X-127.952 Y16.068
G02 X-124.08 Y18.775 I8.417 J-7.917
G01 X-123.975 Y18.819
G02 X-119.365 Y19.749 I4.611 J-10.961
G01 X-14.58
G02 X-10.955 Y19.187 I-.022 J-12.124
X-5.98 Y16.068 I-3.519 J-11.139
G01 X-5.948 Y16.034
X-5.946 Y16.023
G02 X-5.468 Y15.47 I-3.611 J-3.601
X-3.728 Y12.054 I-9.112 J-6.793
G01 X-2.296 Y12.5
X0.0
Y25.5
Z-3.764
G00 Z-3.565
G01 Z-3.962
Z-4.962 F1000.
Y20.
X121.5 F2500.
X127. F2188.
X132.5 F1875.
Y14.5
Y-9. F2500.
Y-14.5 F2188.
Y-20. F1875.
X127.
X117.274 F2500.
Y-12.5
G03 X117.94 Y-8.416 I-12.199 J4.084 F1500.
X117.119 Y-3.893 I-12.865 J0.0
G01 X119.353
G03 X124.302 Y-2.951 I-.01 J13.519
X125. Y-2.649 I-6.846 J16.782
G01 Y-12.5 F2500.
X117.274
Y-20.
X-121.5
X-127. F2188.
X-132.5 F1875.
Y-14.5
Y-2.651 F2500.
X-125.
G03 X-119.354 Y-3.893 I5.654 J12.248 F1500.
G01 X-117.119
G03 X-117.94 Y-8.416 I12.044 J-4.522
X-117.274 Y-12.5 I12.865 J0.0
G01 X-125. F2500.
Y-2.651
X-132.5
Y9.
Y14.5 F2188.
Y20. F1875.
X-127.
X0.0 F2500.
Y12.5
X2.296
G03 X1.715 Y8.678 I12.284 J-3.822 F1500.
X4.267 Y.986 I12.865 J0.0
X4.505 Y.688 I4.681 J3.492
X5.011 Y.13 I9.579 J8.169
X4.836 Y-.056 I8.752 J-8.362
G01 X4.642 Y-.269
G03 X4.309 Y-.669 I4.031 J-3.692
X1.715 Y-8.416 I10.271 J-7.747
X2.38 Y-12.5 I12.865 J0.0
G01 X3.803 Y-12.024 F2500.
G02 X3.215 Y-8.416 I10.777 J3.608
X5.506 Y-1.572 I11.365 J0.0
X5.748 Y-1.282 I3.166 J-2.388
G01 X5.942 Y-1.07
G02 X7.242 Y.131 I7.82 J-7.163
X5.646 Y1.661 I6.842 J8.727
X5.47 Y1.883 I3.302 J2.816
X3.215 Y8.678 I9.11 J6.795
X5.468 Y15.47 I11.365 J0.0
X5.959 Y16.037 I4.089 J-3.048
G01 X5.962 Y16.053
X5.975 Y16.062
G02 X9.39 Y18.563 I8.384 J-7.863
G01 X9.438 Y18.586
G02 X14.57 Y19.749 I5.132 J-10.743
G01 X119.162
X119.269
G02 X120.418 Y19.7 I0.0 J-13.272
X127.026 Y16.951 I-1.023 J-11.777
X127.987 Y16.032 I-6.985 J-8.264
G01 X127.988 Y16.023
G02 X128.465 Y15.47 I-3.612 J-3.601
X130.718 Y8.678 I-9.112 J-6.793
X127.959 Y1.255 I-11.365 J0.0
X125.422 Y-.761 I-7.287 J6.566
X123.735 Y-1.562 I-7.966 J14.592
X119.353 Y-2.393 I-4.392 J11.188
G01 X114.713
G02 X116.44 Y-8.416 I-9.638 J-6.022
X105.081 Y-19.781 I-11.365 J0.0
G01 X86.968
X69.753
G02 X69.343 Y-19.767 I0.0 J6.234
X66.4 Y-19.533 I7.136 J108.254
G03 X65.509 Y-19.487 I-1.029 J-11.315
G01 X14.58
G02 X11.94 Y-19.192 I.029 J12.228
X6.232 Y-16.068 I2.571 J11.474
X5.468 Y-15.209 I6.077 J6.17
X3.803 Y-12.024 I9.112 J6.793
G01 X2.38 Y-12.5
X-2.38
G03 X-1.715 Y-8.416 I-12.199 J4.084 F1500.
X-4.265 Y-.727 I-12.865 J0.0
X-4.787 Y-.109 I-5.291 J-3.945
X-4.845 Y-.044 I-1.158 J-.954
X-5.01 Y.131 I-9.285 J-8.606
X-4.83 Y.323 I-9.019 J8.66
G01 X-4.693 Y.472
G03 X-4.278 Y.971 I-4.732 J4.35
X-1.715 Y8.678 I-10.301 J7.706
X-2.296 Y12.5 I-12.865 J0.0
G01 X-3.728 Y12.054 F2500.
G02 X-3.215 Y8.678 I-10.852 J-3.377
X-5.479 Y1.87 I-11.365 J0.0
X-5.797 Y1.487 I-3.946 J2.952
G01 X-5.933 Y1.339
G02 X-7.241 Y.131 I-8.096 J7.453
X-5.945 Y-1.063 I-6.888 J-8.78
G01 X-5.943 Y-1.073
G02 X-5.468 Y-1.623 I-3.614 J-3.599
X-3.215 Y-8.416 I-9.112 J-6.793
X-5.471 Y-15.212 I-11.365 J0.0
X-6.156 Y-15.991 I-6.931 J5.402
X-12.18 Y-19.243 I-8.354 J8.269
G01 X-12.296 Y-19.267
G02 X-14.58 Y-19.487 I-2.289 J11.805
G01 X-65.505
G03 X-65.953 Y-19.502 I.017 J-6.966
X-68.188 Y-19.695 I4.928 J-70.288
G02 X-69.865 Y-19.781 I-1.677 J16.274
G01 X-69.977
X-105.083
G02 X-116.44 Y-8.416 I.008 J11.365
X-114.713 Y-2.393 I11.365 J0.0
G01 X-119.353
G02 X-124.527 Y-1.216 I.007 J11.99
X-127.21 Y.502 I4.051 J9.281
X-127.905 Y1.193 I5.896 J6.622
X-130.718 Y8.678 I8.552 J7.485
X-128.456 Y15.481 I11.365 J0.0
X-127.972 Y16.038 I4.081 J-3.059
G01 X-127.971 Y16.047
X-127.952 Y16.068
G02 X-124.08 Y18.775 I8.417 J-7.918
G01 X-123.975 Y18.819
G02 X-119.365 Y19.749 I4.61 J-10.961
G01 X-14.58
G02 X-10.955 Y19.187 I-.022 J-12.121
X-5.98 Y16.068 I-3.519 J-11.14
G01 X-5.948 Y16.034
X-5.946 Y16.023
G02 X-5.468 Y15.47 I-3.611 J-3.601
X-3.728 Y12.054 I-9.112 J-6.793
G01 X-2.296 Y12.5
X0.0
Y25.5
Z-3.962
G00 Z-3.764
G01 Z-4.161
Z-5.161 F1000.
Y20.
X121.5 F2500.
X127. F2188.
X132.5 F1875.
Y14.5
Y-9. F2500.
Y-14.5 F2188.
Y-20. F1875.
X127.
X117.274 F2500.
Y-12.5
G03 X117.94 Y-8.416 I-12.199 J4.084 F1500.
X117.119 Y-3.893 I-12.865 J0.0
G01 X119.353
G03 X124.302 Y-2.951 I-.01 J13.518
X125. Y-2.649 I-6.849 J16.788
G01 Y-12.5 F2500.
X117.274
Y-20.
X-121.5
X-127. F2188.
X-132.5 F1875.
Y-14.5
Y-2.651 F2500.
X-125.
G03 X-119.354 Y-3.893 I5.654 J12.248 F1500.
G01 X-117.119
G03 X-117.94 Y-8.416 I12.044 J-4.522
X-117.274 Y-12.5 I12.865 J0.0
G01 X-125. F2500.
Y-2.651
X-132.5
Y9.
Y14.5 F2188.
Y20. F1875.
X-127.
X0.0 F2500.
Y12.5
X2.296
G03 X1.715 Y8.678 I12.284 J-3.822 F1500.
X4.268 Y.986 I12.865 J0.0
X4.506 Y.687 I4.684 J3.494
X5.011 Y.13 I9.579 J8.171
X4.836 Y-.056 I8.752 J-8.362
G01 X4.642 Y-.269
G03 X4.309 Y-.669 I4.03 J-3.691
X1.715 Y-8.416 I10.271 J-7.747
X2.38 Y-12.5 I12.865 J0.0
G01 X3.803 Y-12.024 F2500.
G02 X3.215 Y-8.416 I10.777 J3.608
X5.506 Y-1.572 I11.365 J0.0
X5.748 Y-1.282 I3.166 J-2.388
G01 X5.942 Y-1.07
G02 X7.242 Y.131 I7.82 J-7.162
X5.647 Y1.661 I6.843 J8.727
X5.47 Y1.883 I3.305 J2.819
X3.215 Y8.678 I9.11 J6.795
X5.468 Y15.47 I11.365 J0.0
X5.959 Y16.037 I4.089 J-3.048
G01 X5.962 Y16.053
X5.975 Y16.062
G02 X9.39 Y18.563 I8.384 J-7.863
G01 X9.438 Y18.586
G02 X14.57 Y19.749 I5.132 J-10.744
G01 X119.162
X119.27
G02 X120.42 Y19.699 I0.0 J-13.258
X127.024 Y16.953 I-1.026 J-11.776
X127.987 Y16.032 I-6.987 J-8.269
G01 X127.988 Y16.023
G02 X128.465 Y15.47 I-3.612 J-3.601
X130.718 Y8.678 I-9.112 J-6.793
X127.959 Y1.255 I-11.365 J0.0
X125.422 Y-.761 I-7.287 J6.566
X123.735 Y-1.562 I-7.969 J14.598
X119.353 Y-2.393 I-4.392 J11.187
G01 X114.713
G02 X116.44 Y-8.416 I-9.638 J-6.022
X105.081 Y-19.781 I-11.365 J0.0
G01 X86.968
X69.753
G02 X69.342 Y-19.767 I0.0 J6.243
X66.4 Y-19.533 I7.141 J108.298
G03 X65.509 Y-19.487 I-1.032 J-11.353
G01 X14.58
G02 X11.94 Y-19.192 I.029 J12.227
X6.232 Y-16.068 I2.571 J11.473
X5.468 Y-15.209 I6.076 J6.169
X3.803 Y-12.024 I9.112 J6.793
G01 X2.38 Y-12.5
X-2.38
G03 X-1.715 Y-8.416 I-12.199 J4.084 F1500.
X-4.265 Y-.727 I-12.865 J0.0
X-4.787 Y-.109 I-5.291 J-3.945
X-4.845 Y-.044 I-1.158 J-.954
X-5.01 Y.131 I-9.284 J-8.606
X-4.83 Y.323 I-9.019 J8.661
G01 X-4.693 Y.471
G03 X-4.279 Y.971 I-4.731 J4.35
X-1.715 Y8.678 I-10.301 J7.707
X-2.296 Y12.5 I-12.865 J0.0
G01 X-3.728 Y12.054 F2500.
G02 X-3.215 Y8.678 I-10.852 J-3.377
X-5.48 Y1.87 I-11.365 J0.0
X-5.798 Y1.487 I-3.945 J2.952
G01 X-5.933 Y1.339
G02 X-7.241 Y.131 I-8.096 J7.453
X-5.945 Y-1.063 I-6.888 J-8.78
G01 X-5.943 Y-1.073
G02 X-5.468 Y-1.623 I-3.614 J-3.599
X-3.215 Y-8.416 I-9.112 J-6.793
X-5.471 Y-15.212 I-11.365 J0.0
X-6.156 Y-15.992 I-6.935 J5.407
X-12.18 Y-19.243 I-8.353 J8.269
G01 X-12.296 Y-19.267
G02 X-14.58 Y-19.487 I-2.289 J11.805
G01 X-65.505
G03 X-65.953 Y-19.502 I.019 J-7.004
X-68.188 Y-19.695 I4.919 J-70.185
G02 X-69.865 Y-19.781 I-1.677 J16.27
G01 X-69.977
X-105.083
G02 X-116.44 Y-8.416 I.008 J11.365
X-114.713 Y-2.393 I11.365 J0.0
G01 X-119.353
G02 X-124.527 Y-1.216 I.007 J11.99
X-127.21 Y.502 I4.051 J9.28
X-127.905 Y1.193 I5.897 J6.623
X-130.718 Y8.678 I8.552 J7.485
X-128.456 Y15.481 I11.365 J0.0
X-127.972 Y16.038 I4.081 J-3.059
G01 X-127.971 Y16.047
X-127.952 Y16.068
G02 X-124.08 Y18.775 I8.417 J-7.918
G01 X-123.974 Y18.819
G02 X-119.365 Y19.749 I4.609 J-10.961
G01 X-14.58
G02 X-10.955 Y19.187 I-.021 J-12.118
X-5.98 Y16.068 I-3.52 J-11.14
G01 X-5.948 Y16.034
X-5.946 Y16.023
G02 X-5.468 Y15.47 I-3.611 J-3.601
X-3.728 Y12.054 I-9.112 J-6.793
G01 X-2.296 Y12.5
X0.0
Y25.5
Z-4.161
G00 Z-3.962
G01 Z-4.359
Z-5.359 F1000.
Y20.
X121.5 F2500.
X127. F2188.
X132.5 F1875.
Y14.5
Y-9. F2500.
Y-14.5 F2188.
Y-20. F1875.
X127.
X117.274 F2500.
Y-12.5
G03 X117.94 Y-8.416 I-12.199 J4.084 F1500.
X117.119 Y-3.893 I-12.865 J0.0
G01 X119.353
G03 X124.302 Y-2.951 I-.01 J13.518
X125. Y-2.649 I-6.852 J16.793
G01 Y-12.5 F2500.
X117.274
Y-20.
X-121.5
X-127. F2188.
X-132.5 F1875.
Y-14.5
Y-2.651 F2500.
X-125.
G03 X-119.354 Y-3.893 I5.654 J12.247 F1500.
G01 X-117.119
G03 X-117.94 Y-8.416 I12.044 J-4.522
X-117.274 Y-12.5 I12.865 J0.0
G01 X-125. F2500.
Y-2.651
X-132.5
Y9.
Y14.5 F2188.
Y20. F1875.
X-127.
X0.0 F2500.
Y12.5
X2.296
G03 X1.715 Y8.678 I12.284 J-3.822 F1500.
X4.266 Y.988 I12.865 J0.0
X4.509 Y.684 I4.734 J3.529
X5.011 Y.13 I9.577 J8.175
X4.836 Y-.057 I8.752 J-8.362
G01 X4.642 Y-.269
G03 X4.309 Y-.669 I4.03 J-3.691
X1.715 Y-8.416 I10.271 J-7.747
X2.38 Y-12.5 I12.865 J0.0
G01 X3.803 Y-12.024 F2500.
G02 X3.215 Y-8.416 I10.777 J3.608
X5.506 Y-1.572 I11.365 J0.0
X5.748 Y-1.282 I3.165 J-2.387
G01 X5.942 Y-1.07
G02 X7.241 Y.131 I7.82 J-7.162
X5.65 Y1.658 I6.844 J8.728
X5.468 Y1.885 I3.35 J2.86
X3.215 Y8.678 I9.111 J6.793
X5.468 Y15.47 I11.365 J0.0
X5.959 Y16.037 I4.089 J-3.048
G01 X5.962 Y16.053
X5.975 Y16.062
G02 X9.39 Y18.563 I8.384 J-7.864
G01 X9.439 Y18.587
G02 X14.57 Y19.749 I5.131 J-10.744
G01 X119.162
X119.271
G02 X120.423 Y19.699 I0.0 J-13.245
X127.022 Y16.954 I-1.029 J-11.776
X127.987 Y16.032 I-6.988 J-8.274
G01 X127.988 Y16.023
G02 X128.465 Y15.47 I-3.612 J-3.601
X130.718 Y8.678 I-9.112 J-6.793
X127.959 Y1.255 I-11.365 J0.0
X125.422 Y-.761 I-7.287 J6.566
X123.735 Y-1.562 I-7.971 J14.603
X119.353 Y-2.393 I-4.392 J11.187
G01 X114.713
G02 X116.44 Y-8.416 I-9.638 J-6.022
X105.081 Y-19.781 I-11.365 J0.0
G01 X86.968
X69.753
G02 X69.341 Y-19.767 I0.0 J6.252
X66.4 Y-19.533 I7.146 J108.341
G03 X65.509 Y-19.487 I-1.034 J-11.392
G01 X14.58
G02 X11.94 Y-19.192 I.029 J12.226
X6.232 Y-16.068 I2.57 J11.473
X5.468 Y-15.209 I6.076 J6.169
X3.803 Y-12.024 I9.112 J6.793
G01 X2.38 Y-12.5
X-2.38
G03 X-1.715 Y-8.416 I-12.199 J4.084 F1500.
X-4.265 Y-.727 I-12.865 J0.0
X-4.787 Y-.109 I-5.291 J-3.945
X-4.845 Y-.043 I-1.158 J-.954
X-5.01 Y.131 I-9.284 J-8.605
X-4.83 Y.323 I-9.02 J8.661
G01 X-4.694 Y.471
G03 X-4.279 Y.971 I-4.731 J4.349
X-1.715 Y8.678 I-10.301 J7.707
X-2.296 Y12.5 I-12.865 J0.0
G01 X-3.728 Y12.054 F2500.
G02 X-3.215 Y8.678 I-10.852 J-3.377
X-5.48 Y1.869 I-11.365 J0.0
X-5.798 Y1.486 I-3.945 J2.951
G01 X-5.933 Y1.339
G02 X-7.241 Y.131 I-8.097 J7.454
X-5.945 Y-1.063 I-6.888 J-8.779
G01 X-5.943 Y-1.073
G02 X-5.468 Y-1.623 I-3.614 J-3.599
X-3.215 Y-8.416 I-9.112 J-6.793
X-5.471 Y-15.212 I-11.365 J0.0
X-6.153 Y-15.989 I-6.918 J5.391
X-12.18 Y-19.243 I-8.356 J8.265
G01 X-12.296 Y-19.267
G02 X-14.58 Y-19.487 I-2.289 J11.804
G01 X-65.505
G03 X-65.953 Y-19.502 I.021 J-7.042
X-68.188 Y-19.695 I4.909 J-70.083
G02 X-69.865 Y-19.781 I-1.676 J16.266
G01 X-69.977
X-105.083
G02 X-116.44 Y-8.416 I.008 J11.365
X-114.713 Y-2.393 I11.365 J0.0
G01 X-119.353
G02 X-124.527 Y-1.216 I.007 J11.989
X-127.21 Y.502 I4.05 J9.279
X-127.905 Y1.193 I5.898 J6.623
X-130.718 Y8.678 I8.552 J7.485
X-128.456 Y15.481 I11.365 J0.0
X-127.972 Y16.038 I4.081 J-3.059
G01 X-127.971 Y16.047
X-127.952 Y16.068
G02 X-124.08 Y18.775 I8.421 J-7.922
G01 X-123.973 Y18.82
G02 X-119.365 Y19.749 I4.607 J-10.959
G01 X-14.58
G02 X-10.955 Y19.187 I-.021 J-12.116
X-5.98 Y16.068 I-3.52 J-11.141
G01 X-5.948 Y16.034
X-5.946 Y16.023
G02 X-5.468 Y15.47 I-3.611 J-3.601
X-3.728 Y12.054 I-9.112 J-6.793
G01 X-2.296 Y12.5
X0.0
Y25.5
Z-4.359
G00 Z-4.161
G01 Z-4.558
Z-5.558 F1000.
Y20.
X121.5 F2500.
X127. F2188.
X132.5 F1875.
Y14.5
Y-9. F2500.
Y-14.5 F2188.
Y-20. F1875.
X127.
X117.274 F2500.
Y-12.5
G03 X117.94 Y-8.416 I-12.199 J4.084 F1500.
X117.119 Y-3.893 I-12.865 J0.0
G01 X119.353
G03 X124.302 Y-2.951 I-.01 J13.517
X125. Y-2.649 I-6.854 J16.798
G01 Y-12.5 F2500.
X117.274
Y-20.
X-121.5
X-127. F2188.
X-132.5 F1875.
Y-14.5
Y-2.651 F2500.
X-125.
G03 X-119.354 Y-3.893 I5.654 J12.247 F1500.
G01 X-117.119
G03 X-117.94 Y-8.416 I12.044 J-4.522
X-117.274 Y-12.5 I12.865 J0.0
G01 X-125. F2500.
Y-2.651
X-132.5
Y9.
Y14.5 F2188.
Y20. F1875.
X-127.
X0.0 F2500.
Y12.5
X2.296
G03 X1.715 Y8.678 I12.284 J-3.822 F1500.
X4.266 Y.988 I12.865 J0.0
X4.635 Y.535 I5.373 J4.003
X5.01 Y.13 I9.63 J8.531
X4.836 Y-.057 I8.752 J-8.361
G01 X4.642 Y-.269
G03 X4.309 Y-.669 I4.03 J-3.69
X1.715 Y-8.416 I10.271 J-7.747
X2.38 Y-12.5 I12.865 J0.0
G01 X3.803 Y-12.024 F2500.
G02 X3.215 Y-8.416 I10.777 J3.608
X5.506 Y-1.572 I11.365 J0.0
X5.748 Y-1.282 I3.165 J-2.387
G01 X5.942 Y-1.07
G02 X7.241 Y.131 I7.82 J-7.162
X5.757 Y1.531 I7.024 J8.935
X5.468 Y1.885 I3.882 J3.46
X3.215 Y8.678 I9.112 J6.793
X5.468 Y15.47 I11.365 J0.0
X5.959 Y16.037 I4.089 J-3.048
G01 X5.962 Y16.053
X5.975 Y16.062
G02 X9.39 Y18.563 I8.384 J-7.864
G01 X9.44 Y18.587
G02 X14.57 Y19.749 I5.13 J-10.744
G01 X119.162
X119.272
G02 X120.425 Y19.699 I0.0 J-13.231
X127.019 Y16.957 I-1.03 J-11.776
X127.987 Y16.032 I-6.988 J-8.28
G01 X127.988 Y16.023
G02 X128.465 Y15.47 I-3.612 J-3.601
X130.718 Y8.678 I-9.112 J-6.793
X127.959 Y1.255 I-11.365 J0.0
X125.422 Y-.761 I-7.286 J6.564
X123.736 Y-1.562 I-7.974 J14.608
X119.353 Y-2.393 I-4.392 J11.186
G01 X114.713
G02 X116.44 Y-8.416 I-9.638 J-6.022
X105.081 Y-19.781 I-11.365 J0.0
G01 X86.968
X69.753
G02 X69.341 Y-19.767 I0.0 J6.261
X66.4 Y-19.533 I7.151 J108.385
G03 X65.509 Y-19.487 I-1.036 J-11.43
G01 X14.58
G02 X11.94 Y-19.192 I.029 J12.225
X6.232 Y-16.068 I2.57 J11.473
X5.468 Y-15.209 I6.076 J6.169
X3.803 Y-12.024 I9.112 J6.793
G01 X2.38 Y-12.5
X-2.38
G03 X-1.715 Y-8.416 I-12.199 J4.084 F1500.
X-4.265 Y-.727 I-12.865 J0.0
X-4.787 Y-.11 I-5.291 J-3.945
X-4.845 Y-.043 I-1.158 J-.954
X-5.01 Y.131 I-9.284 J-8.605
X-4.83 Y.323 I-9.02 J8.662
G01 X-4.694 Y.471
G03 X-4.279 Y.97 I-4.73 J4.349
X-1.715 Y8.678 I-10.301 J7.707
X-2.296 Y12.5 I-12.865 J0.0
G01 X-3.728 Y12.054 F2500.
G02 X-3.215 Y8.678 I-10.852 J-3.377
X-5.48 Y1.869 I-11.365 J0.0
X-5.798 Y1.486 I-3.944 J2.951
G01 X-5.933 Y1.339
G02 X-7.241 Y.131 I-8.097 J7.454
X-5.945 Y-1.063 I-6.887 J-8.779
G01 X-5.943 Y-1.073
G02 X-5.468 Y-1.623 I-3.614 J-3.599
X-3.215 Y-8.416 I-9.112 J-6.793
X-5.473 Y-15.215 I-11.365 J0.0
X-6.16 Y-15.995 I-6.958 J5.433
X-12.18 Y-19.244 I-8.35 J8.271
G01 X-12.296 Y-19.267
G02 X-14.58 Y-19.487 I-2.289 J11.803
G01 X-65.505
G03 X-65.953 Y-19.502 I.022 J-7.081
X-68.188 Y-19.695 I4.9 J-69.981
G02 X-69.864 Y-19.781 I-1.676 J16.262
G01 X-69.977
X-105.083
G02 X-116.44 Y-8.416 I.008 J11.365
X-114.713 Y-2.393 I11.365 J0.0
G01 X-119.353
G02 X-124.527 Y-1.216 I.007 J11.989
X-127.21 Y.502 I4.05 J9.279
X-127.905 Y1.193 I5.899 J6.624
X-130.718 Y8.678 I8.552 J7.485
X-128.456 Y15.481 I11.365 J0.0
X-127.972 Y16.038 I4.081 J-3.059
G01 X-127.971 Y16.047
X-127.952 Y16.068
G02 X-124.08 Y18.775 I8.421 J-7.922
G01 X-123.972 Y18.82
G02 X-119.366 Y19.749 I4.607 J-10.959
G01 X-14.58
G02 X-10.955 Y19.187 I-.02 J-12.113
X-5.98 Y16.068 I-3.52 J-11.141
G01 X-5.948 Y16.034
X-5.946 Y16.023
G02 X-5.468 Y15.47 I-3.611 J-3.601
X-3.728 Y12.054 I-9.112 J-6.793
G01 X-2.296 Y12.5
X0.0
Y25.5
Z-4.558
G00 Z-4.359
G01 Z-4.756
Z-5.756 F1000.
Y20.
X121.5 F2500.
X127. F2188.
X132.5 F1875.
Y14.5
Y-9. F2500.
Y-14.5 F2188.
Y-20. F1875.
X127.
X117.274 F2500.
Y-12.5
G03 X117.94 Y-8.416 I-12.199 J4.084 F1500.
X117.119 Y-3.893 I-12.865 J0.0
G01 X119.353
G03 X124.302 Y-2.951 I-.009 J13.517
X125. Y-2.649 I-6.856 J16.803
G01 Y-12.5 F2500.
X117.274
Y-20.
X-121.5
X-127. F2188.
X-132.5 F1875.
Y-14.5
Y-2.651 F2500.
X-125.
G03 X-119.354 Y-3.893 I5.654 J12.246 F1500.
G01 X-117.119
G03 X-117.94 Y-8.416 I12.044 J-4.522
X-117.274 Y-12.5 I12.865 J0.0
G01 X-125. F2500.
Y-2.651
X-132.5
Y9.
Y14.5 F2188.
Y20. F1875.
X-127.
X0.0 F2500.
Y12.5
X2.296
G03 X1.715 Y8.678 I12.284 J-3.822 F1500.
X4.266 Y.988 I12.865 J0.0
X4.635 Y.535 I5.376 J4.004
X5.01 Y.13 I9.63 J8.53
X4.836 Y-.057 I8.752 J-8.361
G01 X4.642 Y-.269
G03 X4.309 Y-.668 I4.029 J-3.69
X1.715 Y-8.416 I10.271 J-7.747
X2.38 Y-12.5 I12.865 J0.0
G01 X3.803 Y-12.024 F2500.
G02 X3.215 Y-8.416 I10.777 J3.608
X5.507 Y-1.572 I11.365 J0.0
X5.748 Y-1.282 I3.164 J-2.387
G01 X5.942 Y-1.07
G02 X7.241 Y.131 I7.82 J-7.162
X5.757 Y1.531 I7.024 J8.935
X5.468 Y1.885 I3.885 J3.462
X3.215 Y8.678 I9.112 J6.793
X5.468 Y15.47 I11.365 J0.0
X5.959 Y16.037 I4.089 J-3.048
G01 X5.96 Y16.051
X5.972 Y16.058
G02 X9.539 Y18.634 I8.409 J-7.886
G01 X9.613 Y18.669
G02 X14.573 Y19.749 I4.959 J-10.845
G01 X14.58
X119.162
X119.272
G02 X120.429 Y19.699 I0.0 J-13.218
X127.018 Y16.958 I-1.035 J-11.776
X127.987 Y16.032 I-6.99 J-8.285
G01 X127.988 Y16.023
G02 X128.465 Y15.47 I-3.612 J-3.601
X130.718 Y8.678 I-9.112 J-6.793
X127.959 Y1.255 I-11.365 J0.0
X125.422 Y-.761 I-7.284 J6.562
X123.736 Y-1.562 I-7.976 J14.613
X119.353 Y-2.393 I-4.392 J11.185
G01 X114.713
G02 X116.44 Y-8.416 I-9.638 J-6.022
X105.081 Y-19.781 I-11.365 J0.0
G01 X86.968
X69.753
G02 X69.34 Y-19.767 I0.0 J6.27
X66.4 Y-19.533 I7.156 J108.429
G03 X65.509 Y-19.487 I-1.038 J-11.469
G01 X14.58
G02 X11.94 Y-19.192 I.029 J12.224
X6.232 Y-16.068 I2.57 J11.472
X5.468 Y-15.209 I6.076 J6.169
X3.803 Y-12.024 I9.112 J6.793
G01 X2.38 Y-12.5
X-2.38
G03 X-1.715 Y-8.416 I-12.199 J4.084 F1500.
X-4.265 Y-.727 I-12.865 J0.0
X-4.787 Y-.11 I-5.291 J-3.945
X-4.845 Y-.043 I-1.158 J-.953
X-5.01 Y.131 I-9.283 J-8.604
X-4.83 Y.323 I-9.021 J8.663
G01 X-4.694 Y.471
G03 X-4.279 Y.97 I-4.73 J4.349
X-1.715 Y8.678 I-10.3 J7.708
X-2.296 Y12.5 I-12.865 J0.0
G01 X-3.728 Y12.054 F2500.
G02 X-3.215 Y8.678 I-10.852 J-3.377
X-5.48 Y1.869 I-11.365 J0.0
X-5.798 Y1.486 I-3.943 J2.951
G01 X-5.933 Y1.339
G02 X-7.241 Y.131 I-8.098 J7.455
X-5.945 Y-1.063 I-6.887 J-8.778
G01 X-5.943 Y-1.073
G02 X-5.468 Y-1.623 I-3.614 J-3.599
X-3.215 Y-8.416 I-9.112 J-6.793
X-5.473 Y-15.215 I-11.365 J0.0
X-6.158 Y-15.994 I-6.951 J5.427
X-12.18 Y-19.244 I-8.351 J8.269
G01 X-12.296 Y-19.267
G02 X-14.58 Y-19.487 I-2.288 J11.802
G01 X-65.505
G03 X-65.953 Y-19.503 I.024 J-7.12
X-68.188 Y-19.695 I4.891 J-69.879
G02 X-69.864 Y-19.781 I-1.676 J16.258
G01 X-69.977
X-105.083
G02 X-116.44 Y-8.416 I.008 J11.365
X-114.713 Y-2.393 I11.365 J0.0
G01 X-119.353
G02 X-124.527 Y-1.216 I.007 J11.988
X-127.21 Y.502 I4.049 J9.277
X-127.905 Y1.193 I5.901 J6.627
X-130.718 Y8.678 I8.552 J7.485
X-128.456 Y15.481 I11.365 J0.0
X-127.972 Y16.038 I4.081 J-3.059
G01 X-127.971 Y16.047
X-127.952 Y16.068
G02 X-124.08 Y18.775 I8.421 J-7.922
G01 X-123.971 Y18.82
G02 X-119.366 Y19.749 I4.606 J-10.959
G01 X-14.58
G02 X-10.955 Y19.188 I-.02 J-12.11
X-5.98 Y16.068 I-3.52 J-11.141
G01 X-5.948 Y16.034
X-5.946 Y16.023
G02 X-5.468 Y15.47 I-3.611 J-3.601
X-3.728 Y12.054 I-9.112 J-6.793
G01 X-2.296 Y12.5
X0.0
Y25.5
Z-4.756
G00 Z-4.558
G01 Z-4.955
Z-5.955 F1000.
Y20.
X121.5 F2500.
X127. F2188.
X132.5 F1875.
Y14.5
Y-9. F2500.
Y-14.5 F2188.
Y-20. F1875.
X127.
X117.274 F2500.
Y-12.5
G03 X117.94 Y-8.416 I-12.199 J4.084 F1500.
X117.119 Y-3.893 I-12.865 J0.0
G01 X119.353
G03 X124.302 Y-2.951 I-.009 J13.516
X125. Y-2.649 I-6.857 J16.805
G01 Y-12.5 F2500.
X117.274
Y-20.
X-121.5
X-127. F2188.
X-132.5 F1875.
Y-14.5
Y-2.651 F2500.
X-125.
G03 X-119.354 Y-3.893 I5.654 J12.246 F1500.
G01 X-117.119
G03 X-117.94 Y-8.416 I12.044 J-4.522
X-117.274 Y-12.5 I12.865 J0.0
G01 X-125. F2500.
Y-2.651
X-132.5
Y9.
Y14.5 F2188.
Y20. F1875.
X-127.
X0.0 F2500.
Y12.5
X2.296
G03 X1.715 Y8.678 I12.284 J-3.822 F1500.
X4.266 Y.988 I12.865 J0.0
X4.635 Y.535 I5.378 J4.006
X5.01 Y.13 I9.63 J8.53
X4.836 Y-.057 I8.752 J-8.361
G01 X4.642 Y-.269
G03 X4.309 Y-.668 I4.029 J-3.689
X1.715 Y-8.416 I10.271 J-7.748
X2.38 Y-12.5 I12.865 J0.0
G01 X3.803 Y-12.024 F2500.
G02 X3.215 Y-8.416 I10.777 J3.608
X5.507 Y-1.572 I11.365 J0.0
X5.748 Y-1.282 I3.164 J-2.387
G01 X5.942 Y-1.07
G02 X7.241 Y.131 I7.82 J-7.161
X5.757 Y1.531 I7.024 J8.935
X5.468 Y1.885 I3.887 J3.463
X3.215 Y8.678 I9.112 J6.793
X5.468 Y15.47 I11.365 J0.0
X5.959 Y16.037 I4.089 J-3.048
G01 X5.96 Y16.051
X5.971 Y16.058
G02 X9.539 Y18.634 I8.409 J-7.886
G01 X9.613 Y18.669
G02 X14.573 Y19.749 I4.959 J-10.845
G01 X14.58
X119.162
X119.273
G02 X120.432 Y19.698 I0.0 J-13.204
X127.016 Y16.959 I-1.038 J-11.775
X127.987 Y16.032 I-6.991 J-8.29
G01 X127.988 Y16.023
G02 X128.465 Y15.47 I-3.612 J-3.601
X130.718 Y8.678 I-9.112 J-6.793
X127.959 Y1.255 I-11.365 J0.0
X125.422 Y-.761 I-7.282 J6.559
X123.736 Y-1.562 I-7.977 J14.615
X119.353 Y-2.393 I-4.392 J11.185
G01 X114.713
G02 X116.44 Y-8.416 I-9.638 J-6.022
X105.081 Y-19.781 I-11.365 J0.0
G01 X86.968
X69.753
G02 X69.339 Y-19.767 I0.0 J6.279
X66.4 Y-19.533 I7.161 J108.473
G03 X65.509 Y-19.487 I-1.04 J-11.508
G01 X14.58
G02 X11.94 Y-19.192 I.029 J12.224
X6.232 Y-16.068 I2.57 J11.472
X5.468 Y-15.209 I6.076 J6.168
X3.803 Y-12.024 I9.112 J6.793
G01 X2.38 Y-12.5
X-2.38
G03 X-1.715 Y-8.416 I-12.199 J4.084 F1500.
X-4.265 Y-.727 I-12.865 J0.0
X-4.787 Y-.11 I-5.291 J-3.945
X-4.845 Y-.043 I-1.158 J-.953
X-5.01 Y.131 I-9.283 J-8.604
X-4.83 Y.323 I-9.021 J8.663
G01 X-4.694 Y.47
G03 X-4.28 Y.969 I-4.729 J4.348
X-1.715 Y8.678 I-10.3 J7.708
X-2.296 Y12.5 I-12.865 J0.0
G01 X-3.728 Y12.054 F2500.
G02 X-3.215 Y8.678 I-10.852 J-3.377
X-5.481 Y1.868 I-11.365 J0.0
X-5.798 Y1.486 I-3.943 J2.951
G01 X-5.933 Y1.339
G02 X-7.241 Y.131 I-8.098 J7.455
X-5.945 Y-1.063 I-6.886 J-8.778
G01 X-5.943 Y-1.073
G02 X-5.468 Y-1.623 I-3.614 J-3.599
X-3.215 Y-8.416 I-9.112 J-6.793
X-5.473 Y-15.215 I-11.365 J0.0
X-6.157 Y-15.992 I-6.945 J5.421
X-12.18 Y-19.244 I-8.352 J8.268
G01 X-12.296 Y-19.267
G02 X-14.58 Y-19.487 I-2.288 J11.802
G01 X-65.505
G03 X-65.953 Y-19.503 I.026 J-7.16
X-68.188 Y-19.695 I4.881 J-69.778
G02 X-69.864 Y-19.781 I-1.675 J16.254
G01 X-69.977
X-105.083
G02 X-116.44 Y-8.416 I.008 J11.365
X-114.713 Y-2.393 I11.365 J0.0
G01 X-119.353
G02 X-124.527 Y-1.216 I.006 J11.988
X-127.21 Y.502 I4.048 J9.276
X-127.905 Y1.193 I6.235 J6.962
X-130.718 Y8.678 I8.552 J7.485
X-128.456 Y15.481 I11.365 J0.0
X-127.972 Y16.038 I4.081 J-3.059
G01 X-127.971 Y16.047
X-127.952 Y16.068
G02 X-124.08 Y18.775 I8.421 J-7.922
G01 X-123.971 Y18.821
G02 X-119.366 Y19.749 I4.605 J-10.959
G01 X-14.58
G02 X-10.955 Y19.188 I-.019 J-12.107
X-5.979 Y16.068 I-3.52 J-11.142
G01 X-5.948 Y16.034
X-5.946 Y16.023
G02 X-5.468 Y15.47 I-3.611 J-3.601
X-3.728 Y12.054 I-9.112 J-6.793
G01 X-2.296 Y12.5
X0.0
Y25.5
Z-4.955
G00 Z-4.756
G01 Z-5.153
Z-6.153 F1000.
Y20.
X121.5 F2500.
X127. F2188.
X132.5 F1875.
Y14.5
Y-9. F2500.
Y-14.5 F2188.
Y-20. F1875.
X127.
X117.274 F2500.
Y-12.5
G03 X117.94 Y-8.416 I-12.199 J4.084 F1500.
X117.119 Y-3.893 I-12.865 J0.0
G01 X119.353
G03 X124.302 Y-2.951 I-.009 J13.515
X125. Y-2.649 I-6.858 J16.808
G01 Y-12.5 F2500.
X117.274
Y-20.
X-121.5
X-127. F2188.
X-132.5 F1875.
Y-14.5
Y-2.651 F2500.
X-125.
G03 X-119.354 Y-3.893 I5.653 J12.245 F1500.
G01 X-117.119
G03 X-117.94 Y-8.416 I12.044 J-4.522
X-117.274 Y-12.5 I12.865 J0.0
G01 X-125. F2500.
Y-2.651
X-132.5
Y9.
Y14.5 F2188.
Y20. F1875.
X-127.
X0.0 F2500.
Y12.5
X2.296
G03 X1.715 Y8.678 I12.284 J-3.822 F1500.
X4.266 Y.988 I12.865 J0.0
X4.635 Y.535 I5.381 J4.008
X5.01 Y.13 I9.63 J8.53
X4.836 Y-.057 I8.752 J-8.361
G01 X4.642 Y-.269
G03 X4.309 Y-.668 I4.028 J-3.689
X1.715 Y-8.416 I10.27 J-7.748
X2.38 Y-12.5 I12.865 J0.0
G01 X3.803 Y-12.024 F2500.
G02 X3.215 Y-8.416 I10.777 J3.608
X5.507 Y-1.571 I11.365 J0.0
X5.748 Y-1.282 I3.163 J-2.386
G01 X5.942 Y-1.07
G02 X7.241 Y.131 I7.82 J-7.161
X5.757 Y1.531 I7.024 J8.934
X5.468 Y1.885 I3.889 J3.465
X3.215 Y8.678 I9.112 J6.793
X5.468 Y15.47 I11.365 J0.0
X5.959 Y16.037 I4.089 J-3.048
G01 X5.96 Y16.051
X5.971 Y16.058
G02 X9.539 Y18.634 I8.409 J-7.885
G01 X9.613 Y18.669
G02 X14.572 Y19.749 I4.959 J-10.844
G01 X14.58
X119.162
X119.274
G02 X120.435 Y19.698 I0.0 J-13.191
X127.014 Y16.961 I-1.041 J-11.775
X127.987 Y16.032 I-6.993 J-8.295
G01 X127.988 Y16.023
G02 X128.465 Y15.47 I-3.612 J-3.601
X130.718 Y8.678 I-9.112 J-6.793
X127.959 Y1.255 I-11.365 J0.0
X125.422 Y-.761 I-7.28 J6.556
X123.736 Y-1.562 I-7.978 J14.618
X119.353 Y-2.393 I-4.391 J11.184
G01 X114.713
G02 X116.44 Y-8.416 I-9.638 J-6.022
X105.081 Y-19.781 I-11.365 J0.0
G01 X86.968
X69.753
G02 X69.338 Y-19.767 I0.0 J6.288
X66.4 Y-19.533 I7.166 J108.517
G03 X65.509 Y-19.487 I-1.042 J-11.547
