%
G40 G17 G49 G54 G80
G91 G28 Z0.0
( NAME: Capful )
( PART: D:\Program Files\Siemens\NX 12.0\UGII\HM-µç¼«±à³Ì.prt )
( DATE: Sun May 27 04:56:59 2018 )
( D4R0.5 ---> D=4.00 R=0.50 )
S10000 M03
G00 G90 X129.903 Y8.678
Z15.
G17 G01 Z2.55 F1300.
Z-.45 F520.
X125.503
G40 G02 X119.353 Y2.527 I-6.151 J0.0 F1300.
G01 X14.58
G02 X8.429 Y8.678 I0.0 J6.151
X14.58 Y14.828 I6.151 J0.0
G01 X119.353
G02 X125.503 Y8.678 I0.0 J-6.151
G01 X129.903
Z2.55
G00 Z2.6
G01 Z2.5
Z-.5 F520.
X125.503
G02 X119.353 Y2.527 I-6.151 J0.0 F1300.
G01 X14.58
G02 X8.429 Y8.678 I0.0 J6.151
X14.58 Y14.828 I6.151 J0.0
G01 X119.353
G02 X125.503 Y8.678 I0.0 J-6.151
G01 X129.903
Z2.5
G00 Z15.
X115.625 Y-8.416
G01 Z2.55
Z-.45 F520.
X111.225
G02 X105.075 Y-14.566 I-6.151 J0.0 F1300.
G01 X14.58
G02 X8.429 Y-8.416 I0.0 J6.151
X14.58 Y-2.265 I6.151 J0.0
G01 X105.075
G02 X111.225 Y-8.416 I0.0 J-6.151
G01 X115.625
Z2.55
G00 Z2.6
G01 Z2.5
Z-.5 F520.
X111.225
G02 X105.075 Y-14.566 I-6.151 J0.0 F1300.
G01 X14.58
G02 X8.429 Y-8.416 I0.0 J6.151
X14.58 Y-2.265 I6.151 J0.0
G01 X105.075
G02 X111.225 Y-8.416 I0.0 J-6.151
G01 X115.625
Z2.5
G00 Z15.
X-115.625
G01 Z2.55
Z-.45 F520.
X-111.225
G02 X-105.075 Y-2.265 I6.151 J0.0 F1300.
G01 X-14.58
G02 X-8.429 Y-8.416 I0.0 J-6.151
X-14.58 Y-14.566 I-6.151 J0.0
G01 X-105.075
G02 X-111.225 Y-8.416 I0.0 J6.151
G01 X-115.625
Z2.55
G00 Z2.6
G01 Z2.5
Z-.5 F520.
X-111.225
G02 X-105.075 Y-2.265 I6.151 J0.0 F1300.
G01 X-14.58
G02 X-8.429 Y-8.416 I0.0 J-6.151
X-14.58 Y-14.566 I-6.151 J0.0
G01 X-105.075
G02 X-111.225 Y-8.416 I0.0 J6.151
G01 X-115.625
Z2.5
G00 Z15.
X-129.903 Y8.678
G01 Z2.55
Z-.45 F520.
X-125.503
G02 X-119.353 Y14.828 I6.151 J0.0 F1300.
G01 X-14.58
G02 X-8.429 Y8.678 I0.0 J-6.151
X-14.58 Y2.527 I-6.151 J0.0
G01 X-119.353
G02 X-125.503 Y8.678 I0.0 J6.151
G01 X-129.903
Z2.55
G00 Z2.6
G01 Z2.5
Z-.5 F520.
X-125.503
G02 X-119.353 Y14.828 I6.151 J0.0 F1300.
G01 X-14.58
G02 X-8.429 Y8.678 I0.0 J-6.151
X-14.58 Y2.527 I-6.151 J0.0
G01 X-119.353
G02 X-125.503 Y8.678 I0.0 J6.151
G01 X-129.903
Z2.5
G00 Z15.
( D4R0.5 ---> D=4.00 R=0.50 )
S10000 M03
G00 X-72.694 Y11.066
Z15.
G01 Z-1.8 F900.
X-66.966 Z-2. F360.
X-14.58 F540.
G02 X-12.191 Y8.678 I0.0 J-2.388
X-14.58 Y6.289 I-2.388 J0.0
G01 X-119.353
G02 X-121.741 Y8.678 I0.0 J2.388
X-119.353 Y11.066 I2.388 J0.0
G01 X-66.966
Y9.866 F900.
X-14.58
G02 X-13.391 Y8.678 I0.0 J-1.188
X-14.58 Y7.489 I-1.188 J0.0
G01 X-119.353
G02 X-120.541 Y8.678 I0.0 J1.188
X-119.353 Y9.866 I1.188 J0.0
G01 X-66.966
Z1.
G00 Z15.
X-54.1 Y-10.804
G01 Z-1.8
X-59.827 Z-2. F360.
X-105.075 F540.
G02 X-107.463 Y-8.416 I0.0 J2.388
X-105.075 Y-6.027 I2.388 J0.0
G01 X-14.58
G02 X-12.191 Y-8.416 I0.0 J-2.388
X-14.58 Y-10.804 I-2.388 J0.0
G01 X-59.827
Y-9.604 F900.
X-105.075
G02 X-106.263 Y-8.416 I0.0 J1.188
X-105.075 Y-7.227 I1.188 J0.0
G01 X-14.58
G02 X-13.391 Y-8.416 I0.0 J-1.188
X-14.58 Y-9.604 I-1.188 J0.0
G01 X-59.827
Z1.
G00 Z15.
X65.555 Y-10.804
G01 Z-1.8
X59.827 Z-2. F360.
X14.58 F540.
G02 X12.191 Y-8.416 I0.0 J2.388
X14.58 Y-6.027 I2.388 J0.0
G01 X105.075
G02 X107.463 Y-8.416 I0.0 J-2.388
X105.075 Y-10.804 I-2.388 J0.0
G01 X59.827
Y-9.604 F900.
X14.58
G02 X13.391 Y-8.416 I0.0 J1.188
X14.58 Y-7.227 I1.188 J0.0
G01 X105.075
G02 X106.263 Y-8.416 I0.0 J-1.188
X105.075 Y-9.604 I-1.188 J0.0
G01 X59.827
Z1.
G00 Z15.
X61.239 Y11.066
G01 Z-1.8
X66.966 Z-2. F360.
X119.353 F540.
G02 X121.741 Y8.678 I0.0 J-2.388
X119.353 Y6.289 I-2.388 J0.0
G01 X14.58
G02 X12.191 Y8.678 I0.0 J2.388
X14.58 Y11.066 I2.388 J0.0
G01 X66.966
Y9.866 F900.
X119.353
G02 X120.541 Y8.678 I0.0 J-1.188
X119.353 Y7.489 I-1.188 J0.0
G01 X14.58
G02 X13.391 Y8.678 I0.0 J1.188
X14.58 Y9.866 I1.188 J0.0
G01 X66.966
Z1.
G00 Z15.
( D4R0.5 ---> D=4.00 R=0.50 )
S10000 M03
G00 X68.948 Y9.662
Z15.
G01 Z2.43 F2000.
Z-.57 F800.
G03 X66.948 Y11.662 I-2. J0.0 F400.
G01 X14.557 F2000.
G03 X11.784 Y9.721 I.023 J-2.984 F1197.
X11.595 Y8.678 I2.796 J-1.043
X14.58 Y5.693 I2.984 J0.0
G01 X14.599
X119.333 F2000.
X119.353 F1197.
G03 X122.337 Y8.678 I0.0 J2.984
X122.149 Y9.721 I-2.984 J0.0
X119.353 Y11.662 I-2.796 J-1.043
G01 X119.339
X66.948 F2000.
X66.726 Y11.639 Z-.582
X66.503 Y11.618 Z-.593
X66.281 Y11.598 Z-.605
X66.059 Y11.58 Z-.617
X65.836 Y11.563 Z-.628
X65.614 Y11.547 Z-.64
X14.58
G03 X11.71 Y8.678 I0.0 J-2.869 F1179.
X14.58 Y5.808 I2.869 J0.0
G01 X119.353 F2000.
G03 X122.222 Y8.678 I0.0 J2.869 F1179.
X122.026 Y9.721 I-2.869 J0.0
X119.353 Y11.547 I-2.673 J-1.043
G01 X66.948 F2000.
X66.726 Y11.532 Z-.652
X66.503 Y11.518 Z-.663
X66.281 Y11.504 Z-.675
X66.059 Y11.491 Z-.686
X65.836 Y11.479 Z-.698
X65.614 Y11.467 Z-.71
X14.58
G03 X11.791 Y8.678 I0.0 J-2.789 F1165.
X14.58 Y5.889 I2.789 J0.0
G01 X119.353 F2000.
G03 X122.142 Y8.678 I0.0 J2.789 F1165.
X121.94 Y9.721 I-2.789 J0.0
X119.353 Y11.467 I-2.587 J-1.043
G01 X66.948 F2000.
X66.726 Y11.456 Z-.721
X66.503 Y11.445 Z-.733
X66.281 Y11.435 Z-.745
X66.059 Y11.425 Z-.756
X65.836 Y11.416 Z-.768
X65.614 Y11.407 Z-.78
X14.58
G03 X11.851 Y8.678 I0.0 J-2.729 F1154.
X14.58 Y5.949 I2.729 J0.0
G01 X119.353 F2000.
G03 X122.082 Y8.678 I0.0 J2.729 F1154.
X121.874 Y9.721 I-2.729 J0.0
X119.353 Y11.407 I-2.522 J-1.043
G01 X66.948 F2000.
X66.726 Y11.398 Z-.791
X66.503 Y11.39 Z-.803
X66.281 Y11.382 Z-.815
X66.059 Y11.375 Z-.826
X65.836 Y11.367 Z-.838
X65.614 Y11.36 Z-.85
X14.58
G03 X11.897 Y8.678 I0.0 J-2.683 F1146.
X14.58 Y5.995 I2.683 J0.0
G01 X119.353 F2000.
G03 X122.035 Y8.678 I0.0 J2.683 F1146.
X121.824 Y9.721 I-2.683 J0.0
X119.353 Y11.36 I-2.471 J-1.043
G01 X66.948 F2000.
X66.726 Y11.354 Z-.861
X66.503 Y11.347 Z-.873
X66.281 Y11.341 Z-.885
X66.059 Y11.336 Z-.896
X65.836 Y11.33 Z-.908
X65.614 Y11.325 Z-.92
X14.58
G03 X11.933 Y8.678 I0.0 J-2.647 F1139.
X14.58 Y6.031 I2.647 J0.0
G01 X119.353 F2000.
G03 X122. Y8.678 I0.0 J2.647 F1139.
X121.786 Y9.721 I-2.647 J0.0
X119.353 Y11.325 I-2.433 J-1.043
G01 X66.948 F2000.
X66.726 Y11.32 Z-.931
X66.503 Y11.315 Z-.943
X66.281 Y11.311 Z-.955
X66.059 Y11.306 Z-.966
X65.836 Y11.302 Z-.978
X65.614 Y11.299 Z-.99
X14.58
G03 X11.959 Y8.678 I0.0 J-2.621 F1134.
X14.58 Y6.057 I2.621 J0.0
G01 X119.353 F2000.
G03 X121.974 Y8.678 I0.0 J2.621 F1134.
X121.757 Y9.721 I-2.621 J0.0
X119.353 Y11.299 I-2.404 J-1.043
G01 X66.948 F2000.
X66.726 Y11.295 Z-1.001
X66.503 Y11.292 Z-1.013
X66.281 Y11.288 Z-1.024
X66.059 Y11.286 Z-1.036
X65.836 Y11.283 Z-1.048
X65.614 Y11.28 Z-1.059
X14.58
G03 X11.977 Y8.678 I0.0 J-2.603 F1131.
X14.58 Y6.075 I2.603 J0.0
G01 X119.353 F2000.
G03 X121.955 Y8.678 I0.0 J2.603 F1131.
X121.737 Y9.721 I-2.603 J0.0
X119.353 Y11.28 I-2.384 J-1.043
G01 X66.948 F2000.
X66.726 Y11.278 Z-1.071
X66.503 Y11.276 Z-1.083
X66.281 Y11.274 Z-1.094
X66.059 Y11.272 Z-1.106
X65.836 Y11.271 Z-1.118
X65.614 Y11.269 Z-1.129
X14.58
G03 X11.988 Y8.678 I0.0 J-2.592 F1129.
X14.58 Y6.086 I2.592 J0.0
G01 X119.353 F2000.
G03 X121.945 Y8.678 I0.0 J2.592 F1129.
X121.725 Y9.721 I-2.592 J0.0
X119.353 Y11.269 I-2.372 J-1.043
G01 X66.948 F2000.
X66.726 Y11.268 Z-1.141
X66.503 Y11.267 Z-1.153
X66.281 Z-1.164
X66.059 Y11.266 Z-1.176
X65.836 Z-1.188
X65.614 Y11.267 Z-1.199
X14.58
G03 X11.991 Y8.678 I0.0 J-2.589 F1128.
X14.58 Y6.089 I2.589 J0.0
G01 X119.353 F2000.
G03 X121.942 Y8.678 I0.0 J2.589 F1128.
X119.353 Y11.267 I-2.589 J0.0
G01 X66.948 F2000.
X66.726 Y11.266 Z-1.211
X66.503 Z-1.223
X65.614 Z-1.269
X14.58
G03 X11.991 Y8.678 I0.0 J-2.588 F1128.
X14.58 Y6.089 I2.588 J0.0
G01 X119.353 F2000.
G03 X121.941 Y8.678 I0.0 J2.588 F1128.
X119.353 Y11.266 I-2.588 J0.0
G01 X66.948 F2000.
X65.614 Z-1.339
X14.58
G03 X11.991 Y8.678 I0.0 J-2.588 F1128.
X14.58 Y6.089 I2.588 J0.0
G01 X119.353 F2000.
G03 X121.941 Y8.678 I0.0 J2.588 F1128.
X119.353 Y11.266 I-2.588 J0.0
G01 X66.948 F2000.
X65.614 Z-1.409
X14.58
G03 X11.991 Y8.678 I0.0 J-2.588 F1128.
X14.58 Y6.089 I2.588 J0.0
G01 X119.353 F2000.
G03 X121.941 Y8.678 I0.0 J2.588 F1128.
X119.353 Y11.266 I-2.588 J0.0
G01 X66.948 F2000.
X65.614 Z-1.479
X14.58
G03 X11.991 Y8.678 I0.0 J-2.588 F1128.
X14.58 Y6.089 I2.588 J0.0
G01 X119.353 F2000.
G03 X121.941 Y8.678 I0.0 J2.588 F1128.
X119.353 Y11.266 I-2.588 J0.0
G01 X66.948 F2000.
X65.614 Z-1.549
X14.58
G03 X11.991 Y8.678 I0.0 J-2.588 F1128.
X14.58 Y6.089 I2.588 J0.0
G01 X119.353 F2000.
G03 X121.941 Y8.678 I0.0 J2.588 F1128.
X119.353 Y11.266 I-2.588 J0.0
G01 X66.948 F2000.
X65.614 Z-1.619
X14.58
G03 X11.991 Y8.678 I0.0 J-2.588 F1128.
X14.58 Y6.089 I2.588 J0.0
G01 X119.353 F2000.
G03 X121.941 Y8.678 I0.0 J2.588 F1128.
X119.353 Y11.266 I-2.588 J0.0
G01 X66.948 F2000.
X65.614 Z-1.689
X14.58
G03 X11.991 Y8.678 I0.0 J-2.588 F1128.
X14.58 Y6.089 I2.588 J0.0
G01 X119.353 F2000.
G03 X121.941 Y8.678 I0.0 J2.588 F1128.
X119.353 Y11.266 I-2.588 J0.0
G01 X66.948 F2000.
X65.614 Z-1.759
X14.58
G03 X11.991 Y8.678 I0.0 J-2.588 F1128.
X14.58 Y6.089 I2.588 J0.0
G01 X119.353 F2000.
G03 X121.941 Y8.678 I0.0 J2.588 F1128.
X119.353 Y11.266 I-2.588 J0.0
G01 X66.948 F2000.
X65.614 Z-1.829
X14.58
G03 X11.991 Y8.678 I0.0 J-2.588 F1128.
X14.58 Y6.089 I2.588 J0.0
G01 X119.353 F2000.
G03 X121.941 Y8.678 I0.0 J2.588 F1128.
X119.353 Y11.266 I-2.588 J0.0
G01 X66.948 F2000.
X65.614 Z-1.899
X14.58
G03 X11.991 Y8.678 I0.0 J-2.588 F1128.
X14.58 Y6.089 I2.588 J0.0
G01 X119.353 F2000.
G03 X121.941 Y8.678 I0.0 J2.588 F1128.
X119.353 Y11.266 I-2.588 J0.0
G01 X66.948 F2000.
X65.614 Z-1.969
X14.58
G03 X11.991 Y8.678 I0.0 J-2.588 F1128.
X14.58 Y6.089 I2.588 J0.0
G01 X119.353 F2000.
G03 X121.941 Y8.678 I0.0 J2.588 F1128.
X119.353 Y11.266 I-2.588 J0.0
G01 X65.614 F2000.
Y9.266
Z.031
G00 Z2.5
X-64.948 Y9.662
G01 Z2.43
Z-.57 F800.
G03 X-66.948 Y11.662 I-2. J0.0 F400.
G01 X-119.339 F2000.
X-119.353 F1197.
G03 X-122.14 Y9.743 I0.0 J-2.984
X-122.337 Y8.678 I2.788 J-1.066
X-119.353 Y5.693 I2.984 J0.0
G01 X-119.333
X-14.599 F2000.
X-14.58 F1197.
G03 X-11.595 Y8.678 I0.0 J2.984
X-11.784 Y9.721 I-2.984 J0.0
X-14.557 Y11.662 I-2.796 J-1.043
G01 X-66.948 F2000.
X-67.171 Y11.639 Z-.582
X-67.393 Y11.618 Z-.593
X-67.615 Y11.598 Z-.605
X-67.838 Y11.58 Z-.617
X-68.06 Y11.563 Z-.628
X-68.283 Y11.547 Z-.64
X-119.353
G03 X-122.222 Y8.678 I0.0 J-2.869 F1179.
X-119.353 Y5.808 I2.869 J0.0
G01 X-14.58 F2000.
G03 X-11.71 Y8.678 I0.0 J2.869 F1179.
X-11.907 Y9.721 I-2.869 J0.0
X-14.58 Y11.547 I-2.673 J-1.043
G01 X-66.948 F2000.
X-67.171 Y11.532 Z-.652
X-67.393 Y11.518 Z-.663
X-67.615 Y11.504 Z-.675
X-67.838 Y11.491 Z-.686
X-68.06 Y11.479 Z-.698
X-68.283 Y11.467 Z-.71
X-119.353
G03 X-122.142 Y8.678 I0.0 J-2.789 F1165.
X-119.353 Y5.889 I2.789 J0.0
G01 X-14.58 F2000.
G03 X-11.791 Y8.678 I0.0 J2.789 F1165.
X-11.993 Y9.721 I-2.789 J0.0
X-14.58 Y11.467 I-2.587 J-1.043
G01 X-66.948 F2000.
X-67.171 Y11.456 Z-.721
X-67.393 Y11.445 Z-.733
X-67.615 Y11.435 Z-.745
X-67.838 Y11.425 Z-.756
X-68.06 Y11.416 Z-.768
X-68.283 Y11.407 Z-.78
X-119.353
G03 X-122.082 Y8.678 I0.0 J-2.729 F1154.
X-119.353 Y5.949 I2.729 J0.0
G01 X-14.58 F2000.
G03 X-11.851 Y8.678 I0.0 J2.729 F1154.
X-12.058 Y9.721 I-2.729 J0.0
X-14.58 Y11.407 I-2.522 J-1.043
G01 X-66.948 F2000.
X-67.171 Y11.398 Z-.791
X-67.393 Y11.39 Z-.803
X-67.615 Y11.382 Z-.815
X-67.838 Y11.375 Z-.826
X-68.06 Y11.367 Z-.838
X-68.283 Y11.36 Z-.85
X-119.353
G03 X-122.035 Y8.678 I0.0 J-2.683 F1146.
X-119.353 Y5.995 I2.683 J0.0
G01 X-14.58 F2000.
G03 X-11.897 Y8.678 I0.0 J2.683 F1146.
X-12.108 Y9.721 I-2.683 J0.0
X-14.58 Y11.36 I-2.471 J-1.043
G01 X-66.948 F2000.
X-67.171 Y11.354 Z-.861
X-67.393 Y11.347 Z-.873
X-67.615 Y11.341 Z-.885
X-67.838 Y11.336 Z-.896
X-68.06 Y11.33 Z-.908
X-68.283 Y11.325 Z-.92
X-119.353
G03 X-122. Y8.678 I0.0 J-2.647 F1139.
X-119.353 Y6.031 I2.647 J0.0
G01 X-14.58 F2000.
G03 X-11.933 Y8.678 I0.0 J2.647 F1139.
X-12.147 Y9.721 I-2.647 J0.0
X-14.58 Y11.325 I-2.433 J-1.043
G01 X-66.948 F2000.
X-67.171 Y11.32 Z-.931
X-67.393 Y11.315 Z-.943
X-67.615 Y11.311 Z-.955
X-67.838 Y11.306 Z-.966
X-68.06 Y11.302 Z-.978
X-68.283 Y11.299 Z-.99
X-119.353
G03 X-121.974 Y8.678 I0.0 J-2.621 F1134.
X-119.353 Y6.057 I2.621 J0.0
G01 X-14.58 F2000.
G03 X-11.959 Y8.678 I0.0 J2.621 F1134.
X-12.176 Y9.721 I-2.621 J0.0
X-14.58 Y11.299 I-2.404 J-1.043
G01 X-66.948 F2000.
X-67.171 Y11.295 Z-1.001
X-67.393 Y11.292 Z-1.013
X-67.615 Y11.288 Z-1.024
X-67.838 Y11.286 Z-1.036
X-68.06 Y11.283 Z-1.048
X-68.283 Y11.28 Z-1.059
X-119.353
G03 X-121.955 Y8.678 I0.0 J-2.603 F1131.
X-119.353 Y6.075 I2.603 J0.0
G01 X-14.58 F2000.
G03 X-11.977 Y8.678 I0.0 J2.603 F1131.
X-12.196 Y9.721 I-2.603 J0.0
X-14.58 Y11.28 I-2.384 J-1.043
G01 X-66.948 F2000.
X-67.171 Y11.278 Z-1.071
X-67.393 Y11.276 Z-1.083
X-67.615 Y11.274 Z-1.094
X-67.838 Y11.272 Z-1.106
X-68.06 Y11.271 Z-1.118
X-68.283 Y11.269 Z-1.129
X-119.353
G03 X-121.945 Y8.678 I0.0 J-2.592 F1129.
X-119.353 Y6.086 I2.592 J0.0
G01 X-14.58 F2000.
G03 X-11.988 Y8.678 I0.0 J2.592 F1129.
X-12.207 Y9.721 I-2.592 J0.0
X-14.58 Y11.269 I-2.372 J-1.043
G01 X-66.948 F2000.
X-67.171 Y11.268 Z-1.141
X-67.393 Y11.267 Z-1.153
X-67.615 Z-1.164
X-67.838 Y11.266 Z-1.176
X-68.06 Z-1.188
X-68.283 Y11.267 Z-1.199
X-119.353
G03 X-121.942 Y8.678 I0.0 J-2.589 F1128.
X-119.353 Y6.089 I2.589 J0.0
G01 X-14.58 F2000.
G03 X-11.991 Y8.678 I0.0 J2.589 F1128.
X-14.58 Y11.267 I-2.589 J0.0
G01 X-66.948 F2000.
X-67.171 Y11.266 Z-1.211
X-67.393 Z-1.223
X-68.283 Z-1.269
X-119.353
G03 X-121.941 Y8.678 I0.0 J-2.588 F1128.
X-119.353 Y6.089 I2.588 J0.0
G01 X-14.58 F2000.
G03 X-11.991 Y8.678 I0.0 J2.588 F1128.
X-14.58 Y11.266 I-2.588 J0.0
G01 X-66.948 F2000.
X-68.283 Z-1.339
X-119.353
G03 X-121.941 Y8.678 I0.0 J-2.588 F1128.
X-119.353 Y6.089 I2.588 J0.0
G01 X-14.58 F2000.
G03 X-11.991 Y8.678 I0.0 J2.588 F1128.
X-14.58 Y11.266 I-2.588 J0.0
G01 X-66.948 F2000.
X-68.283 Z-1.409
X-119.353
G03 X-121.941 Y8.678 I0.0 J-2.588 F1128.
X-119.353 Y6.089 I2.588 J0.0
G01 X-14.58 F2000.
G03 X-11.991 Y8.678 I0.0 J2.588 F1128.
X-14.58 Y11.266 I-2.588 J0.0
G01 X-66.948 F2000.
X-68.283 Z-1.479
X-119.353
G03 X-121.941 Y8.678 I0.0 J-2.588 F1128.
X-119.353 Y6.089 I2.588 J0.0
G01 X-14.58 F2000.
G03 X-11.991 Y8.678 I0.0 J2.588 F1128.
X-14.58 Y11.266 I-2.588 J0.0
G01 X-66.948 F2000.
X-68.283 Z-1.549
X-119.353
G03 X-121.941 Y8.678 I0.0 J-2.588 F1128.
X-119.353 Y6.089 I2.588 J0.0
G01 X-14.58 F2000.
G03 X-11.991 Y8.678 I0.0 J2.588 F1128.
X-14.58 Y11.266 I-2.588 J0.0
G01 X-66.948 F2000.
X-68.283 Z-1.619
X-119.353
G03 X-121.941 Y8.678 I0.0 J-2.588 F1128.
X-119.353 Y6.089 I2.588 J0.0
G01 X-14.58 F2000.
G03 X-11.991 Y8.678 I0.0 J2.588 F1128.
X-14.58 Y11.266 I-2.588 J0.0
G01 X-66.948 F2000.
X-68.283 Z-1.689
X-119.353
G03 X-121.941 Y8.678 I0.0 J-2.588 F1128.
X-119.353 Y6.089 I2.588 J0.0
G01 X-14.58 F2000.
G03 X-11.991 Y8.678 I0.0 J2.588 F1128.
X-14.58 Y11.266 I-2.588 J0.0
G01 X-66.948 F2000.
X-68.283 Z-1.759
X-119.353
G03 X-121.941 Y8.678 I0.0 J-2.588 F1128.
X-119.353 Y6.089 I2.588 J0.0
G01 X-14.58 F2000.
G03 X-11.991 Y8.678 I0.0 J2.588 F1128.
X-14.58 Y11.266 I-2.588 J0.0
G01 X-66.948 F2000.
X-68.283 Z-1.829
X-119.353
G03 X-121.941 Y8.678 I0.0 J-2.588 F1128.
X-119.353 Y6.089 I2.588 J0.0
G01 X-14.58 F2000.
G03 X-11.991 Y8.678 I0.0 J2.588 F1128.
X-14.58 Y11.266 I-2.588 J0.0
G01 X-66.948 F2000.
X-68.283 Z-1.899
X-119.353
G03 X-121.941 Y8.678 I0.0 J-2.588 F1128.
X-119.353 Y6.089 I2.588 J0.0
G01 X-14.58 F2000.
G03 X-11.991 Y8.678 I0.0 J2.588 F1128.
X-14.58 Y11.266 I-2.588 J0.0
G01 X-66.948 F2000.
X-68.283 Z-1.969
X-119.353
G03 X-121.941 Y8.678 I0.0 J-2.588 F1128.
X-119.353 Y6.089 I2.588 J0.0
G01 X-14.58 F2000.
G03 X-11.991 Y8.678 I0.0 J2.588 F1128.
X-14.58 Y11.266 I-2.588 J0.0
G01 X-68.283 F2000.
Y9.266
Z.031
G00 Z2.5
X57.832 Y-9.4
G01 Z2.43
Z-.57 F800.
G03 X59.832 Y-11.4 I2. J0.0 F400.
G01 X105.073 F2000.
X105.075 F1197.
G03 X108.059 Y-8.416 I0.0 J2.984
X107.806 Y-7.213 I-2.984 J0.0
X105.075 Y-5.431 I-2.731 J-1.203
G01 X105.073
X14.59 F2000.
X14.58 F1197.
G03 X11.849 Y-7.213 I0.0 J-2.984
X11.595 Y-8.416 I2.731 J-1.203
X14.58 Y-11.4 I2.984 J0.0
G01 X14.59
X59.832 F2000.
X60.054 Y-11.377 Z-.582
X60.276 Y-11.356 Z-.593
X60.499 Y-11.336 Z-.605
X60.721 Y-11.318 Z-.617
X60.944 Y-11.301 Z-.628
X61.166 Y-11.285 Z-.64
X105.075
G03 X107.944 Y-8.416 I0.0 J2.869 F1179.
X107.68 Y-7.213 I-2.869 J0.0
X105.075 Y-5.546 I-2.605 J-1.203
G01 X14.58 F2000.
G03 X11.71 Y-8.416 I0.0 J-2.869 F1179.
X14.58 Y-11.285 I2.869 J0.0
G01 X59.832 F2000.
X60.054 Y-11.27 Z-.652
X60.276 Y-11.256 Z-.663
X60.499 Y-11.242 Z-.675
X60.721 Y-11.229 Z-.686
X60.944 Y-11.217 Z-.698
X61.166 Y-11.205 Z-.71
X105.075
G03 X107.864 Y-8.416 I0.0 J2.789 F1165.
X107.591 Y-7.213 I-2.789 J0.0
X105.075 Y-5.627 I-2.516 J-1.203
G01 X14.58 F2000.
G03 X11.791 Y-8.416 I0.0 J-2.789 F1165.
X14.58 Y-11.205 I2.789 J0.0
G01 X59.832 F2000.
X60.054 Y-11.194 Z-.721
X60.276 Y-11.183 Z-.733
X60.499 Y-11.173 Z-.745
X60.721 Y-11.163 Z-.756
X60.944 Y-11.154 Z-.768
X61.166 Y-11.145 Z-.78
X105.075
G03 X107.804 Y-8.416 I0.0 J2.729 F1154.
X107.524 Y-7.213 I-2.729 J0.0
X105.075 Y-5.687 I-2.449 J-1.203
G01 X14.58 F2000.
G03 X11.851 Y-8.416 I0.0 J-2.729 F1154.
X14.58 Y-11.145 I2.729 J0.0
G01 X59.832 F2000.
X60.054 Y-11.136 Z-.791
X60.276 Y-11.128 Z-.803
X60.499 Y-11.12 Z-.815
X60.721 Y-11.113 Z-.826
X60.944 Y-11.105 Z-.838
X61.166 Y-11.098 Z-.85
X105.075
G03 X107.757 Y-8.416 I0.0 J2.683 F1146.
X107.472 Y-7.213 I-2.683 J0.0
X105.075 Y-5.733 I-2.398 J-1.203
G01 X14.58 F2000.
G03 X11.897 Y-8.416 I0.0 J-2.683 F1146.
X14.58 Y-11.098 I2.683 J0.0
G01 X59.832 F2000.
X60.054 Y-11.092 Z-.861
X60.276 Y-11.085 Z-.873
X60.499 Y-11.079 Z-.885
X60.721 Y-11.074 Z-.896
X60.944 Y-11.068 Z-.908
X61.166 Y-11.063 Z-.92
X105.075
G03 X107.722 Y-8.416 I0.0 J2.647 F1139.
X107.658 Y-7.84 I-2.647 J0.0
X105.075 Y-5.769 I-2.584 J-.576
G01 X14.58 F2000.
G03 X11.933 Y-8.416 I0.0 J-2.647 F1139.
X14.58 Y-11.063 I2.647 J0.0
G01 X59.832 F2000.
X60.054 Y-11.058 Z-.931
X60.276 Y-11.053 Z-.943
X60.499 Y-11.049 Z-.955
X60.721 Y-11.044 Z-.966
X60.944 Y-11.04 Z-.978
X61.166 Y-11.037 Z-.99
X105.075
G03 X107.696 Y-8.416 I0.0 J2.621 F1134.
X107.631 Y-7.84 I-2.621 J0.0
X105.075 Y-5.795 I-2.557 J-.576
G01 X14.58 F2000.
G03 X11.959 Y-8.416 I0.0 J-2.621 F1134.
X14.58 Y-11.037 I2.621 J0.0
G01 X59.832 F2000.
X60.054 Y-11.033 Z-1.001
X60.276 Y-11.03 Z-1.013
X60.499 Y-11.026 Z-1.024
X60.721 Y-11.024 Z-1.036
X60.944 Y-11.021 Z-1.048
X61.166 Y-11.018 Z-1.059
X105.075
G03 X107.677 Y-8.416 I0.0 J2.603 F1131.
X107.613 Y-7.84 I-2.603 J0.0
X105.075 Y-5.813 I-2.538 J-.576
G01 X14.58 F2000.
G03 X11.977 Y-8.416 I0.0 J-2.603 F1131.
X14.58 Y-11.018 I2.603 J0.0
G01 X59.832 F2000.
X60.054 Y-11.016 Z-1.071
X60.276 Y-11.014 Z-1.083
X60.499 Y-11.012 Z-1.094
X60.721 Y-11.01 Z-1.106
X60.944 Y-11.009 Z-1.118
X61.166 Y-11.007 Z-1.129
X105.075
G03 X107.666 Y-8.416 I0.0 J2.592 F1129.
X107.602 Y-7.84 I-2.592 J0.0
X105.075 Y-5.824 I-2.527 J-.576
G01 X14.58 F2000.
G03 X11.988 Y-8.416 I0.0 J-2.592 F1129.
X14.58 Y-11.007 I2.592 J0.0
G01 X59.832 F2000.
X60.054 Y-11.006 Z-1.141
X60.276 Y-11.005 Z-1.153
X60.499 Z-1.164
X60.721 Y-11.004 Z-1.176
X60.944 Z-1.188
X61.166 Y-11.005 Z-1.199
X105.098
G03 X107.664 Y-8.416 I-.022 J2.589 F1128.
X105.098 Y-5.827 I-2.589 J0.0
G01 X14.58 F2000.
X14.579 F1128.
G03 X12.288 Y-7.213 I0.0 J-2.585
X11.992 Y-8.416 I2.291 J-1.203
X12.937 Y-10.415 I2.588 J0.0
X14.578 Y-11.005 I1.641 J1.99 F1126.
G01 X14.58
X59.832 F2000.
X60.054 Y-11.004 Z-1.211
X60.276 Z-1.223
X61.166 Z-1.269
X105.075
G03 X107.663 Y-8.416 I0.0 J2.588 F1128.
X105.075 Y-5.827 I-2.588 J0.0
G01 X14.58 F2000.
G03 X11.991 Y-8.416 I0.0 J-2.588 F1128.
X14.58 Y-11.004 I2.588 J0.0
G01 X59.832 F2000.
X61.166 Z-1.339
X105.075
G03 X107.663 Y-8.416 I0.0 J2.588 F1128.
X105.075 Y-5.827 I-2.588 J0.0
G01 X14.58 F2000.
G03 X11.991 Y-8.416 I0.0 J-2.588 F1128.
X14.58 Y-11.004 I2.588 J0.0
G01 X59.832 F2000.
X61.166 Z-1.409
X105.075
G03 X107.663 Y-8.416 I0.0 J2.588 F1128.
X105.075 Y-5.827 I-2.588 J0.0
G01 X14.58 F2000.
G03 X11.991 Y-8.416 I0.0 J-2.588 F1128.
X14.58 Y-11.004 I2.588 J0.0
G01 X59.832 F2000.
X61.166 Z-1.479
X105.075
G03 X107.663 Y-8.416 I0.0 J2.588 F1128.
X105.075 Y-5.827 I-2.588 J0.0
G01 X14.58 F2000.
G03 X11.991 Y-8.416 I0.0 J-2.588 F1128.
X14.58 Y-11.004 I2.588 J0.0
G01 X59.832 F2000.
X61.166 Z-1.549
X105.075
G03 X107.663 Y-8.416 I0.0 J2.588 F1128.
X105.075 Y-5.827 I-2.588 J0.0
G01 X14.58 F2000.
G03 X11.991 Y-8.416 I0.0 J-2.588 F1128.
X14.58 Y-11.004 I2.588 J0.0
G01 X59.832 F2000.
X61.166 Z-1.619
X105.075
G03 X107.663 Y-8.416 I0.0 J2.588 F1128.
X105.075 Y-5.827 I-2.588 J0.0
G01 X14.58 F2000.
G03 X11.991 Y-8.416 I0.0 J-2.588 F1128.
X14.58 Y-11.004 I2.588 J0.0
G01 X59.832 F2000.
X61.166 Z-1.689
X105.075
G03 X107.663 Y-8.416 I0.0 J2.588 F1128.
X105.075 Y-5.827 I-2.588 J0.0
G01 X14.58 F2000.
G03 X11.991 Y-8.416 I0.0 J-2.588 F1128.
X14.58 Y-11.004 I2.588 J0.0
G01 X59.832 F2000.
X61.166 Z-1.759
X105.075
G03 X107.663 Y-8.416 I0.0 J2.588 F1128.
X105.075 Y-5.827 I-2.588 J0.0
G01 X14.58 F2000.
G03 X11.991 Y-8.416 I0.0 J-2.588 F1128.
X14.58 Y-11.004 I2.588 J0.0
G01 X59.832 F2000.
X61.166 Z-1.829
X105.075
G03 X107.663 Y-8.416 I0.0 J2.588 F1128.
X105.075 Y-5.827 I-2.588 J0.0
G01 X14.58 F2000.
G03 X11.991 Y-8.416 I0.0 J-2.588 F1128.
X14.58 Y-11.004 I2.588 J0.0
G01 X59.832 F2000.
X61.166 Z-1.899
X105.075
G03 X107.663 Y-8.416 I0.0 J2.588 F1128.
X105.075 Y-5.827 I-2.588 J0.0
G01 X14.58 F2000.
G03 X11.991 Y-8.416 I0.0 J-2.588 F1128.
X14.58 Y-11.004 I2.588 J0.0
G01 X59.832 F2000.
X61.166 Z-1.969
X105.075
G03 X107.663 Y-8.416 I0.0 J2.588 F1128.
X105.075 Y-5.827 I-2.588 J0.0
G01 X14.58 F2000.
G03 X11.991 Y-8.416 I0.0 J-2.588 F1128.
X14.58 Y-11.004 I2.588 J0.0
G01 X61.166 F2000.
Y-9.004
Z.031
G00 Z2.5
X-61.832 Y-9.4
G01 Z2.43
Z-.57 F800.
G03 X-59.832 Y-11.4 I2. J0.0 F400.
G01 X-14.59 F2000.
X-14.58 F1197.
G03 X-11.595 Y-8.416 I0.0 J2.984
X-11.849 Y-7.213 I-2.984 J0.0
X-14.58 Y-5.431 I-2.731 J-1.203
G01 X-14.59
X-105.073 F2000.
X-105.075 F1197.
G03 X-107.806 Y-7.213 I0.0 J-2.984
X-108.059 Y-8.416 I2.731 J-1.203
X-105.075 Y-11.4 I2.984 J0.0
G01 X-105.073
X-59.832 F2000.
X-59.609 Y-11.377 Z-.582
X-59.387 Y-11.356 Z-.593
X-59.164 Y-11.336 Z-.605
X-58.942 Y-11.318 Z-.617
X-58.72 Y-11.301 Z-.628
X-58.497 Y-11.285 Z-.64
X-14.58
G03 X-11.71 Y-8.416 I0.0 J2.869 F1179.
X-11.975 Y-7.213 I-2.869 J0.0
X-14.58 Y-5.546 I-2.605 J-1.203
G01 X-105.075 F2000.
G03 X-107.944 Y-8.416 I0.0 J-2.869 F1179.
X-105.075 Y-11.285 I2.869 J0.0
G01 X-59.832 F2000.
X-59.609 Y-11.27 Z-.652
X-59.387 Y-11.256 Z-.663
X-59.164 Y-11.242 Z-.675
X-58.942 Y-11.229 Z-.686
X-58.72 Y-11.217 Z-.698
X-58.497 Y-11.205 Z-.71
X-14.58
G03 X-11.791 Y-8.416 I0.0 J2.789 F1165.
X-12.063 Y-7.213 I-2.789 J0.0
X-14.58 Y-5.627 I-2.516 J-1.203
G01 X-105.075 F2000.
G03 X-107.864 Y-8.416 I0.0 J-2.789 F1165.
X-105.075 Y-11.205 I2.789 J0.0
G01 X-59.832 F2000.
X-59.609 Y-11.194 Z-.721
X-59.387 Y-11.183 Z-.733
X-59.164 Y-11.173 Z-.745
X-58.942 Y-11.163 Z-.756
X-58.72 Y-11.154 Z-.768
X-58.497 Y-11.145 Z-.78
X-14.58
G03 X-11.851 Y-8.416 I0.0 J2.729 F1154.
X-12.13 Y-7.213 I-2.729 J0.0
X-14.58 Y-5.687 I-2.449 J-1.203
G01 X-105.075 F2000.
G03 X-107.804 Y-8.416 I0.0 J-2.729 F1154.
X-105.075 Y-11.145 I2.729 J0.0
G01 X-59.832 F2000.
X-59.609 Y-11.136 Z-.791
X-59.387 Y-11.128 Z-.803
X-59.164 Y-11.12 Z-.815
X-58.942 Y-11.113 Z-.826
X-58.72 Y-11.105 Z-.838
X-58.497 Y-11.098 Z-.85
X-14.58
G03 X-11.897 Y-8.416 I0.0 J2.683 F1146.
X-12.182 Y-7.213 I-2.683 J0.0
X-14.58 Y-5.733 I-2.398 J-1.203
G01 X-105.075 F2000.
G03 X-107.757 Y-8.416 I0.0 J-2.683 F1146.
X-105.075 Y-11.098 I2.683 J0.0
G01 X-59.832 F2000.
X-59.609 Y-11.092 Z-.861
X-59.387 Y-11.085 Z-.873
X-59.164 Y-11.079 Z-.885
X-58.942 Y-11.074 Z-.896
X-58.72 Y-11.068 Z-.908
X-58.497 Y-11.063 Z-.92
X-14.58
G03 X-11.933 Y-8.416 I0.0 J2.647 F1139.
X-12.222 Y-7.213 I-2.647 J0.0
X-14.58 Y-5.769 I-2.358 J-1.203
G01 X-105.075 F2000.
G03 X-107.722 Y-8.416 I0.0 J-2.647 F1139.
X-105.075 Y-11.063 I2.647 J0.0
G01 X-59.832 F2000.
X-59.609 Y-11.058 Z-.931
X-59.387 Y-11.053 Z-.943
X-59.164 Y-11.049 Z-.955
X-58.942 Y-11.044 Z-.966
X-58.72 Y-11.04 Z-.978
X-58.497 Y-11.037 Z-.99
X-14.58
G03 X-11.959 Y-8.416 I0.0 J2.621 F1134.
X-12.251 Y-7.213 I-2.621 J0.0
X-14.58 Y-5.795 I-2.328 J-1.203
G01 X-105.075 F2000.
G03 X-107.696 Y-8.416 I0.0 J-2.621 F1134.
X-105.075 Y-11.037 I2.621 J0.0
G01 X-59.832 F2000.
X-59.609 Y-11.033 Z-1.001
X-59.387 Y-11.03 Z-1.013
X-59.164 Y-11.026 Z-1.024
X-58.942 Y-11.024 Z-1.036
X-58.72 Y-11.021 Z-1.048
X-58.497 Y-11.018 Z-1.059
X-14.58
G03 X-11.977 Y-8.416 I0.0 J2.603 F1131.
X-12.272 Y-7.213 I-2.603 J0.0
X-14.58 Y-5.813 I-2.308 J-1.203
G01 X-105.075 F2000.
G03 X-107.677 Y-8.416 I0.0 J-2.603 F1131.
X-105.075 Y-11.018 I2.603 J0.0
G01 X-59.832 F2000.
X-59.609 Y-11.016 Z-1.071
X-59.387 Y-11.014 Z-1.083
X-59.164 Y-11.012 Z-1.094
X-58.942 Y-11.01 Z-1.106
X-58.72 Y-11.009 Z-1.118
X-58.497 Y-11.007 Z-1.129
X-14.58
G03 X-11.988 Y-8.416 I0.0 J2.592 F1129.
X-12.284 Y-7.213 I-2.592 J0.0
X-14.58 Y-5.824 I-2.295 J-1.203
G01 X-105.075 F2000.
G03 X-107.666 Y-8.416 I0.0 J-2.592 F1129.
X-105.075 Y-11.007 I2.592 J0.0
G01 X-59.832 F2000.
X-59.609 Y-11.006 Z-1.141
X-59.387 Y-11.005 Z-1.153
X-59.164 Z-1.164
X-58.942 Y-11.004 Z-1.176
X-58.72 Z-1.188
X-58.497 Y-11.005 Z-1.199
X-14.58
G03 X-11.99 Y-8.416 I0.0 J2.589 F1128.
X-14.579 Y-5.827 I-2.589 J0.0
G01 X-105.098 F2000.
G03 X-107.664 Y-8.416 I.022 J-2.589 F1128.
X-105.098 Y-11.005 I2.589 J0.0
G01 X-59.832 F2000.
X-59.609 Y-11.004 Z-1.211
X-59.387 Z-1.223
X-58.497 Z-1.269
X-14.58
G03 X-11.991 Y-8.416 I0.0 J2.588 F1128.
X-14.58 Y-5.827 I-2.588 J0.0
G01 X-105.075 F2000.
G03 X-107.663 Y-8.416 I0.0 J-2.588 F1128.
X-105.075 Y-11.004 I2.588 J0.0
G01 X-59.832 F2000.
X-58.497 Z-1.339
X-14.58
G03 X-11.991 Y-8.416 I0.0 J2.588 F1128.
X-14.58 Y-5.827 I-2.588 J0.0
G01 X-105.075 F2000.
G03 X-107.663 Y-8.416 I0.0 J-2.588 F1128.
X-105.075 Y-11.004 I2.588 J0.0
G01 X-59.832 F2000.
X-58.497 Z-1.409
X-14.58
G03 X-11.991 Y-8.416 I0.0 J2.588 F1128.
X-14.58 Y-5.827 I-2.588 J0.0
G01 X-105.075 F2000.
G03 X-107.663 Y-8.416 I0.0 J-2.588 F1128.
X-105.075 Y-11.004 I2.588 J0.0
G01 X-59.832 F2000.
X-58.497 Z-1.479
X-14.58
G03 X-11.991 Y-8.416 I0.0 J2.588 F1128.
X-14.58 Y-5.827 I-2.588 J0.0
G01 X-105.075 F2000.
G03 X-107.663 Y-8.416 I0.0 J-2.588 F1128.
X-105.075 Y-11.004 I2.588 J0.0
G01 X-59.832 F2000.
X-58.497 Z-1.549
X-14.58
G03 X-11.991 Y-8.416 I0.0 J2.588 F1128.
X-14.58 Y-5.827 I-2.588 J0.0
G01 X-105.075 F2000.
G03 X-107.663 Y-8.416 I0.0 J-2.588 F1128.
X-105.075 Y-11.004 I2.588 J0.0
G01 X-59.832 F2000.
X-58.497 Z-1.619
X-14.58
G03 X-11.991 Y-8.416 I0.0 J2.588 F1128.
X-14.58 Y-5.827 I-2.588 J0.0
G01 X-105.075 F2000.
G03 X-107.663 Y-8.416 I0.0 J-2.588 F1128.
X-105.075 Y-11.004 I2.588 J0.0
G01 X-59.832 F2000.
X-58.497 Z-1.689
X-14.58
G03 X-11.991 Y-8.416 I0.0 J2.588 F1128.
X-14.58 Y-5.827 I-2.588 J0.0
G01 X-105.075 F2000.
G03 X-107.663 Y-8.416 I0.0 J-2.588 F1128.
X-105.075 Y-11.004 I2.588 J0.0
G01 X-59.832 F2000.
X-58.497 Z-1.759
X-14.58
G03 X-11.991 Y-8.416 I0.0 J2.588 F1128.
X-14.58 Y-5.827 I-2.588 J0.0
G01 X-105.075 F2000.
G03 X-107.663 Y-8.416 I0.0 J-2.588 F1128.
X-105.075 Y-11.004 I2.588 J0.0
G01 X-59.832 F2000.
X-58.497 Z-1.829
X-14.58
G03 X-11.991 Y-8.416 I0.0 J2.588 F1128.
X-14.58 Y-5.827 I-2.588 J0.0
G01 X-105.075 F2000.
G03 X-107.663 Y-8.416 I0.0 J-2.588 F1128.
X-105.075 Y-11.004 I2.588 J0.0
G01 X-59.832 F2000.
X-58.497 Z-1.899
X-14.58
G03 X-11.991 Y-8.416 I0.0 J2.588 F1128.
X-14.58 Y-5.827 I-2.588 J0.0
G01 X-105.075 F2000.
G03 X-107.663 Y-8.416 I0.0 J-2.588 F1128.
X-105.075 Y-11.004 I2.588 J0.0
G01 X-59.832 F2000.
X-58.497 Z-1.969
X-14.58
G03 X-11.991 Y-8.416 I0.0 J2.588 F1128.
X-14.58 Y-5.827 I-2.588 J0.0
G01 X-105.075 F2000.
G03 X-107.663 Y-8.416 I0.0 J-2.588 F1128.
X-105.075 Y-11.004 I2.588 J0.0
G01 X-58.497 F2000.
Y-9.004
Z.031
G00 Z2.5
X-57.809 Y-17.772
G01 Z2.43
Z-.57 F800.
G03 X-59.809 Y-15.772 I-2. J0.0 F400.
G01 X-105.058 F2000.
X-105.075
G02 X-112.431 Y-8.416 I0.0 J7.356
X-105.075 Y-1.06 I7.356 J0.0
G01 X-105.058
X-14.559
G02 X-7.224 Y-8.416 I-.021 J-7.356
X-14.56 Y-15.772 I-7.356 J0.0
G01 X-59.809
X-60.032 Y-15.795 Z-.582
X-60.254 Y-15.816 Z-.593
X-60.476 Y-15.835 Z-.605
X-60.699 Y-15.854 Z-.617
X-60.921 Y-15.871 Z-.628
X-61.144 Y-15.887 Z-.64
X-105.058
X-105.075
G02 X-112.546 Y-8.416 I0.0 J7.471
X-105.075 Y-.945 I7.471 J0.0
G01 X-105.058
X-14.557
G02 X-7.109 Y-8.416 I-.022 J-7.471
X-14.559 Y-15.887 I-7.471 J0.0
G01 X-59.809
X-60.032 Y-15.902 Z-.652
X-60.254 Y-15.916 Z-.663
X-60.476 Y-15.93 Z-.675
X-60.699 Y-15.943 Z-.686
X-60.921 Y-15.955 Z-.698
X-61.144 Y-15.967 Z-.71
X-105.058
X-105.075
G02 X-112.626 Y-8.416 I0.0 J7.551
X-105.075 Y-.865 I7.551 J0.0
G01 X-105.058
X-14.559
G02 X-7.029 Y-8.416 I-.021 J-7.551
X-14.557 Y-15.967 I-7.551 J0.0
G01 X-59.809
X-60.032 Y-15.978 Z-.721
X-60.254 Y-15.989 Z-.733
X-60.476 Y-15.999 Z-.745
X-60.699 Y-16.009 Z-.756
X-60.921 Y-16.018 Z-.768
X-61.144 Y-16.027 Z-.78
X-105.055
X-105.075
G02 X-112.686 Y-8.416 I0.0 J7.611
X-105.075 Y-.805 I7.611 J0.0
G01 X-105.058
X-14.558
G02 X-7.935 Y-4.704 I-.022 J-7.611
X-6.969 Y-8.416 I-6.645 J-3.712
X-14.535 Y-16.027 I-7.611 J0.0
G01 X-59.809
X-60.032 Y-16.036 Z-.791
X-60.254 Y-16.044 Z-.803
X-60.476 Y-16.052 Z-.815
X-60.699 Y-16.059 Z-.826
X-60.921 Y-16.066 Z-.838
X-61.144 Y-16.073 Z-.85
X-105.043
X-105.075
G02 X-112.732 Y-8.416 I0.0 J7.658
X-112.041 Y-5.236 I7.658 J0.0
X-105.075 Y-.758 I6.966 J-3.18
G01 X-105.058
X-14.557
G02 X-7.882 Y-4.704 I-.022 J-7.658
X-6.922 Y-8.416 I-6.698 J-3.712
X-14.534 Y-16.073 I-7.658 J0.0
G01 X-59.809
X-60.032 Y-16.08 Z-.861
X-60.254 Y-16.086 Z-.873
X-60.476 Y-16.092 Z-.885
X-60.699 Y-16.098 Z-.896
X-60.921 Y-16.104 Z-.908
X-61.144 Y-16.109 Z-.92
X-105.076
G02 X-112.768 Y-8.416 I.001 J7.693
X-112.041 Y-5.151 I7.693 J0.0
X-105.075 Y-.723 I6.966 J-3.264
G01 X-105.049
X-14.567
G02 X-7.841 Y-4.704 I-.012 J-7.693
X-6.887 Y-8.416 I-6.738 J-3.712
X-14.534 Y-16.109 I-7.693 J0.0
G01 X-59.809
X-60.032 Y-16.114 Z-.931
X-60.254 Y-16.119 Z-.943
X-60.476 Y-16.123 Z-.955
X-60.699 Y-16.127 Z-.966
X-60.921 Y-16.131 Z-.978
X-61.144 Y-16.135 Z-.99
X-105.049
X-105.075
G02 X-112.794 Y-8.416 I0.0 J7.719
X-112.041 Y-5.09 I7.719 J0.0
X-105.086 Y-.696 I6.966 J-3.326
G01 X-14.567
G02 X-7.811 Y-4.704 I-.013 J-7.719
X-6.86 Y-8.416 I-6.769 J-3.712
X-14.533 Y-16.135 I-7.72 J0.0
G01 X-59.809
X-60.032 Y-16.139 Z-1.001
X-60.254 Y-16.142 Z-1.013
X-60.476 Y-16.145 Z-1.024
X-60.699 Y-16.148 Z-1.036
X-60.921 Y-16.151 Z-1.048
X-61.144 Y-16.153 Z-1.059
X-105.064
X-105.075
G02 X-112.812 Y-8.416 I0.0 J7.738
X-105.081 Y-.678 I7.738 J0.0
G01 X-14.566
G02 X-7.791 Y-4.704 I-.014 J-7.738
X-6.842 Y-8.416 I-6.789 J-3.712
X-14.533 Y-16.153 I-7.738 J0.0
G01 X-59.809
X-60.032 Y-16.156 Z-1.071
X-60.254 Y-16.158 Z-1.083
X-60.476 Y-16.16 Z-1.094
X-60.699 Y-16.161 Z-1.106
X-60.921 Y-16.163 Z-1.118
X-61.144 Y-16.164 Z-1.129
X-105.074
X-105.075
G02 X-112.823 Y-8.416 I0.0 J7.749
X-112.041 Y-5.023 I7.749 J0.0
G01 X-111.892 Y-4.733
G02 X-105.079 Y-.667 I6.817 J-3.683
G01 X-14.566
G02 X-7.259 Y-5.877 I-.014 J-7.749
X-6.831 Y-8.416 I-7.321 J-2.539
X-14.533 Y-16.164 I-7.749 J0.0
G01 X-59.809
X-60.032 Y-16.165 Z-1.141
X-60.254 Y-16.166 Z-1.153
X-61.144 Y-16.17 Z-1.199
X-105.075
G02 X-112.394 Y-10.976 I0.0 J7.754
G01 X-112.584 Y-10.348
G02 X-112.829 Y-8.416 I7.509 J1.933
X-112.609 Y-6.585 I7.754 J0.0
G01 X-112.429 Y-5.958
G02 X-105.075 Y-.662 I7.354 J-2.458
G01 X-14.58
G02 X-8.521 Y-3.577 I0.0 J-7.754
G01 X-8.393 Y-3.742
G02 X-6.826 Y-8.416 I-6.187 J-4.674
X-14.58 Y-16.17 I-7.754 J0.0
G01 X-59.809
X-61.144 Y-16.174 Z-1.269
X-105.075
G02 X-112.399 Y-10.976 I0.0 J7.759
G01 X-112.589 Y-10.348
G02 X-112.833 Y-8.416 I7.514 J1.933
X-112.614 Y-6.585 I7.759 J0.0
G01 X-112.434 Y-5.958
G02 X-111.036 Y-3.449 I7.359 J-2.458
G01 X-110.778 Y-3.156
G02 X-105.075 Y-.657 I5.704 J-5.26
G01 X-14.58
G02 X-8.521 Y-3.569 I0.0 J-7.759
G01 X-8.389 Y-3.739
G02 X-6.821 Y-8.416 I-6.191 J-4.677
X-8.346 Y-13.035 I-7.759 J0.0
G01 X-9.153 Y-13.96
G02 X-14.58 Y-16.174 I-5.427 J5.545
G01 X-59.809
X-61.144 Y-16.179 Z-1.339
X-69.364
X-69.716 Y-16.181
X-105.075
G02 X-112.84 Y-8.416 I0.0 J7.765
X-111.297 Y-3.77 I7.765 J0.0
G01 X-110.778 Y-3.149
G02 X-105.075 Y-.652 I5.704 J-5.267
G01 X-14.58
G02 X-8.628 Y-3.431 I0.0 J-7.764
G01 X-8.358 Y-3.77
G02 X-6.815 Y-8.416 I-6.222 J-4.646
X-8.358 Y-13.061 I-7.765 J0.0
G01 X-9.153 Y-13.967
G02 X-14.58 Y-16.179 I-5.427 J5.552
G01 X-59.809
X-61.144 Y-16.184 Z-1.409
X-68.844
X-69.716 Y-16.237
X-105.075
G02 X-112.896 Y-8.416 I0.0 J7.821
X-111.342 Y-3.737 I7.821 J0.0
X-110.475 Y-2.832 I6.05 J-4.925
X-105.075 Y-.647 I5.401 J-5.584
G01 X-14.58
G02 X-9.395 Y-2.63 I0.0 J-7.768
X-8.313 Y-3.736 I-5.005 J-5.981
X-6.759 Y-8.416 I-6.267 J-4.679
X-8.313 Y-13.095 I-7.821 J0.0
G01 X-8.521 Y-13.359
X-9.504 Y-14.297
G02 X-14.58 Y-16.184 I-5.076 J5.881
G01 X-59.809
X-61.144 Y-16.189 Z-1.479
X-64.087
X-66.287 F1650.
X-68.487 F1300.
X-68.668 Y-16.262
X-70.381 Y-16.428
X-70.665
X-105.098 Y-16.433 F2000.
G02 X-113.092 Y-8.416 I.023 J8.018
X-112.749 Y-6.093 I8.018 J0.0
X-111.832 Y-4.101 I7.674 J-2.322 F1650.
X-111.54 Y-3.675 I6.757 J-4.315 F1300.
G01 X-110.463 Y-2.723
X-110.244 Y-2.61
G02 X-108.417 Y-1.398 I5.17 J-5.805
X-105.075 Y-.642 I3.343 J-7.018 F2000.
G01 X-14.58
G02 X-13.475 Y-.721 I0.0 J-7.773
X-11.37 Y-1.336 I-1.105 J-7.694 F1650.
X-9.521 Y-2.514 I-3.21 J-7.08 F1300.
X-8.152 Y-3.624 I-4.305 J-6.709
X-7.902 Y-3.979 I-6.429 J-4.79
X-6.563 Y-8.414 I-6.679 J-4.435 F2000.
X-8.178 Y-13.24 I-8.018 J0.0
G01 X-9.524 Y-14.321
G02 X-14.58 Y-16.189 I-5.056 J5.905
G01 X-59.809
X-61.144 Y-16.194 Z-1.549
X-63.719
X-65.919 F1650.
X-68.119 F1300.
G02 X-69.606 Y-16.512 I-1.487 J3.317
X-69.749 Y-16.509 I0.0 J3.635
G01 X-70.274 Y-16.504
X-70.381 Y-16.503 F2000.
X-100.459 Y-16.505
X-102.659 F1650.
X-104.859 F1300.
X-105.093 Y-16.526
G02 X-107.038 Y-16.285 I.018 J8.11
X-113.185 Y-8.416 I1.963 J7.869 F2000.
X-112.638 Y-5.488 I8.11 J0.0
X-111.616 Y-3.621 I7.563 J-2.928 F1650.
X-109.833 Y-2.263 I3.493 J-2.735 F1300.
X-107.927 Y-1.179 I4.759 J-6.153
X-105.075 Y-.637 I2.852 J-7.236 F2000.
G01 X-14.58
G02 X-13.838 Y-.673 I0.0 J-7.778
X-11.706 Y-1.188 I-.742 J-7.743 F1650.
X-9.803 Y-2.277 I-2.874 J-7.228 F1300.
X-8.077 Y-3.568 I-1.756 J-4.145
X-6.469 Y-8.416 I-6.502 J-4.847 F2000.
X-7.04 Y-11.405 I-8.11 J0.0
X-8.075 Y-13.26 I-7.539 J2.989 F1650.
X-9.874 Y-14.609 I-3.709 J3.072 F1300.
X-11.789 Y-15.676 I-4.706 J6.193
X-14.58 Y-16.194 I-2.79 J7.261 F2000.
G01 X-59.809
X-61.144 Y-16.199 Z-1.619
X-63.456
X-65.656 F1650.
X-67.856 F1300.
G02 X-69.578 Y-16.576 I-1.722 J3.745
X-69.749 Y-16.572 I0.0 J4.122
G01 X-70.001
X-100.571 Y-16.571 F2000.
X-102.771 F1650.
X-104.971 Y-16.57 F1300.
X-105.098 Y-16.587
G02 X-107.147 Y-16.32 I.023 J8.171
X-113.246 Y-8.416 I2.072 J7.904 F2000.
X-112.524 Y-5.058 I8.171 J0.0
X-111.666 Y-3.587 I7.449 J-3.358 F1650.
X-111.344 Y-3.212 I3.747 J-2.896
X-109.516 Y-2.024 I3.425 J-3.27 F1300.
X-107.557 Y-1.039 I4.441 J-6.392
X-105.075 Y-.633 I2.482 J-7.377 F2000.
G01 X-14.58
G02 X-14.225 Y-.641 I0.0 J-7.783
X-12.07 Y-1.048 I-.355 J-7.775 F1650.
X-10.115 Y-2.04 I-2.509 J-7.368 F1300.
X-8.292 Y-3.24 I-1.806 J-4.731
X-8.029 Y-3.532 I-3.63 J-3.532 F2000.
X-6.409 Y-8.416 I-6.551 J-4.884
X-7.109 Y-11.727 I-8.171 J0.0
X-8.028 Y-13.299 I-7.47 J3.311 F1650.
X-8.271 Y-13.585 I-3.531 J2.753
X-10.094 Y-14.776 I-3.288 J3.039 F1300.
X-12.046 Y-15.775 I-4.486 J6.361
X-14.58 Y-16.199 I-2.534 J7.359 F2000.
G01 X-59.809
X-61.144 Y-16.204 Z-1.689
X-63.208
X-65.408 F1650.
X-67.608 F1300.
G02 X-69.704 Y-16.626 I-2.096 J4.984
G01 X-69.749
X-105.098 Y-16.629 F2000.
G02 X-113.288 Y-8.416 I.023 J8.213
X-112.41 Y-4.722 I8.213 J0.0
X-111.701 Y-3.562 I7.335 J-3.694 F1650.
X-111.134 Y-2.945 I4.024 J-3.125
X-109.25 Y-1.842 I3.457 J-3.742 F1300.
X-107.252 Y-.938 I4.175 J-6.574
X-105.075 Y-.628 I2.177 J-7.478 F2000.
G01 X-14.58
G02 X-12.409 Y-.936 I0.0 J-7.788 F1650.
X-10.41 Y-1.838 I-2.171 J-7.479 F1300.
X-8.535 Y-2.948 I-1.332 J-4.387
X-8.398 Y-3.088 I-3.207 J-3.277 F2000.
G01 X-7.995 Y-3.507
G02 X-6.367 Y-8.416 I-6.585 J-4.909
X-7.251 Y-12.123 I-8.213 J0.0
X-7.996 Y-13.325 I-7.329 J3.707 F1650.
X-8.528 Y-13.899 I-3.951 J3.132
X-10.415 Y-14.997 I-3.418 J3.706 F1300.
X-12.415 Y-15.897 I-4.165 J6.581
X-14.58 Y-16.204 I-2.165 J7.481 F2000.
G01 X-59.809
X-61.144 Y-16.209 Z-1.759
X-63.025
X-65.225 F1650.
X-67.425 F1300.
G02 X-69.565 Y-16.652 I-2.176 J5.111
G01 X-69.601 F2000.
G02 X-69.709 Y-16.651 I0.0 J5.555
G01 X-105.019
X-105.098 Y-16.657
G02 X-113.316 Y-8.416 I.023 J8.241
X-112.262 Y-4.382 I8.241 J0.0
X-111.724 Y-3.546 I7.187 J-4.033 F1650.
X-110.884 Y-2.685 I4.349 J-3.402
X-108.955 Y-1.658 I3.51 J-4.263 F1300.
X-106.919 Y-.844 I3.88 J-6.758
X-105.075 Y-.623 I1.844 J-7.572 F2000.
G01 X-14.918
X-14.58 F1650.
G02 X-12.736 Y-.844 I0.0 J-7.793
X-10.7 Y-1.658 I-1.844 J-7.572 F1300.
X-8.769 Y-2.682 I-1.557 J-5.263
X-7.972 Y-3.49 I-3.487 J-4.238 F2000.
X-6.338 Y-8.416 I-6.607 J-4.926
X-7.38 Y-12.425 I-8.241 J0.0
X-7.974 Y-13.343 I-7.2 J4.01 F1650.
X-8.746 Y-14.132 I-4.212 J3.348
X-10.674 Y-15.159 I-3.44 J4.137 F1300.
X-12.707 Y-15.98 I-3.906 J6.743
X-14.58 Y-16.209 I-1.873 J7.565 F2000.
G01 X-59.809
X-61.144 Y-16.214 Z-1.829
X-62.875
X-65.075 F1650.
X-67.275 F1300.
G02 X-69.414 Y-16.671 I-2.317 J5.6
X-69.591 Y-16.674 I-.177 J6.058 F2000.
X-69.709 Y-16.673 I0.0 J6.061
G01 X-105.098 Y-16.674
G02 X-113.333 Y-8.416 I.023 J8.258
X-112.134 Y-4.131 I8.258 J0.0
X-111.738 Y-3.537 I7.06 J-4.285 F1650.
X-110.688 Y-2.491 I4.475 J-3.441
X-108.727 Y-1.526 I3.426 J-4.486 F1300.
X-106.664 Y-.782 I3.652 J-6.89
X-105.075 Y-.618 I1.59 J-7.634 F2000.
G01 X-15.175
X-14.58 F1650.
G02 X-12.986 Y-.783 I0.0 J-7.798
X-10.924 Y-1.528 I-1.594 J-7.633 F1300.
X-8.961 Y-2.488 I-1.406 J-5.364
X-7.96 Y-3.478 I-3.369 J-4.404 F2000.
X-6.322 Y-8.416 I-6.62 J-4.937
X-7.526 Y-12.711 I-8.258 J0.0
X-7.928 Y-13.31 I-7.053 J4.295 F1650.
X-8.975 Y-14.348 I-4.48 J3.474
X-10.938 Y-15.311 I-3.433 J4.512 F1300.
X-13.002 Y-16.052 I-3.642 J6.895
X-14.58 Y-16.214 I-1.578 J7.636 F2000.
G01 X-59.809
X-61.144 Y-16.218 Z-1.899
X-62.704
X-64.904 F1650.
X-67.104 F1300.
G02 X-69.247 Y-16.672 I-2.473 J6.392
X-69.577 Y-16.68 I-.33 J6.846 F2000.
X-69.709 Y-16.679 I0.0 J6.854
G01 X-105.098 Y-16.681
G02 X-113.297 Y-9.25 I.023 J8.265
G01 X-113.308 Y-9.138
G02 X-113.34 Y-8.416 I8.233 J.723
X-113.308 Y-7.694 I8.265 J0.0
G01 X-113.294 Y-7.553
G02 X-112.246 Y-4.307 I8.22 J-.863
G01 X-111.98 Y-3.89
X-111.833 Y-3.658 F1650.
G02 X-111.743 Y-3.533 I6.758 J-4.758
X-110.476 Y-2.305 I4.622 J-3.501
X-108.486 Y-1.398 I3.355 J-4.729 F1300.
X-106.399 Y-.726 I3.411 J-7.018
X-105.075 Y-.613 I1.324 J-7.69 F2000.
G01 X-15.456
X-14.58 F1650.
G02 X-13.263 Y-.725 I0.0 J-7.803
X-11.175 Y-1.395 I-1.317 J-7.691 F1300.
X-9.183 Y-2.296 I-1.326 J-5.587
X-7.954 Y-3.476 I-3.318 J-4.686 F2000.
X-6.315 Y-8.416 I-6.626 J-4.94
X-6.337 Y-9.016 I-8.265 J0.0
G01 X-6.359 Y-9.271
G02 X-7.668 Y-12.947 I-8.22 J.855
X-7.923 Y-13.314 I-6.912 J4.531 F1650.
X-9.18 Y-14.526 I-4.631 J3.546
X-11.17 Y-15.434 I-3.373 J4.758 F1300.
X-13.257 Y-16.106 I-3.41 J7.018
X-14.58 Y-16.218 I-1.322 J7.69 F2000.
G01 X-59.809
X-61.144 Y-16.223 Z-1.969
X-62.552
X-64.752 F1650.
X-66.952 F1300.
G02 X-69.098 Y-16.67 I-2.588 J7.061
X-69.54 Y-16.683 I-.442 J7.507 F2000.
X-69.716 Y-16.681 I0.0 J7.52
G01 X-105.058
X-105.075
G02 X-113.34 Y-8.416 I0.0 J8.265
X-111.835 Y-3.661 I8.265 J0.0
X-111.743 Y-3.533 I6.76 J-4.755 F1650.
X-110.265 Y-2.138 I4.779 J-3.584
X-108.251 Y-1.284 I3.301 J-4.979 F1300.
X-106.143 Y-.682 I3.177 J-7.132
X-105.075 Y-.608 I1.068 J-7.734 F2000.
G01 X-15.731
X-14.58 F1650.
G02 X-13.534 Y-.679 I0.0 J-7.808
X-11.424 Y-1.275 I-1.046 J-7.737 F1300.
X-9.407 Y-2.123 I-1.265 J-5.829
X-7.953 Y-3.476 I-3.281 J-4.981 F2000.
X-6.315 Y-8.416 I-6.626 J-4.94
X-7.888 Y-13.266 I-8.265 J0.0
X-7.955 Y-13.358 I-6.692 J4.85 F1650.
X-9.49 Y-14.756 I-4.883 J3.816
X-11.511 Y-15.595 I-3.348 J5.215 F1300.
X-13.628 Y-16.165 I-3.069 J7.179
X-14.58 Y-16.223 I-.951 J7.749 F2000.
G01 X-59.809
X-61.144 Y-16.228 Z-2.039
X-62.404
X-64.604 F1650.
X-66.804 F1300.
G02 X-68.954 Y-16.664 I-2.713 J7.862
X-69.517 Y-16.683 I-.563 J8.297 F2000.
X-69.716 Y-16.681 I0.0 J8.316
G01 X-105.058
X-105.075
G02 X-113.34 Y-8.416 I0.0 J8.265
X-111.743 Y-3.533 I8.265 J0.0
X-111.648 Y-3.41 I4.987 J-3.744
X-110.011 Y-1.957 I4.892 J-3.867 F1650.
X-107.972 Y-1.161 I3.255 J-5.319 F1300.
X-105.842 Y-.641 I2.898 J-7.255
X-105.075 Y-.603 I.767 J-7.775 F2000.
G01 X-16.001
X-14.58 F1650.
G02 X-13.802 Y-.642 I0.0 J-7.812
X-11.672 Y-1.164 I-.778 J-7.774 F1300.
X-9.633 Y-1.959 I-1.184 J-6.052
X-7.953 Y-3.476 I-3.223 J-5.258 F2000.
X-6.315 Y-8.416 I-6.626 J-4.94
X-7.955 Y-13.358 I-8.265 J0.0
X-9.634 Y-14.859 I-5.264 J4.197 F1650.
X-11.046 Y-15.533 I-3.585 J5.699 F1300.
G01 X-11.664 Y-15.664
G02 X-13.793 Y-16.189 I-2.916 J7.248
X-14.58 Y-16.228 I-.786 J7.773 F2000.
G01 X-59.809
X-61.144 Y-16.233 Z-2.108
X-62.265
X-64.465 F1650.
X-66.665 F1300.
G02 X-67.856 Y-16.539 I-1.73 J4.257
G01 X-68.82 Y-16.613
X-69.716 Y-16.681 F2000.
X-105.058
X-105.075
G02 X-113.34 Y-8.416 I0.0 J8.265
X-111.743 Y-3.533 I8.265 J0.0
X-111.459 Y-3.183 I5.179 J-3.909
X-109.764 Y-1.797 I4.895 J-4.259 F1650.
X-107.704 Y-1.054 I3.2 J-5.645 F1300.
X-105.556 Y-.613 I2.63 J-7.362
X-105.075 Y-.598 I.482 J-7.803 F2000.
G01 X-16.294
X-14.58 F1650.
G02 X-14.095 Y-.613 I0.0 J-7.817
X-11.947 Y-1.055 I-.485 J-7.802 F1300.
X-9.891 Y-1.798 I-.879 J-5.649
X-9.699 Y-1.918 I-2.935 J-4.906 F2000.
X-7.953 Y-3.476 I-4.281 J-6.552
X-6.315 Y-8.416 I-6.626 J-4.94
X-7.955 Y-13.358 I-8.265 J0.0
X-8.195 Y-13.638 I-5.63 J4.575
X-9.891 Y-15.026 I-5.39 J4.855 F1650.
X-11.046 Y-15.579 I-3.694 J6.243 F1300.
G01 X-11.942 Y-15.775
G02 X-14.09 Y-16.218 I-2.637 J7.359
X-14.58 Y-16.233 I-.49 J7.802 F2000.
G01 X-59.809
X-61.144 Y-16.238 Z-2.178
X-62.126
X-64.326 F1650.
X-66.526 F1300.
G02 X-67.735 Y-16.531 I-1.702 J4.39
G01 X-68.685 Y-16.603
X-69.716 Y-16.681 F2000.
X-105.058
X-105.075
G02 X-113.34 Y-8.416 I0.0 J8.265
X-111.743 Y-3.533 I8.265 J0.0
X-111.305 Y-3.026 I5.636 J-4.427
X-109.571 Y-1.686 I5.198 J-4.934 F1650.
X-108.254 Y-1.122 I3.464 J-6.274 F1300.
G01 X-107.622 Y-.988
X-107.504 Y-.98
G02 X-105.344 Y-.598 I2.429 J-7.436
X-105.075 Y-.593 I.27 J-7.818 F2000.
G01 X-16.516
X-14.58 F1650.
G02 X-14.316 Y-.598 I0.0 J-7.822
X-12.156 Y-.978 I-.264 J-7.818 F1300.
X-10.084 Y-1.67 I-.617 J-5.298
X-9.784 Y-1.859 I-2.689 J-4.606 F2000.
G01 X-9.302 Y-2.195
G02 X-7.953 Y-3.476 I-4.677 J-6.275
X-6.315 Y-8.416 I-6.626 J-4.94
X-7.955 Y-13.358 I-8.265 J0.0
X-8.392 Y-13.844 I-5.935 J4.897
X-10.133 Y-15.176 I-5.499 J5.383 F1650.
X-11.046 Y-15.61 I-3.757 J6.715 F1300.
X-12.201 Y-15.868 I-1.376 J3.459
X-14.363 Y-16.235 I-2.379 J7.452
X-14.58 Y-16.238 I-.217 J7.819 F2000.
G01 X-59.809
X-61.144 Y-16.243 Z-2.248
X-62.003
X-64.203 F1650.
X-66.403 F1300.
G02 X-67.676 Y-16.531 I-1.678 J4.464
G01 X-68.564 Y-16.596
X-69.716 Y-16.681 F2000.
X-105.058
X-105.075
G02 X-113.34 Y-8.416 I0.0 J8.265
X-111.743 Y-3.533 I8.265 J0.0
X-111.08 Y-2.806 I5.932 J-4.746
X-109.298 Y-1.529 I5.268 J-5.473 F1650.
X-108.196 Y-1.066 I3.486 J-6.749 F1300.
G01 X-107.307 Y-.893
X-107.209 Y-.885
G02 X-105.075 Y-.589 I2.134 J-7.531
G01 X-16.817 F2000.
X-14.58 F1650.
G02 X-12.445 Y-.885 I0.0 J-7.827 F1300.
X-10.353 Y-1.528 I-.728 J-6.097
X-10.091 Y-1.671 I-2.82 J-5.454 F2000.
X-7.953 Y-3.476 I-4.023 J-6.934
X-6.315 Y-8.416 I-6.626 J-4.94
X-7.955 Y-13.358 I-8.265 J0.0
X-8.581 Y-14.026 I-6.182 J5.165
X-10.36 Y-15.308 I-5.556 J5.833 F1650.
X-11.046 Y-15.632 I-3.777 J7.116 F1300.
X-12.445 Y-15.946 I-1.599 J3.849
X-14.58 Y-16.243 I-2.134 J7.531
G01 X-59.809 F2000.
X-61.144 Y-16.248 Z-2.318
X-61.853
X-64.053 F1650.
X-66.253 F1300.
G02 X-67.676 Y-16.531 I-1.742 J5.047
G01 X-68.418 Y-16.585
X-69.716 Y-16.681 F2000.
X-105.058
X-105.075
G02 X-113.34 Y-8.416 I0.0 J8.265
X-111.743 Y-3.533 I8.265 J0.0
X-110.841 Y-2.592 I6.22 J-5.066
X-109.015 Y-1.377 I5.318 J-6.006 F1650.
X-108.254 Y-1.056 I3.493 J-7.222 F1300.
X-106.91 Y-.802 I1.454 J-4.015
X-105.075 Y-.584 I1.836 J-7.614
G01 X-104.728
X-17.14 F2000.
X-14.94 F1650.
X-14.58 F1300.
G02 X-12.757 Y-.799 I0.0 J-7.832
X-10.643 Y-1.364 I-.498 J-6.097
X-9.784 Y-1.859 I-2.612 J-5.531 F2000.
G01 X-9.302 Y-2.195
G02 X-7.953 Y-3.476 I-4.676 J-6.274
X-6.315 Y-8.416 I-6.626 J-4.94
X-7.955 Y-13.358 I-8.265 J0.0
X-8.912 Y-14.349 I-5.706 J4.554
X-10.772 Y-15.509 I-4.749 J5.545 F1650.
X-12.892 Y-16.064 I-2.889 J6.705 F1300.
X-14.58 Y-16.248 I-1.687 J7.648
G01 X-15.079
X-59.809 F2000.
X-61.144 Y-16.253 Z-2.388
X-61.694
X-63.894 F1650.
X-66.094 F1300.
G02 X-67.856 Y-16.547 I-2.072 J6.982
G01 X-68.264 Y-16.576
X-69.716 Y-16.681 F2000.
X-105.058
X-105.075
G02 X-113.34 Y-8.416 I0.0 J8.265
X-111.743 Y-3.533 I8.265 J0.0
X-110.54 Y-2.314 I5.831 J-4.552
X-108.646 Y-1.211 I4.628 J-5.77 F1650.
X-106.512 Y-.712 I2.734 J-6.873 F1300.
X-105.075 Y-.579 I1.437 J-7.704
G01 X-104.32
X-14.58 F2000.
G02 X-14.414 Y-.581 I0.0 J-7.837
X-11.732 Y-.941 I-.655 J-15.037
X-7.953 Y-3.476 I-2.418 J-7.689
X-6.315 Y-8.416 I-6.626 J-4.94
X-7.955 Y-13.358 I-8.265 J0.0
X-11.678 Y-15.88 I-6.283 J5.263
X-13.631 Y-16.195 I-3.811 J17.427
X-14.58 Y-16.253 I-.949 J7.779
G01 X-59.809
X-61.144 Y-16.258 Z-2.458
X-61.514
X-63.714 F1650.
X-65.914 F1300.
G02 X-68.087 Y-16.593 I-4.023 J18.85
X-69.716 Y-16.681 I-1.85 J19.186 F2000.
G01 X-105.058
X-105.075
G02 X-113.34 Y-8.416 I0.0 J8.265
X-111.743 Y-3.533 I8.265 J0.0
X-106.024 Y-.632 I6. J-4.741
X-105.075 Y-.574 I.95 J-7.784
G01 X-105.068
X-14.58
G02 X-14.414 Y-.576 I0.0 J-7.842
X-14.192 Y-.573 I.221 J-8.315
X-10.662 Y-1.359 I0.0 J-8.318
X-7.953 Y-3.476 I-3.268 J-6.974
X-6.315 Y-8.416 I-6.626 J-4.94
X-7.955 Y-13.358 I-8.265 J0.0
X-13.63 Y-16.2 I-5.987 J4.868
X-14.58 Y-16.258 I-.95 J7.784
G01 X-59.809
X-60.699 Y-16.261 Z-2.505
X-60.921 Y-16.262 Z-2.516
X-61.144 Y-16.263 Z-2.528
X-65.508
G03 X-66.465 Y-16.411 I.044 J-3.448 F1266.
G01 X-66.593 Y-16.43 F2000.
X-69.118 Y-16.653
X-69.716 Y-16.681
X-105.058
X-105.075
G02 X-113.34 Y-8.416 I0.0 J8.265
X-111.743 Y-3.533 I8.265 J0.0
X-105.541 Y-.568 I6.202 J-5.006
G01 X-14.114
G02 X-7.953 Y-3.476 I0.0 J-7.98
X-6.315 Y-8.416 I-6.626 J-4.94
X-7.955 Y-13.358 I-8.265 J0.0
X-14.114 Y-16.263 I-6.159 J5.074
G01 X-59.809
X-60.032 Y-16.266 Z-2.54
X-60.254 Y-16.271 Z-2.551
X-60.476 Y-16.277 Z-2.563
X-60.699 Y-16.284 Z-2.575
X-60.921 Y-16.289 Z-2.586
X-61.144 Y-16.302 Z-2.598
X-63.327 F1650.
X-65.51 F1300.
G02 X-67.698 Y-16.527 I-9.307 J79.734
X-69.716 Y-16.681 I-7.118 J79.959 F2000.
G01 X-105.058
X-105.075
G02 X-113.34 Y-8.416 I0.0 J8.265
X-111.743 Y-3.533 I8.265 J0.0
X-105.408 Y-.53 I6.335 J-5.18
G01 X-14.236
G02 X-7.953 Y-3.476 I0.0 J-8.172
X-6.315 Y-8.416 I-6.626 J-4.94
X-7.955 Y-13.358 I-8.265 J0.0
X-14.202 Y-16.3 I-6.283 J5.237
G01 X-59.809 Y-16.301
X-60.032 Y-16.299 Z-2.61
X-60.254 Y-16.304 Z-2.621
X-60.476 Y-16.308 Z-2.633
X-60.699 Y-16.313 Z-2.645
X-60.921 Y-16.318 Z-2.656
X-61.144 Y-16.332 Z-2.668
X-65.331
X-65.509 Y-16.336
X-69.118 Y-16.653
X-69.716 Y-16.681
X-105.058
X-105.075
G02 X-113.34 Y-8.416 I0.0 J8.265
X-111.743 Y-3.533 I8.265 J0.0
X-105.275 Y-.487 I6.468 J-5.346
X-105.044 Y-.49 I0.0 J-8.391
G01 X-14.58
G02 X-14.382 Y-.488 I.198 J-8.408
X-7.953 Y-3.476 I0.0 J-8.41
X-6.315 Y-8.416 I-6.626 J-4.94
X-7.955 Y-13.358 I-8.265 J0.0
X-14.332 Y-16.332 I-6.377 J5.349
G01 X-59.809
X-60.032 Y-16.328 Z-2.68
X-60.254 Y-16.333 Z-2.691
X-60.476 Y-16.337 Z-2.703
X-60.699 Y-16.343 Z-2.715
X-60.921 Y-16.348 Z-2.726
X-61.144 Y-16.362 Z-2.738
X-65.509
X-65.863 Y-16.376
X-69.118 Y-16.653
X-69.716 Y-16.681
X-105.058
X-105.075
G02 X-113.34 Y-8.416 I0.0 J8.265
X-111.743 Y-3.533 I8.265 J0.0
X-105.194 Y-.463 I6.549 J-5.451
X-105.044 Y-.464 I0.0 J-8.521
G01 X-14.58
X-14.463
G02 X-7.953 Y-3.476 I0.0 J-8.54
X-6.315 Y-8.416 I-6.626 J-4.94
X-7.955 Y-13.358 I-8.265 J0.0
X-14.417 Y-16.36 I-6.463 J5.453
G01 X-59.809 Y-16.362
X-60.032 Y-16.356 Z-2.75
X-60.254 Y-16.362 Z-2.761
X-60.476 Y-16.367 Z-2.773
X-60.699 Y-16.372 Z-2.784
X-60.921 Y-16.376 Z-2.796
X-61.144 Y-16.38 Z-2.808
X-65.509
X-66.191 Y-16.411
X-69.118 Y-16.653
X-69.716 Y-16.681
X-105.058
X-105.075
G02 X-113.34 Y-8.416 I0.0 J8.265
X-111.743 Y-3.533 I8.265 J0.0
X-105.142 Y-.449 I6.601 J-5.524
G01 X-105.044
X-14.58
X-14.513
G02 X-7.953 Y-3.476 I0.0 J-8.62
X-6.315 Y-8.416 I-6.626 J-4.94
X-7.955 Y-13.358 I-8.265 J0.0
X-14.514 Y-16.38 I-6.559 J5.605
G01 X-14.578
X-59.809
X-60.032 Y-16.383 Z-2.819
X-60.254 Y-16.384 Z-2.831
X-60.476 Y-16.385 Z-2.843
X-60.699 Z-2.854
X-60.921 Y-16.386 Z-2.866
X-61.144 Y-16.387 Z-2.878
X-65.509
X-69.716 Y-16.681
X-105.058
X-105.075
G02 X-113.34 Y-8.416 I0.0 J8.265
X-111.743 Y-3.533 I8.265 J0.0
X-105.127 Y-.444 I6.616 J-5.542
G01 X-105.075 Y-.445
X-14.58
X-14.536 Y-.444
G02 X-7.953 Y-3.476 I0.0 J-8.662
X-6.315 Y-8.416 I-6.626 J-4.94
X-7.955 Y-13.358 I-8.265 J0.0
X-14.535 Y-16.387 I-6.58 J5.631
G01 X-14.58
X-59.809
X-61.144 Z-2.948
X-65.509
X-69.716 Y-16.681
X-105.058
X-105.075
G02 X-113.34 Y-8.416 I0.0 J8.265
X-111.743 Y-3.533 I8.265 J0.0
X-105.127 Y-.444 I6.616 J-5.542
G01 X-105.075 Y-.445
X-14.58
X-14.536 Y-.444
G02 X-7.953 Y-3.476 I0.0 J-8.661
X-6.315 Y-8.416 I-6.626 J-4.94
X-7.955 Y-13.357 I-8.265 J0.0
X-14.535 Y-16.387 I-6.58 J5.631
G01 X-14.58
X-59.809
X-61.144 Z-3.018
X-65.509
X-69.716 Y-16.681
X-105.058
X-105.075
G02 X-113.34 Y-8.416 I0.0 J8.265
X-111.743 Y-3.533 I8.265 J0.0
X-105.128 Y-.444 I6.616 J-5.541
G01 X-105.075 Y-.445
X-14.58
X-14.535 Y-.444
G02 X-7.953 Y-3.476 I0.0 J-8.661
X-6.315 Y-8.416 I-6.626 J-4.94
X-7.955 Y-13.357 I-8.265 J0.0
X-14.535 Y-16.387 I-6.58 J5.631
G01 X-14.58
X-59.809
X-61.144 Z-3.088
X-65.509
X-69.716 Y-16.681
X-105.058
X-105.075
G02 X-113.34 Y-8.416 I0.0 J8.265
X-111.743 Y-3.533 I8.265 J0.0
X-105.128 Y-.444 I6.615 J-5.541
G01 X-105.075 Y-.445
X-14.58
X-14.535 Y-.444
G02 X-7.953 Y-3.476 I0.0 J-8.661
X-6.315 Y-8.416 I-6.626 J-4.94
X-7.955 Y-13.357 I-8.265 J0.0
X-14.535 Y-16.387 I-6.58 J5.63
G01 X-14.58
X-59.809
X-61.144 Z-3.157
X-65.509
X-69.716 Y-16.681
X-105.058
X-105.075
G02 X-113.34 Y-8.416 I0.0 J8.265
X-111.743 Y-3.533 I8.265 J0.0
X-105.128 Y-.444 I6.615 J-5.541
G01 X-105.075 Y-.445
X-14.58
X-14.535 Y-.444
G02 X-7.953 Y-3.476 I0.0 J-8.661
X-6.315 Y-8.416 I-6.626 J-4.94
X-7.955 Y-13.357 I-8.265 J0.0
X-14.534 Y-16.387 I-6.58 J5.63
G01 X-14.58
X-59.809
X-61.144 Z-3.227
X-65.509
X-69.716 Y-16.681
X-105.058
X-105.075
G02 X-113.34 Y-8.416 I0.0 J8.265
X-111.743 Y-3.533 I8.265 J0.0
X-105.128 Y-.444 I6.615 J-5.541
G01 X-105.075 Y-.445
X-14.58
X-14.535 Y-.444
G02 X-7.953 Y-3.476 I0.0 J-8.661
X-6.315 Y-8.416 I-6.626 J-4.94
X-7.955 Y-13.357 I-8.265 J0.0
X-14.534 Y-16.387 I-6.579 J5.629
G01 X-14.58
X-59.809
X-61.144 Z-3.297
X-65.509
X-69.716 Y-16.681
X-105.058
X-105.075
G02 X-113.34 Y-8.416 I0.0 J8.265
X-111.743 Y-3.533 I8.265 J0.0
X-105.128 Y-.444 I6.615 J-5.541
G01 X-105.075 Y-.445
X-14.58
X-14.535 Y-.444
G02 X-7.953 Y-3.476 I0.0 J-8.661
X-6.315 Y-8.416 I-6.626 J-4.94
X-7.955 Y-13.357 I-8.265 J0.0
X-14.534 Y-16.387 I-6.579 J5.629
G01 X-14.58
X-59.809
X-61.144 Z-3.367
X-65.509
X-69.716 Y-16.681
X-105.058
X-105.075
G02 X-113.34 Y-8.416 I0.0 J8.265
X-111.743 Y-3.533 I8.265 J0.0
X-105.128 Y-.444 I6.615 J-5.541
G01 X-105.075 Y-.445
X-14.58
X-14.535 Y-.444
G02 X-7.953 Y-3.476 I0.0 J-8.661
X-6.315 Y-8.416 I-6.626 J-4.94
X-7.955 Y-13.357 I-8.265 J0.0
X-14.534 Y-16.387 I-6.579 J5.629
G01 X-14.58
X-59.809
X-61.144 Z-3.437
X-65.509
X-69.716 Y-16.681
X-105.058
X-105.075
G02 X-113.34 Y-8.416 I0.0 J8.265
X-111.743 Y-3.533 I8.265 J0.0
X-105.128 Y-.444 I6.615 J-5.541
G01 X-105.075 Y-.445
X-14.58
X-14.535 Y-.444
G02 X-7.953 Y-3.476 I0.0 J-8.661
X-6.315 Y-8.416 I-6.626 J-4.94
X-7.955 Y-13.357 I-8.265 J0.0
X-14.534 Y-16.387 I-6.579 J5.628
G01 X-14.58
X-59.809
X-61.144 Z-3.507
X-65.509
X-69.716 Y-16.681
X-105.058
X-105.075
G02 X-113.34 Y-8.416 I0.0 J8.265
X-111.743 Y-3.533 I8.265 J0.0
X-105.128 Y-.444 I6.615 J-5.54
G01 X-105.075 Y-.445
X-14.58
X-14.535 Y-.444
G02 X-7.953 Y-3.476 I0.0 J-8.661
X-6.315 Y-8.416 I-6.626 J-4.94
X-7.955 Y-13.357 I-8.265 J0.0
X-14.534 Y-16.387 I-6.579 J5.628
G01 X-14.58
X-59.809
X-61.144 Z-3.577
X-65.509
X-69.716 Y-16.681
X-105.058
X-105.075
G02 X-113.34 Y-8.416 I0.0 J8.265
X-111.743 Y-3.533 I8.265 J0.0
X-105.128 Y-.444 I6.615 J-5.54
G01 X-105.075 Y-.445
X-14.58
X-14.535 Y-.444
G02 X-7.953 Y-3.476 I0.0 J-8.661
X-6.315 Y-8.416 I-6.626 J-4.94
X-7.955 Y-13.357 I-8.265 J0.0
X-14.533 Y-16.387 I-6.579 J5.627
G01 X-14.58
X-59.809
X-61.144 Z-3.647
X-65.509
X-69.716 Y-16.681
X-105.058
X-105.075
G02 X-113.34 Y-8.416 I0.0 J8.265
X-111.743 Y-3.533 I8.265 J0.0
X-105.128 Y-.444 I6.615 J-5.54
G01 X-105.075 Y-.445
X-14.58
X-14.535 Y-.444
G02 X-7.953 Y-3.476 I0.0 J-8.661
X-6.315 Y-8.416 I-6.626 J-4.94
X-7.955 Y-13.357 I-8.265 J0.0
X-14.533 Y-16.387 I-6.579 J5.627
G01 X-14.58
X-59.809
X-61.144 Z-3.717
X-65.509
X-69.716 Y-16.681
X-105.058
X-105.075
G02 X-113.34 Y-8.416 I0.0 J8.265
X-111.743 Y-3.533 I8.265 J0.0
X-105.128 Y-.444 I6.615 J-5.54
G01 X-105.075 Y-.445
X-14.58
X-14.535 Y-.444
G02 X-7.953 Y-3.476 I0.0 J-8.661
X-6.315 Y-8.416 I-6.626 J-4.94
X-7.955 Y-13.357 I-8.265 J0.0
X-14.533 Y-16.387 I-6.579 J5.627
G01 X-14.58
X-59.809
X-61.144 Z-3.787
X-65.509
X-69.716 Y-16.681
X-105.058
X-105.075
G02 X-113.34 Y-8.416 I0.0 J8.265
X-111.743 Y-3.533 I8.265 J0.0
X-105.128 Y-.444 I6.615 J-5.54
G01 X-105.075 Y-.445
X-14.58
X-14.535 Y-.444
G02 X-7.953 Y-3.476 I0.0 J-8.661
X-6.315 Y-8.416 I-6.626 J-4.94
X-7.955 Y-13.357 I-8.265 J0.0
X-14.533 Y-16.387 I-6.578 J5.626
G01 X-14.58
X-59.809
X-61.144 Z-3.857
X-65.509
X-69.716 Y-16.681
X-105.058
X-105.075
G02 X-113.34 Y-8.416 I0.0 J8.265
X-111.743 Y-3.533 I8.265 J0.0
X-105.128 Y-.444 I6.615 J-5.54
G01 X-105.075 Y-.445
X-14.58
X-14.535 Y-.444
G02 X-7.953 Y-3.476 I0.0 J-8.661
X-6.315 Y-8.416 I-6.626 J-4.94
X-7.955 Y-13.357 I-8.265 J0.0
X-14.533 Y-16.387 I-6.578 J5.626
G01 X-14.58
X-59.809
X-61.144 Z-3.927
X-65.509
X-69.716 Y-16.681
X-105.058
X-105.075
G02 X-113.34 Y-8.416 I0.0 J8.265
X-111.743 Y-3.533 I8.265 J0.0
X-105.128 Y-.444 I6.615 J-5.54
G01 X-105.075 Y-.445
X-14.58
X-14.535 Y-.444
G02 X-7.953 Y-3.476 I0.0 J-8.661
X-6.315 Y-8.416 I-6.626 J-4.94
X-7.955 Y-13.357 I-8.265 J0.0
X-14.533 Y-16.387 I-6.578 J5.626
G01 X-14.58
X-59.809
X-61.144 Z-3.997
X-65.509
X-69.716 Y-16.681
X-105.058
X-105.075
G02 X-113.34 Y-8.416 I0.0 J8.265
X-111.743 Y-3.533 I8.265 J0.0
X-105.128 Y-.444 I6.615 J-5.54
G01 X-105.075 Y-.445
X-14.58
X-14.535 Y-.444
G02 X-7.953 Y-3.476 I0.0 J-8.661
X-6.315 Y-8.416 I-6.626 J-4.94
X-7.954 Y-13.357 I-8.265 J0.0
X-14.533 Y-16.387 I-6.578 J5.625
G01 X-14.58
X-59.809
X-61.144 Z-4.067
X-65.509
X-69.716 Y-16.681
X-105.058
X-105.075
G02 X-113.34 Y-8.416 I0.0 J8.265
X-111.743 Y-3.533 I8.265 J0.0
X-105.128 Y-.444 I6.615 J-5.539
G01 X-105.075 Y-.445
X-14.58
X-14.535 Y-.444
G02 X-7.953 Y-3.476 I0.0 J-8.66
X-6.315 Y-8.416 I-6.626 J-4.94
X-7.954 Y-13.357 I-8.265 J0.0
X-14.532 Y-16.387 I-6.578 J5.625
G01 X-14.58
X-59.809
X-61.144 Z-4.136
X-65.509
X-69.716 Y-16.681
X-105.058
X-105.075
G02 X-113.34 Y-8.416 I0.0 J8.265
X-111.743 Y-3.533 I8.265 J0.0
X-105.128 Y-.444 I6.615 J-5.539
G01 X-105.075 Y-.445
X-14.58
X-14.535 Y-.444
G02 X-7.953 Y-3.476 I0.0 J-8.66
X-6.315 Y-8.416 I-6.626 J-4.94
X-7.954 Y-13.357 I-8.265 J0.0
X-14.532 Y-16.387 I-6.578 J5.624
G01 X-14.58
X-59.809
X-61.144 Z-4.206
X-65.509
X-69.716 Y-16.681
X-105.058
X-105.075
G02 X-113.34 Y-8.416 I0.0 J8.265
X-111.743 Y-3.533 I8.265 J0.0
X-105.129 Y-.444 I6.614 J-5.539
G01 X-105.075 Y-.445
X-14.58
X-14.535 Y-.444
G02 X-7.953 Y-3.476 I0.0 J-8.66
X-6.315 Y-8.416 I-6.626 J-4.94
X-7.954 Y-13.357 I-8.265 J0.0
X-14.532 Y-16.387 I-6.578 J5.624
G01 X-14.58
X-59.809
X-61.144 Z-4.276
X-65.509
X-69.716 Y-16.681
X-105.058
X-105.075
G02 X-113.34 Y-8.416 I0.0 J8.265
X-111.743 Y-3.533 I8.265 J0.0
X-105.129 Y-.444 I6.614 J-5.539
G01 X-105.075 Y-.445
X-14.58
X-14.535 Y-.444
G02 X-7.953 Y-3.476 I0.0 J-8.66
X-6.315 Y-8.416 I-6.626 J-4.94
X-7.954 Y-13.357 I-8.265 J0.0
X-14.532 Y-16.387 I-6.578 J5.624
G01 X-14.58
X-59.809
X-61.144 Z-4.346
X-65.509
X-69.716 Y-16.681
X-105.058
X-105.075
G02 X-113.34 Y-8.416 I0.0 J8.265
X-111.743 Y-3.533 I8.265 J0.0
X-105.129 Y-.444 I6.614 J-5.539
G01 X-105.075 Y-.445
X-14.58
X-14.535 Y-.444
G02 X-7.953 Y-3.476 I0.0 J-8.66
X-6.315 Y-8.416 I-6.626 J-4.94
X-7.954 Y-13.357 I-8.265 J0.0
X-14.532 Y-16.387 I-6.577 J5.623
G01 X-14.58
X-59.809
X-61.144 Z-4.416
X-65.509
X-69.716 Y-16.681
X-105.058
X-105.075
G02 X-113.34 Y-8.416 I0.0 J8.265
X-111.743 Y-3.533 I8.265 J0.0
X-105.129 Y-.444 I6.614 J-5.539
G01 X-105.075 Y-.445
X-14.58
X-14.535 Y-.444
G02 X-7.953 Y-3.476 I0.0 J-8.66
X-6.315 Y-8.416 I-6.626 J-4.94
X-7.954 Y-13.357 I-8.265 J0.0
X-14.532 Y-16.387 I-6.577 J5.623
G01 X-14.58
X-59.809
X-61.144 Z-4.486
X-65.509
X-69.716 Y-16.681
X-105.058
X-105.075
G02 X-113.34 Y-8.416 I0.0 J8.265
X-111.743 Y-3.533 I8.265 J0.0
X-105.129 Y-.444 I6.614 J-5.539
G01 X-105.075 Y-.445
X-14.58
X-14.535 Y-.444
G02 X-7.953 Y-3.476 I0.0 J-8.66
X-6.315 Y-8.416 I-6.626 J-4.94
X-7.954 Y-13.357 I-8.265 J0.0
X-14.531 Y-16.387 I-6.577 J5.622
G01 X-14.58
X-59.809
X-61.144 Z-4.556
X-65.509
X-69.716 Y-16.681
X-105.058
X-105.075
G02 X-113.34 Y-8.416 I0.0 J8.265
X-111.743 Y-3.533 I8.265 J0.0
X-105.129 Y-.444 I6.614 J-5.539
G01 X-105.075 Y-.445
X-14.58
X-14.535 Y-.444
G02 X-7.953 Y-3.476 I0.0 J-8.66
X-6.315 Y-8.416 I-6.626 J-4.94
X-7.954 Y-13.357 I-8.265 J0.0
X-14.531 Y-16.387 I-6.577 J5.622
G01 X-14.58
X-59.809
X-61.144 Z-4.626
X-65.509
X-69.716 Y-16.681
X-105.058
X-105.075
G02 X-113.34 Y-8.416 I0.0 J8.265
X-111.743 Y-3.533 I8.265 J0.0
X-105.129 Y-.444 I6.614 J-5.539
G01 X-105.075 Y-.445
X-14.58
X-14.534 Y-.444
G02 X-7.953 Y-3.476 I0.0 J-8.659
X-6.315 Y-8.416 I-6.626 J-4.94
X-7.954 Y-13.357 I-8.265 J0.0
X-14.531 Y-16.387 I-6.577 J5.622
G01 X-14.58
X-59.809
X-61.144 Z-4.696
X-65.509
X-69.716 Y-16.681
X-105.058
X-105.075
G02 X-113.34 Y-8.416 I0.0 J8.265
X-111.743 Y-3.533 I8.265 J0.0
X-105.129 Y-.444 I6.614 J-5.539
G01 X-105.075 Y-.445
X-14.58
X-14.534 Y-.444
G02 X-7.953 Y-3.476 I0.0 J-8.658
X-6.315 Y-8.416 I-6.626 J-4.94
X-7.954 Y-13.357 I-8.265 J0.0
X-14.531 Y-16.387 I-6.577 J5.621
G01 X-14.58
X-59.809
X-61.144 Z-4.766
X-65.509
X-69.716 Y-16.681
X-105.058
X-105.075
G02 X-113.34 Y-8.416 I0.0 J8.265
X-111.743 Y-3.533 I8.265 J0.0
X-105.129 Y-.444 I6.614 J-5.538
G01 X-105.075 Y-.445
X-14.58
X-14.534 Y-.444
G02 X-7.953 Y-3.476 I0.0 J-8.658
X-6.315 Y-8.416 I-6.626 J-4.94
X-7.954 Y-13.357 I-8.265 J0.0
X-14.531 Y-16.387 I-6.577 J5.621
G01 X-14.58
X-59.809
X-61.144 Z-4.836
X-65.509
X-69.716 Y-16.681
X-105.058
X-105.075
G02 X-113.34 Y-8.416 I0.0 J8.265
X-111.743 Y-3.533 I8.265 J0.0
X-105.129 Y-.444 I6.614 J-5.538
G01 X-105.075 Y-.445
X-14.58
X-14.534 Y-.444
G02 X-7.953 Y-3.476 I0.0 J-8.658
X-6.315 Y-8.416 I-6.626 J-4.94
X-7.954 Y-13.357 I-8.265 J0.0
X-14.531 Y-16.387 I-6.576 J5.62
G01 X-14.58
X-59.809
X-61.144 Z-4.906
X-65.509
X-69.716 Y-16.681
X-105.058
X-105.075
G02 X-113.34 Y-8.416 I0.0 J8.265
X-111.743 Y-3.533 I8.265 J0.0
X-105.129 Y-.444 I6.614 J-5.538
G01 X-105.075 Y-.445
X-14.58
X-14.534 Y-.444
G02 X-7.953 Y-3.476 I0.0 J-8.658
X-6.315 Y-8.416 I-6.626 J-4.94
X-7.954 Y-13.357 I-8.265 J0.0
X-14.53 Y-16.387 I-6.576 J5.62
G01 X-14.58
X-59.809
X-61.144 Z-4.976
X-65.509
X-69.716 Y-16.681
X-105.058
X-105.075
G02 X-113.34 Y-8.416 I0.0 J8.265
X-111.743 Y-3.533 I8.265 J0.0
X-105.129 Y-.444 I6.614 J-5.538
G01 X-105.075 Y-.445
X-14.58
X-14.534 Y-.444
G02 X-7.953 Y-3.476 I0.0 J-8.658
X-6.315 Y-8.416 I-6.626 J-4.94
X-7.954 Y-13.357 I-8.265 J0.0
X-14.53 Y-16.387 I-6.576 J5.62
G01 X-14.58
X-59.809
X-61.144 Z-5.046
X-65.509
X-69.716 Y-16.681
X-105.058
X-105.075
G02 X-113.34 Y-8.416 I0.0 J8.265
X-111.743 Y-3.533 I8.265 J0.0
X-105.129 Y-.444 I6.614 J-5.538
G01 X-105.075 Y-.445
X-14.58
X-14.534 Y-.444
G02 X-7.953 Y-3.476 I0.0 J-8.658
X-6.315 Y-8.416 I-6.626 J-4.94
X-7.954 Y-13.356 I-8.265 J0.0
X-14.53 Y-16.387 I-6.576 J5.619
G01 X-14.58
X-59.809
X-61.144 Z-5.116
X-65.509
X-69.716 Y-16.681
X-105.058
X-105.075
G02 X-113.34 Y-8.416 I0.0 J8.265
X-111.743 Y-3.533 I8.265 J0.0
X-105.129 Y-.444 I6.614 J-5.538
G01 X-105.075 Y-.445
X-14.58
X-14.534 Y-.444
G02 X-7.953 Y-3.476 I0.0 J-8.658
X-6.315 Y-8.416 I-6.626 J-4.94
X-7.954 Y-13.356 I-8.265 J0.0
X-14.53 Y-16.387 I-6.576 J5.619
G01 X-14.58
X-59.809
X-61.144 Z-5.185
X-65.509
X-69.716 Y-16.681
X-105.058
X-105.075
G02 X-113.34 Y-8.416 I0.0 J8.265
X-111.743 Y-3.533 I8.265 J0.0
X-105.129 Y-.444 I6.614 J-5.538
G01 X-105.075 Y-.445
X-14.58
X-14.534 Y-.444
G02 X-7.953 Y-3.476 I0.0 J-8.658
X-6.315 Y-8.416 I-6.626 J-4.94
X-7.954 Y-13.356 I-8.265 J0.0
X-14.53 Y-16.387 I-6.576 J5.619
G01 X-14.58
X-59.809
X-61.144 Z-5.255
X-65.509
X-69.716 Y-16.681
X-105.058
X-105.075
G02 X-113.34 Y-8.416 I0.0 J8.265
X-111.743 Y-3.533 I8.265 J0.0
X-105.129 Y-.444 I6.614 J-5.538
G01 X-105.075 Y-.445
X-14.58
X-14.534 Y-.444
G02 X-7.953 Y-3.476 I0.0 J-8.658
X-6.315 Y-8.416 I-6.626 J-4.94
X-7.954 Y-13.356 I-8.265 J0.0
X-14.53 Y-16.387 I-6.576 J5.618
G01 X-14.58
X-59.809
X-61.144 Z-5.325
X-65.509
X-69.716 Y-16.681
X-105.058
X-105.075
G02 X-113.34 Y-8.416 I0.0 J8.265
X-111.743 Y-3.533 I8.265 J0.0
X-105.129 Y-.444 I6.614 J-5.538
G01 X-105.075 Y-.445
X-14.58
X-14.534 Y-.444
G02 X-7.953 Y-3.476 I0.0 J-8.658
X-6.315 Y-8.416 I-6.626 J-4.94
X-7.954 Y-13.356 I-8.265 J0.0
X-14.529 Y-16.387 I-6.575 J5.618
G01 X-14.58
X-59.809
X-61.144 Z-5.395
X-65.509
X-69.716 Y-16.681
X-105.058
X-105.075
G02 X-113.34 Y-8.416 I0.0 J8.265
X-111.743 Y-3.533 I8.265 J0.0
X-105.129 Y-.444 I6.614 J-5.538
G01 X-105.075 Y-.445
X-14.58
X-14.534 Y-.444
G02 X-7.953 Y-3.476 I0.0 J-8.658
X-6.315 Y-8.416 I-6.626 J-4.94
X-7.954 Y-13.356 I-8.265 J0.0
X-14.529 Y-16.387 I-6.575 J5.617
G01 X-14.58
X-59.809
X-61.144 Z-5.465
X-65.509
X-69.716 Y-16.681
X-105.058
X-105.075
G02 X-113.34 Y-8.416 I0.0 J8.265
X-111.743 Y-3.533 I8.265 J0.0
X-105.129 Y-.444 I6.614 J-5.537
G01 X-105.075 Y-.445
X-14.58
X-14.534 Y-.444
G02 X-7.953 Y-3.476 I0.0 J-8.658
X-6.315 Y-8.416 I-6.626 J-4.94
X-7.954 Y-13.356 I-8.265 J0.0
X-14.529 Y-16.387 I-6.575 J5.617
G01 X-14.58
X-59.809
X-61.144 Z-5.535
X-65.509
X-69.716 Y-16.681
X-105.058
X-105.075
G02 X-113.34 Y-8.416 I0.0 J8.265
X-111.743 Y-3.533 I8.265 J0.0
X-105.129 Y-.444 I6.614 J-5.537
G01 X-105.075 Y-.445
X-14.58
X-14.534 Y-.444
G02 X-7.953 Y-3.476 I0.0 J-8.658
X-6.315 Y-8.416 I-6.626 J-4.94
X-7.954 Y-13.356 I-8.265 J0.0
X-14.529 Y-16.387 I-6.575 J5.617
G01 X-14.58
X-59.809
X-61.144 Z-5.605
X-65.509
X-69.716 Y-16.681
X-105.058
X-105.075
G02 X-113.34 Y-8.416 I0.0 J8.265
X-111.743 Y-3.533 I8.265 J0.0
X-105.129 Y-.444 I6.614 J-5.537
G01 X-105.075 Y-.445
X-14.58
X-14.534 Y-.444
G02 X-7.953 Y-3.476 I0.0 J-8.658
X-6.315 Y-8.416 I-6.626 J-4.94
X-7.954 Y-13.356 I-8.265 J0.0
X-14.529 Y-16.387 I-6.575 J5.616
G01 X-14.58
X-59.809
X-61.144 Z-5.675
X-65.509
X-69.716 Y-16.681
X-105.058
X-105.075
G02 X-113.34 Y-8.416 I0.0 J8.265
X-111.743 Y-3.533 I8.265 J0.0
X-105.129 Y-.444 I6.614 J-5.537
G01 X-105.075 Y-.445
X-14.58
X-14.534 Y-.444
G02 X-7.953 Y-3.476 I0.0 J-8.658
X-6.315 Y-8.416 I-6.626 J-4.94
X-7.954 Y-13.356 I-8.265 J0.0
X-14.529 Y-16.387 I-6.575 J5.616
G01 X-14.58
X-59.809
X-61.144 Z-5.745
X-65.509
X-69.716 Y-16.681
X-105.058
X-105.075
G02 X-113.34 Y-8.416 I0.0 J8.265
X-111.743 Y-3.533 I8.265 J0.0
X-105.13 Y-.444 I6.614 J-5.537
G01 X-105.075 Y-.445
X-14.58
X-14.534 Y-.444
G02 X-7.953 Y-3.476 I0.0 J-8.658
X-6.315 Y-8.416 I-6.626 J-4.94
X-7.954 Y-13.356 I-8.265 J0.0
X-14.529 Y-16.387 I-6.575 J5.615
G01 X-14.58
X-59.809
X-61.144 Z-5.815
X-65.509
X-69.716 Y-16.681
X-105.058
X-105.075
G02 X-113.34 Y-8.416 I0.0 J8.265
X-111.743 Y-3.533 I8.265 J0.0
X-105.13 Y-.444 I6.613 J-5.537
G01 X-105.075 Y-.445
X-14.58
X-14.534 Y-.444
G02 X-7.953 Y-3.476 I0.0 J-8.658
X-6.315 Y-8.416 I-6.626 J-4.94
X-7.954 Y-13.356 I-8.265 J0.0
X-14.528 Y-16.387 I-6.575 J5.615
G01 X-14.58
X-59.809
X-61.144 Z-5.885
X-65.509
X-69.716 Y-16.681
X-105.058
X-105.075
G02 X-113.34 Y-8.416 I0.0 J8.265
X-111.743 Y-3.533 I8.265 J0.0
X-105.13 Y-.444 I6.613 J-5.537
G01 X-105.075 Y-.445
X-14.58
X-14.534 Y-.444
G02 X-7.953 Y-3.476 I0.0 J-8.658
X-6.315 Y-8.416 I-6.626 J-4.94
X-7.954 Y-13.356 I-8.265 J0.0
X-14.528 Y-16.387 I-6.574 J5.615
G01 X-14.58
X-59.809
X-61.144 Z-5.955
X-65.509
X-69.716 Y-16.681
X-105.058
X-105.075
G02 X-113.34 Y-8.416 I0.0 J8.265
X-111.743 Y-3.533 I8.265 J0.0
X-105.13 Y-.444 I6.613 J-5.537
G01 X-105.075 Y-.445
X-14.58
X-14.534 Y-.444
G02 X-7.953 Y-3.476 I0.0 J-8.657
X-6.315 Y-8.416 I-6.626 J-4.94
X-7.954 Y-13.356 I-8.265 J0.0
X-14.528 Y-16.387 I-6.574 J5.614
G01 X-14.58
X-59.809
X-61.144 Z-6.025
X-65.509
X-69.716 Y-16.681
X-105.058
X-105.075
G02 X-113.34 Y-8.416 I0.0 J8.265
X-111.743 Y-3.533 I8.265 J0.0
X-105.13 Y-.444 I6.613 J-5.537
G01 X-105.075 Y-.445
X-14.58
X-14.534 Y-.444
G02 X-7.953 Y-3.476 I0.0 J-8.657
X-6.315 Y-8.416 I-6.626 J-4.94
X-7.954 Y-13.356 I-8.265 J0.0
X-14.528 Y-16.387 I-6.574 J5.614
G01 X-14.58
X-59.809
X-61.144 Z-6.095
X-65.509
X-69.716 Y-16.681
X-105.058
X-105.075
G02 X-113.34 Y-8.416 I0.0 J8.265
X-111.743 Y-3.533 I8.265 J0.0
X-105.13 Y-.444 I6.613 J-5.537
G01 X-105.075 Y-.445
X-14.58
X-14.534 Y-.444
G02 X-7.953 Y-3.476 I0.0 J-8.657
X-6.315 Y-8.416 I-6.626 J-4.94
X-7.954 Y-13.356 I-8.265 J0.0
X-14.528 Y-16.387 I-6.575 J5.615
G01 X-14.58
X-59.809
X-61.144 Z-6.165
X-65.509
X-69.716 Y-16.681
X-105.058
X-105.075
G02 X-113.34 Y-8.416 I0.0 J8.265
X-111.743 Y-3.533 I8.265 J0.0
X-105.13 Y-.444 I6.613 J-5.537
G01 X-105.075 Y-.445
X-14.58
X-14.534 Y-.444
G02 X-7.953 Y-3.476 I0.0 J-8.657
X-6.315 Y-8.416 I-6.626 J-4.94
X-7.954 Y-13.356 I-8.265 J0.0
X-14.528 Y-16.387 I-6.574 J5.614
G01 X-14.58
X-59.809
X-61.144 Z-6.234
X-65.509
X-69.716 Y-16.681
X-105.058
X-105.075
G02 X-113.34 Y-8.416 I0.0 J8.265
X-111.743 Y-3.533 I8.265 J0.0
X-105.13 Y-.444 I6.613 J-5.536
G01 X-105.075 Y-.445
X-14.58
X-14.534 Y-.444
G02 X-7.953 Y-3.476 I0.0 J-8.657
X-6.315 Y-8.416 I-6.626 J-4.94
X-7.954 Y-13.356 I-8.265 J0.0
X-14.528 Y-16.387 I-6.574 J5.614
G01 X-14.58
X-59.809
X-61.144 Z-6.304
X-65.509
X-69.716 Y-16.681
X-105.058
X-105.075
G02 X-113.34 Y-8.416 I0.0 J8.265
X-111.743 Y-3.533 I8.265 J0.0
X-105.13 Y-.444 I6.613 J-5.536
G01 X-105.075 Y-.445
X-14.58
X-14.534 Y-.444
G02 X-7.953 Y-3.476 I0.0 J-8.657
X-6.315 Y-8.416 I-6.626 J-4.94
X-7.954 Y-13.356 I-8.265 J0.0
X-14.528 Y-16.387 I-6.574 J5.613
G01 X-14.58
X-59.809
X-61.144 Z-6.374
X-65.509
X-69.716 Y-16.681
X-105.058
X-105.075
G02 X-113.34 Y-8.416 I0.0 J8.265
X-111.743 Y-3.533 I8.265 J0.0
X-105.13 Y-.444 I6.613 J-5.536
G01 X-105.075 Y-.445
X-14.58
X-14.534 Y-.444
G02 X-7.953 Y-3.476 I0.0 J-8.657
X-6.315 Y-8.416 I-6.626 J-4.94
X-7.954 Y-13.356 I-8.265 J0.0
X-14.528 Y-16.387 I-6.574 J5.613
G01 X-14.58
X-59.809
X-61.144 Z-6.444
X-65.509
X-69.716 Y-16.681
X-105.058
X-105.075
G02 X-113.34 Y-8.416 I0.0 J8.265
X-111.743 Y-3.533 I8.265 J0.0
X-105.13 Y-.444 I6.613 J-5.536
G01 X-105.075 Y-.445
X-14.58
X-14.534 Y-.444
G02 X-7.953 Y-3.476 I0.0 J-8.657
X-6.315 Y-8.416 I-6.626 J-4.94
X-7.954 Y-13.356 I-8.265 J0.0
X-14.527 Y-16.387 I-6.574 J5.613
G01 X-14.58
X-59.809
X-61.144 Z-6.514
X-65.509
X-69.716 Y-16.681
X-105.058
X-105.075
G02 X-113.34 Y-8.416 I0.0 J8.265
X-111.743 Y-3.533 I8.265 J0.0
X-105.13 Y-.444 I6.613 J-5.536
G01 X-105.075 Y-.445
X-14.834
G02 X-14.552 Y-.44 I.282 J-8.684
X-7.953 Y-3.476 I0.0 J-8.689
X-6.315 Y-8.416 I-6.626 J-4.94
X-7.954 Y-13.356 I-8.265 J0.0
X-14.527 Y-16.387 I-6.574 J5.612
G01 X-14.58
X-59.809
X-61.144 Z-6.584
X-65.509
X-69.716 Y-16.681
X-105.058
X-105.075
G02 X-113.34 Y-8.416 I0.0 J8.265
X-111.743 Y-3.533 I8.265 J0.0
X-105.13 Y-.444 I6.613 J-5.536
G01 X-105.075 Y-.445
X-14.834
G02 X-14.552 Y-.44 I.282 J-8.684
X-7.953 Y-3.476 I0.0 J-8.689
X-6.315 Y-8.416 I-6.626 J-4.94
X-7.954 Y-13.356 I-8.265 J0.0
X-14.527 Y-16.387 I-6.574 J5.612
G01 X-14.58
X-59.809
X-61.144 Z-6.654
X-65.509
X-69.716 Y-16.681
X-105.058
X-105.075
G02 X-113.34 Y-8.416 I0.0 J8.265
X-111.743 Y-3.533 I8.265 J0.0
X-105.13 Y-.444 I6.613 J-5.536
G01 X-105.075 Y-.445
X-14.834
G02 X-14.552 Y-.44 I.282 J-8.684
X-7.953 Y-3.476 I0.0 J-8.689
X-6.315 Y-8.416 I-6.626 J-4.94
X-7.954 Y-13.356 I-8.265 J0.0
X-14.527 Y-16.387 I-6.573 J5.611
G01 X-14.58
X-59.809
X-61.144 Z-6.724
X-65.509
X-69.716 Y-16.681
X-105.058
X-105.075
G02 X-113.34 Y-8.416 I0.0 J8.265
X-111.743 Y-3.533 I8.265 J0.0
X-105.13 Y-.444 I6.613 J-5.536
G01 X-105.075 Y-.445
X-14.834
G02 X-14.552 Y-.44 I.282 J-8.684
X-7.953 Y-3.476 I0.0 J-8.689
X-6.315 Y-8.416 I-6.626 J-4.94
X-7.953 Y-13.356 I-8.265 J0.0
X-14.527 Y-16.387 I-6.573 J5.611
G01 X-14.58
X-59.809
X-61.144 Z-6.794
X-65.509
X-69.716 Y-16.681
X-105.058
X-105.075
G02 X-113.34 Y-8.416 I0.0 J8.265
X-111.743 Y-3.533 I8.265 J0.0
X-105.13 Y-.444 I6.613 J-5.536
G01 X-105.075 Y-.445
X-14.834
G02 X-14.552 Y-.44 I.282 J-8.684
X-7.953 Y-3.476 I0.0 J-8.689
X-6.315 Y-8.416 I-6.626 J-4.94
X-7.953 Y-13.356 I-8.265 J0.0
X-14.527 Y-16.387 I-6.573 J5.611
G01 X-14.58
X-59.809
X-61.144 Z-6.864
X-65.509
X-69.716 Y-16.681
X-105.058
X-105.075
G02 X-113.34 Y-8.416 I0.0 J8.265
X-111.743 Y-3.533 I8.265 J0.0
X-105.13 Y-.444 I6.613 J-5.536
G01 X-105.075 Y-.445
X-14.834
G02 X-14.552 Y-.44 I.282 J-8.684
X-7.953 Y-3.476 I0.0 J-8.689
X-6.315 Y-8.416 I-6.626 J-4.94
X-7.953 Y-13.356 I-8.265 J0.0
X-14.526 Y-16.387 I-6.573 J5.61
G01 X-14.58
X-59.809
X-61.144 Z-6.934
X-65.509
X-69.716 Y-16.681
X-105.058
X-105.075
G02 X-113.34 Y-8.416 I0.0 J8.265
X-111.743 Y-3.533 I8.265 J0.0
X-105.13 Y-.444 I6.613 J-5.535
G01 X-105.075 Y-.445
X-14.834
G02 X-14.552 Y-.44 I.282 J-8.684
X-7.953 Y-3.476 I0.0 J-8.688
X-6.315 Y-8.416 I-6.626 J-4.94
X-7.953 Y-13.356 I-8.265 J0.0
X-14.526 Y-16.387 I-6.573 J5.61
G01 X-14.58
X-59.809
X-61.144 Z-7.004
X-65.509
X-69.716 Y-16.681
X-105.058
X-105.075
G02 X-113.34 Y-8.416 I0.0 J8.265
X-111.743 Y-3.533 I8.265 J0.0
X-105.13 Y-.444 I6.613 J-5.535
G01 X-105.075 Y-.445
X-14.834
G02 X-14.552 Y-.44 I.282 J-8.684
X-7.953 Y-3.476 I0.0 J-8.688
X-6.315 Y-8.416 I-6.626 J-4.94
X-7.953 Y-13.356 I-8.265 J0.0
X-14.526 Y-16.387 I-6.573 J5.609
G01 X-14.58
X-59.809
X-61.144 Z-7.074
X-65.509
X-69.716 Y-16.681
X-105.058
X-105.075
G02 X-113.34 Y-8.416 I0.0 J8.265
X-111.743 Y-3.533 I8.265 J0.0
X-105.13 Y-.444 I6.613 J-5.535
G01 X-105.075 Y-.445
X-14.834
G02 X-14.552 Y-.44 I.282 J-8.684
X-7.953 Y-3.476 I0.0 J-8.688
X-6.315 Y-8.416 I-6.626 J-4.94
X-7.953 Y-13.355 I-8.265 J0.0
X-14.526 Y-16.387 I-6.573 J5.609
G01 X-14.58
X-59.809
X-61.144 Z-7.144
X-65.509
X-69.716 Y-16.681
X-105.058
X-105.075
G02 X-113.34 Y-8.416 I0.0 J8.265
X-111.743 Y-3.533 I8.265 J0.0
X-105.13 Y-.444 I6.613 J-5.535
G01 X-105.075 Y-.445
X-14.834
G02 X-14.552 Y-.44 I.282 J-8.684
X-7.953 Y-3.476 I0.0 J-8.688
X-6.315 Y-8.416 I-6.626 J-4.94
X-7.953 Y-13.355 I-8.265 J0.0
X-14.526 Y-16.387 I-6.572 J5.608
G01 X-14.58
X-59.809
X-61.144 Z-7.214
X-65.509
X-69.716 Y-16.681
X-105.058
X-105.075
G02 X-113.34 Y-8.416 I0.0 J8.265
X-111.697 Y-3.471 I8.265 J0.0
X-105.12 Y-.444 I6.577 J-5.633
G01 X-105.075 Y-.445
X-14.834
G02 X-14.552 Y-.44 I.282 J-8.683
X-7.953 Y-3.476 I0.0 J-8.688
X-6.315 Y-8.416 I-6.626 J-4.94
X-7.923 Y-13.314 I-8.265 J0.0
X-14.517 Y-16.387 I-6.594 J5.538
G01 X-14.58
X-59.809
X-61.144 Z-7.283
X-65.509
X-69.716 Y-16.681
X-105.058
X-105.075
G02 X-113.34 Y-8.416 I0.0 J8.265
X-111.697 Y-3.471 I8.265 J0.0
X-105.12 Y-.444 I6.577 J-5.633
G01 X-105.075 Y-.445
X-14.834
G02 X-14.552 Y-.44 I.282 J-8.683
X-7.953 Y-3.476 I0.0 J-8.688
X-6.315 Y-8.416 I-6.626 J-4.94
X-7.923 Y-13.314 I-8.265 J0.0
X-14.517 Y-16.387 I-6.594 J5.538
G01 X-14.58
X-59.809
X-61.144 Z-7.353
X-65.509
X-69.716 Y-16.681
X-105.058
X-105.075
G02 X-113.34 Y-8.416 I0.0 J8.265
X-111.697 Y-3.471 I8.265 J0.0
X-105.12 Y-.444 I6.577 J-5.633
G01 X-105.075 Y-.445
X-14.834
G02 X-14.552 Y-.44 I.282 J-8.683
X-7.953 Y-3.476 I0.0 J-8.688
X-6.315 Y-8.416 I-6.626 J-4.94
X-7.923 Y-13.314 I-8.265 J0.0
X-14.516 Y-16.387 I-6.594 J5.537
G01 X-14.58
X-59.809
X-61.144 Z-7.423
X-65.509
X-69.716 Y-16.681
X-105.058
X-105.075
G02 X-113.34 Y-8.416 I0.0 J8.265
X-111.697 Y-3.471 I8.265 J0.0
X-105.12 Y-.444 I6.577 J-5.633
G01 X-105.075 Y-.445
X-14.834
G02 X-14.552 Y-.44 I.282 J-8.683
X-7.953 Y-3.476 I0.0 J-8.688
X-6.315 Y-8.416 I-6.626 J-4.94
X-7.923 Y-13.314 I-8.265 J0.0
X-14.516 Y-16.387 I-6.593 J5.536
G01 X-14.58
X-59.809
X-61.144 Z-7.493
X-65.509
X-69.716 Y-16.681
X-105.058
X-105.075
G02 X-113.34 Y-8.416 I0.0 J8.265
X-111.697 Y-3.471 I8.265 J0.0
X-105.12 Y-.444 I6.577 J-5.633
G01 X-105.075 Y-.445
X-14.834
G02 X-14.552 Y-.44 I.282 J-8.683
X-7.953 Y-3.476 I0.0 J-8.688
X-6.315 Y-8.416 I-6.626 J-4.94
X-7.923 Y-13.314 I-8.265 J0.0
X-14.516 Y-16.387 I-6.593 J5.536
G01 X-14.58
X-59.809
X-61.144 Z-7.563
X-65.509
X-69.716 Y-16.681
X-105.058
X-105.075
G02 X-113.34 Y-8.416 I0.0 J8.265
X-111.697 Y-3.471 I8.265 J0.0
X-105.121 Y-.444 I6.577 J-5.633
G01 X-105.075 Y-.445
X-14.834
G02 X-14.551 Y-.44 I.282 J-8.683
X-7.953 Y-3.476 I0.0 J-8.688
X-6.315 Y-8.416 I-6.626 J-4.94
X-7.923 Y-13.314 I-8.265 J0.0
X-14.515 Y-16.387 I-6.593 J5.535
G01 X-14.58
X-59.809
X-61.144 Z-7.633
X-65.509
X-69.716 Y-16.681
X-105.058
X-105.075
G02 X-113.34 Y-8.416 I0.0 J8.265
X-111.697 Y-3.471 I8.265 J0.0
X-105.121 Y-.444 I6.577 J-5.633
G01 X-105.075 Y-.445
X-14.834
G02 X-14.551 Y-.44 I.282 J-8.683
X-7.953 Y-3.476 I0.0 J-8.688
X-6.315 Y-8.416 I-6.626 J-4.94
X-7.923 Y-13.314 I-8.265 J0.0
X-14.515 Y-16.387 I-6.592 J5.535
G01 X-14.58
X-59.809
X-61.144 Z-7.703
X-65.509
X-69.716 Y-16.681
X-105.058
X-105.075
G02 X-113.34 Y-8.416 I0.0 J8.265
X-111.697 Y-3.471 I8.265 J0.0
X-105.121 Y-.444 I6.577 J-5.633
G01 X-105.075 Y-.445
X-14.834
G02 X-14.551 Y-.44 I.282 J-8.683
X-7.953 Y-3.476 I0.0 J-8.688
X-6.315 Y-8.416 I-6.626 J-4.94
X-7.923 Y-13.314 I-8.265 J0.0
X-14.515 Y-16.387 I-6.592 J5.534
G01 X-14.58
X-59.809
X-61.144 Z-7.773
X-65.509
X-69.716 Y-16.681
X-105.058
X-105.075
G02 X-113.34 Y-8.416 I0.0 J8.265
X-111.697 Y-3.471 I8.265 J0.0
X-105.121 Y-.444 I6.577 J-5.632
G01 X-105.075 Y-.445
X-14.834
G02 X-14.551 Y-.44 I.282 J-8.683
X-7.953 Y-3.476 I0.0 J-8.688
X-6.315 Y-8.416 I-6.626 J-4.94
X-7.923 Y-13.314 I-8.265 J0.0
X-14.515 Y-16.387 I-6.592 J5.533
G01 X-14.58
X-59.809
X-61.144 Z-7.843
X-65.509
X-69.716 Y-16.681
X-105.058
X-105.075
G02 X-113.34 Y-8.416 I0.0 J8.265
X-111.697 Y-3.471 I8.265 J0.0
X-105.121 Y-.444 I6.577 J-5.632
G01 X-105.075 Y-.445
X-14.834
G02 X-14.551 Y-.44 I.282 J-8.683
X-7.953 Y-3.476 I0.0 J-8.688
X-6.315 Y-8.416 I-6.626 J-4.94
X-7.923 Y-13.314 I-8.265 J0.0
X-14.514 Y-16.387 I-6.592 J5.533
G01 X-14.58
X-59.809
X-61.144 Z-7.913
X-65.509
X-69.716 Y-16.681
X-105.058
X-105.075
G02 X-113.34 Y-8.416 I0.0 J8.265
X-111.697 Y-3.471 I8.265 J0.0
X-105.121 Y-.444 I6.577 J-5.632
G01 X-105.075 Y-.445
X-14.834
G02 X-14.551 Y-.44 I.282 J-8.683
X-7.953 Y-3.476 I0.0 J-8.688
X-6.315 Y-8.416 I-6.626 J-4.94
X-7.923 Y-13.314 I-8.265 J0.0
X-14.514 Y-16.387 I-6.591 J5.532
G01 X-14.58
X-59.809
X-61.144 Z-7.983
X-65.509
X-69.716 Y-16.681
X-105.058
X-105.075
G02 X-113.34 Y-8.416 I0.0 J8.265
X-111.697 Y-3.471 I8.265 J0.0
X-105.121 Y-.444 I6.577 J-5.632
G01 X-105.075 Y-.445
X-14.834
G02 X-14.551 Y-.44 I.282 J-8.683
X-7.953 Y-3.476 I0.0 J-8.687
X-6.315 Y-8.416 I-6.626 J-4.94
X-7.923 Y-13.314 I-8.265 J0.0
X-14.522 Y-16.387 I-6.599 J5.549
G01 X-14.58
X-59.809
X-61.144 Z-8.053
X-65.509
X-69.716 Y-16.681
X-105.058
X-105.075
G02 X-113.34 Y-8.416 I0.0 J8.265
X-111.697 Y-3.471 I8.265 J0.0
X-105.121 Y-.444 I6.576 J-5.632
G01 X-105.075 Y-.445
X-14.834
G02 X-14.551 Y-.44 I.282 J-8.683
X-7.953 Y-3.476 I0.0 J-8.687
X-6.315 Y-8.416 I-6.626 J-4.94
X-7.923 Y-13.314 I-8.265 J0.0
X-14.522 Y-16.387 I-6.599 J5.549
G01 X-14.58
X-59.809
X-61.144 Z-8.123
X-65.509
X-69.716 Y-16.681
X-105.058
X-105.075
G02 X-113.34 Y-8.416 I0.0 J8.265
X-111.697 Y-3.471 I8.265 J0.0
X-105.121 Y-.444 I6.577 J-5.633
G01 X-105.075 Y-.445
X-14.834
G02 X-14.551 Y-.44 I.282 J-8.683
X-7.953 Y-3.476 I0.0 J-8.687
X-6.315 Y-8.416 I-6.626 J-4.94
X-7.923 Y-13.314 I-8.265 J0.0
X-14.521 Y-16.387 I-6.599 J5.548
G01 X-14.58
X-59.809
X-61.144 Z-8.193
X-65.509
X-69.716 Y-16.681
X-105.058
X-105.075
G02 X-113.34 Y-8.416 I0.0 J8.265
X-111.697 Y-3.471 I8.265 J0.0
X-105.121 Y-.444 I6.577 J-5.633
G01 X-105.075 Y-.445
X-14.834
G02 X-14.551 Y-.44 I.282 J-8.683
X-7.953 Y-3.476 I0.0 J-8.687
X-6.315 Y-8.416 I-6.626 J-4.94
X-7.923 Y-13.314 I-8.265 J0.0
X-14.521 Y-16.387 I-6.598 J5.547
G01 X-14.58
X-59.809
X-61.144 Z-8.263
X-65.509
X-69.716 Y-16.681
X-105.058
X-105.075
G02 X-113.34 Y-8.416 I0.0 J8.265
X-111.697 Y-3.471 I8.265 J0.0
X-105.121 Y-.444 I6.577 J-5.632
G01 X-105.075 Y-.445
X-14.834
G02 X-14.551 Y-.44 I.282 J-8.683
X-7.953 Y-3.476 I0.0 J-8.687
X-6.315 Y-8.416 I-6.626 J-4.94
X-7.923 Y-13.314 I-8.265 J0.0
X-14.521 Y-16.387 I-6.598 J5.547
G01 X-14.58
X-59.809
X-61.144 Z-8.332
X-65.509
X-69.716 Y-16.681
X-105.058
X-105.075
G02 X-113.34 Y-8.416 I0.0 J8.265
X-111.697 Y-3.471 I8.265 J0.0
X-105.121 Y-.444 I6.577 J-5.632
G01 X-105.075 Y-.445
X-14.834
G02 X-14.551 Y-.44 I.282 J-8.683
X-7.953 Y-3.476 I0.0 J-8.687
X-6.315 Y-8.416 I-6.626 J-4.94
X-7.923 Y-13.314 I-8.265 J0.0
X-14.521 Y-16.387 I-6.598 J5.546
G01 X-14.58
X-59.809
X-61.144 Z-8.402
X-65.509
X-69.716 Y-16.681
X-105.058
X-105.075
G02 X-113.34 Y-8.416 I0.0 J8.265
X-111.697 Y-3.471 I8.265 J0.0
X-105.121 Y-.444 I6.577 J-5.632
G01 X-105.075 Y-.445
X-14.834
G02 X-14.551 Y-.44 I.282 J-8.683
X-7.953 Y-3.476 I0.0 J-8.687
X-6.315 Y-8.416 I-6.626 J-4.94
X-7.923 Y-13.314 I-8.265 J0.0
X-14.52 Y-16.387 I-6.598 J5.546
G01 X-14.58
X-59.809
X-61.144 Z-8.472
X-65.509
X-69.716 Y-16.681
X-105.058
X-105.075
G02 X-113.34 Y-8.416 I0.0 J8.265
X-111.697 Y-3.471 I8.265 J0.0
X-105.121 Y-.444 I6.576 J-5.632
G01 X-105.075 Y-.445
X-14.834
G02 X-14.551 Y-.44 I.282 J-8.682
X-7.953 Y-3.476 I0.0 J-8.687
X-6.315 Y-8.416 I-6.626 J-4.94
X-7.923 Y-13.314 I-8.265 J0.0
X-14.52 Y-16.387 I-6.597 J5.545
G01 X-14.58
X-59.809
X-61.144 Z-8.542
X-65.509
X-69.716 Y-16.681
X-105.058
X-105.075
G02 X-113.34 Y-8.416 I0.0 J8.265
X-111.697 Y-3.471 I8.265 J0.0
X-105.121 Y-.444 I6.576 J-5.632
G01 X-105.075 Y-.445
X-14.834
G02 X-14.551 Y-.44 I.282 J-8.682
X-7.953 Y-3.476 I0.0 J-8.687
X-6.315 Y-8.416 I-6.626 J-4.94
X-7.923 Y-13.314 I-8.265 J0.0
X-14.52 Y-16.387 I-6.597 J5.544
G01 X-14.58
X-59.809
X-61.144 Z-8.612
X-65.509
X-69.716 Y-16.681
X-105.058
X-105.075
G02 X-113.34 Y-8.416 I0.0 J8.265
X-111.697 Y-3.471 I8.265 J0.0
X-105.121 Y-.444 I6.576 J-5.632
G01 X-105.075 Y-.445
X-14.834
G02 X-14.551 Y-.44 I.282 J-8.682
X-7.953 Y-3.476 I0.0 J-8.687
X-6.315 Y-8.416 I-6.626 J-4.94
X-7.923 Y-13.314 I-8.265 J0.0
X-14.519 Y-16.387 I-6.597 J5.544
G01 X-14.58
X-59.809
X-61.144 Z-8.682
X-65.509
X-69.716 Y-16.681
X-105.058
X-105.075
G02 X-113.34 Y-8.416 I0.0 J8.265
X-111.697 Y-3.471 I8.265 J0.0
X-105.121 Y-.444 I6.576 J-5.632
G01 X-105.075 Y-.445
X-14.834
G02 X-14.551 Y-.44 I.283 J-8.682
X-7.953 Y-3.476 I0.0 J-8.687
X-6.315 Y-8.416 I-6.626 J-4.94
X-7.923 Y-13.314 I-8.265 J0.0
X-14.519 Y-16.387 I-6.596 J5.543
G01 X-14.58
X-59.809
X-61.144 Z-8.752
X-65.509
X-69.716 Y-16.681
X-105.058
X-105.075
G02 X-113.34 Y-8.416 I0.0 J8.265
X-111.697 Y-3.471 I8.265 J0.0
X-105.121 Y-.444 I6.576 J-5.631
G01 X-105.075 Y-.445
X-14.834
G02 X-14.551 Y-.44 I.283 J-8.682
X-7.953 Y-3.476 I0.0 J-8.687
X-6.315 Y-8.416 I-6.626 J-4.94
X-7.923 Y-13.314 I-8.265 J0.0
X-14.519 Y-16.387 I-6.596 J5.543
G01 X-14.58
X-59.809
X-61.144 Z-8.822
X-65.509
X-69.716 Y-16.681
X-105.058
X-105.075
G02 X-113.34 Y-8.416 I0.0 J8.265
X-111.697 Y-3.471 I8.265 J0.0
X-105.121 Y-.444 I6.576 J-5.631
G01 X-105.075 Y-.445
X-14.834
G02 X-14.551 Y-.44 I.283 J-8.682
X-7.953 Y-3.476 I0.0 J-8.687
X-6.315 Y-8.416 I-6.626 J-4.94
X-7.923 Y-13.314 I-8.265 J0.0
X-14.519 Y-16.387 I-6.596 J5.542
G01 X-14.58
X-59.809
X-61.144 Z-8.892
X-65.509
X-69.716 Y-16.681
X-105.058
X-105.075
G02 X-113.34 Y-8.416 I0.0 J8.265
X-111.697 Y-3.471 I8.265 J0.0
X-105.121 Y-.444 I6.576 J-5.631
G01 X-105.075 Y-.445
X-14.834
G02 X-14.551 Y-.44 I.283 J-8.682
X-7.953 Y-3.476 I0.0 J-8.687
X-6.315 Y-8.416 I-6.626 J-4.94
X-7.923 Y-13.314 I-8.265 J0.0
X-14.518 Y-16.387 I-6.596 J5.541
G01 X-14.58
X-59.809
X-61.144 Z-8.962
X-65.509
X-69.716 Y-16.681
X-105.058
X-105.075
G02 X-113.34 Y-8.416 I0.0 J8.265
X-111.697 Y-3.471 I8.265 J0.0
X-105.121 Y-.444 I6.576 J-5.631
G01 X-105.075 Y-.445
X-14.834
G02 X-14.551 Y-.44 I.283 J-8.682
X-7.953 Y-3.476 I0.0 J-8.687
X-6.315 Y-8.416 I-6.626 J-4.94
X-7.923 Y-13.314 I-8.265 J0.0
X-14.518 Y-16.387 I-6.595 J5.541
G01 X-14.58
X-59.809
X-61.144 Z-9.032
X-65.509
X-69.716 Y-16.681
X-105.058
X-105.075
G02 X-113.34 Y-8.416 I0.0 J8.265
X-111.697 Y-3.471 I8.265 J0.0
X-105.121 Y-.444 I6.576 J-5.631
G01 X-105.075 Y-.445
X-14.834
G02 X-14.551 Y-.44 I.283 J-8.682
X-7.953 Y-3.476 I0.0 J-8.686
X-6.315 Y-8.416 I-6.626 J-4.94
X-7.923 Y-13.314 I-8.265 J0.0
X-14.518 Y-16.387 I-6.595 J5.54
G01 X-14.58
X-61.144
Y-18.387
Z-7.032
G00 Z2.5
X61.809 Y-17.772
G01 Z2.43
Z-.57 F800.
G03 X59.809 Y-15.772 I-2. J0.0 F400.
G01 X14.56 F2000.
G02 X7.224 Y-8.416 I.019 J7.356
X7.902 Y-5.331 I7.356 J0.0
X14.559 Y-1.06 I6.678 J-3.085
G01 X105.058
X105.075
G02 X112.431 Y-8.416 I0.0 J-7.356
X105.075 Y-15.772 I-7.356 J0.0
G01 X105.058
X59.809
X59.587 Y-15.795 Z-.582
X59.364 Y-15.816 Z-.593
X59.142 Y-15.835 Z-.605
X58.92 Y-15.854 Z-.617
X58.697 Y-15.871 Z-.628
X58.475 Y-15.887 Z-.64
X14.559
G02 X7.109 Y-8.416 I.021 J7.471
X7.89 Y-5.089 I7.471 J0.0
X14.557 Y-.945 I6.69 J-3.327
G01 X105.058
X105.075
G02 X112.546 Y-8.416 I0.0 J-7.471
X105.075 Y-15.887 I-7.471 J0.0
G01 X105.058
X59.809
X59.587 Y-15.902 Z-.652
X59.364 Y-15.916 Z-.663
X59.142 Y-15.93 Z-.675
X58.92 Y-15.943 Z-.686
X58.697 Y-15.955 Z-.698
X58.475 Y-15.967 Z-.71
X14.557
G02 X7.029 Y-8.416 I.022 J7.551
X7.89 Y-4.913 I7.551 J0.0
X14.559 Y-.865 I6.69 J-3.503
G01 X105.058
X105.075
G02 X112.626 Y-8.416 I0.0 J-7.551
X105.075 Y-15.967 I-7.551 J0.0
G01 X105.058
X59.809
X59.587 Y-15.978 Z-.721
X59.364 Y-15.989 Z-.733
X59.142 Y-15.999 Z-.745
X58.92 Y-16.009 Z-.756
X58.697 Y-16.018 Z-.768
X58.475 Y-16.027 Z-.78
X14.596
X14.58
G02 X6.969 Y-8.416 I0.0 J7.611
X7.935 Y-4.704 I7.611 J0.0
X14.558 Y-.805 I6.645 J-3.712
G01 X105.058
X105.075
G02 X112.686 Y-8.416 I0.0 J-7.611
X105.075 Y-16.027 I-7.611 J0.0
G01 X105.055
X59.809
X59.587 Y-16.036 Z-.791
X59.364 Y-16.044 Z-.803
X59.142 Y-16.052 Z-.815
X58.92 Y-16.059 Z-.826
X58.697 Y-16.066 Z-.838
X58.475 Y-16.073 Z-.85
X14.595
X14.58
G02 X6.922 Y-8.416 I0.0 J7.658
X7.89 Y-4.689 I7.658 J0.0
X14.557 Y-.758 I6.69 J-3.727
G01 X105.058
X105.075
G02 X112.084 Y-5.331 I0.0 J-7.658
X112.732 Y-8.416 I-7.009 J-3.085
X105.075 Y-16.073 I-7.658 J0.0
G01 X105.043
X59.809
X59.587 Y-16.08 Z-.861
X59.364 Y-16.086 Z-.873
X59.142 Y-16.092 Z-.885
X58.92 Y-16.098 Z-.896
X58.697 Y-16.104 Z-.908
X58.475 Y-16.109 Z-.92
X14.594
X14.58
G02 X6.887 Y-8.416 I0.0 J7.693
X7.841 Y-4.704 I7.693 J0.0
X14.557 Y-.723 I6.738 J-3.712
G01 X105.046
X105.075
G02 X112.122 Y-5.331 I0.0 J-7.693
X112.768 Y-8.416 I-7.048 J-3.085
X105.076 Y-16.109 I-7.693 J0.0
G01 X59.809
X59.587 Y-16.114 Z-.931
X59.364 Y-16.119 Z-.943
X59.142 Y-16.123 Z-.955
X58.92 Y-16.127 Z-.966
X58.697 Y-16.131 Z-.978
X58.475 Y-16.135 Z-.99
X14.593
X14.58
G02 X6.86 Y-8.416 I0.0 J7.719
X7.811 Y-4.704 I7.719 J0.0
X14.557 Y-.696 I6.768 J-3.712
G01 X105.084
G02 X112.794 Y-8.416 I-.01 J-7.719
X105.075 Y-16.135 I-7.719 J0.0
G01 X105.049
X59.809
X59.587 Y-16.139 Z-1.001
X59.364 Y-16.142 Z-1.013
X59.142 Y-16.145 Z-1.024
X58.92 Y-16.148 Z-1.036
X58.697 Y-16.151 Z-1.048
X58.475 Y-16.153 Z-1.059
X14.593
X14.58
G02 X6.842 Y-8.416 I0.0 J7.738
X7.791 Y-4.704 I7.738 J0.0
X14.557 Y-.678 I6.789 J-3.712
G01 X105.08
G02 X112.812 Y-8.416 I-.005 J-7.738
X105.075 Y-16.153 I-7.738 J0.0
G01 X105.064
X59.809
X59.587 Y-16.156 Z-1.071
X59.364 Y-16.158 Z-1.083
X59.142 Y-16.16 Z-1.094
X58.92 Y-16.161 Z-1.106
X58.697 Y-16.163 Z-1.118
X58.475 Y-16.164 Z-1.129
X14.592
X14.58
G02 X6.831 Y-8.416 I0.0 J7.749
X7.259 Y-5.877 I7.749 J0.0
X14.557 Y-.667 I7.321 J-2.539
G01 X105.077
G02 X112.604 Y-6.585 I-.003 J-7.749
G01 X112.635 Y-6.717
G02 X112.823 Y-8.416 I-7.56 J-1.698
X105.075 Y-16.164 I-7.749 J0.0
G01 X105.074
X59.809
X59.587 Y-16.165 Z-1.141
X59.364 Y-16.166 Z-1.153
X58.475 Y-16.17 Z-1.199
X14.58
G02 X6.826 Y-8.416 I0.0 J7.754
X14.58 Y-.662 I7.754 J0.0
G01 X105.075
G02 X112.829 Y-8.416 I0.0 J-7.754
X105.075 Y-16.17 I-7.754 J0.0
G01 X59.809
X58.475 Y-16.174 Z-1.269
X14.58
G02 X6.821 Y-8.416 I0.0 J7.759
X8.366 Y-3.77 I7.759 J0.0
G01 X8.522 Y-3.569
G02 X14.58 Y-.657 I6.058 J-4.847
G01 X105.075
G02 X112.833 Y-8.416 I0.0 J-7.759
X105.075 Y-16.174 I-7.759 J0.0
G01 X59.809
X58.475 Y-16.179 Z-1.339
X14.58
G02 X9.489 Y-14.278 I0.0 J7.764
G01 X9.304 Y-14.111
X8.521 Y-13.288
X8.358 Y-13.061
G02 X6.815 Y-8.416 I6.222 J4.646
X8.358 Y-3.77 I7.765 J0.0
G01 X8.679 Y-3.37
G02 X14.58 Y-.652 I5.901 J-5.045
G01 X105.075
G02 X110.994 Y-3.392 I0.0 J-7.764
G01 X111.297 Y-3.77
G02 X112.84 Y-8.416 I-6.222 J-4.646
X105.075 Y-16.181 I-7.765 J0.0
G01 X69.705
X69.118 Y-16.179
X59.809
X58.475 Y-16.184 Z-1.409
X14.58
G02 X9.486 Y-14.281 I0.0 J7.768
X8.313 Y-13.095 I4.926 J6.046
X6.759 Y-8.416 I6.267 J4.679
X8.313 Y-3.736 I7.821 J0.0
X9.393 Y-2.633 I6.087 J-4.876
X14.58 Y-.647 I5.187 J-5.783
G01 X105.075
G02 X110.494 Y-2.85 I0.0 J-7.768
X111.342 Y-3.737 I-5.199 J-5.818
X112.896 Y-8.416 I-6.267 J-4.679
X105.075 Y-16.237 I-7.821 J0.0
G01 X69.705
X68.828 Y-16.184
X59.809
X58.475 Y-16.189 Z-1.479
X14.58
G02 X13.475 Y-16.11 I0.0 J7.773
X11.37 Y-15.496 I1.105 J7.694 F1650.
X9.521 Y-14.318 I3.21 J7.08 F1300.
X8.122 Y-13.168 I4.328 J6.689
X7.901 Y-12.852 I6.457 J4.752
X6.562 Y-8.416 I6.679 J4.436 F2000.
X8.12 Y-3.666 I8.018 J0.0
G01 X9.513 Y-2.521
G02 X14.58 Y-.642 I5.067 J-5.895
G01 X105.075
G02 X106.18 Y-.721 I0.0 J-7.773
X108.285 Y-1.336 I-1.105 J-7.694 F1650.
X110.134 Y-2.514 I-3.21 J-7.08 F1300.
X111.757 Y-3.986 I-2.044 J-3.886
X113.092 Y-8.416 I-6.682 J-4.43 F2000.
X105.098 Y-16.433 I-8.018 J0.0
G01 X72.866 Y-16.429
X70.666 Y-16.428 F1650.
X70.381 F1300.
X68.685 Y-16.262
X68.487 Y-16.189
X66.287
X59.809 F2000.
X58.475 Y-16.194 Z-1.549
X14.58
G02 X13.927 Y-16.167 I0.0 J7.778
X11.789 Y-15.676 I.653 J7.751 F1650.
X9.874 Y-14.609 I2.79 J7.261 F1300.
X8.121 Y-13.312 I1.876 J4.368
X8.048 Y-13.223 I3.628 J3.071 F2000.
X6.469 Y-8.416 I6.532 J4.807
X7.007 Y-5.513 I8.11 J0.0
X8.046 Y-3.611 I7.573 J-2.903 F1650.
X9.8 Y-2.28 I3.397 J-2.653 F1300.
X11.702 Y-1.189 I4.78 J-6.136
X14.58 Y-.637 I2.878 J-7.226 F2000.
G01 X105.075
G02 X105.796 Y-.671 I0.0 J-7.778
X107.929 Y-1.18 I-.722 J-7.745 F1650.
X109.835 Y-2.264 I-2.854 J-7.236 F1300.
X111.576 Y-3.567 I-1.67 J-4.046
X113.185 Y-8.416 I-6.501 J-4.849 F2000.
X109.075 Y-15.471 I-8.11 J0.0
X107.038 Y-16.285 I-4. J7.055 F1650.
X105.093 Y-16.526 I-1.964 J7.869 F1300.
G01 X104.859 Y-16.505
X102.659
X72.483 Y-16.503 F2000.
X70.381 F1650.
X70.283 Y-16.504
X69.749 Y-16.509 F1300.
X69.685 Y-16.51
G02 X68.125 Y-16.194 I0.0 J4.011
G01 X65.925
X59.809 F2000.
X58.475 Y-16.199 Z-1.619
X14.58
G02 X14.195 Y-16.189 I0.0 J7.783
X12.042 Y-15.774 I.385 J7.774 F1650.
X10.091 Y-14.774 I2.538 J7.358 F1300.
X8.269 Y-13.581 I1.45 J4.205
X7.999 Y-13.259 I3.272 J3.012 F2000.
X6.409 Y-8.416 I6.581 J4.844
X7.119 Y-5.083 I8.171 J0.0
X7.997 Y-3.576 I7.46 J-3.333 F1650.
X8.29 Y-3.231 I3.652 J-2.81
X10.115 Y-2.04 I3.358 J-3.155 F1300.
X12.07 Y-1.048 I4.465 J-6.375
X14.58 Y-.633 I2.509 J-7.368 F2000.
G01 X105.075
G02 X105.401 Y-.639 I0.0 J-7.783
X107.557 Y-1.039 I-.326 J-7.776 F1650.
X109.516 Y-2.024 I-2.482 J-7.377 F1300.
X111.345 Y-3.212 I-1.615 J-4.49
X111.625 Y-3.531 I-3.444 J-3.303 F2000.
X113.246 Y-8.416 I-6.55 J-4.885
X109.175 Y-15.484 I-8.171 J0.0
X107.147 Y-16.32 I-4.1 J7.068 F1650.
X105.098 Y-16.587 I-2.072 J7.904 F1300.
G01 X104.971 Y-16.57
X102.771
X72.205 Y-16.572 F2000.
X70.005 F1650.
X69.749 F1300.
X69.667 Y-16.573
G02 X67.856 Y-16.199 I0.0 J4.572
G01 X65.656
X59.809 F2000.
X58.475 Y-16.204 Z-1.689
X14.58
G02 X12.415 Y-15.897 I0.0 J7.788 F1650.
X10.415 Y-14.997 I2.165 J7.481 F1300.
X8.53 Y-13.895 I1.591 J4.885
X7.965 Y-13.284 I3.476 J3.784 F2000.
X6.367 Y-8.416 I6.615 J4.869
X7.246 Y-4.718 I8.213 J0.0
X7.963 Y-3.551 I7.333 J-3.698 F1650.
X8.531 Y-2.948 I4.196 J-3.39
X10.412 Y-1.837 I3.628 J-3.992 F1300.
X12.411 Y-.936 I4.168 J-6.579
X14.58 Y-.628 I2.169 J-7.48 F2000.
G01 X105.075
G02 X107.249 Y-.938 I0.0 J-7.788 F1650.
X109.248 Y-1.84 I-2.175 J-7.478 F1300.
X111.132 Y-2.944 I-1.609 J-4.907
X111.659 Y-3.506 I-3.493 J-3.803 F2000.
X113.288 Y-8.416 I-6.584 J-4.909
X105.098 Y-16.629 I-8.213 J0.0
G01 X71.957 Y-16.626
X69.749 F1650.
G02 X67.61 Y-16.204 I.077 J6.019 F1300.
G01 X65.41
X59.809 F2000.
X58.475 Y-16.209 Z-1.759
X14.893
X14.58 F1650.
G02 X12.711 Y-15.981 I0.0 J7.793
X10.677 Y-15.161 I1.869 J7.566 F1300.
X8.75 Y-14.131 I1.552 J5.223
X7.942 Y-13.301 I3.48 J4.193 F2000.
X6.338 Y-8.416 I6.637 J4.885
X7.393 Y-4.382 I8.241 J0.0
X7.94 Y-3.534 I7.187 J-4.034 F1650.
X8.771 Y-2.685 I4.341 J-3.416
X10.7 Y-1.658 I3.51 J-4.265 F1300.
X12.736 Y-.844 I3.88 J-6.758
X14.58 Y-.623 I1.844 J-7.572 F2000.
G01 X104.736
X105.075 F1650.
G02 X106.919 Y-.844 I0.0 J-7.793
X108.955 Y-1.658 I-1.844 J-7.572 F1300.
X110.883 Y-2.687 I-1.625 J-5.364
X111.682 Y-3.49 I-3.553 J-4.335 F2000.
X113.316 Y-8.416 I-6.607 J-4.926
X109.243 Y-15.525 I-8.241 J0.0
X107.22 Y-16.373 I-4.168 J7.11 F1650.
X105.098 Y-16.657 I-2.145 J7.957 F1300.
G01 X105.045 Y-16.651
X102.845
X71.769 F2000.
X69.709 F1650.
X69.693
G02 X69.569 Y-16.65 I0.0 J6.032
X67.426 Y-16.209 I.125 J6.03 F1300.
G01 X65.226
X59.809 F2000.
X58.475 Y-16.214 Z-1.829
X15.193
X14.58 F1650.
G02 X13.004 Y-16.053 I0.0 J7.798
X10.94 Y-15.312 I1.576 J7.637 F1300.
X8.977 Y-14.349 I1.476 J5.487
X7.929 Y-13.311 I3.438 J4.523 F2000.
X6.322 Y-8.416 I6.651 J4.895
X7.519 Y-4.132 I8.258 J0.0
X7.926 Y-3.524 I7.06 J-4.284 F1650.
X8.961 Y-2.489 I4.405 J-3.367
X10.924 Y-1.528 I3.371 J-4.403 F1300.
X12.986 Y-.783 I3.656 J-6.888
X14.58 Y-.618 I1.594 J-7.633 F2000.
G01 X104.476
X105.075 F1650.
G02 X106.665 Y-.782 I0.0 J-7.798
X108.727 Y-1.526 I-1.59 J-7.634 F1300.
X110.688 Y-2.492 I-1.481 J-5.484
X111.688 Y-3.469 I-3.443 J-4.518 F2000.
X113.333 Y-8.416 I-6.613 J-4.947
X105.098 Y-16.674 I-8.258 J0.0
G01 X71.617 Y-16.673
X69.708 F1650.
X69.681
G02 X69.417 Y-16.667 I0.0 J6.537
X67.275 Y-16.214 I.264 J6.532 F1300.
G01 X65.075
X59.809 F2000.
X58.475 Y-16.218 Z-1.899
X15.451
X14.58 F1650.
G02 X13.257 Y-16.106 I0.0 J7.803
X11.17 Y-15.434 I1.323 J7.69 F1300.
X9.179 Y-14.528 I1.361 J5.632
X7.924 Y-13.315 I3.352 J4.726 F2000.
X6.315 Y-8.416 I6.656 J4.899
X7.671 Y-3.879 I8.265 J0.0
X7.761 Y-3.745 I6.908 J-4.537 F1650.
X9.184 Y-2.299 I4.76 J-3.261
X11.175 Y-1.395 I3.338 J-4.707 F1300.
X13.263 Y-.725 I3.405 J-7.021
X14.58 Y-.613 I1.317 J-7.691 F2000.
G01 X104.206
X105.075 F1650.
G02 X106.4 Y-.726 I0.0 J-7.803
X108.487 Y-1.399 I-1.325 J-7.689 F1300.
X110.477 Y-2.306 I-1.355 J-5.61
X112.103 Y-4.077 I-3.345 J-4.703 F2000.
G01 X112.26 Y-4.331
G02 X113.34 Y-8.416 I-7.185 J-4.085
X105.098 Y-16.681 I-8.265 J0.0
G01 X71.447 Y-16.679
X69.708 F1650.
X69.672
G02 X69.248 Y-16.667 I0.0 J7.397
X67.102 Y-16.218 I.424 J7.385 F1300.
G01 X64.902
X59.809 F2000.
X58.475 Y-16.223 Z-1.969
X15.824
X14.58 F1650.
G02 X13.627 Y-16.165 I0.0 J7.808
X11.509 Y-15.594 I.953 J7.749 F1300.
X9.488 Y-14.756 I1.32 J6.04
X7.954 Y-13.356 I3.341 J5.202 F2000.
X6.315 Y-8.416 I6.626 J4.94
X7.833 Y-3.642 I8.265 J0.0
X7.921 Y-3.52 I6.747 J-4.774 F1650.
X9.408 Y-2.124 I4.782 J-3.605
X11.424 Y-1.275 I3.295 J-5.001 F1300.
X13.534 Y-.679 I3.156 J-7.141
X14.58 Y-.608 I1.046 J-7.737 F2000.
G01 X103.946
X105.075 F1650.
G02 X106.143 Y-.682 I0.0 J-7.808
X108.251 Y-1.284 I-1.068 J-7.734 F1300.
X110.266 Y-2.136 I-1.273 J-5.814
X111.701 Y-3.476 I-3.287 J-4.961 F2000.
X113.34 Y-8.416 I-6.626 J-4.94
X105.075 Y-16.681 I-8.265 J0.0
G01 X105.045
X71.299
X69.705 F1650.
X69.673
G02 X69.1 Y-16.661 I0.0 J8.334
X66.95 Y-16.223 I.573 J8.314 F1300.
G01 X64.75
X59.809 F2000.
X58.475 Y-16.228 Z-2.039
X15.992
X14.58 F1650.
G02 X13.794 Y-16.189 I0.0 J7.812
X11.665 Y-15.664 I.786 J7.773 F1300.
X9.629 Y-14.87 I.89 J5.286
X9.164 Y-14.53 I2.925 J4.492 F2000.
X7.954 Y-13.356 I5.374 J6.751
X6.315 Y-8.416 I6.626 J4.94
X7.921 Y-3.52 I8.265 J0.0
X8.002 Y-3.419 I5.394 J-4.25
X9.642 Y-1.968 I5.313 J-4.35 F1650.
X10.854 Y-1.359 I3.673 J-5.802 F1300.
G01 X11.608 Y-1.173
X11.672 Y-1.164
G02 X13.802 Y-.642 I2.907 J-7.251
X14.58 Y-.603 I.778 J-7.774 F2000.
G01 X103.643
X105.075 F1650.
G02 X105.842 Y-.641 I0.0 J-7.812
X107.972 Y-1.16 I-.767 J-7.775 F1300.
X110.011 Y-1.958 I-1.225 J-6.133
X111.701 Y-3.476 I-3.263 J-5.335 F2000.
X113.34 Y-8.416 I-6.626 J-4.94
X105.075 Y-16.681 I-8.265 J0.0
G01 X105.045
X71.151
X69.705 F1650.
X68.954 Y-16.619
X68.081 Y-16.548 F1300.
G02 X66.802 Y-16.228 I.329 J4.033
G01 X64.602
X59.809 F2000.
X58.475 Y-16.233 Z-2.108
X16.29
X14.58 F1650.
G02 X14.09 Y-16.218 I0.0 J7.817
X11.943 Y-15.775 I.49 J7.802 F1300.
X9.886 Y-15.036 I.815 J5.506
X9.441 Y-14.739 I2.873 J4.767 F2000.
X7.954 Y-13.356 I4.979 J6.847
X6.315 Y-8.416 I6.626 J4.94
X7.921 Y-3.52 I8.265 J0.0
X8.199 Y-3.191 I5.628 J-4.471
X9.894 Y-1.802 I5.35 J-4.8 F1650.
X11.046 Y-1.253 I3.655 J-6.189 F1300.
G01 X11.947 Y-1.055
G02 X14.095 Y-.613 I2.633 J-7.361
X14.58 Y-.598 I.485 J-7.802 F2000.
G01 X103.357
X105.075 F1650.
G02 X105.556 Y-.613 I0.0 J-7.817
X107.704 Y-1.054 I-.482 J-7.803 F1300.
X109.764 Y-1.797 I-1.143 J-6.394
X111.701 Y-3.476 I-3.202 J-5.651 F2000.
X113.34 Y-8.416 I-6.626 J-4.94
X105.075 Y-16.681 I-8.265 J0.0
G01 X105.045
X71.017
X69.705 F1650.
X68.82 Y-16.614
X67.856 Y-16.541 F1300.
X67.786 Y-16.531
G02 X66.665 Y-16.233 I.541 J4.3
G01 X64.465
X59.809 F2000.
X58.475 Y-16.238 Z-2.178
X16.563
X14.58 F1650.
G02 X14.363 Y-16.235 I0.0 J7.822
X12.201 Y-15.868 I.217 J7.819 F1300.
X10.124 Y-15.185 I.732 J5.727
X9.441 Y-14.739 I2.809 J5.044 F2000.
X7.954 Y-13.356 I4.973 J6.841
X6.315 Y-8.416 I6.626 J4.94
X7.921 Y-3.52 I8.265 J0.0
X8.349 Y-3.024 I5.6 J-4.406
X10.083 Y-1.685 I5.171 J-4.902 F1650.
X11.67 Y-1.045 I3.437 J-6.242 F1300.
G01 X12.151 Y-.98
G02 X14.31 Y-.598 I2.429 J-7.436
X14.58 Y-.593 I.27 J-7.818 F2000.
G01 X103.139
X105.075 F1650.
G02 X105.339 Y-.598 I0.0 J-7.822
X107.498 Y-.978 I-.264 J-7.818 F1300.
X109.572 Y-1.666 I-.653 J-5.44
X110.147 Y-2.047 I-2.728 J-4.752 F2000.
G01 X110.352 Y-2.195
G02 X111.701 Y-3.476 I-4.682 J-6.283
X113.34 Y-8.416 I-6.626 J-4.94
X105.075 Y-16.681 I-8.265 J0.0
G01 X105.045
X70.882
X69.705 F1650.
X68.685 Y-16.607
X67.856 Y-16.547 F1300.
G02 X66.527 Y-16.238 I.421 J4.816
G01 X64.327
X59.809 F2000.
X58.475 Y-16.243 Z-2.248
X16.817
X14.58 F1650.
G02 X12.444 Y-15.946 I0.0 J7.827 F1300.
X10.352 Y-15.305 I.746 J6.176
X9.792 Y-14.98 I2.839 J5.535 F2000.
X7.954 Y-13.356 I4.617 J7.077
X6.315 Y-8.416 I6.626 J4.94
X7.921 Y-3.52 I8.265 J0.0
X8.578 Y-2.802 I5.937 J-4.779
X10.361 Y-1.527 I5.28 J-5.497 F1650.
X11.519 Y-1.045 I3.497 J-6.773 F1300.
G01 X12.45 Y-.884
G02 X14.58 Y-.589 I2.13 J-7.532
G01 X102.837 F2000.
X105.075 F1650.
G02 X107.21 Y-.885 I0.0 J-7.827 F1300.
X109.305 Y-1.512 I-.588 J-5.784
X110.147 Y-2.046 I-2.683 J-5.157 F2000.
G01 X110.352 Y-2.195
G02 X111.701 Y-3.476 I-4.682 J-6.282
X113.34 Y-8.416 I-6.626 J-4.94
X105.075 Y-16.681 I-8.265 J0.0
G01 X105.045
X70.717
X69.705 F1650.
X69.609 Y-16.678
X68.52 Y-16.596
X67.652 Y-16.531 F1300.
G02 X66.357 Y-16.243 I.683 J6.141
G01 X64.157
X59.809 F2000.
X58.475 Y-16.248 Z-2.318
X17.273
X15.073 F1650.
X14.58 F1300.
G02 X12.887 Y-16.063 I0.0 J7.832
X10.767 Y-15.507 I.768 J7.249
X7.954 Y-13.356 I2.888 J6.693 F2000.
X6.315 Y-8.416 I6.626 J4.94
X7.921 Y-3.52 I8.265 J0.0
X11.819 Y-.941 I6.01 J-4.848
G01 X12.769 Y-.796
G02 X14.58 Y-.584 I1.811 J-7.62
G01 X102.529
X104.729 F1650.
X105.075 F1300.
G02 X106.912 Y-.802 I0.0 J-7.832
X109.026 Y-1.366 I-.461 J-5.97
X109.906 Y-1.882 I-2.575 J-5.406 F2000.
G01 X110.147 Y-2.046
G02 X111.701 Y-3.476 I-4.522 J-6.475
X113.34 Y-8.416 I-6.626 J-4.94
X105.075 Y-16.681 I-8.265 J0.0
G01 X105.045
X70.605
X69.705 F1650.
X69.609 Y-16.678
X68.408 Y-16.587
X67.652 Y-16.531 F1300.
G02 X66.243 Y-16.248 I.395 J5.626
G01 X64.043
X59.809 F2000.
X58.697 Y-16.252 Z-2.377
X58.475 Y-16.253 Z-2.388
X14.58
X14.202 Y-16.244
X12.125 Y-15.992
G02 X7.954 Y-13.356 I1.913 J7.646
X6.315 Y-8.416 I6.626 J4.94
X7.921 Y-3.52 I8.265 J0.0
X9.114 Y-2.315 I5.829 J-4.58
X11.009 Y-1.212 I4.636 J-5.785 F1650.
X13.143 Y-.712 I2.741 J-6.888 F1300.
X14.58 Y-.579 I1.437 J-7.704
G01 X15.335
X102.115 F2000.
X104.315 F1650.
X105.075 F1300.
G02 X106.507 Y-.711 I0.0 J-7.837
X108.641 Y-1.209 I-.599 J-7.388
X111.701 Y-3.476 I-2.734 J-6.889 F2000.
X113.34 Y-8.416 I-6.626 J-4.94
X105.075 Y-16.681 I-8.265 J0.0
G01 X105.045
X70.44
X69.705 F1650.
X69.609 Y-16.678
X68.244 Y-16.575
X67.652 Y-16.531 F1300.
G02 X66.072 Y-16.253 I.817 J9.281
G01 X63.872
X59.809 F2000.
X59.587 Y-16.254 Z-2.4
X58.475 Y-16.258 Z-2.458
X14.58
G02 X11.678 Y-15.893 I.124 J12.726
X7.954 Y-13.356 I2.692 J7.952
X6.315 Y-8.416 I6.626 J4.94
X7.921 Y-3.52 I8.265 J0.0
X13.692 Y-.624 I6.036 J-4.831
X14.58 Y-.574 I.888 J-7.791
G01 X105.075
G02 X105.961 Y-.624 I0.0 J-7.842
X111.701 Y-3.476 I-.252 J-7.712
X113.34 Y-8.416 I-6.626 J-4.94
X105.075 Y-16.681 I-8.265 J0.0
G01 X105.045
X69.705
X69.609 Y-16.678
X66.576 Y-16.411
G03 X65.772 Y-16.258 I-.805 J-2.032 F1044.
G01 X59.809 F2000.
X58.92 Y-16.261 Z-2.505
X58.697 Y-16.262 Z-2.516
X58.475 Y-16.263 Z-2.528
X14.114
G02 X7.954 Y-13.356 I0.0 J7.98
X6.315 Y-8.416 I6.626 J4.94
X7.921 Y-3.52 I8.265 J0.0
X14.112 Y-.568 I6.191 J-5.017
G01 X105.541
G02 X111.701 Y-3.476 I0.0 J-7.98
X113.34 Y-8.416 I-6.626 J-4.94
X105.075 Y-16.681 I-8.265 J0.0
G01 X105.045
X69.705
X66.474 Y-16.411
G03 X65.582 Y-16.262 I-.892 J-2.598 F1157.
G01 X65.509 Y-16.263
X59.809 F2000.
X59.587 Y-16.266 Z-2.54
X59.364 Y-16.271 Z-2.551
X59.142 Y-16.277 Z-2.563
X58.92 Y-16.285 Z-2.575
X58.697 Y-16.294 Z-2.586
X58.475 Y-16.302 Z-2.598
X14.231
G02 X7.954 Y-13.356 I0.0 J8.162
X6.315 Y-8.416 I6.626 J4.94
X7.921 Y-3.52 I8.265 J0.0
X14.25 Y-.53 I6.33 J-5.204
G01 X105.438
G02 X111.701 Y-3.476 I0.0 J-8.131
X113.34 Y-8.416 I-6.626 J-4.94
X105.075 Y-16.681 I-8.265 J0.0
G01 X105.045
X70.622
X69.705 F1650.
X68.426 Y-16.577
X66.377 Y-16.411 F1300.
X66.241 Y-16.363
X65.42 Y-16.302
X64.043
X59.809 F2000.
X59.587 Y-16.309 Z-2.61
X59.364 Y-16.317 Z-2.621
X59.142 Y-16.323 Z-2.633
X58.92 Y-16.33 Z-2.645
X58.697 Y-16.336 Z-2.656
X58.475 Y-16.341 Z-2.668
X14.58
G02 X14.382 Y-16.343 I-.198 J8.407
X7.954 Y-13.356 I0.0 J8.409
X6.315 Y-8.416 I6.626 J4.94
X7.957 Y-3.471 I8.265 J0.0
X14.385 Y-.486 I6.428 J-5.43
X14.644 Y-.49 I0.0 J-8.415
G01 X105.047
G02 X105.272 Y-.487 I.225 J-8.407
X111.701 Y-3.476 I0.0 J-8.41
X113.34 Y-8.416 I-6.626 J-4.94
X105.075 Y-16.681 I-8.265 J0.0
G01 X105.045
X70.345
X69.705 F1650.
X69.609 Y-16.678
X68.15 Y-16.56
X66.296 Y-16.411 F1300.
X66.07 Y-16.363
X65.962 Y-16.345
X65.51 Y-16.326 F2000.
X65.42 Y-16.341 F1300.
X63.311
X59.809 F2000.
X59.587 Y-16.346 Z-2.68
X59.364 Y-16.351 Z-2.691
X59.142 Y-16.356 Z-2.703
X58.92 Y-16.36 Z-2.715
X58.697 Y-16.364 Z-2.726
X58.475 Y-16.367 Z-2.738
X14.58
X14.466 Y-16.368
G02 X7.954 Y-13.356 I0.0 J8.547
X6.315 Y-8.416 I6.626 J4.94
X7.957 Y-3.471 I8.265 J0.0
X14.47 Y-.463 I6.513 J-5.546
X14.643 Y-.464 I0.0 J-8.554
G01 X105.047
G02 X105.188 Y-.463 I.141 J-8.545
X111.701 Y-3.476 I0.0 J-8.546
X113.34 Y-8.416 I-6.626 J-4.94
X105.075 Y-16.681 I-8.265 J0.0
G01 X105.045
X69.897
X69.705 F1650.
X67.703 Y-16.527
X65.509 Y-16.358 F1300.
X65.42 Y-16.367
X63.31
X59.809 F2000.
X59.587 Y-16.37 Z-2.75
X59.364 Y-16.373 Z-2.761
X59.142 Y-16.376 Z-2.773
X58.92 Y-16.378 Z-2.784
X58.697 Y-16.38 Z-2.796
X58.475 Y-16.382 Z-2.808
X14.58
X14.52
G02 X7.954 Y-13.356 I0.0 J8.636
X6.315 Y-8.416 I6.626 J4.94
X7.957 Y-3.471 I8.265 J0.0
X14.524 Y-.449 I6.566 J-5.622
G01 X14.643
X105.047
X105.141
G02 X111.701 Y-3.476 I0.0 J-8.622
X113.34 Y-8.416 I-6.626 J-4.94
X105.075 Y-16.681 I-8.265 J0.0
G01 X105.045
X69.705
X69.609 Y-16.678
X66.069 Y-16.401
X65.42 Y-16.382
X59.809
X59.587 Y-16.384 Z-2.819
X59.364 Y-16.385 Z-2.831
X59.142 Y-16.386 Z-2.843
X58.92 Z-2.854
X58.697 Y-16.387 Z-2.866
X58.475 Z-2.878
X14.58
X14.535
G02 X7.954 Y-13.356 I0.0 J8.66
X6.315 Y-8.416 I6.626 J4.94
X7.957 Y-3.471 I8.265 J0.0
X14.537 Y-.444 I6.58 J-5.639
G01 X14.58 Y-.445
X105.075
X105.119 Y-.444
G02 X111.701 Y-3.476 I0.0 J-8.662
X113.34 Y-8.416 I-6.626 J-4.94
X105.075 Y-16.681 I-8.265 J0.0
G01 X105.045
X69.705
X69.609 Y-16.678
X65.962 Y-16.397
X65.42 Y-16.387
X59.809
X58.475 Z-2.948
X14.58
X14.535
G02 X7.954 Y-13.356 I0.0 J8.66
X6.315 Y-8.416 I6.626 J4.94
X7.957 Y-3.471 I8.265 J0.0
X14.537 Y-.444 I6.58 J-5.639
G01 X14.58 Y-.445
X105.075
X105.119 Y-.444
G02 X111.701 Y-3.476 I0.0 J-8.662
X113.34 Y-8.416 I-6.626 J-4.94
X105.075 Y-16.681 I-8.265 J0.0
G01 X105.045
X69.705
X69.609 Y-16.678
X65.962 Y-16.397
X65.42 Y-16.387
X59.809
X58.475 Z-3.018
X14.58
X14.535
G02 X7.954 Y-13.356 I0.0 J8.659
X6.315 Y-8.416 I6.626 J4.94
X7.957 Y-3.471 I8.265 J0.0
X14.537 Y-.444 I6.58 J-5.639
G01 X14.58 Y-.445
X105.075
X105.119 Y-.444
G02 X111.701 Y-3.476 I0.0 J-8.662
X113.34 Y-8.416 I-6.626 J-4.94
X105.075 Y-16.681 I-8.265 J0.0
G01 X105.045
X69.705
X69.609 Y-16.678
X65.962 Y-16.397
X65.42 Y-16.387
X59.809
X58.475 Z-3.088
X14.58
X14.534
G02 X7.954 Y-13.356 I0.0 J8.659
X6.315 Y-8.416 I6.626 J4.94
X7.957 Y-3.471 I8.265 J0.0
X14.537 Y-.444 I6.58 J-5.639
G01 X14.58 Y-.445
X105.075
X105.119 Y-.444
G02 X111.701 Y-3.476 I0.0 J-8.662
X113.34 Y-8.416 I-6.626 J-4.94
X105.075 Y-16.681 I-8.265 J0.0
G01 X105.045
X69.705
X69.609 Y-16.678
X65.962 Y-16.397
X65.42 Y-16.387
X59.809
X58.475 Z-3.157
X14.58
X14.534
G02 X7.954 Y-13.356 I0.0 J8.658
X6.315 Y-8.416 I6.626 J4.94
X7.957 Y-3.471 I8.265 J0.0
X14.537 Y-.444 I6.58 J-5.639
