%
G40 G17 G49 G54 G80
G91 G28 Z0.0
( NAME: Capful )
( PART: D:\Program Files\Siemens\NX 12.0\UGII\HM-µç¼«±à³Ì.prt )
( DATE: Sun May 27 04:56:59 2018 )
( D10 ---> D=10.00 R=0.00 )
S8000 M03
G00 G90 X0.0 Y27.
Z15.
G17 G01 Z-5.982 F1300.
Z-8.982 F520.
Y20.5
X130.5 F1300.
G40 G02 X133. Y18. I0.0 J-2.5
G01 Y13.684
X130.
G03 X128.785 Y15.709 I-10.645 J-5.009 F780.
G01 X128.562 Y16.008
X127.629 Y16.959
X126.965 Y17.5
X130. F1300.
Y13.684
X133.
Y-7.136
X119.636 Y-20.5
X112.551
Y-17.5
G03 X116.84 Y-8.416 I-7.476 J9.084 F780.
X115.409 Y-2.793 I-11.765 J0.0
G01 X119.57
G03 X125.096 Y-1.385 I-.142 J12.107
G01 X125.823 Y-.993
X126.778 Y-.372
X128.097 Y.802
G03 X130. Y3.667 I-8.742 J7.873
G01 Y-5.893 F1300.
X121.429 Y-14.464
X119.308 Y-12.343
G03 X119.84 Y-8.416 I-14.233 J3.927
X119.605 Y-5.793 I-14.765 J0.0
X126.509 Y-4.031 I-.177 J15.107
G01 X127. Y-3.767
Y-4.651
X119.308 Y-12.343
X121.429 Y-14.464
X118.393 Y-17.5
X112.551
Y-20.5
X-116.501
G02 X-133. Y-4. I.001 J16.5
G01 Y3.671
X-130.
G03 X-128.117 Y.828 I10.647 J5.006 F780.
G01 X-128.02 Y.728
G03 X-127.762 Y.469 I8.452 J8.184
X-124.671 Y-1.589 I6.909 J7.023
X-119.526 Y-2.793 I5.278 J10.96
G01 X-115.409
G03 X-116.84 Y-8.416 I10.335 J-5.622
X-112.551 Y-17.5 I11.765 J0.0
G01 X-116.502 F1300.
G02 X-130. Y-4. I.002 J13.5
G01 Y-3.794
X-127.
G03 X-125.905 Y-4.325 I6.147 J11.286
X-119.605 Y-5.793 I6.512 J13.696
X-119.84 Y-8.416 I14.53 J-2.623
X-118.624 Y-14.283 I14.765 J0.0
G02 X-127. Y-4. I2.124 J10.283
G01 Y-3.794
X-130.
Y3.671
X-133.
Y18.
G02 X-130.5 Y20.5 I2.5 J0.0
G01 X-127.001
Y17.5
X-128.083 Y16.513 F780.
X-128.604 Y15.952
X-128.78 Y15.716
G03 X-130. Y13.683 I9.427 J-7.039
G01 Y17.5 F1300.
X-127.001
Y20.5
X0.0
Y17.5
X6.927
X5.845 Y16.509 F780.
X5.328 Y15.952
G03 X2.812 Y8.681 I9.249 J-7.271
X5.147 Y1.646 I11.765 J0.0
G01 X5.37 Y1.347
X6.303 Y.396
X6.629 Y.131
X5.845 Y-.585
X5.321 Y-1.151
G03 X2.813 Y-8.413 I9.256 J-7.262
X5.147 Y-15.447 I11.765 J0.0
G01 X5.37 Y-15.746
G03 X7.276 Y-17.5 I9.146 J8.028
G01 X-7.268 F1300.
G03 X-6.968 Y-17.271 I-7.247 J9.807 F780.
G01 X-5.849 Y-16.251
X-5.328 Y-15.69
G03 X-2.961 Y-10.285 I-9.249 J7.271
G01 X.001 Y-10.761 F1300.
G03 X1.126 Y-14.5 I14.577 J2.348
G01 X-1.123
G03 X.001 Y-10.761 I-13.455 J6.081
G01 X-2.961 Y-10.285
G03 X-2.812 Y-8.419 I-11.616 J1.866 F780.
X-5.147 Y-1.384 I-11.765 J0.0
G01 X-5.37 Y-1.085
X-6.303 Y-.134
X-6.629 Y.131
X-5.849 Y.843
X-5.328 Y1.404
G03 X-2.962 Y6.808 I-9.249 J7.271
G01 X0.0 Y6.332 F1300.
G03 X2.538 Y.134 I14.577 J2.349
X0.0 Y-6.07 I12.04 J-8.547
X-2.538 Y.128 I-14.577 J-2.348
X0.0 Y6.332 I-12.04 J8.547
G01 X-2.962 Y6.808
G03 X-2.812 Y8.675 I-11.616 J1.867 F780.
X-5.147 Y15.709 I-11.765 J0.0
G01 X-5.37 Y16.008
X-6.303 Y16.959
X-6.968 Y17.5
X0.0 F1300.
Y14.5
X1.008
G03 X0.0 Y11.023 I13.57 J-5.819
X-1.01 Y14.5 I-14.577 J-2.349
G01 X0.0
Y27.
Z-5.982
G00 Z-5.932
G01 Z-6.032
Z-9.032 F520.
Y20.5
X130.5 F1300.
G02 X133. Y18. I0.0 J-2.5
G01 Y13.684
X130.
G03 X128.785 Y15.709 I-10.645 J-5.009 F780.
G01 X128.562 Y16.008
X127.629 Y16.959
X126.965 Y17.5
X130. F1300.
Y13.684
X133.
Y-7.136
X119.636 Y-20.5
X112.551
Y-17.5
G03 X116.84 Y-8.416 I-7.476 J9.084 F780.
X115.409 Y-2.793 I-11.765 J0.0
G01 X119.57
G03 X125.096 Y-1.385 I-.142 J12.107
G01 X125.823 Y-.993
X126.778 Y-.372
X128.097 Y.802
G03 X130. Y3.667 I-8.742 J7.873
G01 Y-5.893 F1300.
X121.429 Y-14.464
X119.308 Y-12.343
G03 X119.84 Y-8.416 I-14.233 J3.927
X119.605 Y-5.793 I-14.765 J0.0
X126.509 Y-4.031 I-.177 J15.107
G01 X127. Y-3.767
Y-4.651
X119.308 Y-12.343
X121.429 Y-14.464
X118.393 Y-17.5
X112.551
Y-20.5
X-116.501
G02 X-133. Y-4. I.001 J16.5
G01 Y3.671
X-130.
G03 X-128.117 Y.828 I10.647 J5.006 F780.
G01 X-128.02 Y.728
G03 X-127.762 Y.469 I8.452 J8.184
X-124.671 Y-1.589 I6.909 J7.023
X-119.526 Y-2.793 I5.278 J10.96
G01 X-115.409
G03 X-116.84 Y-8.416 I10.335 J-5.622
X-112.551 Y-17.5 I11.765 J0.0
G01 X-116.502 F1300.
G02 X-130. Y-4. I.002 J13.5
G01 Y-3.794
X-127.
G03 X-125.905 Y-4.325 I6.147 J11.286
X-119.605 Y-5.793 I6.512 J13.696
X-119.84 Y-8.416 I14.53 J-2.623
X-118.624 Y-14.283 I14.765 J0.0
G02 X-127. Y-4. I2.124 J10.283
G01 Y-3.794
X-130.
Y3.671
X-133.
Y18.
G02 X-130.5 Y20.5 I2.5 J0.0
G01 X-127.001
Y17.5
X-128.083 Y16.513 F780.
X-128.604 Y15.952
X-128.78 Y15.716
G03 X-130. Y13.683 I9.427 J-7.039
G01 Y17.5 F1300.
X-127.001
Y20.5
X0.0
Y17.5
X6.927
X5.845 Y16.509 F780.
X5.328 Y15.952
G03 X2.812 Y8.681 I9.249 J-7.271
X5.147 Y1.646 I11.765 J0.0
G01 X5.37 Y1.347
X6.303 Y.396
X6.629 Y.131
X5.845 Y-.585
X5.321 Y-1.151
G03 X2.813 Y-8.413 I9.256 J-7.262
X5.147 Y-15.447 I11.765 J0.0
G01 X5.37 Y-15.746
G03 X7.276 Y-17.5 I9.146 J8.028
G01 X-7.268 F1300.
G03 X-6.968 Y-17.271 I-7.247 J9.807 F780.
G01 X-5.849 Y-16.251
X-5.328 Y-15.69
G03 X-2.961 Y-10.285 I-9.249 J7.271
G01 X.001 Y-10.761 F1300.
G03 X1.126 Y-14.5 I14.577 J2.348
G01 X-1.123
G03 X.001 Y-10.761 I-13.455 J6.081
G01 X-2.961 Y-10.285
G03 X-2.812 Y-8.419 I-11.616 J1.866 F780.
X-5.147 Y-1.384 I-11.765 J0.0
G01 X-5.37 Y-1.085
X-6.303 Y-.134
X-6.629 Y.131
X-5.849 Y.843
X-5.328 Y1.404
G03 X-2.962 Y6.808 I-9.249 J7.271
G01 X0.0 Y6.332 F1300.
G03 X2.538 Y.134 I14.577 J2.349
X0.0 Y-6.07 I12.04 J-8.547
X-2.538 Y.128 I-14.577 J-2.348
X0.0 Y6.332 I-12.04 J8.547
G01 X-2.962 Y6.808
G03 X-2.812 Y8.675 I-11.616 J1.867 F780.
X-5.147 Y15.709 I-11.765 J0.0
G01 X-5.37 Y16.008
X-6.303 Y16.959
X-6.968 Y17.5
X0.0 F1300.
Y14.5
X1.008
G03 X0.0 Y11.023 I13.57 J-5.819
X-1.01 Y14.5 I-14.577 J-2.349
G01 X0.0
Y27.
Z-6.032
G00 Z15.
M09
M05
G91 G28 Z0.0
G28 Y0.0
M30
%
(TOTAL Machine Time: 2.0 min)
