%
G40 G17 G49 G54 G80
G91 G28 Z0.0
( NAME: Capful )
( PART: D:\Program Files\Siemens\NX 12.0\UGII\HM-µç¼«±à³Ì.prt )
( DATE: Sun May 27 04:56:59 2018 )
( D4 ---> D=4.00 R=0.00 )
S9000 M03
G00 G90 X7.403 Y.604
Z15.
G17 G01 Z.4 F2000.
Z-.6 F800.
X9.441 Y-1.259
G40 G03 X9.981 Y.131 I-1.52 J1.39 F2000.
X9.441 Y1.521 I-2.06 J0.0
G02 X9.179 Y2.196 I.738 J.675
X9.389 Y2.809 I1. J0.0
G03 X14.567 Y.843 I5.19 J5.869 F1200.
G01 X109.916
X112.116 F1050.
X114.316 F900.
G02 X113.513 Y-.137 I-1. J0.0 F2000.
G03 X111.859 Y-2.157 I.406 J-2.02
X112.062 Y-3.048 I2.06 J0.0
G02 X112.16 Y-3.481 I-.901 J-.433
X111.739 Y-4.297 I-1. J0.0
G03 X105.092 Y-.581 I-6.664 J-4.119 F1200.
G01 X14.557
G03 X13.312 Y-.684 I.023 J-7.835
X11.219 Y-1.339 I1.268 J-7.731 F1050.
X9.389 Y-2.547 I3.361 J-7.077 F900.
G02 X9.179 Y-1.934 I.79 J.613 F2000.
X9.441 Y-1.259 I1. J0.0
G01 X7.403 Y.604
Z.4
G00 Z1.
X7.381 Y.575
G01 Z.2
Z-.8 F800.
X9.418 Y-1.239
G03 X9.94 Y.131 I-1.539 J1.37 F2000.
X9.404 Y1.516 I-2.06 J0.0
G02 X9.144 Y2.189 I.74 J.673
X9.356 Y2.805 I1. J0.0
G03 X14.58 Y.818 I5.223 J5.873 F1200.
G01 X109.964
X112.164 F1050.
X114.364 F900.
G02 X113.561 Y-.163 I-1. J0.0 F2000.
G03 X111.907 Y-2.182 I.406 J-2.02
X112.106 Y-3.065 I2.06 J0.0
G02 X112.203 Y-3.494 I-.903 J-.429
X111.778 Y-4.312 I-1. J0.0
G03 X105.075 Y-.556 I-6.703 J-4.104 F1200.
G01 X14.58
G03 X13.273 Y-.665 I0.0 J-7.86
X11.182 Y-1.328 I1.307 J-7.75 F1050.
X9.356 Y-2.543 I3.397 J-7.088 F900.
G02 X9.144 Y-1.927 I.788 J.616 F2000.
X9.418 Y-1.239 I1. J0.0
G01 X7.381 Y.575
Z.2
G00 Z.4
X7.369 Y.559
G01 Z0.0
Z-1. F800.
X9.406 Y-1.228
G03 X9.917 Y.131 I-1.549 J1.359 F2000.
X9.384 Y1.514 I-2.06 J0.0
G02 X9.125 Y2.185 I.741 J.671
X9.335 Y2.797 I1. J0.0
G03 X9.491 Y2.669 I4.859 J5.76 F1200.
X14.58 Y.804 I5.088 J6.009
G01 X110.019
X112.219 F1050.
X114.419 F900.
G02 X113.617 Y-.176 I-1. J0.0 F2000.
G03 X111.962 Y-2.196 I.406 J-2.02
X112.148 Y-3.051 I2.06 J0.0
G02 X112.238 Y-3.466 I-.91 J-.415
X111.807 Y-4.288 I-1. J0.0
G03 X111.612 Y-3.985 I-6.732 J-4.128 F1050.
X111.403 Y-3.691 I-6.537 J-4.431 F900.
G01 X111.376 Y-3.64
G03 X110.111 Y-2.363 I-5.709 J-4.394
X109.845 Y-2.151 I-5.036 J-6.053
X105.075 Y-.542 I-4.77 J-6.264 F1200.
G01 X14.58
G03 X13.251 Y-.655 I0.0 J-7.874
X11.162 Y-1.322 I1.329 J-7.761 F1050.
X9.426 Y-2.463 I3.418 J-7.093 F900.
X9.336 Y-2.537 I4.37 J-5.352
G02 X9.125 Y-1.922 I.79 J.615 F2000.
X9.406 Y-1.228 I1.001 J0.0
G01 X7.369 Y.559
Z0.0
G00 Z.2
X7.232 Y.553
G01 Z-.2
Z-1.2 F800.
X9.348 Y-1.18
G03 X9.814 Y.125 I-1.594 J1.305 F2000.
X9.215 Y1.578 I-2.06 J0.0
G02 X8.924 Y2.283 I.709 J.705
X9.12 Y2.879 I1. J0.0
G03 X10.277 Y2.067 I5.142 J6.096 F1200.
X14.58 Y.79 I4.303 J6.611
G01 X110.203
X112.403 F1050.
X114.603 F900.
G02 X113.8 Y-.19 I-1. J0.0 F2000.
G03 X112.146 Y-2.21 I.406 J-2.02
X112.341 Y-3.084 I2.06 J0.0
G02 X112.435 Y-3.508 I-.906 J-.424
X112.001 Y-4.333 I-1. J0.0
G03 X111.517 Y-3.605 I-6.926 J-4.083 F1200.
X109.421 Y-1.833 I-6.12 J-5.114
X105.075 Y-.528 I-4.346 J-6.582
G01 X14.58
G03 X13.061 Y-.676 I0.0 J-7.888
X10.989 Y-1.393 I1.519 J-7.74 F1050.
X10.277 Y-1.805 I3.591 J-7.023 F900.
X9.149 Y-2.593 I3.986 J-6.908
G02 X8.955 Y-2.001 I.806 J.592 F2000.
X9.236 Y-1.306 I1. J0.0
G03 X9.348 Y-1.18 I-1.482 J1.431
G01 X7.232 Y.553
Z-.2
G00 Z0.0
X7.12 Y.131
G01 Z-.4
Z-1.4 F800.
X9.384 Y.104
Y.129 F2000.
G03 X8.717 Y1.646 I-2.06 J0.0
G02 X8.393 Y2.383 I.676 J.737
X8.573 Y2.955 I1. J0.0
G03 X9.298 Y2.427 I3.565 J4.135 F1200.
G01 X10.968 Y1.65
G03 X14.58 Y.776 I3.612 J7.028
G01 X110.6
X112.8 F1050.
X115. F900.
G02 X114.197 Y-.204 I-1. J0.0 F2000.
G03 X112.543 Y-2.224 I.406 J-2.02
X112.713 Y-3.043 I2.06 J0.0
G02 X112.795 Y-3.44 I-.918 J-.397
X112.339 Y-4.279 I-1. J0.0
G01 X112.3 Y-4.201 F1200.
G03 X110.392 Y-2.184 I-4.822 J-2.649
G01 X108.831 Y-1.456
X108.642 Y-1.365
G03 X105.075 Y-.514 I-3.568 J-7.051
G01 X14.58
G03 X12.444 Y-.808 I0.0 J-7.902
X10.967 Y-1.388 I2.136 J-7.608 F1050.
G02 X10.422 Y-1.662 I-10.669 J20.525
X9.664 Y-2.015 I-10.123 J20.799 F900.
G03 X8.515 Y-2.741 I1.873 J-4.23
G02 X8.339 Y-2.174 I.823 J.567 F2000.
X8.681 Y-1.421 I1. J0.0
G03 X9.384 Y.104 I-1.357 J1.55
G01 X7.12 Y.131
Z-.4
G00 Z-.2
X7.051 Y.132
G01 Z-.6
Z-1.6 F800.
X9.301 Y.105
Y.13 F2000.
G03 X8.748 Y1.535 I-2.06 J0.0
G02 X8.479 Y2.217 I.731 J.682
X8.685 Y2.825 I1. J0.0
G03 X10.277 Y1.763 I4.646 J5.238 F1200.
G02 X11.745 Y1.287 I-3.164 J-12.257
G03 X14.58 Y.762 I2.835 J7.391
G01 X110.611
X112.811 F1050.
X115.011 F900.
G02 X114.208 Y-.218 I-1. J0.0 F2000.
G03 X112.554 Y-2.238 I.406 J-2.02
X112.721 Y-3.05 I2.06 J0.0
G02 X112.802 Y-3.443 I-.919 J-.394
X112.347 Y-4.282 I-1. J0.0
G03 X111.781 Y-3.416 I-7.272 J-4.134 F1200.
X110.6 Y-2.26 I-6.162 J-5.115
G01 X110.295 Y-2.022
G03 X109.03 Y-1.399 I-2.137 J-2.742
G02 X107.948 Y-1.04 I2.137 J8.242
G03 X105.075 Y-.5 I-2.873 J-7.376
G01 X14.58
G03 X12.678 Y-.732 I0.0 J-7.916
X11.61 Y-1.078 I1.902 J-7.684 F1050.
G02 X10.587 Y-1.411 I-2.864 J7.074
X10.394 Y-1.456 I-1.841 J7.406 F900.
G01 X10.277 Y-1.518
X9.788 Y-1.741
G03 X8.723 Y-2.538 I4.279 J-6.824
G02 X8.511 Y-1.922 I.788 J.616 F2000.
X8.769 Y-1.252 I1. J0.0
G03 X9.301 Y.105 I-1.528 J1.381
G01 X7.051 Y.132
Z-.6
G00 Z-.4
X7.054
G01 Z-.8
Z-1.8 F800.
X9.301 Y.105
Y.13 F2000.
G03 X8.769 Y1.511 I-2.06 J0.0
G02 X8.511 Y2.182 I.742 J.671
X8.725 Y2.801 I1. J0.0
G03 X10.766 Y1.464 I5.533 J6.222 F1200.
G01 X12.235 Y1.085
X12.521 Y1.02
G03 X14.58 Y.748 I2.059 J7.658
G01 X110.62
X112.82 F1050.
X115.02 F900.
G02 X114.217 Y-.232 I-1. J0.0 F2000.
G03 X112.563 Y-2.252 I.406 J-2.02
X112.729 Y-3.061 I2.06 J0.0
G02 X112.809 Y-3.453 I-.92 J-.393
X112.353 Y-4.292 I-1. J0.0
G03 X111.781 Y-3.416 I-7.278 J-4.123 F1200.
X108.914 Y-1.213 I-6.383 J-5.341
G01 X107.134 Y-.758
G03 X105.075 Y-.486 I-2.059 J-7.658
G01 X14.58
G03 X12.665 Y-.721 I0.0 J-7.93
X12.525 Y-.757 I1.915 J-7.695 F1050.
X10.766 Y-1.202 I5.001 J-23.459
X10.549 Y-1.306 I3.491 J-7.559
X8.731 Y-2.533 I3.708 J-7.455 F900.
G02 X8.517 Y-1.915 I.787 J.618 F2000.
X8.774 Y-1.247 I1. J0.0
G03 X9.301 Y.105 I-1.532 J1.377
G01 X7.054 Y.132
Z-.8
G00 Z-.6
G01 Z-1.
Z-2. F800.
X9.301 Y.105
Y.13 F2000.
G03 X8.768 Y1.512 I-2.06 J0.0
G02 X8.51 Y2.183 I.741 J.671
X8.725 Y2.803 I1. J0.0
G03 X11.745 Y1.072 I5.636 J6.334 F1200.
X14.549 Y.734 I3.468 J16.969
G01 X110.63
X112.83 F1050.
X115.03 F900.
G02 X114.227 Y-.246 I-1. J0.0 F2000.
G03 X112.572 Y-2.266 I.405 J-2.02
X112.736 Y-3.072 I2.06 J0.0
G02 X112.816 Y-3.463 I-.92 J-.391
X112.359 Y-4.303 I-1. J0.0
G03 X111.781 Y-3.416 I-7.284 J-4.113 F1200.
X108.153 Y-.89 I-6.52 J-5.496
X105.075 Y-.472 I-3.246 J-12.355
G01 X14.58
G03 X13.894 Y-.502 I0.0 J-7.944
X12.633 Y-.653 I1.675 J-19.334
X11.745 Y-.81 I2.937 J-19.183 F1050.
X10.545 Y-1.303 I2.621 J-8.074
X8.73 Y-2.536 I3.821 J-7.58 F900.
G02 X8.516 Y-1.917 I.786 J.619 F2000.
X8.773 Y-1.248 I1. J0.0
G03 X9.301 Y.105 I-1.531 J1.378
G01 X7.054 Y.132
Z-1.
G00 Z-.8
G01 X7.053 Z-1.2
Z-2.2 F800.
X9.301 Y.105
Y.13 F2000.
G03 X8.765 Y1.516 I-2.06 J0.0
G02 X8.505 Y2.189 I.74 J.673
X8.721 Y2.809 I1. J0.0
G03 X12.724 Y.804 I5.724 J6.429 F1200.
X14.398 Y.693 I1.674 J12.584
X14.58 Y.694 I0.0 J12.695
G01 X110.655
X112.855 F1050.
X115.055 F900.
G02 X114.252 Y-.286 I-1. J0.0 F2000.
G03 X112.598 Y-2.306 I.406 J-2.02
X112.758 Y-3.104 I2.06 J0.0
G02 X112.836 Y-3.491 I-.922 J-.387
X112.376 Y-4.333 I-1. J0.0
G03 X111.781 Y-3.416 I-7.301 J-4.083 F1200.
X109.806 Y-1.698 I-6.316 J-5.269
X105.445 Y-.42 I-4.36 J-6.795
X105.217 Y-.423 I0.0 J-8.073
G01 X105.075 Y-.432
X14.58
G03 X14.379 Y-.431 I-.201 J-12.429
X12.724 Y-.541 I0.0 J-12.431
X12.604 Y-.567 I1.726 J-8.444
X10.538 Y-1.306 I1.846 J-8.418 F1050.
X8.726 Y-2.542 I3.912 J-7.679 F900.
G02 X8.511 Y-1.923 I.785 J.62 F2000.
X8.769 Y-1.252 I1. J0.0
G03 X9.301 Y.105 I-1.528 J1.382
G01 X7.053 Y.132
Z-1.2
G00 Z-1.
X7.052
G01 Z-1.4
Z-2.4 F800.
X9.301 Y.105
Y.13 F2000.
G03 X8.754 Y1.528 I-2.06 J0.0
G02 X8.488 Y2.206 I.734 J.679
X8.705 Y2.828 I1. J0.0
G03 X14.539 Y.605 I5.834 J6.543 F1200.
X14.681 Y.607 I0.0 J8.766
G01 X110.71
X112.91 F1050.
X115.11 F900.
G02 X114.307 Y-.374 I-1. J0.0 F2000.
G03 X112.653 Y-2.393 I.406 J-2.02
X112.807 Y-3.174 I2.06 J0.0
G02 X112.881 Y-3.553 I-.925 J-.379
X112.413 Y-4.4 I-1. J0.0
G03 X111.781 Y-3.416 I-7.338 J-4.016 F1200.
X105.121 Y-.344 I-6.661 J-5.685
G01 X105.075 Y-.345
X14.58
X14.534 Y-.344
G03 X12.584 Y-.564 I0.0 J-8.758
X10.523 Y-1.317 I1.95 J-8.538 F1050.
X8.713 Y-2.558 I4.011 J-7.786 F900.
G02 X8.497 Y-1.937 I.784 J.621 F2000.
X8.76 Y-1.262 I1. J0.0
G03 X9.301 Y.105 I-1.519 J1.391
G01 X7.052 Y.132
Z-1.4
G00 Z-1.2
G01 Z-1.6
Z-2.6 F800.
X9.301 Y.105
Y.13 F2000.
G03 X8.754 Y1.528 I-2.06 J0.0
G02 X8.489 Y2.206 I.734 J.679
X8.705 Y2.828 I1. J0.0
G03 X14.539 Y.605 I5.833 J6.543 F1200.
X14.681 Y.607 I0.0 J8.765
G01 X110.71
X112.91 F1050.
X115.11 F900.
G02 X114.307 Y-.374 I-1. J0.0 F2000.
G03 X112.653 Y-2.393 I.406 J-2.02
X112.807 Y-3.174 I2.06 J0.0
G02 X112.881 Y-3.553 I-.925 J-.379
X112.413 Y-4.4 I-1. J0.0
G03 X111.781 Y-3.416 I-7.338 J-4.016 F1200.
X105.121 Y-.344 I-6.66 J-5.685
G01 X105.075 Y-.345
X14.58
X14.533 Y-.344
G03 X12.584 Y-.564 I0.0 J-8.758
X10.523 Y-1.317 I1.95 J-8.538 F1050.
X8.713 Y-2.558 I4.011 J-7.785 F900.
G02 X8.497 Y-1.937 I.784 J.621 F2000.
X8.76 Y-1.262 I1. J0.0
G03 X9.301 Y.105 I-1.519 J1.391
G01 X7.052 Y.132
Z-1.6
G00 Z-1.4
G01 Z-1.8
Z-2.8 F800.
X9.301 Y.105
Y.13 F2000.
G03 X8.754 Y1.528 I-2.06 J0.0
G02 X8.489 Y2.206 I.735 J.679
X8.706 Y2.828 I1. J0.0
G03 X14.538 Y.605 I5.832 J6.542 F1200.
X14.681 Y.607 I0.0 J8.764
G01 X110.71
X112.91 F1050.
X115.11 F900.
G02 X114.307 Y-.374 I-1. J0.0 F2000.
G03 X112.653 Y-2.393 I.406 J-2.02
X112.807 Y-3.174 I2.06 J0.0
G02 X112.881 Y-3.553 I-.925 J-.379
X112.413 Y-4.4 I-1. J0.0
G03 X111.781 Y-3.416 I-7.338 J-4.016 F1200.
X105.121 Y-.344 I-6.66 J-5.684
G01 X105.075 Y-.345
X14.58
X14.533 Y-.344
G03 X12.584 Y-.564 I0.0 J-8.757
X10.523 Y-1.317 I1.949 J-8.537 F1050.
X8.713 Y-2.558 I4.011 J-7.785 F900.
G02 X8.497 Y-1.937 I.784 J.621 F2000.
X8.76 Y-1.262 I1. J0.0
G03 X9.301 Y.105 I-1.519 J1.392
G01 X7.052 Y.132
Z-1.8
G00 Z-1.6
G01 Z-2.
Z-3. F800.
X9.301 Y.105
Y.13 F2000.
G03 X8.754 Y1.527 I-2.06 J0.0
G02 X8.489 Y2.206 I.735 J.678
X8.706 Y2.828 I1. J0.0
G03 X14.538 Y.605 I5.832 J6.541 F1200.
X14.681 Y.607 I0.0 J8.763
G01 X110.71
X112.91 F1050.
X115.11 F900.
G02 X114.307 Y-.374 I-1. J0.0 F2000.
G03 X112.653 Y-2.393 I.406 J-2.02
X112.807 Y-3.174 I2.06 J0.0
G02 X112.881 Y-3.553 I-.925 J-.379
X112.413 Y-4.4 I-1. J0.0
G03 X111.781 Y-3.416 I-7.338 J-4.016 F1200.
X105.121 Y-.344 I-6.66 J-5.684
G01 X105.075 Y-.345
X14.58
X14.533 Y-.344
G03 X12.584 Y-.564 I0.0 J-8.757
X10.523 Y-1.317 I1.949 J-8.537 F1050.
X8.713 Y-2.558 I4.01 J-7.784 F900.
G02 X8.497 Y-1.937 I.784 J.621 F2000.
X8.76 Y-1.262 I1. J0.0
G03 X9.301 Y.105 I-1.519 J1.391
G01 X7.052 Y.132
Z-2.
G00 Z-1.8
G01 Z-2.2
Z-3.2 F800.
X9.301 Y.105
Y.13 F2000.
G03 X8.754 Y1.527 I-2.06 J0.0
G02 X8.489 Y2.206 I.735 J.678
X8.706 Y2.827 I1. J0.0
G03 X14.537 Y.605 I5.831 J6.54 F1200.
X14.681 Y.607 I0.0 J8.762
G01 X110.71
X112.91 F1050.
X115.11 F900.
G02 X114.307 Y-.374 I-1. J0.0 F2000.
G03 X112.653 Y-2.393 I.406 J-2.02
X112.807 Y-3.174 I2.06 J0.0
G02 X112.881 Y-3.553 I-.925 J-.379
X112.413 Y-4.4 I-1. J0.0
G03 X111.781 Y-3.416 I-7.338 J-4.016 F1200.
X105.122 Y-.344 I-6.66 J-5.683
G01 X105.075 Y-.345
X14.58
X14.533 Y-.344
G03 X12.584 Y-.564 I0.0 J-8.756
X10.523 Y-1.317 I1.949 J-8.537 F1050.
X8.713 Y-2.558 I4.01 J-7.784 F900.
G02 X8.497 Y-1.937 I.784 J.621 F2000.
X8.76 Y-1.262 I1. J0.0
G03 X9.301 Y.105 I-1.519 J1.391
G01 X7.052 Y.132
Z-2.2
G00 Z-2.
G01 Z-2.4
Z-3.4 F800.
X9.301 Y.105
Y.13 F2000.
G03 X8.755 Y1.527 I-2.06 J0.0
G02 X8.489 Y2.205 I.735 J.678
X8.706 Y2.827 I1. J0.0
G03 X14.537 Y.605 I5.83 J6.539 F1200.
X14.681 Y.607 I0.0 J8.761
G01 X110.71
X112.91 F1050.
X115.11 F900.
G02 X114.307 Y-.374 I-1. J0.0 F2000.
G03 X112.653 Y-2.393 I.406 J-2.02
X112.807 Y-3.174 I2.06 J0.0
G02 X112.881 Y-3.553 I-.925 J-.379
X112.413 Y-4.4 I-1. J0.0
G03 X111.781 Y-3.416 I-7.338 J-4.016 F1200.
X105.122 Y-.344 I-6.659 J-5.683
G01 X105.075 Y-.345
X14.58
X14.533 Y-.344
G03 X12.584 Y-.564 I0.0 J-8.756
X10.523 Y-1.317 I1.949 J-8.536 F1050.
X8.713 Y-2.558 I4.01 J-7.784 F900.
G02 X8.497 Y-1.937 I.784 J.621 F2000.
X8.76 Y-1.262 I1. J0.0
G03 X9.301 Y.105 I-1.519 J1.391
G01 X7.052 Y.132
Z-2.4
G00 Z-2.2
G01 Z-2.6
Z-3.6 F800.
X9.301 Y.105
Y.13 F2000.
G03 X8.755 Y1.527 I-2.06 J0.0
G02 X8.49 Y2.205 I.735 J.678
X8.706 Y2.827 I1. J0.0
G03 X14.536 Y.605 I5.83 J6.538 F1200.
X14.681 Y.607 I0.0 J8.76
G01 X110.71
X112.91 F1050.
X115.11 F900.
G02 X114.307 Y-.374 I-1. J0.0 F2000.
G03 X112.653 Y-2.393 I.406 J-2.02
X112.807 Y-3.174 I2.06 J0.0
G02 X112.881 Y-3.553 I-.925 J-.379
X112.413 Y-4.4 I-1. J0.0
G03 X111.781 Y-3.416 I-7.338 J-4.016 F1200.
X105.122 Y-.344 I-6.659 J-5.682
G01 X105.075 Y-.345
X14.58
X14.533 Y-.344
G03 X12.584 Y-.564 I0.0 J-8.755
X10.523 Y-1.317 I1.949 J-8.536 F1050.
X8.713 Y-2.558 I4.01 J-7.783 F900.
G02 X8.497 Y-1.937 I.784 J.621 F2000.
X8.76 Y-1.262 I1. J0.0
G03 X9.301 Y.105 I-1.519 J1.391
G01 X7.052 Y.132
Z-2.6
G00 Z-2.4
G01 Z-2.8
Z-3.8 F800.
X9.301 Y.105
Y.13 F2000.
G03 X8.755 Y1.527 I-2.06 J0.0
G02 X8.49 Y2.205 I.735 J.678
X8.707 Y2.827 I1. J0.0
G03 X14.536 Y.605 I5.829 J6.538 F1200.
X14.681 Y.607 I0.0 J8.759
G01 X110.71
X112.91 F1050.
X115.11 F900.
G02 X114.307 Y-.374 I-1. J0.0 F2000.
G03 X112.653 Y-2.393 I.406 J-2.02
X112.807 Y-3.174 I2.06 J0.0
G02 X112.881 Y-3.553 I-.925 J-.379
X112.413 Y-4.4 I-1. J0.0
G03 X111.781 Y-3.416 I-7.338 J-4.016 F1200.
X105.122 Y-.344 I-6.659 J-5.682
G01 X105.075 Y-.345
X14.58
X14.532 Y-.344
G03 X12.584 Y-.564 I0.0 J-8.755
X10.523 Y-1.317 I1.948 J-8.535 F1050.
X8.713 Y-2.558 I4.01 J-7.783 F900.
G02 X8.497 Y-1.937 I.784 J.621 F2000.
X8.76 Y-1.262 I1. J0.0
G03 X9.301 Y.105 I-1.519 J1.391
G01 X7.052 Y.132
Z-2.8
G00 Z-2.6
G01 Z-3.
Z-4. F800.
X9.301 Y.105
Y.13 F2000.
G03 X8.755 Y1.527 I-2.06 J0.0
G02 X8.49 Y2.205 I.735 J.678
X8.707 Y2.826 I1. J0.0
G03 X14.535 Y.605 I5.828 J6.537 F1200.
X14.681 Y.607 I0.0 J8.758
G01 X110.71
X112.91 F1050.
X115.11 F900.
G02 X114.307 Y-.374 I-1. J0.0 F2000.
G03 X112.653 Y-2.393 I.406 J-2.02
X112.807 Y-3.174 I2.06 J0.0
G02 X112.881 Y-3.553 I-.925 J-.379
X112.413 Y-4.4 I-1. J0.0
G03 X111.781 Y-3.416 I-7.338 J-4.016 F1200.
X105.123 Y-.344 I-6.659 J-5.681
G01 X105.075 Y-.345
X14.58
X14.532 Y-.344
G03 X12.584 Y-.564 I0.0 J-8.755
X10.523 Y-1.316 I1.948 J-8.535 F1050.
X8.714 Y-2.558 I4.009 J-7.783 F900.
G02 X8.497 Y-1.937 I.784 J.621 F2000.
X8.76 Y-1.262 I1. J0.0
G03 X9.301 Y.105 I-1.519 J1.391
G01 X7.052 Y.132
Z-3.
G00 Z-2.8
G01 Z-3.2
Z-4.2 F800.
X9.301 Y.105
Y.13 F2000.
G03 X8.755 Y1.526 I-2.06 J0.0
G02 X8.49 Y2.204 I.735 J.678
X8.707 Y2.826 I1. J0.0
G03 X14.535 Y.605 I5.828 J6.536 F1200.
X14.681 Y.607 I0.0 J8.757
G01 X110.71
X112.91 F1050.
X115.11 F900.
G02 X114.307 Y-.374 I-1. J0.0 F2000.
G03 X112.653 Y-2.393 I.406 J-2.02
X112.807 Y-3.174 I2.06 J0.0
G02 X112.881 Y-3.553 I-.925 J-.379
X112.413 Y-4.4 I-1. J0.0
G03 X111.781 Y-3.416 I-7.338 J-4.016 F1200.
X105.123 Y-.344 I-6.658 J-5.68
G01 X105.075 Y-.345
X14.58
X14.532 Y-.344
G03 X12.584 Y-.564 I0.0 J-8.754
X10.523 Y-1.316 I1.948 J-8.535 F1050.
X8.714 Y-2.558 I4.009 J-7.782 F900.
G02 X8.497 Y-1.937 I.784 J.621 F2000.
X8.76 Y-1.262 I1. J0.0
G03 X9.301 Y.105 I-1.519 J1.391
G01 X7.052 Y.132
Z-3.2
G00 Z-3.
G01 Z-3.4
Z-4.4 F800.
X9.301 Y.105
Y.13 F2000.
G03 X8.755 Y1.526 I-2.06 J0.0
G02 X8.49 Y2.204 I.735 J.678
X8.707 Y2.826 I1. J0.0
G03 X14.534 Y.605 I5.827 J6.535 F1200.
X14.681 Y.607 I0.0 J8.756
G01 X110.71
X112.91 F1050.
X115.11 F900.
G02 X114.307 Y-.374 I-1. J0.0 F2000.
G03 X112.653 Y-2.393 I.406 J-2.02
X112.807 Y-3.174 I2.06 J0.0
G02 X112.881 Y-3.553 I-.925 J-.379
X112.413 Y-4.4 I-1. J0.0
G03 X111.781 Y-3.416 I-7.338 J-4.016 F1200.
X105.123 Y-.344 I-6.658 J-5.68
G01 X105.075 Y-.345
X14.58
X14.532 Y-.344
G03 X12.584 Y-.564 I0.0 J-8.754
X10.523 Y-1.316 I1.948 J-8.534 F1050.
X8.714 Y-2.558 I4.009 J-7.782 F900.
G02 X8.497 Y-1.937 I.784 J.621 F2000.
X8.76 Y-1.262 I1. J0.0
G03 X9.301 Y.105 I-1.519 J1.391
G01 X7.052 Y.132
Z-3.4
G00 Z-3.2
G01 Z-3.6
Z-4.6 F800.
X9.301 Y.105
Y.13 F2000.
G03 X8.755 Y1.526 I-2.06 J0.0
G02 X8.49 Y2.204 I.735 J.678
X8.707 Y2.826 I1. J0.0
G03 X14.534 Y.605 I5.826 J6.534 F1200.
X14.681 Y.607 I0.0 J8.755
G01 X110.71
X112.91 F1050.
X115.11 F900.
G02 X114.307 Y-.374 I-1. J0.0 F2000.
G03 X112.653 Y-2.393 I.406 J-2.02
X112.807 Y-3.174 I2.06 J0.0
G02 X112.881 Y-3.553 I-.925 J-.379
X112.413 Y-4.4 I-1. J0.0
G03 X111.781 Y-3.416 I-7.338 J-4.016 F1200.
X105.123 Y-.344 I-6.658 J-5.679
G01 X105.075 Y-.345
X14.58
X14.532 Y-.344
G03 X12.584 Y-.564 I0.0 J-8.753
X10.523 Y-1.316 I1.948 J-8.534 F1050.
X8.714 Y-2.558 I4.009 J-7.781 F900.
G02 X8.497 Y-1.937 I.784 J.621 F2000.
X8.76 Y-1.262 I1. J0.0
G03 X9.301 Y.105 I-1.519 J1.391
G01 X7.052 Y.132
Z-3.6
G00 Z-3.4
G01 Z-3.8
Z-4.8 F800.
X9.301 Y.105
Y.13 F2000.
G03 X8.755 Y1.526 I-2.06 J0.0
G02 X8.491 Y2.204 I.735 J.678
X8.707 Y2.825 I1. J0.0
G03 X14.533 Y.605 I5.826 J6.533 F1200.
X14.681 Y.607 I0.0 J8.754
G01 X110.71
X112.91 F1050.
X115.11 F900.
G02 X114.307 Y-.374 I-1. J0.0 F2000.
G03 X112.653 Y-2.393 I.406 J-2.02
X112.807 Y-3.174 I2.06 J0.0
G02 X112.881 Y-3.553 I-.925 J-.379
X112.413 Y-4.4 I-1. J0.0
G03 X111.781 Y-3.416 I-7.338 J-4.016 F1200.
X105.124 Y-.344 I-6.658 J-5.679
G01 X105.075 Y-.345
X14.58
X14.531 Y-.344
G03 X12.584 Y-.564 I0.0 J-8.753
X10.523 Y-1.316 I1.947 J-8.533 F1050.
X8.714 Y-2.558 I4.009 J-7.781 F900.
G02 X8.497 Y-1.937 I.784 J.621 F2000.
X8.76 Y-1.261 I1. J0.0
G03 X9.301 Y.105 I-1.519 J1.391
G01 X7.052 Y.132
Z-3.8
G00 Z-3.6
G01 Z-4.
Z-5. F800.
X9.3 Y.105
X9.301 Y.13 F2000.
G03 X8.753 Y1.528 I-2.06 J0.0
G02 X8.488 Y2.207 I.734 J.679
X8.705 Y2.828 I1. J0.0
G03 X14.537 Y.605 I5.833 J6.54 F1200.
X14.681 Y.607 I0.0 J8.763
G01 X110.71
X112.91 F1050.
X115.11 F900.
G02 X114.307 Y-.374 I-1. J0.0 F2000.
G03 X112.653 Y-2.393 I.406 J-2.02
X112.807 Y-3.174 I2.06 J0.0
G02 X112.881 Y-3.553 I-.925 J-.379
X112.413 Y-4.4 I-1. J0.0
G03 X111.781 Y-3.416 I-7.338 J-4.016 F1200.
X105.124 Y-.344 I-6.657 J-5.678
G01 X105.075 Y-.345
X14.58
X14.531 Y-.344
G03 X12.584 Y-.564 I0.0 J-8.752
X10.523 Y-1.316 I1.947 J-8.533 F1050.
X8.714 Y-2.558 I4.008 J-7.781 F900.
G02 X8.497 Y-1.937 I.784 J.621 F2000.
X8.76 Y-1.261 I1. J0.0
G03 X9.3 Y.105 I-1.519 J1.391
G01 X7.052 Y.132
Z-4.
G00 Z-3.8
G01 X7.051 Z-4.2
Z-5.2 F800.
X9.3 Y.105
X9.301 Y.13 F2000.
G03 X8.754 Y1.528 I-2.06 J0.0
G02 X8.488 Y2.206 I.734 J.679
X8.705 Y2.828 I1. J0.0
G03 X14.537 Y.605 I5.832 J6.539 F1200.
X14.681 Y.607 I0.0 J8.762
G01 X110.71
X112.91 F1050.
X115.11 F900.
G02 X114.307 Y-.374 I-1. J0.0 F2000.
G03 X112.653 Y-2.393 I.406 J-2.02
X112.807 Y-3.174 I2.06 J0.0
G02 X112.881 Y-3.553 I-.925 J-.379
X112.413 Y-4.4 I-1. J0.0
G03 X111.781 Y-3.416 I-7.338 J-4.016 F1200.
X105.124 Y-.344 I-6.657 J-5.678
G01 X105.075 Y-.345
X14.58
X14.531 Y-.344
G03 X12.584 Y-.564 I0.0 J-8.752
X10.523 Y-1.316 I1.947 J-8.533 F1050.
X8.714 Y-2.558 I4.008 J-7.78 F900.
G02 X8.497 Y-1.937 I.784 J.621 F2000.
X8.76 Y-1.261 I1. J0.0
G03 X9.3 Y.105 I-1.519 J1.391
G01 X7.051 Y.132
Z-4.2
G00 Z-4.
G01 Z-4.4
Z-5.4 F800.
X9.3 Y.105
X9.301 Y.13 F2000.
G03 X8.754 Y1.527 I-2.06 J0.0
G02 X8.488 Y2.206 I.735 J.679
X8.705 Y2.828 I1. J0.0
G03 X14.536 Y.605 I5.831 J6.538 F1200.
X14.681 Y.607 I0.0 J8.761
G01 X110.71
X112.91 F1050.
X115.11 F900.
G02 X114.307 Y-.374 I-1. J0.0 F2000.
G03 X112.653 Y-2.393 I.406 J-2.02
X112.807 Y-3.174 I2.06 J0.0
G02 X112.881 Y-3.553 I-.925 J-.379
X112.413 Y-4.4 I-1. J0.0
G03 X111.781 Y-3.416 I-7.338 J-4.016 F1200.
X105.124 Y-.344 I-6.657 J-5.677
G01 X105.075 Y-.345
X14.58
X14.531 Y-.344
G03 X12.584 Y-.564 I0.0 J-8.752
X10.523 Y-1.316 I1.947 J-8.532 F1050.
X8.714 Y-2.558 I4.008 J-7.78 F900.
G02 X8.497 Y-1.937 I.784 J.621 F2000.
X8.76 Y-1.261 I1. J0.0
G03 X9.3 Y.105 I-1.519 J1.391
G01 X7.051 Y.132
Z-4.4
G00 Z-4.2
G01 Z-4.6
Z-5.6 F800.
X9.3 Y.105
Y.13 F2000.
G03 X8.754 Y1.527 I-2.06 J0.0
G02 X8.488 Y2.206 I.735 J.678
X8.705 Y2.828 I1. J0.0
G03 X14.536 Y.605 I5.831 J6.537 F1200.
X14.681 Y.607 I0.0 J8.76
G01 X110.71
X112.91 F1050.
X115.11 F900.
G02 X114.307 Y-.374 I-1. J0.0 F2000.
G03 X112.653 Y-2.393 I.406 J-2.02
X112.807 Y-3.174 I2.06 J0.0
G02 X112.881 Y-3.553 I-.925 J-.379
X112.413 Y-4.4 I-1. J0.0
G03 X111.781 Y-3.416 I-7.338 J-4.016 F1200.
X105.125 Y-.344 I-6.657 J-5.677
G01 X105.075 Y-.345
X14.58
X14.531 Y-.344
G03 X12.584 Y-.564 I0.0 J-8.751
X10.523 Y-1.316 I1.947 J-8.532 F1050.
X8.714 Y-2.558 I4.008 J-7.779 F900.
G02 X8.497 Y-1.937 I.784 J.621 F2000.
X8.76 Y-1.261 I1. J0.0
G03 X9.3 Y.105 I-1.519 J1.391
G01 X7.051 Y.132
Z-4.6
G00 Z-4.4
G01 Z-4.8
Z-5.8 F800.
X9.3 Y.105
Y.13 F2000.
G03 X8.754 Y1.527 I-2.06 J0.0
G02 X8.489 Y2.206 I.735 J.678
X8.706 Y2.827 I1. J0.0
G03 X14.535 Y.605 I5.83 J6.537 F1200.
X14.681 Y.607 I0.0 J8.759
G01 X110.71
X112.91 F1050.
X115.11 F900.
G02 X114.307 Y-.374 I-1. J0.0 F2000.
G03 X112.653 Y-2.393 I.406 J-2.02
X112.807 Y-3.174 I2.06 J0.0
G02 X112.881 Y-3.553 I-.925 J-.379
X112.413 Y-4.4 I-1. J0.0
G03 X111.781 Y-3.416 I-7.338 J-4.016 F1200.
X105.125 Y-.344 I-6.656 J-5.676
G01 X105.075 Y-.345
X14.58
X14.53 Y-.344
G03 X12.584 Y-.564 I0.0 J-8.751
X10.523 Y-1.316 I1.946 J-8.532 F1050.
X8.714 Y-2.558 I4.008 J-7.779 F900.
G02 X8.497 Y-1.937 I.784 J.621 F2000.
X8.76 Y-1.261 I1. J0.0
G03 X9.3 Y.105 I-1.519 J1.391
G01 X7.051 Y.132
Z-4.8
G00 Z-4.6
G01 Z-5.
Z-6. F800.
X9.3 Y.105
Y.13 F2000.
G03 X8.754 Y1.527 I-2.06 J0.0
G02 X8.489 Y2.205 I.735 J.678
X8.706 Y2.827 I1. J0.0
G03 X14.535 Y.605 I5.829 J6.536 F1200.
X14.681 Y.607 I0.0 J8.758
G01 X110.71
X112.91 F1050.
X115.11 F900.
G02 X114.307 Y-.374 I-1. J0.0 F2000.
G03 X112.653 Y-2.393 I.406 J-2.02
X112.807 Y-3.174 I2.06 J0.0
G02 X112.881 Y-3.553 I-.925 J-.379
X112.413 Y-4.4 I-1. J0.0
G03 X111.781 Y-3.416 I-7.338 J-4.016 F1200.
X105.125 Y-.344 I-6.656 J-5.676
G01 X105.075 Y-.345
X14.58
X14.53 Y-.344
G03 X12.584 Y-.564 I0.0 J-8.75
X10.523 Y-1.316 I1.946 J-8.531 F1050.
X8.714 Y-2.557 I4.007 J-7.779 F900.
G02 X8.497 Y-1.937 I.784 J.621 F2000.
X8.76 Y-1.261 I1. J0.0
G03 X9.3 Y.105 I-1.519 J1.391
G01 X7.051 Y.132
Z-5.
G00 Z-4.8
G01 Z-5.2
Z-6.2 F800.
X9.3 Y.105
Y.13 F2000.
G03 X8.754 Y1.527 I-2.06 J0.0
G02 X8.489 Y2.205 I.735 J.678
X8.706 Y2.827 I1. J0.0
G03 X14.535 Y.605 I5.829 J6.535 F1200.
X14.681 Y.607 I0.0 J8.757
G01 X110.71
X112.91 F1050.
X115.11 F900.
G02 X114.307 Y-.374 I-1. J0.0 F2000.
G03 X112.653 Y-2.393 I.406 J-2.02
X112.807 Y-3.174 I2.06 J0.0
G02 X112.881 Y-3.553 I-.925 J-.379
X112.413 Y-4.4 I-1. J0.0
G03 X111.781 Y-3.416 I-7.338 J-4.016 F1200.
X105.125 Y-.344 I-6.656 J-5.675
G01 X105.075 Y-.345
X14.58
X14.53 Y-.344
G03 X12.584 Y-.564 I0.0 J-8.75
X10.523 Y-1.316 I1.946 J-8.531 F1050.
X8.714 Y-2.557 I4.007 J-7.778 F900.
G02 X8.497 Y-1.936 I.784 J.621 F2000.
X8.76 Y-1.261 I1. J0.0
G03 X9.3 Y.105 I-1.519 J1.391
G01 X7.051 Y.132
Z-5.2
G00 Z-5.
G01 Z-5.4
Z-6.4 F800.
X9.3 Y.105
Y.13 F2000.
G03 X8.754 Y1.527 I-2.06 J0.0
G02 X8.489 Y2.205 I.735 J.678
X8.706 Y2.827 I1. J0.0
G03 X14.534 Y.605 I5.828 J6.534 F1200.
X14.681 Y.607 I0.0 J8.756
G01 X110.71
X112.91 F1050.
X115.11 F900.
G02 X114.307 Y-.374 I-1. J0.0 F2000.
G03 X112.653 Y-2.393 I.406 J-2.02
X112.807 Y-3.174 I2.06 J0.0
G02 X112.881 Y-3.553 I-.925 J-.379
X112.413 Y-4.4 I-1. J0.0
G03 X111.781 Y-3.416 I-7.338 J-4.016 F1200.
X105.126 Y-.344 I-6.656 J-5.674
G01 X105.075 Y-.345
X14.58
X14.53 Y-.344
G03 X12.584 Y-.564 I0.0 J-8.749
X10.523 Y-1.316 I1.946 J-8.53 F1050.
X8.714 Y-2.557 I4.007 J-7.778 F900.
G02 X8.497 Y-1.936 I.784 J.621 F2000.
X8.76 Y-1.261 I1. J0.0
G03 X9.3 Y.105 I-1.52 J1.391
G01 X7.051 Y.132
Z-5.4
G00 Z-5.2
G01 Z-5.6
Z-6.6 F800.
X9.3 Y.105
Y.13 F2000.
G03 X8.754 Y1.526 I-2.06 J0.0
G02 X8.489 Y2.205 I.735 J.678
X8.706 Y2.826 I1. J0.0
G03 X14.534 Y.605 I5.827 J6.533 F1200.
X14.681 Y.607 I0.0 J8.754
G01 X110.71
X112.91 F1050.
X115.11 F900.
G02 X114.307 Y-.374 I-1. J0.0 F2000.
G03 X112.653 Y-2.393 I.406 J-2.02
X112.807 Y-3.174 I2.06 J0.0
G02 X112.881 Y-3.553 I-.925 J-.379
X112.413 Y-4.4 I-1. J0.0
G03 X111.781 Y-3.416 I-7.338 J-4.016 F1200.
X105.126 Y-.344 I-6.655 J-5.674
G01 X105.075 Y-.345
X14.58
X14.53 Y-.344
G03 X12.584 Y-.563 I0.0 J-8.749
X10.523 Y-1.316 I1.946 J-8.53 F1050.
X8.714 Y-2.557 I4.007 J-7.778 F900.
G02 X8.497 Y-1.936 I.784 J.621 F2000.
X8.76 Y-1.261 I1. J0.0
G03 X9.3 Y.105 I-1.52 J1.391
G01 X7.051 Y.132
Z-5.6
G00 Z-5.4
G01 Z-5.8
Z-6.8 F800.
X9.3 Y.105
Y.13 F2000.
G03 X8.755 Y1.526 I-2.06 J0.0
G02 X8.49 Y2.204 I.735 J.678
X8.707 Y2.826 I1. J0.0
G03 X14.534 Y.605 I5.827 J6.536 F1200.
X14.681 Y.607 I0.0 J8.756
G01 X110.71
X112.91 F1050.
X115.11 F900.
G02 X114.307 Y-.374 I-1. J0.0 F2000.
G03 X112.653 Y-2.393 I.406 J-2.02
X112.807 Y-3.174 I2.06 J0.0
G02 X112.881 Y-3.553 I-.925 J-.379
X112.413 Y-4.4 I-1. J0.0
G03 X111.781 Y-3.416 I-7.338 J-4.016 F1200.
X105.126 Y-.344 I-6.655 J-5.673
G01 X105.075 Y-.345
X14.58
X14.529 Y-.344
G03 X12.584 Y-.563 I0.0 J-8.749
X10.523 Y-1.316 I1.945 J-8.53 F1050.
X8.714 Y-2.557 I4.007 J-7.777 F900.
G02 X8.497 Y-1.936 I.784 J.621 F2000.
X8.76 Y-1.261 I1. J0.0
G03 X9.3 Y.105 I-1.52 J1.391
G01 X7.051 Y.132
Z-5.8
G00 Z-5.6
G01 Z-6.
Z-7. F800.
X9.3 Y.105
Y.13 F2000.
G03 X8.755 Y1.526 I-2.06 J0.0
G02 X8.49 Y2.204 I.735 J.678
X8.707 Y2.826 I1. J0.0
G03 X14.533 Y.605 I5.827 J6.535 F1200.
X14.681 Y.607 I0.0 J8.755
G01 X110.71
X112.91 F1050.
X115.11 F900.
G02 X114.307 Y-.374 I-1. J0.0 F2000.
G03 X112.653 Y-2.393 I.406 J-2.02
X112.807 Y-3.174 I2.06 J0.0
G02 X112.881 Y-3.553 I-.925 J-.379
X112.413 Y-4.4 I-1. J0.0
G03 X111.781 Y-3.416 I-7.338 J-4.016 F1200.
X105.126 Y-.344 I-6.655 J-5.673
G01 X105.075 Y-.345
X14.58
X14.529 Y-.344
G03 X12.584 Y-.563 I0.0 J-8.748
X10.523 Y-1.316 I1.945 J-8.529 F1050.
X8.714 Y-2.557 I4.007 J-7.777 F900.
G02 X8.497 Y-1.936 I.784 J.621 F2000.
X8.76 Y-1.261 I1. J0.0
G03 X9.3 Y.105 I-1.52 J1.391
G01 X7.051 Y.132
Z-6.
G00 Z-5.8
G01 Z-6.2
Z-7.2 F800.
X9.3 Y.105
Y.13 F2000.
G03 X8.755 Y1.526 I-2.06 J0.0
G02 X8.49 Y2.204 I.735 J.678
X8.707 Y2.825 I1. J0.0
G03 X14.533 Y.605 I5.826 J6.534 F1200.
X14.681 Y.607 I0.0 J8.754
G01 X110.71
X112.91 F1050.
X115.11 F900.
G02 X114.307 Y-.374 I-1. J0.0 F2000.
G03 X112.653 Y-2.393 I.406 J-2.02
X112.807 Y-3.174 I2.06 J0.0
G02 X112.881 Y-3.553 I-.925 J-.379
X112.413 Y-4.4 I-1. J0.0
G03 X111.781 Y-3.416 I-7.338 J-4.016 F1200.
X105.127 Y-.344 I-6.655 J-5.672
G01 X105.075 Y-.345
X14.58
X14.529 Y-.344
G03 X12.584 Y-.563 I0.0 J-8.748
X10.523 Y-1.316 I1.945 J-8.529 F1050.
X8.714 Y-2.557 I4.007 J-7.777 F900.
G02 X8.497 Y-1.936 I.784 J.621 F2000.
X8.76 Y-1.261 I1. J0.0
G03 X9.3 Y.105 I-1.52 J1.391
G01 X7.051 Y.132
Z-6.2
G00 Z-6.
G01 Z-6.4
Z-7.4 F800.
X9.3 Y.105
Y.13 F2000.
G03 X8.755 Y1.526 I-2.06 J0.0
G02 X8.49 Y2.203 I.735 J.678
X8.707 Y2.825 I1. J0.0
G03 X14.532 Y.605 I5.825 J6.533 F1200.
X14.681 Y.607 I0.0 J8.753
G01 X110.71
X112.91 F1050.
X115.11 F900.
G02 X114.307 Y-.374 I-1. J0.0 F2000.
G03 X112.653 Y-2.393 I.406 J-2.02
X112.807 Y-3.174 I2.06 J0.0
G02 X112.881 Y-3.553 I-.925 J-.379
X112.413 Y-4.4 I-1. J0.0
G03 X111.781 Y-3.416 I-7.338 J-4.016 F1200.
X105.127 Y-.344 I-6.654 J-5.672
G01 X105.075 Y-.345
X14.58
X14.529 Y-.344
G03 X12.584 Y-.563 I0.0 J-8.748
X10.523 Y-1.316 I1.945 J-8.529 F1050.
X8.713 Y-2.557 I4.006 J-7.777 F900.
G02 X8.497 Y-1.936 I.784 J.621 F2000.
X8.76 Y-1.261 I1. J0.0
G03 X9.3 Y.105 I-1.52 J1.391
G01 X7.051 Y.132
Z-6.4
G00 Z-6.2
G01 Z-6.6
Z-7.6 F800.
X9.3 Y.105
Y.13 F2000.
G03 X8.755 Y1.526 I-2.06 J0.0
G02 X8.491 Y2.203 I.735 J.678
X8.707 Y2.825 I1. J0.0
G03 X14.532 Y.605 I5.825 J6.532 F1200.
X14.681 Y.607 I0.0 J8.752
G01 X110.71
X112.91 F1050.
X115.11 F900.
G02 X114.307 Y-.374 I-1. J0.0 F2000.
G03 X112.653 Y-2.393 I.406 J-2.02
X112.807 Y-3.174 I2.06 J0.0
G02 X112.881 Y-3.553 I-.925 J-.379
X112.413 Y-4.4 I-1. J0.0
G03 X111.781 Y-3.416 I-7.338 J-4.016 F1200.
X105.127 Y-.344 I-6.654 J-5.671
G01 X105.075 Y-.345
X14.58
X14.529 Y-.344
G03 X12.584 Y-.563 I0.0 J-8.748
X10.523 Y-1.316 I1.945 J-8.529 F1050.
X8.713 Y-2.557 I4.006 J-7.776 F900.
G02 X8.497 Y-1.936 I.784 J.621 F2000.
X8.76 Y-1.261 I1. J0.0
G03 X9.3 Y.105 I-1.52 J1.391
G01 X7.051 Y.132
Z-6.6
G00 Z-6.4
G01 Z-6.8
Z-7.8 F800.
X9.3 Y.105
Y.13 F2000.
G03 X8.755 Y1.525 I-2.06 J0.0
G02 X8.491 Y2.203 I.736 J.678
X8.708 Y2.825 I1. J0.0
G03 X14.531 Y.605 I5.824 J6.532 F1200.
X14.681 Y.607 I0.0 J8.751
G01 X110.71
X112.91 F1050.
X115.11 F900.
G02 X114.307 Y-.374 I-1. J0.0 F2000.
G03 X112.653 Y-2.393 I.406 J-2.02
X112.807 Y-3.174 I2.06 J0.0
G02 X112.881 Y-3.553 I-.925 J-.379
X112.413 Y-4.4 I-1. J0.0
G03 X111.781 Y-3.416 I-7.338 J-4.016 F1200.
X105.127 Y-.344 I-6.654 J-5.671
G01 X105.075 Y-.345
X14.58
X14.529 Y-.344
G03 X12.584 Y-.563 I0.0 J-8.748
X10.523 Y-1.316 I1.945 J-8.529 F1050.
X8.713 Y-2.557 I4.006 J-7.776 F900.
G02 X8.497 Y-1.936 I.784 J.621 F2000.
X8.76 Y-1.261 I1. J0.0
G03 X9.3 Y.105 I-1.52 J1.391
G01 X7.051 Y.132
Z-6.8
G00 Z-6.6
G01 Z-7.
Z-8. F800.
X9.3 Y.105
Y.13 F2000.
G03 X8.755 Y1.525 I-2.06 J0.0
G02 X8.491 Y2.203 I.736 J.677
X8.708 Y2.825 I1. J0.0
G03 X14.531 Y.605 I5.823 J6.531 F1200.
X14.681 Y.607 I0.0 J8.75
G01 X110.71
X112.91 F1050.
X115.11 F900.
G02 X114.307 Y-.374 I-1. J0.0 F2000.
G03 X112.653 Y-2.393 I.406 J-2.02
X112.807 Y-3.174 I2.06 J0.0
G02 X112.881 Y-3.553 I-.925 J-.379
X112.413 Y-4.4 I-1. J0.0
G03 X111.781 Y-3.416 I-7.338 J-4.016 F1200.
X105.127 Y-.344 I-6.654 J-5.671
G01 X105.075 Y-.345
X14.58
X14.529 Y-.344
G03 X12.584 Y-.563 I0.0 J-8.747
X10.522 Y-1.316 I1.945 J-8.528 F1050.
X8.713 Y-2.558 I4.006 J-7.776 F900.
G02 X8.497 Y-1.936 I.784 J.621 F2000.
X8.76 Y-1.261 I1. J0.0
G03 X9.3 Y.105 I-1.52 J1.391
G01 X7.051 Y.132
Z-7.
G00 Z-6.8
G01 Z-7.2
Z-8.2 F800.
X9.3 Y.105
Y.13 F2000.
G03 X8.755 Y1.525 I-2.06 J0.0
G02 X8.491 Y2.203 I.736 J.677
X8.708 Y2.824 I1. J0.0
G03 X14.531 Y.605 I5.823 J6.53 F1200.
X14.681 Y.607 I0.0 J8.749
G01 X110.71
X112.91 F1050.
X115.11 F900.
G02 X114.307 Y-.374 I-1. J0.0 F2000.
G03 X112.653 Y-2.393 I.406 J-2.02
X112.807 Y-3.174 I2.06 J0.0
G02 X112.881 Y-3.553 I-.925 J-.379
X112.413 Y-4.4 I-1. J0.0
G03 X111.781 Y-3.416 I-7.338 J-4.016 F1200.
X105.128 Y-.344 I-6.654 J-5.671
G01 X105.075 Y-.345
X14.58
X14.529 Y-.344
G03 X12.584 Y-.563 I0.0 J-8.747
X10.522 Y-1.316 I1.945 J-8.528 F1050.
X8.713 Y-2.558 I4.006 J-7.776 F900.
G02 X8.497 Y-1.937 I.784 J.621 F2000.
X8.759 Y-1.261 I1. J0.0
G03 X9.3 Y.105 I-1.519 J1.391
G01 X7.051 Y.132
Z-7.2
G00 Z-7.
G01 Z-7.4
Z-8.4 F800.
X9.3 Y.105
Y.13 F2000.
G03 X8.755 Y1.525 I-2.06 J0.0
G02 X8.491 Y2.202 I.736 J.677
X8.708 Y2.824 I1. J0.0
G03 X14.53 Y.605 I5.822 J6.529 F1200.
X14.681 Y.607 I0.0 J8.748
G01 X110.71
X112.91 F1050.
X115.11 F900.
G02 X114.307 Y-.374 I-1. J0.0 F2000.
G03 X112.653 Y-2.393 I.406 J-2.02
X112.807 Y-3.174 I2.06 J0.0
G02 X112.881 Y-3.553 I-.925 J-.379
X112.413 Y-4.4 I-1. J0.0
G03 X111.781 Y-3.416 I-7.338 J-4.016 F1200.
X105.128 Y-.344 I-6.654 J-5.67
G01 X105.075 Y-.345
X14.58
X14.529 Y-.344
G03 X12.583 Y-.563 I0.0 J-8.747
X10.522 Y-1.316 I1.945 J-8.528 F1050.
X8.713 Y-2.558 I4.006 J-7.776 F900.
G02 X8.497 Y-1.937 I.784 J.621 F2000.
X8.759 Y-1.261 I1. J0.0
G03 X9.3 Y.105 I-1.519 J1.391
G01 X7.051 Y.132
Z-7.4
G00 Z-7.2
G01 Z-7.6
Z-8.6 F800.
X9.3 Y.105
Y.13 F2000.
G03 X8.756 Y1.525 I-2.06 J0.0
G02 X8.491 Y2.202 I.736 J.677
X8.708 Y2.824 I1. J0.0
G03 X14.53 Y.605 I5.822 J6.529 F1200.
X14.681 Y.607 I0.0 J8.747
G01 X110.71
X112.91 F1050.
X115.11 F900.
G02 X114.307 Y-.374 I-1. J0.0 F2000.
G03 X112.653 Y-2.393 I.406 J-2.02
X112.807 Y-3.174 I2.06 J0.0
G02 X112.881 Y-3.553 I-.925 J-.379
X112.413 Y-4.4 I-1. J0.0
G03 X111.781 Y-3.416 I-7.338 J-4.016 F1200.
X105.128 Y-.344 I-6.653 J-5.67
G01 X105.075 Y-.345
X14.58
X14.529 Y-.344
G03 X12.583 Y-.563 I0.0 J-8.747
X10.522 Y-1.316 I1.945 J-8.528 F1050.
X8.713 Y-2.558 I4.006 J-7.775 F900.
G02 X8.497 Y-1.937 I.784 J.621 F2000.
X8.76 Y-1.261 I1. J0.0
G03 X9.3 Y.105 I-1.52 J1.391
G01 X7.051 Y.132
Z-7.6
G00 Z-7.4
G01 Z-7.8
Z-8.8 F800.
X9.3 Y.105
Y.13 F2000.
G03 X8.756 Y1.525 I-2.06 J0.0
G02 X8.491 Y2.202 I.736 J.677
X8.708 Y2.824 I1. J0.0
G03 X14.529 Y.605 I5.821 J6.528 F1200.
X14.681 Y.607 I0.0 J8.746
G01 X110.71
X112.91 F1050.
X115.11 F900.
G02 X114.307 Y-.374 I-1. J0.0 F2000.
G03 X112.653 Y-2.393 I.406 J-2.02
X112.807 Y-3.174 I2.06 J0.0
G02 X112.881 Y-3.553 I-.925 J-.379
X112.413 Y-4.4 I-1. J0.0
G03 X111.781 Y-3.416 I-7.338 J-4.016 F1200.
X105.128 Y-.344 I-6.653 J-5.67
G01 X105.075 Y-.345
X14.58
X14.528 Y-.344
G03 X12.583 Y-.563 I0.0 J-8.747
X10.522 Y-1.316 I1.945 J-8.528 F1050.
X8.713 Y-2.558 I4.006 J-7.775 F900.
G02 X8.497 Y-1.937 I.784 J.621 F2000.
X8.759 Y-1.261 I1. J0.0
G03 X9.3 Y.105 I-1.519 J1.391
G01 X7.051 Y.132
Z-7.8
G00 Z1.
X-114.304 Y-4.076
G01 Z.4
Z-.6 F800.
X-113.513 Y-.137
G02 X-114.316 Y.843 I.197 J.98 F2000.
G01 X-14.574 F1200.
G03 X-13.312 Y.946 I-.005 J7.835
X-11.219 Y1.601 I-1.268 J7.731 F1050.
X-9.389 Y2.809 I-3.361 J7.077 F900.
G02 X-9.179 Y2.196 I-.79 J-.613 F2000.
X-9.441 Y1.521 I-1. J0.0
G03 X-9.981 Y.131 I1.52 J-1.39
X-9.441 Y-1.259 I2.06 J0.0
G02 X-9.179 Y-1.934 I-.738 J-.675
X-9.389 Y-2.547 I-1. J0.0
G03 X-14.557 Y-.581 I-5.19 J-5.869 F1200.
G01 X-105.092
G03 X-108.522 Y-1.38 I.017 J-7.835
X-110.337 Y-2.611 I3.447 J-7.036 F1050.
X-111.739 Y-4.297 I5.262 J-5.805 F900.
G02 X-112.16 Y-3.481 I.579 J.815 F2000.
X-112.062 Y-3.048 I1. J0.0
G03 X-111.859 Y-2.157 I-1.857 J.892
X-113.513 Y-.137 I-2.06 J0.0
G01 X-114.304 Y-4.076
Z.4
G00 Z1.
X-114.366 Y-3.976
G01 Z.2
Z-.8 F800.
X-113.52 Y-.171
X-113.561 Y-.163 F2000.
G02 X-114.364 Y.818 I.197 J.98
G01 X-14.58 F1200.
G03 X-13.273 Y.927 I0.0 J7.86
X-11.182 Y1.59 I-1.307 J7.75 F1050.
X-9.356 Y2.805 I-3.397 J7.088 F900.
G02 X-9.144 Y2.189 I-.788 J-.616 F2000.
X-9.404 Y1.516 I-1. J0.0
G03 X-9.94 Y.131 I1.525 J-1.385
X-9.404 Y-1.254 I2.06 J0.0
G02 X-9.144 Y-1.927 I-.74 J-.673
X-9.356 Y-2.543 I-1. J0.0
G03 X-14.58 Y-.556 I-5.223 J-5.873 F1200.
G01 X-105.075
G03 X-108.576 Y-1.379 I0.0 J-7.86
X-110.384 Y-2.62 I3.501 J-7.037 F1050.
X-111.317 Y-3.64 I5.309 J-5.796 F900.
G01 X-111.371 Y-3.711
G03 X-111.579 Y-4.003 I6.296 J-4.705
G01 X-111.772 Y-4.316
G02 X-112.203 Y-3.494 I.569 J.823 F2000.
X-112.106 Y-3.065 I1. J0.0
G03 X-111.907 Y-2.182 I-1.861 J.883
X-113.52 Y-.171 I-2.06 J0.0
G01 X-114.366 Y-3.976
Z.2
G00 Z.4
X-114.421 Y-3.802
G01 Z0.0
Z-1. F800.
X-113.527 Y-.197
G03 X-113.617 Y-.176 I-.496 J-1.999 F2000.
G02 X-114.419 Y.804 I.197 J.98
G01 X-14.58 F1200.
G03 X-13.251 Y.917 I0.0 J7.874
X-11.162 Y1.584 I-1.329 J7.761 F1050.
X-9.491 Y2.669 I-3.418 J7.094 F900.
X-9.334 Y2.797 I-4.446 J5.61
G02 X-9.125 Y2.185 I-.791 J-.612 F2000.
X-9.384 Y1.514 I-1. J0.0
G03 X-9.917 Y.131 I1.527 J-1.383
X-9.384 Y-1.252 I2.06 J0.0
G02 X-9.125 Y-1.923 I-.741 J-.671
X-9.336 Y-2.538 I-1. J0.0
G03 X-9.422 Y-2.466 I-4.448 J-5.267 F1200.
X-14.58 Y-.542 I-5.157 J-5.95
G01 X-105.075
G03 X-107.932 Y-1.079 I0.0 J-7.874
X-109.845 Y-2.151 I2.857 J-7.337 F1050.
X-110.111 Y-2.363 I4.77 J-6.264 F900.
X-111.376 Y-3.64 I4.389 J-5.615
G01 X-111.403 Y-3.691
G03 X-111.807 Y-4.288 I6.328 J-4.725 F1200.
G02 X-112.238 Y-3.466 I.569 J.822 F2000.
X-112.148 Y-3.051 I1. J0.0
G03 X-111.962 Y-2.196 I-1.874 J.855
X-113.527 Y-.197 I-2.06 J0.0
G01 X-114.421 Y-3.802
Z0.0
G00 Z.2
X-114.638 Y-3.492
G01 Z-.2
Z-1.2 F800.
X-113.547 Y-.258
G03 X-113.8 Y-.19 I-.659 J-1.952 F2000.
G02 X-114.603 Y.79 I.197 J.98
G01 X-14.58 F1200.
G03 X-13.061 Y.938 I0.0 J7.888
X-10.989 Y1.655 I-1.519 J7.74 F1050.
X-10.277 Y2.067 I-3.591 J7.023 F900.
X-9.149 Y2.855 I-3.986 J6.908
G02 X-8.955 Y2.263 I-.806 J-.592 F2000.
X-9.236 Y1.568 I-1. J0.0
G03 X-9.814 Y.137 I1.482 J-1.431
X-9.215 Y-1.316 I2.06 J0.0
G02 X-8.924 Y-2.021 I-.709 J-.705
X-9.12 Y-2.617 I-1. J0.0
G03 X-10.277 Y-1.805 I-5.142 J-6.096 F1200.
X-14.58 Y-.528 I-4.303 J-6.611
G01 X-105.075
G03 X-108.768 Y-1.446 I0.0 J-7.888
X-109.416 Y-1.83 I3.693 J-6.97 F1050.
X-110.592 Y-2.669 I4.026 J-6.885
X-111.543 Y-3.64 I5.201 J-6.046 F900.
X-112.005 Y-4.34 I6.468 J-4.776
G02 X-112.438 Y-3.516 I.567 J.824 F2000.
X-112.343 Y-3.089 I1. J0.0
G03 X-112.146 Y-2.21 I-1.863 J.879
X-113.547 Y-.258 I-2.06 J0.0
G01 X-114.638 Y-3.492
Z-.2
G00 Z0.0
X-114.935 Y-2.846
G01 Z-.4
Z-1.4 F800.
X-113.628 Y-.409
G03 X-114.195 Y-.204 I-.973 J-1.816 F2000.
G02 X-114.998 Y.776 I.197 J.98
G01 X-14.58 F1200.
G03 X-12.491 Y1.057 I0.0 J7.902
X-10.967 Y1.65 I-2.089 J7.621 F1050.
G01 X-10.458 Y1.887
X-9.594 Y2.29 F900.
G03 X-8.549 Y2.963 I-1.941 J4.164
G02 X-8.375 Y2.399 I-.826 J-.563 F2000.
X-8.705 Y1.657 I-1. J0.0
G03 X-9.384 Y.128 I1.381 J-1.529
X-8.689 Y-1.414 I2.06 J0.0
G02 X-8.352 Y-2.163 I-.663 J-.749
X-8.525 Y-2.726 I-1. J0.0
G03 X-9.58 Y-2.054 I-2.717 J-3.106 F1200.
G02 X-10.935 Y-1.405 I9.363 J21.266
G03 X-14.58 Y-.514 I-3.645 J-7.011
G01 X-105.075
G03 X-108.642 Y-1.365 I0.0 J-7.902
G02 X-109.009 Y-1.546 I-16.136 J32.168
X-110.007 Y-2.014 I-15.77 J32.349 F1050.
G03 X-110.946 Y-2.579 I1.902 J-4.226
X-111.869 Y-3.537 I2.841 J-3.662 F900.
X-112.336 Y-4.264 I6.794 J-4.879
G02 X-112.788 Y-3.428 I.548 J.836 F2000.
X-112.707 Y-3.034 I1. J0.0
G03 X-112.541 Y-2.224 I-1.894 J.81
X-113.628 Y-.409 I-2.06 J0.0
G01 X-114.935 Y-2.846
Z-.4
G00 Z-.2
X-114.958 Y-2.876
G01 Z-.6
Z-1.6 F800.
X-113.637 Y-.425
G03 X-114.208 Y-.218 I-.977 J-1.813 F2000.
G02 X-115.011 Y.762 I.197 J.98
G01 X-15.043 F1200.
X-14.58 F1050.
G03 X-12.856 Y.952 I0.0 J7.916
X-11.745 Y1.287 I-1.723 J7.726 F900.
G01 X-10.766 Y1.633
G03 X-9.59 Y2.13 I-.703 J3.304 F1200.
X-8.712 Y2.811 I-4.443 J6.636
G02 X-8.498 Y2.193 I-.786 J-.618 F2000.
X-8.76 Y1.518 I-1. J0.0
G03 X-9.299 Y.129 I1.521 J-1.39
X-8.766 Y-1.254 I2.06 J0.0
G02 X-8.507 Y-1.926 I-.741 J-.671
X-8.719 Y-2.542 I-1. J0.0
G03 X-9.434 Y-1.976 I-5.366 J-6.04 F1050.
X-9.744 Y-1.778 I-2.357 J-3.348
X-10.833 Y-1.343 I-2.048 J-3.546 F900.
G01 X-10.934 Y-1.319
X-11.891 Y-.971
G03 X-13.028 Y-.654 I-2.689 J-7.445
X-14.58 Y-.5 I-1.552 J-7.762 F1200.
G01 X-105.075
G03 X-108.139 Y-1.117 I0.0 J-7.916
G02 X-109.153 Y-1.434 I-2.17 J5.168
X-109.263 Y-1.456 I-1.156 J5.484 F1050.
G01 X-109.791 Y-1.698
G03 X-110.999 Y-2.595 I3.773 J-6.345
X-111.942 Y-3.64 I4.981 J-5.448 F900.
X-112.362 Y-4.309 I6.867 J-4.776
G02 X-112.814 Y-3.472 I.548 J.836 F2000.
X-112.729 Y-3.069 I1. J0.0
G03 X-112.554 Y-2.238 I-1.885 J.831
X-113.637 Y-.425 I-2.06 J0.0
G01 X-114.958 Y-2.876
Z-.6
G00 Z-.4
X-114.967 Y-2.89
G01 Z-.8
Z-1.8 F800.
X-113.645 Y-.439
G03 X-114.217 Y-.232 I-.979 J-1.813 F2000.
G02 X-115.02 Y.748 I.197 J.98
G01 X-14.58 F1200.
G03 X-12.65 Y.986 I0.0 J7.93
X-12.525 Y1.019 I-1.93 J7.691 F1050.
G01 X-10.792 Y1.456
G03 X-10.536 Y1.577 I-3.37 J7.439
X-8.719 Y2.806 I-3.626 J7.318 F900.
G02 X-8.504 Y2.187 I-.785 J-.62 F2000.
X-8.764 Y1.514 I-1. J0.0
G03 X-9.299 Y.129 I1.525 J-1.385
X-8.771 Y-1.249 I2.06 J0.0
G02 X-8.514 Y-1.918 I-.743 J-.669
X-8.728 Y-2.536 I-1. J0.0
G03 X-10.766 Y-1.202 I-5.526 J-6.22 F1200.
X-12.521 Y-.758 I-6.633 J-22.525
X-14.58 Y-.486 I-2.059 J-7.658
G01 X-105.075
G03 X-107.13 Y-.757 I0.0 J-7.93
G01 X-108.642 Y-1.123
X-108.916 Y-1.213
G03 X-109.209 Y-1.356 I3.343 J-7.271
X-111.008 Y-2.611 I3.637 J-7.128 F1050.
X-111.942 Y-3.64 I5.436 J-5.873 F900.
X-112.371 Y-4.325 I6.867 J-4.776
G02 X-112.824 Y-3.488 I.547 J.837 F2000.
X-112.739 Y-3.084 I1. J0.0
G03 X-112.563 Y-2.252 I-1.885 J.832
X-113.645 Y-.439 I-2.06 J0.0
G01 X-114.967 Y-2.89
Z-.8
G00 Z-.6
X-114.975 Y-2.9
G01 Z-1.
Z-2. F800.
X-113.652 Y-.454
G03 X-114.226 Y-.246 I-.98 J-1.812 F2000.
G02 X-115.029 Y.734 I.197 J.98
G01 X-14.58 F1200.
G03 X-12.617 Y.914 I-.478 J16.044
X-11.745 Y1.072 I-2.441 J15.864 F1050.
X-10.531 Y1.572 I-2.58 J8.001
X-8.72 Y2.809 I-3.794 J7.501 F900.
G02 X-8.503 Y2.187 I-.784 J-.621 F2000.
X-8.763 Y1.515 I-1. J0.0
G03 X-9.299 Y.129 I1.524 J-1.386
X-8.77 Y-1.25 I2.06 J0.0
G02 X-8.513 Y-1.919 I-.743 J-.669
X-8.727 Y-2.538 I-1. J0.0
G03 X-11.745 Y-.81 I-5.635 J-6.339 F1200.
G01 X-12.116 Y-.728
X-13.703 Y-.519
X-13.829 Y-.507
G03 X-14.192 Y-.481 I-.75 J-7.908
G01 X-14.58 Y-.472
X-105.075
G03 X-108.153 Y-.89 I.167 J-12.772
X-109.224 Y-1.357 I2.763 J-7.794
X-111.015 Y-2.623 I3.834 J-7.326 F1050.
X-111.942 Y-3.64 I5.625 J-6.061 F900.
X-112.378 Y-4.337 I6.867 J-4.776
G02 X-112.832 Y-3.499 I.546 J.838 F2000.
X-112.747 Y-3.096 I1. J0.0
G03 X-112.572 Y-2.266 I-1.885 J.83
X-113.652 Y-.454 I-2.06 J0.0
G01 X-114.975 Y-2.9
Z-1.
G00 Z-.8
X-115.118 Y-3.019
G01 Z-1.2
Z-2.2 F800.
X-113.688 Y-.517
G03 X-114.304 Y-.286 I-1.022 J-1.789 F2000.
G02 X-115.107 Y.694 I.197 J.98
G01 X-14.58 F1200.
G03 X-14.397 Y.693 I.183 J12.71
X-12.724 Y.804 I0.0 J12.711
X-12.585 Y.833 I-1.705 J8.394
X-10.521 Y1.576 I-1.843 J8.365 F1050.
X-8.713 Y2.818 I-3.908 J7.622 F900.
G02 X-8.495 Y2.196 I-.782 J-.623 F2000.
X-8.758 Y1.52 I-1. J0.0
G03 X-9.299 Y.129 I1.519 J-1.391
X-8.766 Y-1.254 I2.06 J0.0
G02 X-8.508 Y-1.925 I-.741 J-.671
X-8.723 Y-2.545 I-1. J0.0
G03 X-12.724 Y-.542 I-5.72 J-6.43 F1200.
X-14.391 Y-.431 I-1.667 J-12.434
X-14.58 Y-.432 I0.0 J-12.545
G01 X-105.075
G03 X-105.262 Y-.431 I-.188 J-13.614
X-106.685 Y-.506 I0.0 J-13.615
X-109.461 Y-1.487 I1.357 J-8.253
X-111.209 Y-2.812 I4.133 J-7.271 F1050.
X-111.942 Y-3.64 I5.881 J-5.946 F900.
X-112.506 Y-4.576 I6.867 J-4.776
G02 X-112.995 Y-3.716 I.511 J.859 F2000.
X-112.882 Y-3.255 I1. J0.0
G03 X-112.65 Y-2.306 I-1.828 J.95
X-113.688 Y-.517 I-2.06 J0.0
G01 X-115.118 Y-3.019
Z-1.2
G00 Z-1.
X-115.033 Y-2.98
G01 Z-1.4
Z-2.4 F800.
X-113.725 Y-.585
G03 X-114.304 Y-.374 I-.987 J-1.808 F2000.
G02 X-115.106 Y.607 I.198 J.98
G01 X-14.58 F1200.
X-14.526 Y.606
G03 X-12.559 Y.831 I0.0 J8.728
X-10.5 Y1.59 I-1.967 J8.503 F1050.
X-8.696 Y2.839 I-4.026 J7.744 F900.
G02 X-8.478 Y2.215 I-.781 J-.624 F2000.
X-8.746 Y1.533 I-1. J0.0
G03 X-9.299 Y.129 I1.507 J-1.404
X-8.756 Y-1.265 I2.06 J0.0
G02 X-8.493 Y-1.941 I-.736 J-.676
X-8.709 Y-2.563 I-1. J0.0
G03 X-14.535 Y-.344 I-5.826 J-6.541 F1200.
G01 X-14.58 Y-.345
X-105.088
G03 X-107.887 Y-.801 I0.0 J-8.815
G01 X-108.153 Y-.89
G03 X-109.303 Y-1.399 I2.762 J-7.792
X-111.081 Y-2.685 I3.912 J-7.283 F1050.
X-111.942 Y-3.64 I5.69 J-5.997 F900.
X-112.421 Y-4.416 I6.867 J-4.776
G02 X-112.888 Y-3.57 I.533 J.846 F2000.
X-112.811 Y-3.185 I1. J0.0
G03 X-112.652 Y-2.393 I-1.901 J.793
X-113.725 Y-.585 I-2.06 J0.0
G01 X-115.033 Y-2.98
Z-1.4
G00 Z-1.2
G01 Z-1.6
Z-2.6 F800.
X-113.725 Y-.585
G03 X-114.304 Y-.374 I-.987 J-1.808 F2000.
G02 X-115.106 Y.607 I.198 J.98
G01 X-14.58 F1200.
X-14.526 Y.606
G03 X-12.56 Y.831 I0.0 J8.726
X-10.501 Y1.59 I-1.966 J8.502 F1050.
X-8.697 Y2.839 I-4.025 J7.742 F900.
G02 X-8.478 Y2.214 I-.781 J-.624 F2000.
X-8.746 Y1.533 I-1. J0.0
G03 X-9.299 Y.129 I1.507 J-1.404
X-8.756 Y-1.265 I2.06 J0.0
G02 X-8.493 Y-1.941 I-.737 J-.676
X-8.709 Y-2.563 I-1. J0.0
G03 X-14.534 Y-.344 I-5.825 J-6.541 F1200.
G01 X-14.58 Y-.345
X-105.087
G03 X-107.887 Y-.801 I0.0 J-8.816
G01 X-108.153 Y-.89
G03 X-109.303 Y-1.399 I2.762 J-7.791
X-111.081 Y-2.685 I3.912 J-7.282 F1050.
X-111.942 Y-3.64 I5.69 J-5.997 F900.
X-112.421 Y-4.416 I6.867 J-4.776
G02 X-112.888 Y-3.57 I.533 J.846 F2000.
X-112.811 Y-3.185 I1. J0.0
G03 X-112.652 Y-2.393 I-1.901 J.793
X-113.725 Y-.585 I-2.06 J0.0
G01 X-115.033 Y-2.98
Z-1.6
G00 Z-1.4
G01 Z-1.8
Z-2.8 F800.
X-113.725 Y-.585
G03 X-114.304 Y-.374 I-.987 J-1.808 F2000.
G02 X-115.106 Y.607 I.198 J.98
G01 X-14.58 F1200.
X-14.525 Y.606
G03 X-12.56 Y.83 I0.0 J8.724
X-10.502 Y1.589 I-1.964 J8.5 F1050.
X-8.697 Y2.838 I-4.023 J7.741 F900.
G02 X-8.479 Y2.214 I-.781 J-.624 F2000.
X-8.747 Y1.532 I-1. J0.0
G03 X-9.299 Y.129 I1.508 J-1.404
X-8.756 Y-1.265 I2.06 J0.0
G02 X-8.493 Y-1.941 I-.737 J-.676
X-8.709 Y-2.562 I-1. J0.0
G03 X-14.534 Y-.344 I-5.825 J-6.54 F1200.
G01 X-14.58 Y-.345
X-105.087
G03 X-107.887 Y-.801 I0.0 J-8.817
G01 X-108.153 Y-.89
G03 X-109.304 Y-1.399 I2.761 J-7.79
X-111.081 Y-2.685 I3.912 J-7.281 F1050.
X-111.942 Y-3.64 I5.689 J-5.996 F900.
X-112.421 Y-4.416 I6.867 J-4.776
G02 X-112.888 Y-3.57 I.533 J.846 F2000.
X-112.811 Y-3.185 I1. J0.0
G03 X-112.653 Y-2.393 I-1.901 J.793
X-113.725 Y-.585 I-2.06 J0.0
G01 X-115.033 Y-2.98
Z-1.8
G00 Z-1.6
G01 Z-2.
Z-3. F800.
X-113.725 Y-.585
G03 X-114.305 Y-.374 I-.987 J-1.808 F2000.
G02 X-115.107 Y.607 I.198 J.98
G01 X-14.58 F1200.
X-14.524 Y.606
G03 X-12.561 Y.83 I0.0 J8.722
X-10.502 Y1.589 I-1.963 J8.498 F1050.
X-8.698 Y2.838 I-4.022 J7.739 F900.
G02 X-8.479 Y2.213 I-.781 J-.624 F2000.
X-8.747 Y1.532 I-1. J0.0
G03 X-9.299 Y.129 I1.508 J-1.403
X-8.756 Y-1.265 I2.06 J0.0
G02 X-8.493 Y-1.941 I-.737 J-.676
X-8.709 Y-2.562 I-1. J0.0
G03 X-14.534 Y-.344 I-5.825 J-6.54 F1200.
G01 X-14.58 Y-.345
X-105.087
G03 X-107.887 Y-.801 I0.0 J-8.819
G01 X-108.153 Y-.89
G03 X-109.304 Y-1.399 I2.761 J-7.79
X-111.081 Y-2.685 I3.911 J-7.28 F1050.
X-111.942 Y-3.64 I5.689 J-5.995 F900.
X-112.421 Y-4.416 I6.867 J-4.776
G02 X-112.888 Y-3.57 I.533 J.846 F2000.
X-112.811 Y-3.185 I1. J0.0
G03 X-112.653 Y-2.393 I-1.901 J.793
X-113.725 Y-.585 I-2.06 J0.0
G01 X-115.033 Y-2.98
Z-2.
G00 Z-1.8
G01 Z-2.2
Z-3.2 F800.
X-113.726 Y-.585
G03 X-114.305 Y-.374 I-.987 J-1.808 F2000.
G02 X-115.107 Y.607 I.198 J.98
G01 X-14.58 F1200.
X-14.523 Y.606
G03 X-12.561 Y.83 I0.0 J8.72
X-10.502 Y1.589 I-1.962 J8.497 F1050.
X-8.698 Y2.837 I-4.021 J7.738 F900.
G02 X-8.479 Y2.213 I-.781 J-.624 F2000.
X-8.747 Y1.532 I-1. J0.0
G03 X-9.299 Y.129 I1.508 J-1.403
X-8.756 Y-1.265 I2.06 J0.0
G02 X-8.493 Y-1.941 I-.737 J-.676
X-8.709 Y-2.562 I-1. J0.0
G03 X-14.534 Y-.344 I-5.825 J-6.54 F1200.
G01 X-14.58 Y-.345
X-105.087
G03 X-107.887 Y-.801 I0.0 J-8.82
G01 X-108.153 Y-.89
G03 X-109.304 Y-1.399 I2.76 J-7.789
X-111.081 Y-2.685 I3.911 J-7.28 F1050.
X-111.942 Y-3.64 I5.688 J-5.994 F900.
X-112.421 Y-4.416 I6.867 J-4.776
G02 X-112.888 Y-3.57 I.533 J.846 F2000.
X-112.811 Y-3.185 I1. J0.0
G03 X-112.653 Y-2.393 I-1.901 J.792
X-113.726 Y-.585 I-2.06 J0.0
G01 X-115.033 Y-2.98
Z-2.2
G00 Z-2.
G01 Z-2.4
Z-3.4 F800.
X-113.726 Y-.585
G03 X-114.305 Y-.374 I-.987 J-1.808 F2000.
G02 X-115.107 Y.607 I.198 J.98
G01 X-14.58 F1200.
X-14.522 Y.606
G03 X-12.562 Y.83 I0.0 J8.719
X-10.503 Y1.588 I-1.961 J8.496 F1050.
X-8.699 Y2.837 I-4.019 J7.737 F900.
G02 X-8.48 Y2.212 I-.781 J-.624 F2000.
X-8.748 Y1.531 I-1. J0.0
G03 X-9.299 Y.129 I1.509 J-1.403
X-8.756 Y-1.265 I2.06 J0.0
G02 X-8.493 Y-1.941 I-.737 J-.676
X-8.709 Y-2.562 I-1. J0.0
G03 X-14.534 Y-.344 I-5.824 J-6.539 F1200.
G01 X-14.58 Y-.345
X-105.087
G03 X-107.887 Y-.801 I0.0 J-8.821
G01 X-108.153 Y-.89
G03 X-109.304 Y-1.399 I2.76 J-7.788
X-111.081 Y-2.685 I3.91 J-7.279 F1050.
X-111.942 Y-3.64 I5.688 J-5.993 F900.
X-112.422 Y-4.416 I6.867 J-4.776
G02 X-112.888 Y-3.57 I.533 J.846 F2000.
X-112.811 Y-3.185 I1. J0.0
G03 X-112.653 Y-2.393 I-1.901 J.792
X-113.726 Y-.585 I-2.06 J0.0
G01 X-115.033 Y-2.98
Z-2.4
G00 Z-2.2
G01 Z-2.6
Z-3.6 F800.
X-113.726 Y-.585
G03 X-114.305 Y-.374 I-.987 J-1.808 F2000.
G02 X-115.108 Y.607 I.198 J.98
G01 X-14.58 F1200.
X-14.522 Y.606
G03 X-12.562 Y.829 I0.0 J8.717
X-10.503 Y1.588 I-1.959 J8.494 F1050.
X-8.699 Y2.836 I-4.018 J7.736 F900.
G02 X-8.48 Y2.212 I-.781 J-.624 F2000.
X-8.748 Y1.531 I-1. J0.0
G03 X-9.299 Y.129 I1.509 J-1.402
X-8.756 Y-1.264 I2.06 J0.0
G02 X-8.493 Y-1.941 I-.737 J-.676
X-8.709 Y-2.562 I-1. J0.0
G03 X-14.534 Y-.344 I-5.824 J-6.539 F1200.
G01 X-14.58 Y-.345
X-105.087
G03 X-107.887 Y-.801 I0.0 J-8.82
G01 X-108.153 Y-.89
G03 X-109.304 Y-1.399 I2.759 J-7.787
X-111.081 Y-2.685 I3.91 J-7.278 F1050.
X-111.942 Y-3.64 I5.687 J-5.993 F900.
X-112.422 Y-4.416 I6.867 J-4.776
G02 X-112.888 Y-3.57 I.533 J.846 F2000.
X-112.811 Y-3.185 I1. J0.0
G03 X-112.653 Y-2.393 I-1.901 J.792
X-113.726 Y-.585 I-2.06 J0.0
G01 X-115.033 Y-2.98
Z-2.6
G00 Z-2.4
G01 Z-2.8
Z-3.8 F800.
X-113.726 Y-.585
G03 X-114.306 Y-.374 I-.987 J-1.808 F2000.
G02 X-115.108 Y.607 I.198 J.98
G01 X-14.58 F1200.
X-14.521 Y.606
G03 X-12.563 Y.829 I0.0 J8.716
X-10.504 Y1.587 I-1.958 J8.493 F1050.
X-8.699 Y2.836 I-4.017 J7.735 F900.
G02 X-8.481 Y2.212 I-.781 J-.624 F2000.
X-8.748 Y1.531 I-1. J0.0
G03 X-9.299 Y.129 I1.509 J-1.402
X-8.756 Y-1.264 I2.06 J0.0
G02 X-8.493 Y-1.941 I-.737 J-.676
X-8.709 Y-2.562 I-1. J0.0
G03 X-14.533 Y-.344 I-5.824 J-6.539 F1200.
G01 X-14.58 Y-.345
X-105.088
G03 X-107.886 Y-.8 I0.0 J-8.818
G01 X-108.153 Y-.89
G03 X-109.304 Y-1.399 I2.758 J-7.787
X-111.081 Y-2.685 I3.909 J-7.277 F1050.
X-111.942 Y-3.64 I5.687 J-5.992 F900.
X-112.422 Y-4.416 I6.867 J-4.776
G02 X-112.888 Y-3.57 I.533 J.846 F2000.
X-112.811 Y-3.185 I1. J0.0
G03 X-112.653 Y-2.393 I-1.901 J.792
X-113.726 Y-.585 I-2.06 J0.0
G01 X-115.033 Y-2.98
Z-2.8
G00 Z-2.6
G01 Z-3.
Z-4. F800.
X-113.726 Y-.585
G03 X-114.306 Y-.374 I-.987 J-1.808 F2000.
G02 X-115.108 Y.607 I.198 J.98
G01 X-14.58 F1200.
X-14.52 Y.606
G03 X-12.563 Y.829 I0.0 J8.714
X-10.504 Y1.587 I-1.957 J8.492 F1050.
X-8.7 Y2.835 I-4.016 J7.734 F900.
G02 X-8.481 Y2.211 I-.781 J-.624 F2000.
X-8.748 Y1.531 I-1. J0.0
G03 X-9.299 Y.129 I1.509 J-1.402
X-8.756 Y-1.264 I2.06 J0.0
G02 X-8.493 Y-1.941 I-.737 J-.676
X-8.71 Y-2.562 I-1. J0.0
G03 X-14.533 Y-.344 I-5.824 J-6.538 F1200.
G01 X-14.58 Y-.345
X-105.088
G03 X-107.886 Y-.8 I0.0 J-8.816
G01 X-108.153 Y-.89
G03 X-109.304 Y-1.399 I2.758 J-7.786
X-111.081 Y-2.685 I3.909 J-7.276 F1050.
X-111.942 Y-3.64 I5.686 J-5.991 F900.
X-112.422 Y-4.416 I6.867 J-4.776
G02 X-112.888 Y-3.57 I.533 J.846 F2000.
X-112.811 Y-3.186 I1. J0.0
G03 X-112.653 Y-2.393 I-1.902 J.792
X-113.726 Y-.585 I-2.06 J0.0
G01 X-115.033 Y-2.98
Z-3.
G00 Z-2.8
G01 Z-3.2
Z-4.2 F800.
X-113.726 Y-.585
G03 X-114.306 Y-.374 I-.987 J-1.808 F2000.
G02 X-115.109 Y.607 I.197 J.98
G01 X-14.58 F1200.
X-14.524 Y.606
G03 X-12.56 Y.83 I0.0 J8.723
X-10.501 Y1.59 I-1.965 J8.499 F1050.
X-8.697 Y2.838 I-4.023 J7.74 F900.
G02 X-8.478 Y2.214 I-.781 J-.624 F2000.
X-8.746 Y1.533 I-1. J0.0
G03 X-9.299 Y.129 I1.508 J-1.404
X-8.756 Y-1.264 I2.06 J0.0
G02 X-8.493 Y-1.941 I-.737 J-.676
X-8.71 Y-2.562 I-1. J0.0
G03 X-14.533 Y-.344 I-5.823 J-6.538 F1200.
G01 X-14.58 Y-.345
X-105.088
G03 X-107.885 Y-.8 I0.0 J-8.814
G01 X-108.153 Y-.89
G03 X-109.304 Y-1.399 I2.758 J-7.786
X-111.081 Y-2.685 I3.909 J-7.277 F1050.
X-111.942 Y-3.64 I5.687 J-5.991 F900.
X-112.422 Y-4.416 I6.867 J-4.776
G02 X-112.888 Y-3.57 I.533 J.846 F2000.
X-112.811 Y-3.186 I1. J0.0
G03 X-112.653 Y-2.393 I-1.902 J.792
X-113.726 Y-.585 I-2.06 J0.0
G01 X-115.033 Y-2.98
Z-3.2
G00 Z-3.
X-115.027 Y-2.97
G01 Z-3.4
Z-4.4 F800.
X-113.726 Y-.585
G03 X-114.306 Y-.374 I-.987 J-1.808 F2000.
G02 X-115.109 Y.607 I.197 J.98
G01 X-14.58 F1200.
X-14.524 Y.606
G03 X-12.56 Y.83 I0.0 J8.722
X-10.502 Y1.589 I-1.963 J8.498 F1050.
X-8.697 Y2.838 I-4.022 J7.739 F900.
G02 X-8.479 Y2.214 I-.781 J-.624 F2000.
X-8.747 Y1.532 I-1. J0.0
G03 X-9.299 Y.129 I1.508 J-1.404
X-8.756 Y-1.264 I2.06 J0.0
G02 X-8.493 Y-1.94 I-.737 J-.676
X-8.71 Y-2.562 I-1. J0.0
G03 X-14.533 Y-.344 I-5.823 J-6.538 F1200.
G01 X-14.58 Y-.345
X-105.075
X-105.119 Y-.344
G03 X-109.283 Y-1.397 I0.0 J-8.761
X-111.068 Y-2.674 I4.164 J-7.708 F1050.
X-111.777 Y-3.411 I5.949 J-6.432 F900.
X-112.413 Y-4.4 I6.703 J-5.005
G02 X-112.881 Y-3.553 I.532 J.847 F2000.
X-112.807 Y-3.174 I1. J0.0
G03 X-112.653 Y-2.393 I-1.906 J.781
X-113.726 Y-.585 I-2.06 J0.0
G01 X-115.027 Y-2.97
Z-3.4
G00 Z-3.2
G01 X-115.028 Z-3.6
Z-4.6 F800.
X-113.726 Y-.585
G03 X-114.307 Y-.374 I-.987 J-1.808 F2000.
G02 X-115.109 Y.607 I.197 J.98
G01 X-14.58 F1200.
X-14.523 Y.606
G03 X-12.561 Y.83 I0.0 J8.72
X-10.502 Y1.589 I-1.962 J8.497 F1050.
X-8.698 Y2.837 I-4.021 J7.738 F900.
G02 X-8.479 Y2.213 I-.781 J-.624 F2000.
X-8.747 Y1.532 I-1. J0.0
G03 X-9.299 Y.129 I1.508 J-1.403
X-8.756 Y-1.264 I2.06 J0.0
G02 X-8.493 Y-1.94 I-.737 J-.676
X-8.71 Y-2.562 I-1. J0.0
G03 X-14.533 Y-.344 I-5.823 J-6.537 F1200.
G01 X-14.58 Y-.345
X-105.075
X-105.124 Y-.344
G03 X-109.284 Y-1.396 I0.0 J-8.75
X-111.069 Y-2.673 I4.16 J-7.698 F1050.
X-111.777 Y-3.411 I5.944 J-6.421 F900.
X-112.413 Y-4.4 I6.703 J-5.005
G02 X-112.881 Y-3.553 I.532 J.847 F2000.
X-112.807 Y-3.174 I1. J0.0
G03 X-112.653 Y-2.393 I-1.906 J.781
X-113.726 Y-.585 I-2.06 J0.0
G01 X-115.028 Y-2.97
Z-3.6
G00 Z-3.4
G01 Z-3.8
Z-4.8 F800.
X-113.726 Y-.585
G03 X-114.307 Y-.374 I-.987 J-1.808 F2000.
G02 X-115.11 Y.607 I.197 J.98
G01 X-14.58 F1200.
X-14.522 Y.606
G03 X-12.561 Y.83 I0.0 J8.719
X-10.502 Y1.588 I-1.961 J8.496 F1050.
X-8.698 Y2.837 I-4.02 J7.737 F900.
G02 X-8.479 Y2.213 I-.781 J-.624 F2000.
X-8.747 Y1.532 I-1. J0.0
G03 X-9.299 Y.129 I1.508 J-1.403
X-8.756 Y-1.264 I2.06 J0.0
G02 X-8.493 Y-1.94 I-.737 J-.676
X-8.71 Y-2.562 I-1. J0.0
G03 X-14.533 Y-.344 I-5.823 J-6.537 F1200.
G01 X-14.58 Y-.345
X-105.075
X-105.124 Y-.344
G03 X-109.284 Y-1.396 I0.0 J-8.75
X-111.069 Y-2.673 I4.16 J-7.698 F1050.
X-111.777 Y-3.411 I5.944 J-6.421 F900.
X-112.413 Y-4.4 I6.703 J-5.005
G02 X-112.881 Y-3.553 I.532 J.847 F2000.
X-112.807 Y-3.174 I1. J0.0
G03 X-112.653 Y-2.393 I-1.906 J.781
X-113.726 Y-.585 I-2.06 J0.0
G01 X-115.028 Y-2.97
Z-3.8
G00 Z-3.6
G01 Z-4.
Z-5. F800.
X-113.726 Y-.585
G03 X-114.307 Y-.374 I-.987 J-1.808 F2000.
G02 X-115.11 Y.607 I.197 J.98
G01 X-14.58 F1200.
X-14.522 Y.606
G03 X-12.562 Y.83 I0.0 J8.717
X-10.503 Y1.588 I-1.96 J8.494 F1050.
X-8.699 Y2.837 I-4.019 J7.736 F900.
G02 X-8.48 Y2.212 I-.781 J-.624 F2000.
X-8.747 Y1.531 I-1. J0.0
G03 X-9.299 Y.129 I1.509 J-1.403
X-8.756 Y-1.264 I2.06 J0.0
G02 X-8.493 Y-1.94 I-.737 J-.676
X-8.71 Y-2.562 I-1. J0.0
G03 X-14.532 Y-.344 I-5.823 J-6.537 F1200.
G01 X-14.58 Y-.345
X-105.075
X-105.125 Y-.344
G03 X-109.284 Y-1.396 I0.0 J-8.75
X-111.069 Y-2.673 I4.16 J-7.698 F1050.
X-111.777 Y-3.411 I5.944 J-6.421 F900.
X-112.413 Y-4.4 I6.703 J-5.005
G02 X-112.881 Y-3.553 I.532 J.847 F2000.
X-112.807 Y-3.174 I1. J0.0
G03 X-112.653 Y-2.393 I-1.906 J.781
X-113.726 Y-.585 I-2.06 J0.0
G01 X-115.028 Y-2.97
Z-4.
G00 Z-3.8
G01 Z-4.2
Z-5.2 F800.
X-113.726 Y-.585
G03 X-114.307 Y-.374 I-.987 J-1.808 F2000.
G02 X-115.111 Y.607 I.197 J.98
G01 X-14.58 F1200.
X-14.53 Y.606
G03 X-12.567 Y.829 I0.0 J8.75
X-10.508 Y1.586 I-1.963 J8.527 F1050.
X-8.701 Y2.831 I-4.022 J7.77 F900.
G02 X-8.483 Y2.208 I-.783 J-.622 F2000.
X-8.75 Y1.529 I-1. J0.0
G03 X-9.299 Y.129 I1.511 J-1.4
X-8.757 Y-1.264 I2.06 J0.0
G02 X-8.493 Y-1.94 I-.737 J-.676
X-8.71 Y-2.562 I-1. J0.0
G03 X-14.532 Y-.344 I-5.822 J-6.536 F1200.
G01 X-14.58 Y-.345
X-105.075
X-105.125 Y-.344
G03 X-109.284 Y-1.397 I0.0 J-8.749
X-111.069 Y-2.674 I4.16 J-7.697 F1050.
X-111.777 Y-3.411 I5.944 J-6.42 F900.
X-112.413 Y-4.4 I6.703 J-5.005
G02 X-112.881 Y-3.553 I.532 J.847 F2000.
X-112.807 Y-3.174 I1. J0.0
G03 X-112.653 Y-2.394 I-1.906 J.781
X-113.726 Y-.585 I-2.06 J0.0
G01 X-115.028 Y-2.97
Z-4.2
G00 Z-4.
G01 Z-4.4
Z-5.4 F800.
X-113.726 Y-.586
G03 X-114.308 Y-.374 I-.987 J-1.808 F2000.
G02 X-115.111 Y.607 I.197 J.98
G01 X-14.58 F1200.
X-14.53 Y.606
G03 X-12.567 Y.829 I0.0 J8.749
X-10.508 Y1.586 I-1.962 J8.526 F1050.
X-8.701 Y2.831 I-4.022 J7.77 F900.
G02 X-8.484 Y2.208 I-.783 J-.622 F2000.
X-8.75 Y1.529 I-1. J0.0
G03 X-9.299 Y.129 I1.511 J-1.4
X-8.757 Y-1.264 I2.06 J0.0
G02 X-8.493 Y-1.94 I-.737 J-.676
X-8.71 Y-2.561 I-1. J0.0
G03 X-14.532 Y-.344 I-5.822 J-6.536 F1200.
G01 X-14.58 Y-.345
X-105.075
X-105.125 Y-.344
G03 X-109.285 Y-1.397 I0.0 J-8.749
X-111.069 Y-2.674 I4.16 J-7.697 F1050.
X-111.777 Y-3.411 I5.944 J-6.42 F900.
X-112.413 Y-4.4 I6.703 J-5.005
G02 X-112.881 Y-3.553 I.532 J.847 F2000.
X-112.807 Y-3.174 I1. J0.0
G03 X-112.653 Y-2.394 I-1.906 J.781
X-113.726 Y-.586 I-2.06 J0.0
G01 X-115.028 Y-2.97
Z-4.4
G00 Z-4.2
G01 Z-4.6
Z-5.6 F800.
X-113.726 Y-.586
G03 X-114.308 Y-.374 I-.987 J-1.808 F2000.
G02 X-115.111 Y.607 I.197 J.98
G01 X-14.58 F1200.
X-14.53 Y.606
G03 X-12.567 Y.829 I0.0 J8.749
X-10.508 Y1.586 I-1.962 J8.526 F1050.
X-8.701 Y2.831 I-4.022 J7.77 F900.
G02 X-8.483 Y2.208 I-.783 J-.623 F2000.
X-8.75 Y1.529 I-1. J0.0
G03 X-9.299 Y.129 I1.511 J-1.4
X-8.757 Y-1.264 I2.06 J0.0
G02 X-8.494 Y-1.94 I-.737 J-.676
X-8.71 Y-2.561 I-1. J0.0
G03 X-14.531 Y-.344 I-5.821 J-6.535 F1200.
G01 X-14.58 Y-.345
X-105.075
X-105.125 Y-.344
G03 X-109.285 Y-1.397 I0.0 J-8.749
X-111.069 Y-2.674 I4.16 J-7.697 F1050.
X-111.777 Y-3.411 I5.944 J-6.42 F900.
X-112.413 Y-4.4 I6.703 J-5.005
G02 X-112.881 Y-3.553 I.532 J.847 F2000.
X-112.807 Y-3.174 I1. J0.0
G03 X-112.653 Y-2.394 I-1.906 J.781
X-113.726 Y-.586 I-2.06 J0.0
G01 X-115.028 Y-2.97
Z-4.6
G00 Z-4.4
G01 Z-4.8
Z-5.8 F800.
X-113.726 Y-.586
G03 X-114.308 Y-.374 I-.987 J-1.808 F2000.
G02 X-115.112 Y.607 I.197 J.98
G01 X-14.58 F1200.
X-14.529 Y.606
G03 X-12.567 Y.829 I0.0 J8.748
X-10.508 Y1.586 I-1.962 J8.526 F1050.
X-8.701 Y2.831 I-4.022 J7.769 F900.
G02 X-8.484 Y2.208 I-.783 J-.623 F2000.
X-8.75 Y1.529 I-1. J0.0
G03 X-9.299 Y.129 I1.511 J-1.4
X-8.757 Y-1.264 I2.06 J0.0
G02 X-8.494 Y-1.94 I-.737 J-.676
X-8.71 Y-2.561 I-1. J0.0
G03 X-14.531 Y-.344 I-5.821 J-6.535 F1200.
G01 X-14.58 Y-.345
X-105.075
X-105.125 Y-.344
G03 X-109.285 Y-1.397 I0.0 J-8.749
X-111.069 Y-2.674 I4.16 J-7.697 F1050.
X-111.777 Y-3.411 I5.944 J-6.419 F900.
X-112.413 Y-4.4 I6.703 J-5.005
G02 X-112.881 Y-3.553 I.532 J.847 F2000.
X-112.807 Y-3.174 I1. J0.0
G03 X-112.653 Y-2.394 I-1.906 J.781
X-113.726 Y-.586 I-2.06 J0.0
G01 X-115.028 Y-2.97
Z-4.8
G00 Z-4.6
G01 Z-5.
Z-6. F800.
X-113.726 Y-.586
G03 X-114.308 Y-.374 I-.987 J-1.808 F2000.
G02 X-115.112 Y.607 I.196 J.981
G01 X-14.58 F1200.
X-14.527 Y.606
G03 X-12.569 Y.828 I0.0 J8.743
X-10.509 Y1.584 I-1.957 J8.521 F1050.
X-8.702 Y2.829 I-4.017 J7.765 F900.
G02 X-8.485 Y2.206 I-.783 J-.622 F2000.
X-8.751 Y1.527 I-1. J0.0
G03 X-9.299 Y.129 I1.512 J-1.399
X-8.757 Y-1.264 I2.06 J0.0
G02 X-8.494 Y-1.94 I-.737 J-.676
X-8.71 Y-2.561 I-1. J0.0
G03 X-14.531 Y-.344 I-5.821 J-6.534 F1200.
G01 X-14.58 Y-.345
X-105.075
X-105.125 Y-.344
G03 X-109.285 Y-1.397 I0.0 J-8.748
X-111.069 Y-2.674 I4.159 J-7.696 F1050.
X-111.777 Y-3.411 I5.944 J-6.419 F900.
X-112.413 Y-4.4 I6.703 J-5.005
G02 X-112.881 Y-3.553 I.532 J.847 F2000.
X-112.807 Y-3.174 I1. J0.0
G03 X-112.653 Y-2.394 I-1.906 J.781
X-113.726 Y-.586 I-2.06 J0.0
G01 X-115.028 Y-2.97
Z-5.
G00 Z-4.8
G01 Z-5.2
Z-6.2 F800.
X-113.726 Y-.586
G03 X-114.309 Y-.374 I-.987 J-1.808 F2000.
G02 X-115.112 Y.607 I.196 J.981
G01 X-14.58 F1200.
X-14.531 Y.606
G03 X-12.566 Y.83 I0.0 J8.752
X-10.506 Y1.587 I-1.965 J8.529 F1050.
X-8.7 Y2.832 I-4.025 J7.772 F900.
G02 X-8.482 Y2.209 I-.783 J-.623 F2000.
X-8.749 Y1.529 I-1. J0.0
G03 X-9.299 Y.129 I1.511 J-1.401
X-8.757 Y-1.264 I2.06 J0.0
G02 X-8.494 Y-1.939 I-.737 J-.676
X-8.71 Y-2.561 I-1. J0.0
G03 X-14.531 Y-.344 I-5.82 J-6.534 F1200.
G01 X-14.58 Y-.345
X-105.075
X-105.125 Y-.344
G03 X-109.285 Y-1.397 I0.0 J-8.748
X-111.069 Y-2.674 I4.159 J-7.696 F1050.
X-111.777 Y-3.411 I5.944 J-6.419 F900.
X-112.413 Y-4.4 I6.703 J-5.005
G02 X-112.881 Y-3.553 I.532 J.847 F2000.
X-112.807 Y-3.174 I1. J0.0
G03 X-112.653 Y-2.394 I-1.906 J.781
X-113.726 Y-.586 I-2.06 J0.0
G01 X-115.028 Y-2.97
Z-5.2
G00 Z-5.
G01 Z-5.4
Z-6.4 F800.
X-113.726 Y-.586
G03 X-114.309 Y-.374 I-.987 J-1.808 F2000.
G02 X-115.113 Y.607 I.196 J.981
G01 X-14.58 F1200.
X-14.531 Y.606
G03 X-12.566 Y.83 I0.0 J8.751
X-10.507 Y1.586 I-1.964 J8.528 F1050.
X-8.7 Y2.832 I-4.024 J7.771 F900.
G02 X-8.483 Y2.209 I-.783 J-.623 F2000.
X-8.749 Y1.529 I-1. J0.0
G03 X-9.299 Y.129 I1.511 J-1.4
X-8.756 Y-1.264 I2.06 J0.0
G02 X-8.493 Y-1.94 I-.737 J-.676
X-8.71 Y-2.562 I-1. J0.0
G03 X-14.535 Y-.343 I-5.825 J-6.538 F1200.
X-14.681 Y-.345 I0.0 J-8.757
G01 X-105.075
X-105.125 Y-.344
G03 X-109.285 Y-1.397 I0.0 J-8.748
X-111.069 Y-2.674 I4.159 J-7.696 F1050.
X-111.777 Y-3.411 I5.944 J-6.419 F900.
X-112.413 Y-4.4 I6.703 J-5.005
G02 X-112.881 Y-3.553 I.532 J.847 F2000.
X-112.807 Y-3.175 I1. J0.0
G03 X-112.653 Y-2.394 I-1.906 J.781
X-113.726 Y-.586 I-2.06 J0.0
G01 X-115.028 Y-2.97
Z-5.4
G00 Z-5.2
G01 Z-5.6
Z-6.6 F800.
X-113.726 Y-.586
G03 X-114.309 Y-.374 I-.987 J-1.808 F2000.
G02 X-115.113 Y.607 I.196 J.981
G01 X-14.58 F1200.
X-14.53 Y.606
G03 X-12.567 Y.83 I0.0 J8.75
X-10.507 Y1.586 I-1.963 J8.527 F1050.
X-8.7 Y2.831 I-4.023 J7.77 F900.
G02 X-8.483 Y2.209 I-.783 J-.623 F2000.
X-8.749 Y1.529 I-1. J0.0
G03 X-9.299 Y.129 I1.511 J-1.4
X-8.757 Y-1.264 I2.06 J0.0
G02 X-8.493 Y-1.94 I-.737 J-.676
X-8.71 Y-2.561 I-1. J0.0
G03 X-14.534 Y-.343 I-5.824 J-6.538 F1200.
X-14.681 Y-.345 I0.0 J-8.756
G01 X-105.075
X-105.126 Y-.344
G03 X-109.285 Y-1.397 I0.0 J-8.748
X-111.069 Y-2.674 I4.159 J-7.695 F1050.
X-111.777 Y-3.411 I5.944 J-6.418 F900.
X-112.413 Y-4.4 I6.703 J-5.005
G02 X-112.881 Y-3.553 I.532 J.847 F2000.
X-112.807 Y-3.175 I1. J0.0
G03 X-112.653 Y-2.394 I-1.906 J.781
X-113.726 Y-.586 I-2.06 J0.0
G01 X-115.028 Y-2.97
Z-5.6
G00 Z-5.4
G01 Z-5.8
Z-6.8 F800.
X-113.726 Y-.586
G03 X-114.309 Y-.374 I-.987 J-1.808 F2000.
G02 X-115.113 Y.607 I.196 J.981
G01 X-14.58 F1200.
X-14.526 Y.606
G03 X-12.57 Y.828 I0.0 J8.741
X-10.51 Y1.584 I-1.956 J8.519 F1050.
X-8.703 Y2.829 I-4.016 J7.764 F900.
G02 X-8.485 Y2.206 I-.783 J-.622 F2000.
X-8.751 Y1.527 I-1. J0.0
G03 X-9.299 Y.129 I1.513 J-1.398
X-8.757 Y-1.264 I2.06 J0.0
G02 X-8.493 Y-1.94 I-.737 J-.676
X-8.71 Y-2.561 I-1. J0.0
G03 X-14.534 Y-.343 I-5.824 J-6.538 F1200.
X-14.681 Y-.345 I0.0 J-8.755
G01 X-105.075
X-105.126 Y-.344
G03 X-109.285 Y-1.397 I0.0 J-8.747
X-111.069 Y-2.674 I4.159 J-7.695 F1050.
X-111.777 Y-3.411 I5.943 J-6.418 F900.
X-112.413 Y-4.401 I6.703 J-5.005
G02 X-112.881 Y-3.554 I.532 J.847 F2000.
X-112.807 Y-3.175 I1. J0.0
G03 X-112.653 Y-2.394 I-1.906 J.781
X-113.726 Y-.586 I-2.06 J0.0
G01 X-115.028 Y-2.97
Z-5.8
G00 Z-5.6
G01 Z-6.
Z-7. F800.
X-113.726 Y-.586
G03 X-114.31 Y-.374 I-.987 J-1.808 F2000.
G02 X-115.114 Y.607 I.196 J.981
G01 X-14.58 F1200.
X-14.525 Y.606
G03 X-12.57 Y.828 I0.0 J8.739
X-10.51 Y1.583 I-1.955 J8.518 F1050.
X-8.703 Y2.828 I-4.015 J7.762 F900.
G02 X-8.486 Y2.206 I-.783 J-.622 F2000.
X-8.751 Y1.527 I-1. J0.0
G03 X-9.299 Y.129 I1.513 J-1.398
X-8.757 Y-1.264 I2.06 J0.0
G02 X-8.494 Y-1.94 I-.737 J-.676
X-8.71 Y-2.561 I-1. J0.0
G03 X-14.534 Y-.343 I-5.824 J-6.537 F1200.
X-14.681 Y-.345 I0.0 J-8.755
G01 X-105.075
X-105.126 Y-.344
G03 X-109.285 Y-1.397 I0.0 J-8.747
X-111.069 Y-2.674 I4.159 J-7.695 F1050.
X-111.777 Y-3.411 I5.943 J-6.417 F900.
X-112.413 Y-4.401 I6.703 J-5.005
G02 X-112.882 Y-3.554 I.532 J.847 F2000.
X-112.807 Y-3.175 I1. J0.0
G03 X-112.653 Y-2.394 I-1.906 J.781
X-113.726 Y-.586 I-2.06 J0.0
G01 X-115.028 Y-2.97
Z-6.
G00 Z-5.8
G01 Z-6.2
Z-7.2 F800.
X-113.726 Y-.586
G03 X-114.31 Y-.374 I-.987 J-1.808 F2000.
G02 X-115.114 Y.607 I.196 J.981
G01 X-14.58 F1200.
X-14.529 Y.606
G03 X-12.567 Y.829 I0.0 J8.749
X-10.507 Y1.586 I-1.963 J8.526 F1050.
X-8.701 Y2.831 I-4.022 J7.769 F900.
G02 X-8.483 Y2.208 I-.783 J-.623 F2000.
X-8.75 Y1.529 I-1. J0.0
G03 X-9.299 Y.129 I1.511 J-1.4
X-8.757 Y-1.264 I2.06 J0.0
G02 X-8.494 Y-1.94 I-.737 J-.676
X-8.71 Y-2.561 I-1. J0.0
G03 X-14.533 Y-.343 I-5.823 J-6.537 F1200.
X-14.681 Y-.345 I0.0 J-8.754
G01 X-105.075
X-105.126 Y-.344
G03 X-109.285 Y-1.397 I0.0 J-8.746
X-111.069 Y-2.674 I4.159 J-7.694 F1050.
X-111.777 Y-3.411 I5.943 J-6.417 F900.
X-112.413 Y-4.401 I6.703 J-5.005
G02 X-112.882 Y-3.554 I.532 J.847 F2000.
X-112.807 Y-3.175 I1. J0.0
G03 X-112.653 Y-2.394 I-1.906 J.781
X-113.726 Y-.586 I-2.06 J0.0
G01 X-115.028 Y-2.97
Z-6.2
G00 Z-6.
G01 Z-6.4
Z-7.4 F800.
X-113.726 Y-.586
G03 X-114.31 Y-.374 I-.987 J-1.808 F2000.
G02 X-115.114 Y.607 I.196 J.981
G01 X-14.58 F1200.
X-14.529 Y.606
G03 X-12.567 Y.829 I0.0 J8.747
X-10.508 Y1.585 I-1.961 J8.524 F1050.
X-8.701 Y2.831 I-4.021 J7.768 F900.
G02 X-8.483 Y2.208 I-.783 J-.623 F2000.
X-8.75 Y1.529 I-1. J0.0
G03 X-9.298 Y.129 I1.511 J-1.4
X-8.755 Y-1.266 I2.06 J0.0
G02 X-8.491 Y-1.943 I-.736 J-.677
X-8.708 Y-2.564 I-1. J0.0
G03 X-14.538 Y-.343 I-5.83 J-6.543 F1200.
X-14.681 Y-.345 I0.0 J-8.764
G01 X-105.075
X-105.126 Y-.344
G03 X-109.285 Y-1.397 I0.0 J-8.746
X-111.069 Y-2.674 I4.159 J-7.694 F1050.
X-111.777 Y-3.411 I5.943 J-6.416 F900.
X-112.413 Y-4.401 I6.703 J-5.005
G02 X-112.882 Y-3.554 I.532 J.847 F2000.
X-112.807 Y-3.175 I1. J0.0
G03 X-112.653 Y-2.394 I-1.906 J.781
X-113.726 Y-.586 I-2.06 J0.0
G01 X-115.028 Y-2.97
Z-6.4
G00 Z-6.2
G01 Z-6.6
Z-7.6 F800.
X-113.726 Y-.586
G03 X-114.31 Y-.374 I-.987 J-1.808 F2000.
G02 X-115.115 Y.607 I.196 J.981
G01 X-14.58 F1200.
X-14.528 Y.606
G03 X-12.568 Y.829 I0.0 J8.746
X-10.508 Y1.585 I-1.96 J8.523 F1050.
X-8.701 Y2.83 I-4.02 J7.767 F900.
G02 X-8.484 Y2.208 I-.783 J-.623 F2000.
X-8.75 Y1.528 I-1. J0.0
G03 X-9.298 Y.129 I1.512 J-1.4
X-8.755 Y-1.266 I2.06 J0.0
G02 X-8.491 Y-1.942 I-.736 J-.677
X-8.708 Y-2.564 I-1. J0.0
G03 X-14.538 Y-.343 I-5.83 J-6.543 F1200.
X-14.681 Y-.345 I0.0 J-8.764
G01 X-105.075
X-105.127 Y-.344
G03 X-109.285 Y-1.396 I0.0 J-8.745
X-111.069 Y-2.674 I4.159 J-7.693 F1050.
X-111.777 Y-3.411 I5.943 J-6.416 F900.
X-112.413 Y-4.401 I6.703 J-5.005
G02 X-112.882 Y-3.554 I.532 J.847 F2000.
X-112.807 Y-3.175 I1. J0.0
G03 X-112.653 Y-2.394 I-1.906 J.781
X-113.726 Y-.586 I-2.06 J0.0
G01 X-115.028 Y-2.97
Z-6.6
G00 Z-6.4
G01 Z-6.8
Z-7.8 F800.
X-113.726 Y-.586
G03 X-114.311 Y-.374 I-.987 J-1.808 F2000.
G02 X-115.115 Y.607 I.196 J.981
G01 X-14.58 F1200.
X-14.527 Y.606
G03 X-12.568 Y.829 I0.0 J8.744
X-10.508 Y1.585 I-1.959 J8.522 F1050.
X-8.702 Y2.83 I-4.019 J7.766 F900.
G02 X-8.484 Y2.207 I-.783 J-.623 F2000.
X-8.75 Y1.528 I-1. J0.0
G03 X-9.298 Y.129 I1.512 J-1.399
X-8.755 Y-1.265 I2.06 J0.0
G02 X-8.491 Y-1.942 I-.736 J-.677
X-8.708 Y-2.564 I-1. J0.0
G03 X-14.537 Y-.343 I-5.83 J-6.542 F1200.
X-14.681 Y-.345 I0.0 J-8.763
G01 X-105.075
X-105.127 Y-.344
G03 X-109.285 Y-1.396 I0.0 J-8.745
X-111.069 Y-2.674 I4.158 J-7.693 F1050.
X-111.777 Y-3.411 I5.943 J-6.415 F900.
X-112.413 Y-4.401 I6.703 J-5.005
G02 X-112.882 Y-3.554 I.532 J.847 F2000.
X-112.807 Y-3.175 I1. J0.0
G03 X-112.654 Y-2.394 I-1.906 J.781
X-113.726 Y-.586 I-2.06 J0.0
G01 X-115.028 Y-2.97
Z-6.8
G00 Z-6.6
G01 Z-7.
Z-8. F800.
X-113.726 Y-.586
G03 X-114.311 Y-.374 I-.987 J-1.808 F2000.
G02 X-115.116 Y.607 I.195 J.981
G01 X-14.58 F1200.
X-14.527 Y.606
G03 X-12.569 Y.829 I0.0 J8.743
X-10.509 Y1.584 I-1.958 J8.521 F1050.
X-8.702 Y2.829 I-4.018 J7.765 F900.
G02 X-8.485 Y2.207 I-.783 J-.623 F2000.
X-8.751 Y1.528 I-1. J0.0
G03 X-9.298 Y.129 I1.512 J-1.399
X-8.755 Y-1.265 I2.06 J0.0
G02 X-8.491 Y-1.942 I-.736 J-.677
X-8.708 Y-2.564 I-1. J0.0
G03 X-14.537 Y-.343 I-5.829 J-6.542 F1200.
X-14.681 Y-.345 I0.0 J-8.762
G01 X-105.075
X-105.122 Y-.344
G03 X-109.285 Y-1.397 I0.0 J-8.755
X-111.069 Y-2.674 I4.163 J-7.702 F1050.
X-111.777 Y-3.411 I5.947 J-6.425 F900.
X-112.413 Y-4.401 I6.703 J-5.005
G02 X-112.882 Y-3.554 I.532 J.847 F2000.
X-112.807 Y-3.175 I1. J0.0
G03 X-112.654 Y-2.394 I-1.906 J.78
X-113.726 Y-.586 I-2.06 J0.0
G01 X-115.028 Y-2.97
Z-7.
G00 Z-6.8
G01 Y-2.971 Z-7.2
Z-8.2 F800.
X-113.726 Y-.586
G03 X-114.311 Y-.374 I-.987 J-1.808 F2000.
G02 X-115.116 Y.607 I.195 J.981
G01 X-14.58 F1200.
X-14.526 Y.606
G03 X-12.569 Y.828 I0.0 J8.741
X-10.509 Y1.584 I-1.957 J8.519 F1050.
X-8.702 Y2.829 I-4.017 J7.764 F900.
G02 X-8.485 Y2.206 I-.783 J-.622 F2000.
X-8.751 Y1.527 I-1. J0.0
G03 X-9.298 Y.129 I1.512 J-1.399
X-8.755 Y-1.265 I2.06 J0.0
G02 X-8.491 Y-1.942 I-.736 J-.677
X-8.708 Y-2.563 I-1. J0.0
G03 X-14.537 Y-.343 I-5.829 J-6.542 F1200.
X-14.681 Y-.345 I0.0 J-8.762
G01 X-105.075
X-105.122 Y-.344
G03 X-109.285 Y-1.397 I0.0 J-8.754
X-111.069 Y-2.674 I4.162 J-7.702 F1050.
X-111.777 Y-3.411 I5.947 J-6.425 F900.
X-112.413 Y-4.401 I6.703 J-5.005
G02 X-112.882 Y-3.554 I.532 J.847 F2000.
X-112.807 Y-3.175 I1. J0.0
G03 X-112.654 Y-2.394 I-1.906 J.78
X-113.726 Y-.586 I-2.06 J0.0
G01 X-115.028 Y-2.971
Z-7.2
G00 Z-7.
G01 Z-7.4
Z-8.4 F800.
X-113.726 Y-.586
G03 X-114.311 Y-.374 I-.987 J-1.808 F2000.
G02 X-115.116 Y.607 I.195 J.981
G01 X-14.58 F1200.
X-14.525 Y.606
G03 X-12.569 Y.828 I0.0 J8.74
X-10.509 Y1.584 I-1.956 J8.518 F1050.
X-8.703 Y2.829 I-4.016 J7.762 F900.
G02 X-8.485 Y2.206 I-.783 J-.622 F2000.
X-8.751 Y1.527 I-1. J0.0
G03 X-9.298 Y.129 I1.513 J-1.398
X-8.755 Y-1.265 I2.06 J0.0
G02 X-8.492 Y-1.942 I-.736 J-.677
X-8.708 Y-2.563 I-1. J0.0
G03 X-14.537 Y-.343 I-5.828 J-6.541 F1200.
X-14.681 Y-.345 I0.0 J-8.761
G01 X-105.075
X-105.123 Y-.344
G03 X-109.285 Y-1.397 I0.0 J-8.754
X-111.069 Y-2.674 I4.162 J-7.701 F1050.
X-111.777 Y-3.411 I5.947 J-6.424 F900.
X-112.413 Y-4.401 I6.703 J-5.005
G02 X-112.882 Y-3.554 I.532 J.847 F2000.
X-112.807 Y-3.175 I1. J0.0
G03 X-112.654 Y-2.395 I-1.906 J.78
X-113.726 Y-.586 I-2.06 J0.0
G01 X-115.028 Y-2.971
Z-7.4
G00 Z-7.2
G01 Z-7.6
Z-8.6 F800.
X-113.726 Y-.587
G03 X-114.312 Y-.374 I-.987 J-1.808 F2000.
G02 X-115.117 Y.607 I.195 J.981
G01 X-14.58 F1200.
X-14.525 Y.606
G03 X-12.57 Y.828 I0.0 J8.738
X-10.51 Y1.583 I-1.955 J8.517 F1050.
X-8.703 Y2.828 I-4.015 J7.761 F900.
G02 X-8.486 Y2.206 I-.783 J-.622 F2000.
X-8.751 Y1.527 I-1. J0.0
G03 X-9.298 Y.129 I1.513 J-1.398
X-8.755 Y-1.265 I2.06 J0.0
G02 X-8.492 Y-1.942 I-.736 J-.677
X-8.708 Y-2.563 I-1. J0.0
G03 X-14.536 Y-.343 I-5.828 J-6.541 F1200.
X-14.681 Y-.345 I0.0 J-8.76
G01 X-105.075
X-105.123 Y-.344
G03 X-109.285 Y-1.397 I0.0 J-8.753
X-111.069 Y-2.674 I4.162 J-7.701 F1050.
X-111.777 Y-3.411 I5.946 J-6.424 F900.
X-112.413 Y-4.401 I6.703 J-5.005
G02 X-112.882 Y-3.554 I.532 J.847 F2000.
X-112.807 Y-3.175 I1. J0.0
G03 X-112.654 Y-2.395 I-1.906 J.78
X-113.726 Y-.587 I-2.06 J0.0
G01 X-115.028 Y-2.971
Z-7.6
G00 Z-7.4
G01 Z-7.8
Z-8.8 F800.
X-113.727 Y-.587
G03 X-114.312 Y-.374 I-.987 J-1.808 F2000.
G02 X-115.117 Y.607 I.195 J.981
G01 X-14.58 F1200.
X-14.524 Y.606
G03 X-12.57 Y.828 I0.0 J8.737
X-10.51 Y1.583 I-1.954 J8.515 F1050.
X-8.703 Y2.828 I-4.014 J7.76 F900.
G02 X-8.486 Y2.205 I-.783 J-.622 F2000.
X-8.751 Y1.527 I-1. J0.0
G03 X-9.298 Y.129 I1.513 J-1.398
X-8.755 Y-1.265 I2.06 J0.0
G02 X-8.492 Y-1.941 I-.736 J-.677
X-8.708 Y-2.563 I-1. J0.0
G03 X-14.536 Y-.343 I-5.828 J-6.54 F1200.
X-14.681 Y-.345 I0.0 J-8.76
G01 X-105.075
X-105.123 Y-.344
G03 X-109.285 Y-1.397 I0.0 J-8.753
X-111.069 Y-2.674 I4.162 J-7.7 F1050.
X-111.777 Y-3.411 I5.946 J-6.423 F900.
X-112.413 Y-4.401 I6.703 J-5.005
G02 X-112.882 Y-3.554 I.532 J.847 F2000.
X-112.807 Y-3.175 I1. J0.0
G03 X-112.654 Y-2.395 I-1.906 J.78
X-113.727 Y-.587 I-2.06 J0.0
G01 X-115.028 Y-2.971
Z-7.8
G00 Z15.
M09
M05
G91 G28 Z0.0
G28 Y0.0
M30
%
(TOTAL Machine Time: 16.3 min)
