%
G40 G17 G49 G54 G80
G91 G28 Z0.0
( NAME: HZK-PC )
( PART: H:\CNC-File\2019-1\永盛杰\LF-面环\LF-后模仁-改-190316-电极.prt )
( DATE: Sat Mar 16 15:59:50 2019 )
( D10 ---> D=10.00 R=0.00 )
S9000 M03
G00 G90 X-17.102 Y-4.5
Z14.6
G17 G01 Z-17.271 F800.
Z-18.271 F320.
X-15.631
G40 G03 X-10.631 Y.5 I0.0 J5.
G01 Y4.675 F800.
G02 X-4.581 Y10.725 I6.05 J0.0
G01 X4.581
G02 X10.631 Y4.675 I0.0 J-6.05
G01 Y-4.675
G02 X4.581 Y-10.725 I-6.05 J0.0
G01 X-3.581
G02 X-7.152 Y-9.246 I0.0 J5.05
G01 X-9.152 Y-7.246
G02 X-10.631 Y-3.675 I3.571 J3.571
G01 Y.5
Y3.5
G03 X-15.631 Y8.5 I-5. J0.0
G01 X-15.581 Y-4.5
G03 X-10.581 Y.5 I0.0 J5. F320.
G01 Y4.675 F800.
G02 X-4.581 Y10.675 I6. J0.0
G01 X4.581
G02 X10.581 Y4.675 I0.0 J-6.
G01 Y-4.675
G02 X4.581 Y-10.675 I-6. J0.0
G01 X-3.581
G02 X-7.117 Y-9.21 I0.0 J5.
G01 X-9.117 Y-7.21
G02 X-10.581 Y-3.675 I3.536 J3.536
G01 Y.5
Y3.5
G03 X-15.581 Y8.5 I-5. J0.0
G01 X-16.534
Z-17.271
G00 Z14.6
M09
M05
G91 G28 Z0.0
G28 Y0.0
M30
%
(TOTAL Machine Time: 0.5 min)
