%
G40 G17 G49 G54 G80
G91 G28 Z0.0
( NAME: Administrator )
( PART: H:\CNC-File\2018-10\²ÓÀ¤\C266\C266-U\C266-Ç°Ä£¿ò-U.prt )
( DATE: Fri Oct 26 07:19:47 2018 )
( E50R5 ---> D=50.00 R=5.00 )
S2000 M03
G00 G90 X-288.799 Y300.799
Z17.
G17 G01 Z-4.95 F300.
Z-7.95 F240.
X-274.303 Y286.303
X-253.107 Y307.5 F600.
X-227.
Y242. F360.
G40 G02 X-230. Y239. I-3. J0.0
G01 X-307.5
Y253.107 F600.
X-274.303 Y286.303
X-260.161 Y272.161
X-247. Y285.322
Y259.
X-273.322
X-260.161 Y272.161
X-262.282 Y274.282
Z-4.95
G00 Z-4.9
X-288.799 Y300.799
G01 Z-5. F300.
Z-8. F240.
X-274.303 Y286.303
X-253.107 Y307.5 F600.
X-227.
Y242. F360.
G02 X-230. Y239. I-3. J0.0
G01 X-307.5
Y253.107 F600.
X-274.303 Y286.303
X-260.161 Y272.161
X-247. Y285.322
Y259.
X-273.322
X-260.161 Y272.161
X-262.282 Y274.282
Z-5.
G00 Z17.
X288.799 Y300.799
G01 Z-4.95 F300.
Z-7.95 F240.
X274.303 Y286.303
X307.5 Y253.107 F600.
Y239.
X230. F360.
G02 X227. Y242. I0.0 J3.
G01 Y307.5
X253.107 F600.
X274.303 Y286.303
X260.161 Y272.161
X273.322 Y259.
X247.
Y285.322
X260.161 Y272.161
X262.282 Y274.282
Z-4.95
G00 Z-4.9
X288.799 Y300.799
G01 Z-5. F300.
Z-8. F240.
X274.303 Y286.303
X307.5 Y253.107 F600.
Y239.
X230. F360.
G02 X227. Y242. I0.0 J3.
G01 Y307.5
X253.107 F600.
X274.303 Y286.303
X260.161 Y272.161
X273.322 Y259.
X247.
Y285.322
X260.161 Y272.161
X262.282 Y274.282
Z-5.
G00 Z17.
M09
M05
G91 G28 Z0.0
G28 Y0.0
M30
%
(TOTAL Machine Time: 4.0 min)
