%
G40 G17 G49 G54 G80
G91 G28 Z0.0
( NAME: Administrator )
( PART: H:\CNC-File\2018-8\²ÓÀ¤\2126\2126-BWDOWN\2126-B-µç¼«-±à³Ì.prt )
( DATE: Mon Aug 20 19:56:10 2018 )
( D10 ---> D=10.00 R=0.00 )
S9000 M03
G00 G90 X-25.08 Y-3.5
Z14.6
G17 G01 Z-22.555 F800.
Z-23.555 F320.
X-23.58
G40 G03 X-18.58 Y1.5 I0.0 J5.
G01 Y12.5 F800.
G02 X-12.5 Y18.58 I6.08 J0.0
G01 X12.5
G02 X18.58 Y12.5 I0.0 J-6.08
G01 Y-12.5
G02 X12.5 Y-18.58 I-6.08 J0.0
G01 X-9.5
G02 X-13.092 Y-17.092 I0.0 J5.08
G01 X-17.092 Y-13.092
G02 X-18.58 Y-9.5 I3.592 J3.592
G01 Y1.5
Y4.5
G03 X-23.58 Y9.5 I-5. J0.0
G01 X-23.54 Y-3.5
G03 X-18.54 Y1.5 I0.0 J5. F320.
G01 Y12.5 F800.
G02 X-12.5 Y18.54 I6.04 J0.0
G01 X12.5
G02 X18.54 Y12.5 I0.0 J-6.04
G01 Y-12.5
G02 X12.5 Y-18.54 I-6.04 J0.0
G01 X-9.5
G02 X-13.064 Y-17.064 I0.0 J5.04
G01 X-17.064 Y-13.064
G02 X-18.54 Y-9.5 I3.564 J3.564
G01 Y1.5
Y4.5
G03 X-23.54 Y9.5 I-5. J0.0
G01 X-23.5 Y-3.5
G03 X-18.5 Y1.5 I0.0 J5. F320.
G01 Y12.5 F800.
G02 X-12.5 Y18.5 I6. J0.0
G01 X12.5
G02 X18.5 Y12.5 I0.0 J-6.
G01 Y-12.5
G02 X12.5 Y-18.5 I-6. J0.0
G01 X-9.5
G02 X-13.036 Y-17.036 I0.0 J5.
G01 X-17.036 Y-13.036
G02 X-18.5 Y-9.5 I3.536 J3.536
G01 Y1.5
Y4.5
G03 X-23.5 Y9.5 I-5. J0.0
G01 X-25.04
Z-22.555
G00 Z14.6
M09
M05
G91 G28 Z0.0
G28 Y0.0
M30
%
(TOTAL Machine Time: 0.9 min)
