%
G40 G17 G49 G54 G80
G91 G28 Z0.0
( NAME: Capful-PC )
( PART: H:\CNC-File\2018-9\ÐË¶¦½Ü\F380-×ê¿×ÂÁ°å-18.9.06\F380-×ê¿×ÂÁ°å-18.9.06.prt )
( DATE: Thu Sep  6 22:48:15 2018 )
( Z6 ---> D=6.00 R=0.00 )
S1000 M03
G00 G90 X60.749 Y15.
Z3.3
G17 G01 Z-13.2 F120.
G00 Z3.3
X84.749
G01 Z-13.2
G00 Z3.3
Y-15.
G01 Z-13.2
G00 Z3.3
X60.749
G01 Z-13.2
G00 Z3.3
X-17.384 Y-60.11
G01 Z-13.2
G00 Z3.3
X-29.384 Y-80.894
G01 Z-13.2
G00 Z3.3
X-55.365 Y-65.894
G01 Z-13.2
G00 Z3.3
X-43.365 Y-45.11
G01 Z-13.2
G00 Z3.3
Y45.11
G01 Z-13.2
G00 Z3.3
X-55.365 Y65.894
G01 Z-13.2
G00 Z3.3
X-29.384 Y80.894
G01 Z-13.2
G00 Z3.3
X-17.384 Y60.11
G01 Z-13.2
G00 Z3.3
M09
M05
G91 G28 Z0.0
G28 Y0.0
M30
%
(TOTAL Machine Time: 1.9 min)
