%
G40 G17 G49 G54 G80
G91 G28 Z0.0
( NAME: Administrator )
( PART: H:\CNC-File\2019-1\ÓÀÊ¢½Ü\9ASA\9ASA-µç¼«-±à³Ì.prt )
( DATE: Tue Feb 26 13:36:52 2019 )
( D10 ---> D=10.00 R=0.00 )
S9000 M03
G00 G90 X-20.55 Y-6.85
Z14.6
G17 G01 Z-18.4 F800.
Z-19.4 F320.
X-19.05
G40 G03 X-14.05 Y-1.85 I0.0 J5.
G01 Y3.57 F800.
G02 X-12.571 Y7.14 I5.05 J0.0
G01 X-8.571 Y11.14
G02 X-5. Y12.62 I3.571 J-3.571
G01 X8.
G02 X14.05 Y6.57 I0.0 J-6.05
G01 Y.692
G02 X10.775 Y-4.981 I-6.55 J0.0
G01 X-1.284 Y-11.943
G02 X-3.809 Y-12.62 I-2.525 J4.373
G01 X-8.7
G02 X-14.05 Y-7.27 I0.0 J5.35
G01 Y-1.85
Y1.15
G03 X-19.05 Y6.15 I-5. J0.0
G01 X-19. Y-6.85
G03 X-14. Y-1.85 I0.0 J5. F320.
G01 Y3.57 F800.
G02 X-12.536 Y7.105 I5. J0.0
G01 X-8.536 Y11.105
G02 X-5. Y12.57 I3.536 J-3.536
G01 X8.
G02 X14. Y6.57 I0.0 J-6.
G01 Y.692
G02 X10.75 Y-4.937 I-6.5 J0.0
G01 X-1.309 Y-11.9
G02 X-3.809 Y-12.57 I-2.5 J4.33
G01 X-8.7
G02 X-14. Y-7.27 I0.0 J5.3
G01 Y-1.85
Y1.15
G03 X-19. Y6.15 I-5. J0.0
G01 X-20.258
Z-18.4
G00 Z14.6
M09
M05
G91 G28 Z0.0
G28 Y0.0
M30
%
(TOTAL Machine Time: 0.6 min)
