%
G40 G17 G49 G54 G80
G91 G28 Z0.0
( NAME: Administrator )
( PART: H:\CNC-File\2018-7\灌星\95004-后模仁-电极\E01.prt )
( DATE: Tue Jul 17 13:27:37 2018 )
( D10 ---> D=10.00 R=0.00 )
S7000 M03
G00 G90 X14.5 Y-20.55
Z14.5
G17 G01 Z-37.555 F800.
Z-38.555 F320.
Y-19.05
G40 G03 X9.5 Y-14.05 I-5. J0.0
G01 X-28. F800.
G02 X-34.05 Y-8. I0.0 J6.05
G01 Y8.
G02 X-28. Y14.05 I6.05 J0.0
G01 X28.
G02 X34.05 Y8. I0.0 J-6.05
G01 Y-5.
G02 X32.571 Y-8.571 I-5.05 J0.0
G01 X28.571 Y-12.571
G02 X25. Y-14.05 I-3.571 J3.571
G01 X9.5
X6.5
G03 X1.5 Y-19.05 I0.0 J-5.
G01 X14.5 Y-19.
G03 X9.5 Y-14. I-5. J0.0 F320.
G01 X-28. F800.
G02 X-34. Y-8. I0.0 J6.
G01 Y8.
G02 X-28. Y14. I6. J0.0
G01 X28.
G02 X34. Y8. I0.0 J-6.
G01 Y-5.
G02 X32.536 Y-8.536 I-5. J0.0
G01 X28.536 Y-12.536
G02 X25. Y-14. I-3.536 J3.536
G01 X9.5
X6.5
G03 X1.5 Y-19. I0.0 J-5.
G01 Y-20.55
Z-37.555
G00 Z14.5
M09
M05
G91 G28 Z0.0
G28 Y0.0
M30
%
(TOTAL Machine Time: 0.8 min)
