%
G40 G17 G49 G54 G80
G91 G28 Z0.0
( NAME: Administrator )
( PART: H:\CNC-File\2018-10\²ÓÀ¤\2488\2488-»¬¿é-¸Ä.prt )
( DATE: Fri Nov  2 10:26:39 2018 )
( D6 ---> D=6.00 R=0.00 )
S2500 M03
G00 G90 X-.661 Y-16.821
Z10.
G17 G01 Z-5. F1000.
Z-8. F800.
X-3.
G40 G03 X0.0 Y-19.821 I3. J0.0 F400.
G01 X1.654 F1500.
X3.307 F1000.
G03 X4. Y-17.571 I-3.307 J2.25 F571.
X3.897 Y-16.668 I-4. J0.0
X0.0 Y-13.571 I-3.897 J-.903 F1143.
X-1.981 Y-14.096 I0.0 J-4.
X-3.897 Y-16.668 I1.981 J-3.475 F857.
X-4. Y-17.571 I3.897 J-.903 F571.
X-3.307 Y-19.821 I4. J0.0
G01 X0.0 F1000.
Y-18.821 F2000.
Z-5.
G00 Z10.
X18.089 Y-17.488
G01 Z-5. F1000.
Z-8. F800.
X20.596 Y-17.071
G03 X17.596 Y-14.071 I-3. J0.0 F400.
X14.096 Y-17.571 I0.0 J-3.5 F1077.
X17.596 Y-21.071 I3.5 J0.0
X21.096 Y-17.571 I0.0 J3.5
X17.596 Y-14.071 I-3.5 J0.0
G01 Y-15.071 F2000.
Z-5.
G00 Z10.
X-17.103 Y-17.488
G01 Z-5. F1000.
Z-8. F800.
X-14.596 Y-17.071
G03 X-17.596 Y-14.071 I-3. J0.0 F400.
G01 X-17.601 F2000.
G03 X-21.096 Y-17.571 I.005 J-3.5 F1077.
X-17.596 Y-21.071 I3.5 J0.0
X-14.096 Y-17.571 I0.0 J3.5
X-17.596 Y-14.071 I-3.5 J0.0
G01 Y-15.071 F2000.
Z-5.
G00 Z10.
X0.0 Y-29.336
G01 Z-4.8 F1000.
Z-5. F800.
G03 X-2. Y-31.336 I0.0 J-2.
X0.0 Y-33.336 I2. J0.0
X2. Y-31.336 I0.0 J2.
X0.0 Y-29.336 I-2. J0.0
G01 Y-30.336 F2000.
Z-2.
G00 Z10.
M09
M05
G91 G28 Z0.0
G28 Y0.0
M30
%
(TOTAL Machine Time: 0.4 min)
