%
G40 G17 G49 G54 G80
G91 G28 Z0.0
( NAME: Administrator )
( PART: H:\CNC-File\2018-8\ÅË\HDL18063\HDL18063-»¬¿éµç¼«-±à³Ì.prt )
( DATE: Thu Aug 30 17:36:25 2018 )
( D10 ---> D=10.00 R=0.00 )
S9000 M03
G00 G90 X-25.55 Y-5.
Z14.6
G17 G01 Z-27.647 F800.
Z-28.647 F320.
X-24.05
G40 G03 X-19.05 Y0.0 I0.0 J5.
G01 Y13. F800.
G02 X-13. Y19.05 I6.05 J0.0
G01 X13.
G02 X19.05 Y13. I0.0 J-6.05
G01 Y-10.
G02 X17.571 Y-13.571 I-5.05 J0.0
G01 X13.571 Y-17.571
G02 X10. Y-19.05 I-3.571 J3.571
G01 X-13.
G02 X-19.05 Y-13. I0.0 J6.05
G01 Y0.0
Y3.
G03 X-24.05 Y8. I-5. J0.0
G01 X-24. Y-5.
G03 X-19. Y0.0 I0.0 J5. F320.
G01 Y13. F800.
G02 X-13. Y19. I6. J0.0
G01 X13.
G02 X19. Y13. I0.0 J-6.
G01 Y-10.
G02 X17.536 Y-13.536 I-5. J0.0
G01 X13.536 Y-17.536
G02 X10. Y-19. I-3.536 J3.536
G01 X-13.
G02 X-19. Y-13. I0.0 J6.
G01 Y0.0
Y3.
G03 X-24. Y8. I-5. J0.0
G01 X-25.55
Z-27.647
G00 Z14.6
M09
M05
G91 G28 Z0.0
G28 Y0.0
M30
%
(TOTAL Machine Time: 0.7 min)
