%
G40 G17 G49 G54 G80
G91 G28 Z0.0
( NAME: Capful-PC )
( PART: H:\CNC-File\2018-10\ÓÀÊ¢½Ü\E27\E27-µç¼«-±à³Ì.prt )
( DATE: Tue Oct 30 09:29:56 2018 )
( D10 ---> D=10.00 R=0.00 )
S9000 M03
G00 G90 X-5. Y23.05
Z14.6
G17 G01 Z-22.78 F800.
Z-23.78 F320.
Y21.55
G40 G03 X0.0 Y16.55 I5. J0.0
G01 X13. F800.
G02 X19.05 Y10.5 I0.0 J-6.05
G01 Y-10.5
G02 X13. Y-16.55 I-6.05 J0.0
G01 X-10.
G02 X-13.571 Y-15.071 I0.0 J5.05
G01 X-17.571 Y-11.071
G02 X-19.05 Y-7.5 I3.571 J3.571
G01 Y10.5
G02 X-13. Y16.55 I6.05 J0.0
G01 X0.0
X3.
G03 X8. Y21.55 I0.0 J5.
G01 X-5. Y21.5
G03 X0.0 Y16.5 I5. J0.0 F320.
G01 X13. F800.
G02 X19. Y10.5 I0.0 J-6.
G01 Y-10.5
G02 X13. Y-16.5 I-6. J0.0
G01 X-10.
G02 X-13.536 Y-15.036 I0.0 J5.
G01 X-17.536 Y-11.036
G02 X-19. Y-7.5 I3.536 J3.536
G01 Y10.5
G02 X-13. Y16.5 I6. J0.0
G01 X0.0
X3.
G03 X8. Y21.5 I0.0 J5.
G01 Y23.05
Z-22.78
G00 Z14.6
M09
M05
G91 G28 Z0.0
G28 Y0.0
M30
%
(TOTAL Machine Time: 0.7 min)
