%
G40 G17 G49 G54 G80
G91 G28 Z0.0
( NAME: HZK-PC )
( PART: H:\CNC-File\2019-3\ºÀÌ©\Ô²¹ø\YG-ºóÄ£ÈÊ.prt )
( DATE: Sun Mar 10 09:43:29 2019 )
( Z6 ---> D=6.00 R=0.00 )
S1000 M03
G00 G90 X-210. Y175.
Z5.
G17 G01 Z-1.5 F120.
G00 Z5.
X-169. Y51.
G01 Z-1.5
G00 Z5.
X-148. Y94.
G01 Z-1.5
G00 Z5.
X-113. Y131.
G01 Z-1.5
G00 Z5.
X-67. Y157.
G01 Z-1.5
G00 Z5.
X-15. Y166.
G01 Z-1.5
G00 Z5.
X35. Y161.
G01 Z-1.5
G00 Z5.
X84. Y138.
G01 Z-1.5
G00 Z5.
X210. Y175.
G01 Z-1.5
G00 Z5.
X132. Y90.
G01 Z-1.5
G00 Z5.
X156. Y25.
G01 Z-1.5
G00 Z5.
Y-25.
G01 Z-1.5
G00 Z5.
X132. Y-90.
G01 Z-1.5
G00 Z5.
X210. Y-175.
G01 Z-1.5
G00 Z5.
X84. Y-138.
G01 Z-1.5
G00 Z5.
X35. Y-161.
G01 Z-1.5
G00 Z5.
X-15. Y-166.
G01 Z-1.5
G00 Z5.
X-67. Y-157.
G01 Z-1.5
G00 Z5.
X-113. Y-131.
G01 Z-1.5
G00 Z5.
X-148. Y-94.
G01 Z-1.5
G00 Z5.
X-169. Y-51.
G01 Z-1.5
G00 Z5.
X-210. Y-175.
G01 Z-1.5
G00 Z5.
( Z6 ---> D=6.00 R=0.00 )
S1000 M03
G00 X-125. Y0.0
Z5.
G01 Z-18.5 F120.
G00 Z5.
X-10. Y-115.
G01 Z-18.5
G00 Z5.
X105. Y0.0
G01 Z-18.5
G00 Z5.
X-10. Y115.
G01 Z-18.5
G00 Z5.
M09
M05
G91 G28 Z0.0
G28 Y0.0
M30
%
(TOTAL Machine Time: 2.3 min)
