%
G40 G17 G49 G54 G80
G91 G28 Z0.0
( NAME: Administrator )
( PART: H:\CNC-File\2018-7\灌星\95004-后模仁-电极\E02.prt )
( DATE: Tue Jul 17 19:09:16 2018 )
( D10 ---> D=10.00 R=0.00 )
S7000 M03
G00 G90 X14.5 Y-20.55
Z14.5
G17 G01 Z-27.369 F800.
Z-28.369 F320.
Y-19.05
G40 G03 X9.5 Y-14.05 I-5. J0.0
G01 X-18. F800.
G02 X-24.05 Y-8. I0.0 J6.05
G01 Y8.
G02 X-18. Y14.05 I6.05 J0.0
G01 X18.
G02 X24.05 Y8. I0.0 J-6.05
G01 Y-5.
G02 X22.571 Y-8.571 I-5.05 J0.0
G01 X18.571 Y-12.571
G02 X15. Y-14.05 I-3.571 J3.571
G01 X9.5
X6.5
G03 X1.5 Y-19.05 I0.0 J-5.
G01 X14.5 Y-19.
G03 X9.5 Y-14. I-5. J0.0 F320.
G01 X-18. F800.
G02 X-24. Y-8. I0.0 J6.
G01 Y8.
G02 X-18. Y14. I6. J0.0
G01 X18.
G02 X24. Y8. I0.0 J-6.
G01 Y-5.
G02 X22.536 Y-8.536 I-5. J0.0
G01 X18.536 Y-12.536
G02 X15. Y-14. I-3.536 J3.536
G01 X9.5
X6.5
G03 X1.5 Y-19. I0.0 J-5.
G01 Y-20.55
Z-27.369
G00 Z14.5
M09
M05
G91 G28 Z0.0
G28 Y0.0
M30
%
(TOTAL Machine Time: 0.7 min)
