%
G40 G17 G49 G54 G80
G91 G28 Z0.0
( NAME: Administrator )
( PART: H:\CNC-File\2018-7\ÐË¶¦½Ü\027\027-¶¥Õë°å.prt )
( DATE: Tue Jul 17 16:08:05 2018 )
( Z6 ---> D=6.00 R=0.00 )
S1000 M03
G00 G90 X97. Y88.
Z5.
G17 G01 Z-1.5 F120.
G00 Z5.
X84.56 Y57.56
G01 Z-1.5
G00 Z5.
X128. Y50.
G01 Z-1.5
G00 Z5.
X112.92 Y0.0
G01 Z-1.5
G00 Z5.
X140.
G01 Z-1.5
G00 Z5.
X128. Y-50.
G01 Z-1.5
G00 Z5.
X97. Y-88.
G01 Z-1.5
G00 Z5.
X84.56 Y-57.56
G01 Z-1.5
G00 Z5.
X27. Y-85.92
G01 Z-1.5
G00 Z5.
Y-42.
G01 Z-1.5
G00 Z5.
X.537 Y-51.678
G01 Z-1.5
G00 Z5.
X-30.56 Y-57.56
G01 Z-1.5
G00 Z5.
X-75. Y-43.
G01 Z-1.5
G00 Z5.
X-58.92 Y0.0
G01 Z-1.5
G00 Z5.
X-15.
G01 Z-1.5
G00 Z5.
X27.
G01 Z-1.5
G00 Z5.
X67.395 Y-11.5
G01 Z-1.5
G00 Z5.
Y11.5
G01 Z-1.5
G00 Z5.
X27. Y42.
G01 Z-1.5
G00 Z5.
Y85.92
G01 Z-1.5
G00 Z5.
X-30.56 Y57.56
G01 Z-1.5
G00 Z5.
X-75. Y43.
G01 Z-1.5
G00 Z5.
X-135. Y0.0
G01 Z-1.5
G00 Z5.
M09
M05
G91 G28 Z0.0
G28 Y0.0
M30
%
(TOTAL Machine Time: 1.5 min)
