%
G40 G17 G49 G54 G80
G91 G28 Z0.0
( NAME: Administrator )
( PART: H:\CNC-File\2019-1\永盛杰\LF-面环\LF-电极-编程.prt )
( DATE: Thu Jan 17 09:30:05 2019 )
( D10 ---> D=10.00 R=0.00 )
S9000 M03
G00 G90 X-20.55 Y-5.
Z14.6
G17 G01 Z-17.039 F800.
Z-18.039 F320.
X-19.05
G40 G03 X-14.05 Y0.0 I0.0 J5.
G01 Y8. F800.
G02 X-8. Y14.05 I6.05 J0.0
G01 X8.
G02 X14.05 Y8. I0.0 J-6.05
G01 Y-5.
G02 X12.571 Y-8.571 I-5.05 J0.0
G01 X8.571 Y-12.571
G02 X5. Y-14.05 I-3.571 J3.571
G01 X-8.
G02 X-14.05 Y-8. I0.0 J6.05
G01 Y0.0
Y3.
G03 X-19.05 Y8. I-5. J0.0
G01 X-19. Y-5.
G03 X-14. Y0.0 I0.0 J5. F320.
G01 Y8. F800.
G02 X-8. Y14. I6. J0.0
G01 X8.
G02 X14. Y8. I0.0 J-6.
G01 Y-5.
G02 X12.536 Y-8.536 I-5. J0.0
G01 X8.536 Y-12.536
G02 X5. Y-14. I-3.536 J3.536
G01 X-8.
G02 X-14. Y-8. I0.0 J6.
G01 Y0.0
Y3.
G03 X-19. Y8. I-5. J0.0
G01 X-20.55
Z-17.039
G00 Z14.6
( D10 ---> D=10.00 R=0.00 )
S9000 M03
G00 X0.0 Y16.7
Z15.
G01 Z-4.989 F1300.
Z-7.989 F520.
Y10.2
X8. F1300.
G02 X10.2 Y8. I0.0 J-2.2
G01 Y-5.497
X5.497 Y-10.2
X-8.
G02 X-10.2 Y-8. I0.0 J2.2
G01 Y8.
G02 X-8. Y10.2 I2.2 J0.0
G01 X0.0
Y7.2
X7.2
Y5.22
X-7.138 F780.
Y-6.213
X5.241
X4.254 Y-7.2 F1300.
X-7.2
Y7.2
X0.0
Y16.7
Z-4.989
G00 Z-4.939
G01 Z-5.039
Z-8.039 F520.
Y10.2
X8. F1300.
G02 X10.2 Y8. I0.0 J-2.2
G01 Y-5.497
X5.497 Y-10.2
X-8.
G02 X-10.2 Y-8. I0.0 J2.2
G01 Y8.
G02 X-8. Y10.2 I2.2 J0.0
G01 X0.0
Y7.2
X7.2
Y5.22
X-7.138 F780.
Y-6.213
X5.241
X4.254 Y-7.2 F1300.
X-7.2
Y7.2
X0.0
Y16.7
Z-5.039
G00 Z15.
M09
M05
G91 G28 Z0.0
G28 Y0.0
M30
%
(TOTAL Machine Time: 1.0 min)
