%
G40 G17 G49 G54 G80
G91 G28 Z0.0
( NAME: Capful-PC )
( PART: H:\CNC-File\2018-10\²ÓÀ¤\2737\2737-µæ°å.prt )
( DATE: Mon Nov  5 16:03:27 2018 )
( E50R5 ---> D=50.00 R=5.00 )
S1500 M03
G00 G90 X-253. Y217.5
Z17.
G17 G01 Z3.2 F1000.
Z.2 F800.
X-250.
X250. F2000.
Y210.
Y197.905
X-250.
Y178.309
X250.
Y158.714
X-250.
Y139.119
X250.
Y119.524
X-250.
Y99.929
X250.
Y80.333
X-250.
Y60.738
X250.
Y41.143
X-250.
Y21.548
X250.
Y1.952
X-250.
Y-17.643
X250.
Y-37.238
X-250.
Y-56.833
X250.
Y-76.429
X-250.
Y-96.024
X250.
Y-115.619
X-250.
Y-135.214
X250.
Y-154.809
X-250.
Y-174.405
X250.
Y-194.
X-250.
X-253.
Z3.2
G00 Z3.4
Y217.5
G01 Z3. F1000.
Z0.0 F800.
X-250.
X250. F2000.
Y210.
Y197.905
X-250.
Y178.309
X250.
Y158.714
X-250.
Y139.119
X250.
Y119.524
X-250.
Y99.929
X250.
Y80.333
X-250.
Y60.738
X250.
Y41.143
X-250.
Y21.548
X250.
Y1.952
X-250.
Y-17.643
X250.
Y-37.238
X-250.
Y-56.833
X250.
Y-76.429
X-250.
Y-96.024
X250.
Y-115.619
X-250.
Y-135.214
X250.
Y-154.809
X-250.
Y-174.405
X250.
Y-194.
X-250.
X-253.
Z3.
G00 Z17.
M09
M05
G91 G28 Z0.0
G28 Y0.0
M30
%
(TOTAL Machine Time: 11.7 min)
