%
G40 G17 G49 G54 G80
G91 G28 Z0.0
( NAME: Administrator )
( PART: H:\CNC-File\2018-8\²ÓÀ¤\2126\2126-BWDOWN\2126-B-µç¼«-±à³Ì.prt )
( DATE: Mon Aug 20 19:51:23 2018 )
( D10 ---> D=10.00 R=0.00 )
S9000 M03
G00 G90 X-20.58 Y-3.5
Z14.6
G17 G01 Z-32.597 F800.
Z-33.597 F320.
X-19.08
G40 G03 X-14.08 Y1.5 I0.0 J5.
G01 Y8. F800.
G02 X-8. Y14.08 I6.08 J0.0
G01 X8.
G02 X14.08 Y8. I0.0 J-6.08
G01 Y-8.
G02 X8. Y-14.08 I-6.08 J0.0
G01 X-5.
G02 X-8.592 Y-12.592 I0.0 J5.08
G01 X-12.592 Y-8.592
G02 X-14.08 Y-5. I3.592 J3.592
G01 Y1.5
Y4.5
G03 X-19.08 Y9.5 I-5. J0.0
G01 X-19.04 Y-3.5
G03 X-14.04 Y1.5 I0.0 J5. F320.
G01 Y8. F800.
G02 X-8. Y14.04 I6.04 J0.0
G01 X8.
G02 X14.04 Y8. I0.0 J-6.04
G01 Y-8.
G02 X8. Y-14.04 I-6.04 J0.0
G01 X-5.
G02 X-8.564 Y-12.564 I0.0 J5.04
G01 X-12.564 Y-8.564
G02 X-14.04 Y-5. I3.564 J3.564
G01 Y1.5
Y4.5
G03 X-19.04 Y9.5 I-5. J0.0
G01 X-19. Y-3.5
G03 X-14. Y1.5 I0.0 J5. F320.
G01 Y8. F800.
G02 X-8. Y14. I6. J0.0
G01 X8.
G02 X14. Y8. I0.0 J-6.
G01 Y-8.
G02 X8. Y-14. I-6. J0.0
G01 X-5.
G02 X-8.536 Y-12.536 I0.0 J5.
G01 X-12.536 Y-8.536
G02 X-14. Y-5. I3.536 J3.536
G01 Y1.5
Y4.5
G03 X-19. Y9.5 I-5. J0.0
G01 X-20.45
Z-32.597
G00 Z14.6
M09
M05
G91 G28 Z0.0
G28 Y0.0
M30
%
(TOTAL Machine Time: 0.8 min)
