%
G40 G17 G49 G54 G80
G91 G28 Z0.0
( NAME: Capful-PC )
( PART: H:\CNC-File\2018-9\ºêöÎÑó\11407\11407-µç¼«-±à³Ì.prt )
( DATE: Fri Sep 21 07:23:04 2018 )
( KZ ---> D=0.50 R=0.25 )
S15000 M03
G00 G90 X-2.196 Y-16.34
Z2.6
Z-6.4
G17 G01 Z-9.425 F500.
X-2.092 Y-16.328 F800.
X-1.997 Y-16.269
X-1.969 Y-16.234
X-1.865 Y-16.092
X-1.808 Y-15.88
Y-15.655
X-1.865 Y-15.431
X-1.978 Y-15.277
X-2.045 Y-15.218
X-2.139 Y-15.183
X-2.243 Y-15.195
X-2.338 Y-15.254
X-2.375 Y-15.289
X-2.47 Y-15.431
X-2.527 Y-15.655
Y-15.88
X-2.47 Y-16.092
X-2.366 Y-16.246
X-2.3 Y-16.305
X-2.196 Y-16.34
Z-6.4
G00 Z2.6
X-1.799
Z-6.4
G01 Z-9.425 F500.
X-2.026 Y-16.057 F800.
Z-6.4
G00 Z2.6
X-1.261 Y-15.183
Z-6.4
G01 Z-9.425 F500.
Y-16.34 F800.
X-.524
Z-6.4
G00 Z2.6
X.817 Y-15.761
Z-6.4
G01 Z-9.425 F500.
X-.08 F800.
Z-6.4
G00 Z2.6
X1.629 Y-16.34
Z-6.4
G01 Z-9.425 F500.
X1.733 Y-16.328 F800.
X1.828 Y-16.269
X1.856 Y-16.234
X1.96 Y-16.092
X2.017 Y-15.88
Y-15.655
X1.96 Y-15.431
X1.847 Y-15.277
X1.78 Y-15.218
X1.686 Y-15.183
X1.582 Y-15.195
X1.487 Y-15.254
X1.45 Y-15.289
X1.355 Y-15.431
X1.298 Y-15.655
Y-15.88
X1.355 Y-16.092
X1.459 Y-16.246
X1.525 Y-16.305
X1.629 Y-16.34
Z-6.4
G00 Z2.6
X2.933
Z-6.4
G01 Z-9.425 F500.
Y-15.183 F800.
X2.838 Y-15.36
Z-6.4
G00 Z2.6
X3.074 Y-16.34
Z-6.4
G01 Z-9.425 F500.
X2.791 F800.
Z-6.4
G00 Z2.6
M09
M05
G91 G28 Z0.0
G28 Y0.0
M30
%
(TOTAL Machine Time: 0.3 min)
