%
G40 G17 G49 G54 G80
G91 G28 Z0.0
( NAME: Administrator )
( PART: H:\CNC-File\2018-8\²ÓÀ¤\2126\2126-Ïâ¼þ-µç¼«.prt )
( DATE: Sat Sep  1 18:00:13 2018 )
( D10 ---> D=10.00 R=0.00 )
S9000 M03
G00 G90 X-20.55 Y-3.5
Z14.6
G17 G01 Z-26.793 F800.
Z-27.793 F320.
X-19.05
G40 G03 X-14.05 Y1.5 I0.0 J5.
G01 Y8. F800.
G02 X-8. Y14.05 I6.05 J0.0
G01 X8.
G02 X14.05 Y8. I0.0 J-6.05
G01 Y-8.
G02 X8. Y-14.05 I-6.05 J0.0
G01 X-5.
G02 X-8.571 Y-12.571 I0.0 J5.05
G01 X-12.571 Y-8.571
G02 X-14.05 Y-5. I3.571 J3.571
G01 Y1.5
Y4.5
G03 X-19.05 Y9.5 I-5. J0.0
G01 X-19. Y-3.5
G03 X-14. Y1.5 I0.0 J5. F320.
G01 Y8. F800.
G02 X-8. Y14. I6. J0.0
G01 X8.
G02 X14. Y8. I0.0 J-6.
G01 Y-8.
G02 X8. Y-14. I-6. J0.0
G01 X-5.
G02 X-8.536 Y-12.536 I0.0 J5.
G01 X-12.536 Y-8.536
G02 X-14. Y-5. I3.536 J3.536
G01 Y1.5
Y4.5
G03 X-19. Y9.5 I-5. J0.0
G01 X-20.46
Z-26.793
G00 Z14.6
( D10 ---> D=10.00 R=0.00 )
S9000 M03
G00 X17. Y0.0
Z15.
G01 Z-14.743 F1300.
Z-17.743 F520.
X10.5
Y-8. F1300.
G02 X8. Y-10.5 I-2.5 J0.0
G01 X-5.621
X-6.052 Y-10.069
X6.237 F780.
Y9.112
X-6.309
Y-9.812
X-10.5 Y-5.621 F1300.
Y8.
G02 X-8. Y10.5 I2.5 J0.0
G01 X8.
G02 X10.5 Y8. I0.0 J-2.5
G01 Y0.0
X17.
Z-14.743
G00 Z-14.693
G01 Z-14.793
Z-17.793 F520.
X10.5
Y-8. F1300.
G02 X8. Y-10.5 I-2.5 J0.0
G01 X-5.621
X-6.052 Y-10.069
X6.237 F780.
Y9.112
X-6.309
Y-9.812
X-10.5 Y-5.621 F1300.
Y8.
G02 X-8. Y10.5 I2.5 J0.0
G01 X8.
G02 X10.5 Y8. I0.0 J-2.5
G01 Y0.0
X17.
Z-14.793
G00 Z15.
M09
M05
G91 G28 Z0.0
G28 Y0.0
M30
%
(TOTAL Machine Time: 1.0 min)
