%
G40 G17 G49 G54 G80
G91 G28 Z0.0
( NAME: Administrator )
( PART: H:\CNC-File\2019-2\隔壁\把手座\把手座-电极-编程.prt )
( DATE: Thu Feb 21 10:15:17 2019 )
( D10 ---> D=10.00 R=0.00 )
S8000 M03
G00 G90 X0.0 Y26.7
Z15.
G17 G01 Z-25.102 F1300.
Z-28.102 F520.
Y20.2
X28. F1300.
G40 G02 X30.2 Y18. I0.0 J-2.2
G01 Y-15.497
X28.647 Y-17.05
Y18.57 F780.
X-28.647
Y-17.815
X27.882
X25.497 Y-20.2 F1300.
X-28.
G02 X-30.2 Y-18. I0.0 J2.2
G01 Y18.
G02 X-28. Y20.2 I2.2 J0.0
G01 X0.0
Y26.7
Z-25.102
G00 Z-25.052
G01 Z-25.152
Z-28.152 F520.
Y20.2
X28. F1300.
G02 X30.2 Y18. I0.0 J-2.2
G01 Y-15.497
X28.647 Y-17.05
Y18.57 F780.
X-28.647
Y-17.815
X27.882
X25.497 Y-20.2 F1300.
X-28.
G02 X-30.2 Y-18. I0.0 J2.2
G01 Y18.
G02 X-28. Y20.2 I2.2 J0.0
G01 X0.0
Y26.7
Z-25.152
G00 Z15.
( D10 ---> D=10.00 R=0.00 )
S8000 M03
G00 X-5. Y30.55
Z14.6
G01 Z-37.152 F800.
Z-38.152 F320.
Y29.05
G03 X0.0 Y24.05 I5. J0.0
G01 X28. F800.
G02 X34.05 Y18. I0.0 J-6.05
G01 Y-15.
G02 X32.571 Y-18.571 I-5.05 J0.0
G01 X28.571 Y-22.571
G02 X25. Y-24.05 I-3.571 J3.571
G01 X-28.
G02 X-34.05 Y-18. I0.0 J6.05
G01 Y18.
G02 X-28. Y24.05 I6.05 J0.0
G01 X0.0
X3.
G03 X8. Y29.05 I0.0 J5.
G01 X-5. Y29.
G03 X0.0 Y24. I5. J0.0 F320.
G01 X28. F800.
G02 X34. Y18. I0.0 J-6.
G01 Y-15.
G02 X32.536 Y-18.536 I-5. J0.0
G01 X28.536 Y-22.536
G02 X25. Y-24. I-3.536 J3.536
G01 X-28.
G02 X-34. Y-18. I0.0 J6.
G01 Y18.
G02 X-28. Y24. I6. J0.0
G01 X0.0
X3.
G03 X8. Y29. I0.0 J5.
G01 Y30.55
Z-37.152
G00 Z14.6
M09
M05
G91 G28 Z0.0
G28 Y0.0
M30
%
(TOTAL Machine Time: 1.8 min)
