%
G40 G17 G49 G54 G80
G91 G28 Z0.0
( NAME: HZK-PC )
( PART: H:\CNC-File\2019-1\豪泰\LvGuo\LvGuo-A\LvGuo-A-后模仁-加重-190826.prt )
( DATE: Mon Aug 26 16:21:48 2019 )
( E21R0.8 ---> D=21.00 R=0.80 )
S2700 M03
G00 G90 X-130.712 Y113.858
Z43.242
G17 G01 Z34.242 F2000.
Z31.242 F360.
X-122.312
X122.312 F600.
G40 G02 X129.242 Y107.565 I-41.259 J-52.396
G01 X129.349 Y107.453
X130.311 Y106.385
X-130.315
G03 X-135.256 Y98.913 I24.314 J-21.448
G01 X135.255
G02 X137.351 Y91.441 I-17.806 J-9.023
G01 X-137.351
X-137.379 Y90.811
Y83.969
X137.379
Y76.497
X-137.379
Y69.024
X137.379
Y61.552
X-137.379
Y54.08
X137.379
Y46.608
X-137.379
Y39.136
X137.379
Y31.663
X-137.379
Y24.191
X137.379
Y16.719
X-137.379
Y9.247
X137.379
Y1.774
X-137.379
Y-5.698
X137.379
Y-13.17
X-137.379
Y-20.642
X137.379
Y-28.114
X-137.379
Y-35.587
X137.379
Y-43.059
X-137.379
Y-50.531
X137.379
Y-58.003
X-137.379
Y-60.812
G03 X-136.595 Y-65.475 I16.491 J.377
G01 X136.595
G02 X132.956 Y-72.948 I-26.387 J8.227
G01 X-132.955
Z41.742 F720.
G00 Z43.242
M09
M05
G91 G28 Z0.0
G28 Y0.0
M30
%
(TOTAL Machine Time: 12.4 min)
