%
G40 G17 G49 G54 G80
G91 G28 Z0.0
( NAME: HZK-PC )
( PART: H:\CNC-File\2019-3\豪泰\花纹烤盘\HW-电极-编程.prt )
( DATE: Thu Mar  7 09:13:48 2019 )
( D10 ---> D=10.00 R=0.00 )
S9000 M03
G00 G90 X-5. Y20.55
Z14.6
G17 G01 Z-17.596 F800.
Z-18.596 F320.
Y19.05
G40 G03 X0.0 Y14.05 I5. J0.0
G01 X13. F800.
G02 X19.05 Y8. I0.0 J-6.05
G01 Y-8.
G02 X13. Y-14.05 I-6.05 J0.0
G01 X-10.
G02 X-13.571 Y-12.571 I0.0 J5.05
G01 X-17.571 Y-8.571
G02 X-19.05 Y-5. I3.571 J3.571
G01 Y8.
G02 X-13. Y14.05 I6.05 J0.0
G01 X0.0
X3.
G03 X8. Y19.05 I0.0 J5.
G01 X-5. Y19.
G03 X0.0 Y14. I5. J0.0 F320.
G01 X13. F800.
G02 X19. Y8. I0.0 J-6.
G01 Y-8.
G02 X13. Y-14. I-6. J0.0
G01 X-10.
G02 X-13.536 Y-12.536 I0.0 J5.
G01 X-17.536 Y-8.536
G02 X-19. Y-5. I3.536 J3.536
G01 Y8.
G02 X-13. Y14. I6. J0.0
G01 X0.0
X3.
G03 X8. Y19. I0.0 J5.
G01 Y20.55
Z-17.596
G00 Z14.6
M09
M05
G91 G28 Z0.0
G28 Y0.0
M30
%
(TOTAL Machine Time: 0.6 min)
