%
G40 G17 G49 G54 G80
G91 G28 Z0.0
( NAME: HZK-PC )
( PART: H:\CNC-File\2019-3\ºÀÌ©\»¨ÎÆ¿¾ÅÌ\HW-Ç°Ä£ÈÊ-Ïâ¼þ.prt )
( DATE: Fri Mar  8 09:56:51 2019 )
( Z6 ---> D=6.00 R=0.00 )
S1000 M03
G00 G90 X-45. Y-45.
Z5.
G17 G01 Z-1.5 F120.
G00 Z5.
Y45.
G01 Z-1.5
G00 Z5.
X45.
G01 Z-1.5
G00 Z5.
Y-45.
G01 Z-1.5
G00 Z5.
M09
M05
G91 G28 Z0.0
G28 Y0.0
M30
%
(TOTAL Machine Time: 0.4 min)
