%
G40 G17 G49 G54 G80
G91 G28 Z0.0
( NAME: Capful-PC )
( PART: H:\CNC-File\2019-1\²ÓÀ¤\YD-ìÙ¶·\YD-A-ºóÄ£¿ò.prt )
( DATE: Fri Feb 15 13:56:28 2019 )
( Z6 ---> D=6.00 R=0.00 )
S1000 M03
G00 G90 X-75.974 Y14.847
Z5.
G17 G01 Z-1.5 F120.
G00 Z5.
X-77.978 Y35.185
G01 Z-1.5
G00 Z5.
X-101. Y41.
G01 Z-1.5
G00 Z5.
X-132. Y25.
G01 Z-1.5
G00 Z5.
X-112.633 Y0.0
G01 Z-1.5
G00 Z5.
X-128.427
G01 Z-1.5
G00 Z5.
X-132. Y-25.
G01 Z-1.5
G00 Z5.
X-101. Y-41.
G01 Z-1.5
G00 Z5.
X-77.978 Y-35.185
G01 Z-1.5
G00 Z5.
X-76.05 Y-14.818
G01 Z-1.5
G00 Z5.
X-21.611 Y-44.22
G01 Z-1.5
G00 Z5.
X-16.5 Y-24.7
G01 Z-1.5
G00 Z5.
X-23.5 Y19.386
G01 Z-1.5
G00 Z5.
X-21.611 Y44.22
G01 Z-1.5
G00 Z5.
X25.624 Y45.225
G01 Z-1.5
G00 Z5.
X38.403 Y42.21
G01 Z-1.5
G00 Z5.
X47.448 Y25.125
G01 Z-1.5
G00 Z5.
X74. Y18.
G01 Z-1.5
G00 Z5.
X46.686 Y0.0
G01 Z-1.5
G00 Z5.
X49.574 Y-10.955
G01 Z-1.5
G00 Z5.
X21.906 Y-11.246
G01 Z-1.5
G00 Z5.
X25.624 Y-45.225
G01 Z-1.5
G00 Z5.
X38.403 Y-42.21
G01 Z-1.5
G00 Z5.
X47.448 Y-24.961
G01 Z-1.5
G00 Z5.
X74. Y-18.
G01 Z-1.5
G00 Z5.
X135. Y0.0
G01 Z-1.5
G00 Z5.
( Z6 ---> D=6.00 R=0.00 )
S1000 M03
G00 X-155. Y70.
Z5.
G01 Z-14.5 F120.
G00 Z5.
Y-70.
G01 Z-14.5
G00 Z5.
X105.
G01 Z-14.5
G00 Z5.
X165. Y-32.5
G01 Z-14.5
G00 Z5.
Y32.5
G01 Z-14.5
G00 Z5.
X105. Y70.
G01 Z-14.5
G00 Z5.
M09
M05
G91 G28 Z0.0
G28 Y0.0
M30
%
(TOTAL Machine Time: 2.7 min)
