%
G40 G17 G49 G54 G80
G91 G28 Z0.0
( NAME: Administrator )
( PART: H:\CNC-File\2018-7\É½Èó·å\1KP-480-1\1KP-µ×°å.prt )
( DATE: Tue Aug  7 18:55:26 2018 )
( D6 ---> D=6.00 R=0.00 )
S1000 M03
G00 G90 X-252.149 Y10.
Z44.2
G17 G01 Z-6.8 F120.
G00 Z44.2
X-238.149 Y24.
G01 Z-6.8
G00 Z44.2
X-226. Y35. Z50.
G01 Z-1.
G00 Z50.
Y425.
G01 Z-1.
G00 Z50.
X-252.149 Y436. Z44.2
G01 Z-6.8
G00 Z44.2
X-238.149 Y450.
G01 Z-6.8
G00 Z44.2
X181.851 Y436.
G01 Z-6.8
G00 Z44.2
X195.851 Y450.
G01 Z-6.8
G00 Z44.2
X226. Y425. Z50.
G01 Z-1.
G00 Z50.
Y35.
G01 Z-1.
G00 Z50.
X195.851 Y24. Z44.2
G01 Z-6.8
G00 Z44.2
X181.851 Y10.
G01 Z-6.8
G00 Z44.2
M09
M05
G91 G28 Z0.0
G28 Y0.0
M30
%
(TOTAL Machine Time: 5.4 min)
