%
G40 G17 G49 G54 G80
G91 G28 Z0.0
( NAME: HZK-PC )
( PART: H:\CNC-File\2019-3\豪泰\花纹烤盘\HW-前模仁-改-电极-190329.prt )
( DATE: Sat Mar 30 11:04:51 2019 )
( D10 ---> D=10.00 R=0.00 )
S8000 M03
G00 G90 X-20.6 Y-3.5
Z14.6
G17 G01 Z-17.316 F800.
Z-18.316 F320.
X-19.1
G40 G03 X-14.1 Y1.5 I0.0 J5.
G01 Y8. F800.
G02 X-8. Y14.1 I6.1 J0.0
G01 X8.
G02 X14.1 Y8. I0.0 J-6.1
G01 Y-8.
G02 X8. Y-14.1 I-6.1 J0.0
G01 X-5.
G02 X-8.606 Y-12.606 I0.0 J5.1
G01 X-12.606 Y-8.606
G02 X-14.1 Y-5. I3.606 J3.606
G01 Y1.5
Y4.5
G03 X-19.1 Y9.5 I-5. J0.0
G01 X-19.05 Y-3.5
G03 X-14.05 Y1.5 I0.0 J5. F320.
G01 Y8. F800.
G02 X-8. Y14.05 I6.05 J0.0
G01 X8.
G02 X14.05 Y8. I0.0 J-6.05
G01 Y-8.
G02 X8. Y-14.05 I-6.05 J0.0
G01 X-5.
G02 X-8.571 Y-12.571 I0.0 J5.05
G01 X-12.571 Y-8.571
G02 X-14.05 Y-5. I3.571 J3.571
G01 Y1.5
Y4.5
G03 X-19.05 Y9.5 I-5. J0.0
G01 X-19. Y-3.5
G03 X-14. Y1.5 I0.0 J5. F320.
G01 Y8. F800.
G02 X-8. Y14. I6. J0.0
G01 X8.
G02 X14. Y8. I0.0 J-6.
G01 Y-8.
G02 X8. Y-14. I-6. J0.0
G01 X-5.
G02 X-8.536 Y-12.536 I0.0 J5.
G01 X-12.536 Y-8.536
G02 X-14. Y-5. I3.536 J3.536
G01 Y1.5
Y4.5
G03 X-19. Y9.5 I-5. J0.0
G01 X-20.46
Z-17.316
G00 Z14.6
M09
M05
G91 G28 Z0.0
G28 Y0.0
M30
%
(TOTAL Machine Time: 0.8 min)
