%
G40 G17 G49 G54 G80
G91 G28 Z0.0
( NAME: Administrator )
( PART: H:\CNC-File\2018-10\²ÓÀ¤\C266\C266-D\C266-D-Ç°Ä£¿ò.prt )
( DATE: Sat Oct 27 06:07:55 2018 )
( E50R5 ---> D=50.00 R=5.00 )
S2200 M03
G00 G90 X-328. Y241.
Z16.
G17 G01 Z-4.925 F500.
Z-7.925 F400.
X-297.32 Y238.073
X-294.321 Y238.
X-293.619 Y266.988 F1000.
X-266.517 Y294.09
X-226. Y294.628
Y242. F600.
G40 G02 X-230. Y238. I-4. J0.0
G01 X-294.321
X-273.831 Y258. F1000.
X-273.818 Y258.504
X-258.123 Y274.2
X-246. Y274.361
Y258.
X-273.831
Y255.
Z-4.925
G00 Z-4.85
X-328. Y241.
G01 Z-5. F500.
Z-8. F400.
X-297.32 Y238.073
X-294.321 Y238.
X-293.619 Y266.988 F1000.
X-266.517 Y294.09
X-226. Y294.628
Y242. F600.
G02 X-230. Y238. I-4. J0.0
G01 X-294.321
X-273.831 Y258. F1000.
X-273.818 Y258.504
X-258.123 Y274.2
X-246. Y274.361
Y258.
X-273.831
Y255.
Z-5.
G00 Z16.
( E50R5 ---> D=50.00 R=5.00 )
S2200 M03
G00 X328. Y241.
Z16.
G01 Z-4.925 F500.
Z-7.925 F400.
X295.203 Y238.
X230. F600.
G02 X226. Y242. I0.0 J4.
G01 Y294.439
X266.987 Y293.619 F1000.
X295.401 Y265.206
X295.203 Y238.
X274.322 Y258.
X246.
Y274.035
X258.538 Y273.784
X274.322 Y258.
X276.444 Y260.121
Z-4.925
G00 Z-4.85
X328. Y241.
G01 Z-5. F500.
Z-8. F400.
X295.203 Y238.
X230. F600.
G02 X226. Y242. I0.0 J4.
G01 Y294.439
X266.987 Y293.619 F1000.
X295.401 Y265.206
X295.203 Y238.
X274.322 Y258.
X246.
Y274.035
X258.538 Y273.784
X274.322 Y258.
X276.444 Y260.121
Z-5.
G00 Z16.
M09
M05
G91 G28 Z0.0
G28 Y0.0
M30
%
(TOTAL Machine Time: 2.4 min)
