%
G40 G17 G49 G54 G80
G91 G28 Z0.0
( NAME: Administrator )
( PART: H:\CNC-File\2018-8\ÐË¶¦½Ü\F380-×ê¿×ÂÁ°å-New\F380-×ê¿×ÂÁ°å-New.prt )
( DATE: Mon Aug 13 19:26:52 2018 )
( Z6 ---> D=6.00 R=0.00 )
S1000 M03
G00 G90 X-60.749 Y15.
Z4.2
G17 G01 Z-11.8 F120.
G00 Z4.2
X-84.749
G01 Z-11.8
G00 Z4.2
Y-15.
G01 Z-11.8
G00 Z4.2
X-60.749
G01 Z-11.8
G00 Z4.2
X17.384 Y-60.11
G01 Z-11.8
G00 Z4.2
X29.384 Y-80.894
G01 Z-11.8
G00 Z4.2
X55.365 Y-65.894
G01 Z-11.8
G00 Z4.2
X43.365 Y-45.11
G01 Z-11.8
G00 Z4.2
X55.365 Y65.894
G01 Z-11.8
G00 Z4.2
X29.384 Y80.894
G01 Z-11.8
G00 Z4.2
X17.384 Y60.11
G01 Z-11.8
G00 Z4.2
X43.365 Y45.11
G01 Z-11.8
G00 Z4.2
X135. Y-100. Z13.
G01 Z-3.
G00 Z13.
X-135.
G01 Z-3.
G00 Z13.
Y100.
G01 Z-3.
G00 Z13.
X135.
G01 Z-3.
G00 Z13.
M09
M05
G91 G28 Z0.0
G28 Y0.0
M30
%
(TOTAL Machine Time: 2.4 min)
