%
G40 G17 G49 G54 G80
G91 G28 Z0.0
( NAME: Administrator )
( PART: H:\CNC-File\2018-8\ÐË¶¦½Ü\F380-×ê¿×ÂÁ°å-New\F380-×ê¿×ÂÁ°å-New.prt )
( DATE: Fri Aug 10 14:25:28 2018 )
( Z6 ---> D=6.00 R=0.00 )
S1000 M03
G00 G90 X84.749 Y15.
Z5.
G17 G01 Z-1.5 F120.
G00 Z5.
Y-15.
G01 Z-1.5
G00 Z5.
X60.749
G01 Z-1.5
G00 Z5.
Y15.
G01 Z-1.5
G00 Z5.
X-17.384 Y60.11
G01 Z-1.5
G00 Z5.
X-29.384 Y80.894
G01 Z-1.5
G00 Z5.
X-55.365 Y65.894
G01 Z-1.5
G00 Z5.
X-43.365 Y45.11
G01 Z-1.5
G00 Z5.
Y-45.11
G01 Z-1.5
G00 Z5.
X-17.384 Y-60.11
G01 Z-1.5
G00 Z5.
X-29.384 Y-80.894
G01 Z-1.5
G00 Z5.
X-55.365 Y-65.894
G01 Z-1.5
G00 Z5.
( Z6 ---> D=6.00 R=0.00 )
S1000 M03
G00 X135. Y100.
Z6.2
G01 Z-20.3 F120.
G00 Z6.2
Y-100.
G01 Z-20.3
G00 Z6.2
X-135.
G01 Z-20.3
G00 Z6.2
Y100.
G01 Z-20.3
G00 Z6.2
M09
M05
G91 G28 Z0.0
G28 Y0.0
M30
%
(TOTAL Machine Time: 1.8 min)
