%
G40 G17 G49 G54 G80
G91 G28 Z0.0
( NAME: Administrator )
( PART: H:\CNC-File\2018-8\²ÓÀ¤\2126\2126-BWDOWN\2126-B-Ç°Ä£ÈÊ.prt )
( DATE: Fri Aug 17 18:20:31 2018 )
( Z6 ---> D=6.00 R=0.00 )
S1000 M03
G00 G90 X-128.46 Y-118.
Z5.
G17 G01 Z-1.5 F120.
G00 Z5.
X-105.499 Y5.03
G01 Z-1.5
G00 Z5.
X-128.46 Y118.
G01 Z-1.5
G00 Z5.
X56.306 Y46.235
G01 Z-1.5
G00 Z5.
X75.401 Y45.23
G01 Z-1.5
G00 Z5.
X61.331 Y22.115
G01 Z-1.5
G00 Z5.
X75.401 Y-35.17
G01 Z-1.5
G00 Z5.
X128.46 Y-118.
G01 Z-1.5
G00 Z5.
Y118.
G01 Z-1.5
G00 Z5.
( Z6 ---> D=6.00 R=0.00 )
S1000 M03
G00 X-52.992 Y-81.758
Z4.7
G01 Z-9.8 F120.
G00 Z4.7
X53.008
G01 Z-9.8
G00 Z4.7
X93.039 Y-6.97
G01 Z-9.8
G00 Z4.7
Y17.03
G01 Z-9.8
G00 Z4.7
M09
M05
G91 G28 Z0.0
G28 Y0.0
M30
%
(TOTAL Machine Time: 1.3 min)
