%
G40 G17 G49 G54 G80
G91 G28 Z0.0
( NAME: Administrator )
( PART: H:\CNC-File\2018-8\²ÓÀ¤\2126\2126-WUPPER\2126-W-Ç°Ä£¿ò.prt )
( DATE: Mon Aug 27 09:42:14 2018 )
( Z6 ---> D=6.00 R=0.00 )
S1000 M03
G00 G90 X-137.97 Y128.46
Z-71.8
G17 G01 Z-78.3 F120.
G00 Z-71.8
X-102.97
G01 Z-78.3
G00 Z-71.8
X-25. Y105.951
G01 Z-78.3
G00 Z-71.8
X62.97 Y128.46
G01 Z-78.3
G00 Z-71.8
X98.03
G01 Z-78.3
G00 Z-71.8
X61.758 Y52.992
G01 Z-78.3
G00 Z-71.8
Y-53.008
G01 Z-78.3
G00 Z-71.8
X98.03 Y-128.46
G01 Z-78.3
G00 Z-71.8
X62.97
G01 Z-78.3
G00 Z-71.8
X15.2 Y-75.401
G01 Z-78.3
G00 Z-71.8
X-25. Y-60.928
G01 Z-78.3
G00 Z-71.8
Y-50.428
G01 Z-78.3
G00 Z-71.8
X-42.7 Y-63.328
G01 Z-78.3
G00 Z-71.8
X-66.205 Y-56.306
G01 Z-78.3
G00 Z-71.8
X-65.2 Y-75.401
G01 Z-78.3
G00 Z-71.8
X-50.125 Y-81.961
G01 Z-78.3
G00 Z-71.8
X-102.97 Y-128.46
G01 Z-78.3
G00 Z-71.8
X-137.97
G01 Z-78.3
G00 Z-71.8
M09
M05
G91 G28 Z0.0
G28 Y0.0
M30
%
(TOTAL Machine Time: 1.2 min)
