%
G40 G17 G49 G54 G80
G91 G28 Z0.0
( NAME: Administrator )
( PART: H:\CNC-File\2018-7\其它\1KP-480-1\安装板.prt )
( DATE: Mon Jul 30 11:18:58 2018 )
( D12-0.035 ---> D=11.97 R=0.00 )
S8000 M03
G00 G90 X124.518 Y-94.665
Z15.
G17 G01 Z2.75 F1000.
Z-.25 F800.
Y-85.
Y85. F2000.
Z-.5
Y-85.
Z-.75
Y85.
Z-1.
Y-85.
Z-1.25
Y85.
Z-1.5
Y-85.
Z-1.75
Y85.
Z-2.
Y-85.
Z-2.25
Y85.
Z-2.5
Y-85.
Z-2.75
Y85.
Z-3.
Y-85.
Z-3.25
Y85.
Z-3.5
Y-85.
Z-3.75
Y85.
Z-4.
Y-85.
Z-4.25
Y85.
Z-4.5
Y-85.
Z-4.75
Y85.
Z-5.
Y-85.
Y-94.665
Z-2.
G00 Z3.
X-94.518 Y94.665
G01 Z2.75 F1000.
Z-.25 F800.
Y85.
Y-85. F2000.
Z-.5
Y85.
Z-.75
Y-85.
Z-1.
Y85.
Z-1.25
Y-85.
Z-1.5
Y85.
Z-1.75
Y-85.
Z-2.
Y85.
Z-2.25
Y-85.
Z-2.5
Y85.
Z-2.75
Y-85.
Z-3.
Y85.
Z-3.25
Y-85.
Z-3.5
Y85.
Z-3.75
Y-85.
Z-4.
Y85.
Z-4.25
Y-85.
Z-4.5
Y85.
Z-4.75
Y-85.
Z-5.
Y85.
Y94.665
Z-2.
G00 Z3.
X88.483
G01 Z2.75 F1000.
Z-.25 F800.
Y85.
Y-85. F2000.
Z-.5
Y85.
Z-.75
Y-85.
Z-1.
Y85.
Z-1.25
Y-85.
Z-1.5
Y85.
Z-1.75
Y-85.
Z-2.
Y85.
Z-2.25
Y-85.
Z-2.5
Y85.
Z-2.75
Y-85.
Z-3.
Y85.
Z-3.25
Y-85.
Z-3.5
Y85.
Z-3.75
Y-85.
Z-4.
Y85.
Z-4.25
Y-85.
Z-4.5
Y85.
Z-4.75
Y-85.
Z-5.
Y85.
Y94.665
Z-2.
G00 Z3.
X-58.483 Y-94.665
G01 Z2.75 F1000.
Z-.25 F800.
Y-85.
Y85. F2000.
Z-.5
Y-85.
Z-.75
Y85.
Z-1.
Y-85.
Z-1.25
Y85.
Z-1.5
Y-85.
Z-1.75
Y85.
Z-2.
Y-85.
Z-2.25
Y85.
Z-2.5
Y-85.
Z-2.75
Y85.
Z-3.
Y-85.
Z-3.25
Y85.
Z-3.5
Y-85.
Z-3.75
Y85.
Z-4.
Y-85.
Z-4.25
Y85.
Z-4.5
Y-85.
Z-4.75
Y85.
Z-5.
Y-85.
Y-94.665
Z-2.
G00 Z15.
M09
M05
G91 G28 Z0.0
G28 Y0.0
M30
%
(TOTAL Machine Time: 7.2 min)
