%
G40 G17 G49 G54 G80
G91 G28 Z0.0
( NAME: Administrator )
( PART: H:\CNC-File\2018-11\ÓÀÊ¢½Ü\F1000\f1000-¶¥Õë°å.prt )
( DATE: Fri Nov 23 17:39:35 2018 )
( R3 ---> D=6.00 R=3.00 )
S2000 M03
G00 G90 X-54. Y176.
Z13.97
G17 G01 Z-7.53 F120.
G00 Z13.97
X9.
G01 Z-7.53
G00 Z13.97
X54.7 Y136.4
G01 Z-7.53
G00 Z13.97
X28.5 Y125.5 Z11.97
G01 Z-9.53
G00 Z11.97
X-28. Y127. Z13.97
G01 Z-7.53
G00 Z13.97
X-68. Y125.5 Z11.97
G01 Z-9.53
G00 Z11.97
X-101. Z13.97
G01 Z-7.53
G00 Z13.97
X-68. Y81.5 Z11.97
G01 Z-9.53
G00 Z11.97
X28.5
G01 Z-9.53
G00 Z11.97
X-92. Y59. Z13.97
G01 Z-7.53
G00 Z13.97
X28.5 Y36.1
G01 Z-7.53
G00 Z13.97
X115. Y0.0 Z11.97
G01 Z-9.53
G00 Z11.97
X75. Z20.
G01 Z-1.5
G00 Z20.
X3. Z13.97
G01 Z-7.53
G00 Z13.97
X-75. Z20.
G01 Z-1.5
G00 Z20.
X-92. Y-59. Z13.97
G01 Z-7.53
G00 Z13.97
X28.5 Y-36.1
G01 Z-7.53
G00 Z13.97
X-68. Y-81.5 Z11.97
G01 Z-9.53
G00 Z11.97
X28.5
G01 Z-9.53
G00 Z11.97
X-101. Y-125.5 Z13.97
G01 Z-7.53
G00 Z13.97
X-68. Z11.97
G01 Z-9.53
G00 Z11.97
X-28. Y-127. Z13.97
G01 Z-7.53
G00 Z13.97
X28.5 Y-125.5 Z11.97
G01 Z-9.53
G00 Z11.97
X54.7 Y-136.4 Z13.97
G01 Z-7.53
G00 Z13.97
X9. Y-176.
G01 Z-7.53
G00 Z13.97
X-54.
G01 Z-7.53
G00 Z13.97
M09
M05
G91 G28 Z0.0
G28 Y0.0
M30
%
(TOTAL Machine Time: 5.0 min)
