%
G40 G17 G49 G54 G80
G91 G28 Z0.0
( NAME: HZK-PC )
( PART: H:\CNC-File\2019-3\ºÀÌ©\HT-2019-05\HT-2019-05-Ç°Ä£ÈÊ.prt )
( DATE: Sat Mar 30 08:12:35 2019 )
( Z6 ---> D=6.00 R=0.00 )
S1000 M03
G00 G90 X190. Y160.
Z5.
G17 G01 Z-1.5 F120.
G00 Z5.
X-190.
G01 Z-1.5
G00 Z5.
Y-160.
G01 Z-1.5
G00 Z5.
X190.
G01 Z-1.5
G00 Z5.
( Z6 ---> D=6.00 R=0.00 )
S1000 M03
G00 X66.134 Y-79.92
Z5.
G01 Z-14.5 F120.
G00 Z5.
X38.75 Y-101.758
G01 Z-14.5
G00 Z5.
X6.146 Y-114.554
G01 Z-14.5
G00 Z5.
X-132.28 Y-34.634
G01 Z-14.5
G00 Z5.
X-137.5 Y0.0
G01 Z-14.5
G00 Z5.
X-132.28 Y34.634
G01 Z-14.5
G00 Z5.
X6.146 Y114.554
G01 Z-14.5
G00 Z5.
X38.75 Y101.758
G01 Z-14.5
G00 Z5.
X66.134 Y79.92
G01 Z-14.5
G00 Z5.
M09
M05
G91 G28 Z0.0
G28 Y0.0
M30
%
(TOTAL Machine Time: 2.0 min)
