%
G40 G17 G49 G54 G80
G91 G28 Z0.0
( NAME: Administrator )
( PART: H:\CNC-File\2018-8\²ÓÀ¤\2126\2126-BWDOWN\2126-B-µç¼«-±à³Ì.prt )
( DATE: Mon Aug 20 19:49:39 2018 )
( D10 ---> D=10.00 R=0.00 )
S9000 M03
G00 G90 X-5. Y25.58
Z14.6
G17 G01 Z-38.008 F800.
Z-39.008 F320.
Y24.08
G40 G03 X0.0 Y19.08 I5. J0.0
G01 X23. F800.
G02 X29.08 Y13. I0.0 J-6.08
G01 Y-10.
G02 X27.592 Y-13.592 I-5.08 J0.0
G01 X23.592 Y-17.592
G02 X20. Y-19.08 I-3.592 J3.592
G01 X-23.
G02 X-29.08 Y-13. I0.0 J6.08
G01 Y13.
G02 X-23. Y19.08 I6.08 J0.0
G01 X0.0
X3.
G03 X8. Y24.08 I0.0 J5.
G01 X-5. Y24.04
G03 X0.0 Y19.04 I5. J0.0 F320.
G01 X23. F800.
G02 X29.04 Y13. I0.0 J-6.04
G01 Y-10.
G02 X27.564 Y-13.564 I-5.04 J0.0
G01 X23.564 Y-17.564
G02 X20. Y-19.04 I-3.564 J3.564
G01 X-23.
G02 X-29.04 Y-13. I0.0 J6.04
G01 Y13.
G02 X-23. Y19.04 I6.04 J0.0
G01 X0.0
X3.
G03 X8. Y24.04 I0.0 J5.
G01 X-5. Y24.
G03 X0.0 Y19. I5. J0.0 F320.
G01 X23. F800.
G02 X29. Y13. I0.0 J-6.
G01 Y-10.
G02 X27.536 Y-13.536 I-5. J0.0
G01 X23.536 Y-17.536
G02 X20. Y-19. I-3.536 J3.536
G01 X-23.
G02 X-29. Y-13. I0.0 J6.
G01 Y13.
G02 X-23. Y19. I6. J0.0
G01 X0.0
X3.
G03 X8. Y24. I0.0 J5.
G01 Y25.54
Z-38.008
G00 Z14.6
M09
M05
G91 G28 Z0.0
G28 Y0.0
M30
%
(TOTAL Machine Time: 1.1 min)
