%
G40 G17 G49 G54 G80
G91 G28 Z0.0
( NAME: Administrator )
( PART: H:\CNC-File\2018-7\¹àÐÇ\95004\95004-Ç°Ä£¿ò.prt )
( DATE: Fri Jul 20 19:12:16 2018 )
( E30R5 ---> D=30.00 R=5.00 )
S2000 M03
G00 G90 X-52.1 Y20.
Z17.
G17 G01 Z-34.8 F2000.
Z-37.8 F800.
X-65.6
Y-3.2 F2000.
X-99.763 F1200.
Y43.2
X-65.6
Y20. F2000.
X-75.6
Y6.8
X-89.763
Y33.2
X-75.6
Y20.
X-72.6
Z-34.8
G00 Z17.
X-3.645 Y63.1
G01 Z-53.1
X25. Z-53.6 F800.
X103.1 F1200.
Y-63.1
X-53.1
Y63.1
X25.
Y53.1 F2000.
X93.1
Y-53.1
X-43.1
Y53.1
X25.
Y43.1
X83.1
Y-43.1
X-33.1
Y43.1
X25.
Y33.1
X73.1
Y-33.1
X-23.1
Y33.1
X25.
Y23.1
X63.1
Y-23.1
X-13.1
Y23.1
X25.
Y13.1
X53.1
Y-13.1
X-3.1
Y13.1
X25.
Y3.1
X43.1
Y-3.1
X6.9
Y3.1
X25.
Y6.1
Z-50.6
G00 Z17.
( E30R5 ---> D=30.00 R=5.00 )
S2500 M03
G00 X-55.1 Y14.555
Z17.
G01 Z-37.4 F1000.
Y43.2 Z-37.9 F400.
X-61.1
Y-3.2 F1000.
X-66.616
Y43.2
X-72.133
Y-3.2
X-77.649
Y43.2
X-83.166
Y-3.2
X-88.682
Y43.2
X-94.199
Y-3.2
X-99.715
Y43.2
Z-34.9
G00 Z17.
X-24.455 Y63.097
G01 Z-53.2
X-53.1 Z-53.7 F400.
X103.1 F600.
Y57.361 F1000.
X-53.1
Y51.625
X103.1
Y45.888
X-53.1
Y40.152
X103.1
Y34.416
X-53.1
Y28.68
X103.1
Y22.943
X-53.1
Y17.207
X103.1
Y11.471
X-53.1
Y5.735
X103.1
Y-.001
X-53.1
Y-5.738
X103.1
Y-11.474
X-53.1
Y-17.21
X103.1
Y-22.946
X-53.1
Y-28.683
X103.1
Y-34.419
X-53.1
Y-40.155
X103.1
Y-45.891
X-53.1
Y-51.628
X103.1
Y-57.364
X-53.1
Y-63.1
X103.1
Z-50.7
G00 Z17.
M09
M05
G91 G28 Z0.0
G28 Y0.0
M30
%
(TOTAL Machine Time: 6.4 min)
