%
G40 G17 G49 G54 G80
G91 G28 Z0.0
( NAME: Administrator )
( PART: H:\CNC-File\2018-7\¹àÐÇ\95004\95004-Ç°Ä£¿ò.prt )
( DATE: Thu Jul 19 10:42:07 2018 )
( E30R5 ---> D=30.00 R=5.00 )
S2000 M03
G00 G90 X-51.9 Y20.
Z17.
G17 G01 Z-34.8 F2000.
Z-37.8 F800.
X-65.4
Y-3.2 F2000.
X-99.763 F1200.
Y43.2
X-65.4
Y20. F2000.
X-75.4
Y6.8
X-89.763
Y33.2
X-75.4
Y20.
X-72.4
Z-34.8
G00 Z17.
X-3.645 Y62.9
G01 Z-53.1
X25. Z-53.6 F800.
X102.9 F1200.
Y-62.9
X-52.9
Y62.9
X25.
Y52.9 F2000.
X92.9
Y-52.9
X-42.9
Y52.9
X25.
Y42.9
X82.9
Y-42.9
X-32.9
Y42.9
X25.
Y32.9
X72.9
Y-32.9
X-22.9
Y32.9
X25.
Y22.9
X62.9
Y-22.9
X-12.9
Y22.9
X25.
Y12.9
X52.9
Y-12.9
X-2.9
Y12.9
X25.
Y2.9
X42.9
Y-2.9
X7.1
Y2.9
X25.
Y5.9
Z-50.6
G00 Z17.
( E30R5 ---> D=30.00 R=5.00 )
S2500 M03
G00 X-54.9 Y14.555
Z17.
G01 Z-37.4 F1000.
Y43.2 Z-37.9 F400.
X-60.9
Y-3.2 F1000.
X-66.445
Y43.2
X-71.99
Y-3.2
X-77.535
Y43.2
X-83.08
Y-3.2
X-88.625
Y43.2
X-94.17
Y-3.2
X-99.715
Y43.2
Z-34.9
G00 Z17.
X-24.255 Y62.897
G01 Z-53.2
X-52.9 Z-53.7 F400.
X102.9 F600.
Y56.907 F1000.
X-52.9
Y50.916
X102.9
Y44.926
X-52.9
Y38.936
X102.9
Y32.945
X-52.9
Y26.955
X102.9
Y20.965
X-52.9
Y14.974
X102.9
Y8.984
X-52.9
Y2.994
X102.9
Y-2.997
X-52.9
Y-8.987
X102.9
Y-14.977
X-52.9
Y-20.968
X102.9
Y-26.958
X-52.9
Y-32.948
X102.9
Y-38.939
X-52.9
Y-44.929
X102.9
Y-50.919
X-52.9
Y-56.91
X102.9
Y-62.9
X-52.9
Z-50.7
G00 Z17.
M09
M05
G91 G28 Z0.0
G28 Y0.0
M30
%
(TOTAL Machine Time: 6.2 min)
