%
G40 G17 G49 G54 G80
G91 G28 Z0.0
( NAME: HZK-PC )
( PART: H:\CNC-File\2019-3\ºÀÌ©\HT-2019-04\HT-2019-04-Ç°Ä£ÈÊ.prt )
( DATE: Thu Mar 14 16:19:21 2019 )
( Z6 ---> D=6.00 R=0.00 )
S1000 M03
G00 G90 X-155. Y170.
Z5.
G17 G01 Z-1.5 F120.
G00 Z5.
X155.
G01 Z-1.5
G00 Z5.
Y-170.
G01 Z-1.5
G00 Z5.
X-155.
G01 Z-1.5
G00 Z5.
( Z6 ---> D=6.00 R=0.00 )
S1000 M03
G00 X.004 Y110.
Z5.
G01 Z-14.5 F120.
G00 Z5.
X-89.996 Y20.
G01 Z-14.5
G00 Z5.
X90.004
G01 Z-14.5
G00 Z5.
M09
M05
G91 G28 Z0.0
G28 Y0.0
M30
%
(TOTAL Machine Time: 1.0 min)
