%
G40 G17 G49 G54 G80
G91 G28 Z0.0
( NAME: Administrator )
( PART: H:\CNC-File\2018-7\²ÓÀ¤\2813\2813-ºóÄ£ÈÊ-Ïâ¼þ3.prt )
( DATE: Fri Aug 17 11:04:08 2018 )
( D10R0.5 ---> D=10.00 R=0.50 )
S7000 M03
G00 G90 X0.0 Y-26.651
Z17.
G17 G01 Z3. F500.
Z0.0 F400.
Y-20.151
X-35.289 F1000.
X-35.715 Y-19.366
G40 G02 X-40.627 Y0.0 I35.715 J19.366
X-35.715 Y19.366 I40.627 J0.0
G01 X-35.289 Y20.151
X35.289
X35.715 Y19.365
G02 X40.627 Y0.0 I-35.715 J-19.365
X35.715 Y-19.366 I-40.627 J0.0
G01 X35.289 Y-20.151
X0.0
Y-15.651
X-32.561
G02 X-36.127 Y0.0 I32.561 J15.651
X-32.561 Y15.651 I36.127 J0.0
G01 X32.561
G02 X36.127 Y0.0 I-32.561 J-15.651
X32.561 Y-15.651 I-36.127 J0.0
G01 X0.0
Y-11.151
X-29.596
G02 X-31.627 Y0.0 I29.596 J11.151
X-29.596 Y11.151 I31.627 J0.0
G01 X29.596
G02 X31.627 Y0.0 I-29.596 J-11.151
X29.596 Y-11.151 I-31.627 J0.0
G01 X0.0
Y-6.651
X-26.299
G02 X-27.127 Y0.0 I26.299 J6.651
X-26.299 Y6.651 I27.127 J0.0
G01 X26.299
G02 X27.127 Y0.0 I-26.299 J-6.651
X26.299 Y-6.651 I-27.127 J0.0
G01 X0.0
Y-2.151
X-22.525
G02 X-22.627 Y0.0 I22.525 J2.151
X-22.525 Y2.151 I22.627 J0.0
G01 X22.525
G02 X22.627 Y0.0 I-22.525 J-2.151
X22.525 Y-2.151 I-22.627 J0.0
G01 X0.0
Y-5.151
Z3.
G00 Z17.
M09
M05
G91 G28 Z0.0
G28 Y0.0
M30
%
(TOTAL Machine Time: 1.1 min)
