%
G40 G17 G49 G54 G80
G91 G28 Z0.0
( NAME: Administrator )
( PART: H:\CNC-File\2019-1\永盛杰\LF-面环\LF-前模仁.prt )
( DATE: Mon Jan 21 09:56:10 2019 )
( Z6 ---> D=6.00 R=0.00 )
S1000 M03
G00 G90 X185. Y105.
Z5.
G17 G01 Z-1.5 F120.
G00 Z5.
Y-105.
G01 Z-1.5
G00 Z5.
X0.0 Y-50.
G01 Z-1.5
G00 Z5.
Y105.
G01 Z-1.5
G00 Z5.
X-185.
G01 Z-1.5
G00 Z5.
Y-105.
G01 Z-1.5
G00 Z5.
M09
M05
G91 G28 Z0.0
G28 Y0.0
M30
%
(TOTAL Machine Time: 0.6 min)
