%
G40 G17 G49 G54 G80
G91 G28 Z0.0
( NAME: Administrator )
( PART: H:\CNC-File\2018-7\²ÓÀ¤\2488\G01.prt )
( DATE: Thu Jul 26 19:24:49 2018 )
( D10 ---> D=10.00 R=0.00 )
S7500 M03
G00 G90 X6.5 Y-20.55
Z14.7
G17 G01 Z-32.776 F800.
Z-33.776 F320.
Y-19.05
G40 G03 X1.5 Y-14.05 I-5. J0.0
G01 X-5. F800.
G02 X-8.571 Y-12.571 I0.0 J5.05
G01 X-12.571 Y-8.571
G02 X-14.05 Y-5. I3.571 J3.571
G01 Y8.
G02 X-8. Y14.05 I6.05 J0.0
G01 X8.
G02 X14.05 Y8. I0.0 J-6.05
G01 Y-8.
G02 X8. Y-14.05 I-6.05 J0.0
G01 X1.5
X-1.5
G03 X-6.5 Y-19.05 I0.0 J-5.
G01 X6.5 Y-19.
G03 X1.5 Y-14. I-5. J0.0 F320.
G01 X-5. F800.
G02 X-8.536 Y-12.536 I0.0 J5.
G01 X-12.536 Y-8.536
G02 X-14. Y-5. I3.536 J3.536
G01 Y8.
G02 X-8. Y14. I6. J0.0
G01 X8.
G02 X14. Y8. I0.0 J-6.
G01 Y-8.
G02 X8. Y-14. I-6. J0.0
G01 X1.5
X-1.5
G03 X-6.5 Y-19. I0.0 J-5.
G01 Y-20.452
Z-32.776
G00 Z14.7
M09
M05
G91 G28 Z0.0
G28 Y0.0
M30
%
(TOTAL Machine Time: 0.6 min)
