%
G40 G17 G49 G54 G80
G91 G28 Z0.0
( NAME: Administrator )
( PART: H:\CNC-File\2018-7\ÐË¶¦½Ü\030\Raw-File\030-ºóÄ£¿ò.prt )
( DATE: Mon Jul 23 09:41:44 2018 )
( Z6 ---> D=6.00 R=0.00 )
S1000 M03
G00 G90 X0.0 Y-80.
Z-54.8
G17 G01 Z-61.3 F120.
G00 Z-54.8
Y-145.
G01 Z-61.3
G00 Z-54.8
X140. Y-140.
G01 Z-61.3
G00 Z-54.8
X190. Y-145.
G01 Z-61.3
G00 Z-54.8
Y0.0
G01 Z-61.3
G00 Z-54.8
Y145.
G01 Z-61.3
G00 Z-54.8
X140. Y140.
G01 Z-61.3
G00 Z-54.8
X0.0 Y145.
G01 Z-61.3
G00 Z-54.8
X-140. Y140.
G01 Z-61.3
G00 Z-54.8
X-190. Y145.
G01 Z-61.3
G00 Z-54.8
Y0.0
G01 Z-61.3
G00 Z-54.8
Y-145.
G01 Z-61.3
G00 Z-54.8
X-140. Y-140.
G01 Z-61.3
G00 Z80.
( Z6 ---> D=6.00 R=0.00 )
S1000 M03
G00 X-30. Y-175.
Z-49.8
G01 Z-56.3 F120.
G00 Z-49.8
X30.
G01 Z-56.3
G00 Z80.
M09
M05
G91 G28 Z0.0
G28 Y0.0
M30
%
(TOTAL Machine Time: 1.1 min)
