%
G40 G17 G49 G54 G80
G91 G28 Z0.0
( NAME: Administrator )
( PART: H:\CNC-File\2018-8\²ÓÀ¤\2126\2126-BWDOWN\2126-B-ºóÄ£¿ò.prt )
( DATE: Sat Sep  1 18:21:33 2018 )
( Z6 ---> D=6.00 R=0.00 )
S1000 M03
G00 G90 X-98.03 Y128.46
Z-63.804
G17 G01 Z-70.304 F120.
G00 Z-63.804
X-62.97
G01 Z-70.304
G00 Z-63.804
X-48. Y86.996
G01 Z-70.304
G00 Z-63.804
X-88.001 Y32.
G01 Z-70.304
G00 Z-63.804
Y-32.
G01 Z-70.304
G00 Z-63.804
X-98.03 Y-128.46
G01 Z-70.304
G00 Z-63.804
X-62.97
G01 Z-70.304
G00 Z-63.804
X-48. Y-86.996
G01 Z-70.304
G00 Z-63.804
X25.03 Y-113.501
G01 Z-70.304
G00 Z-63.804
X68. Y-107.996
G01 Z-70.304
G00 Z-63.804
X102.97 Y-128.46
G01 Z-70.304
G00 Z-63.804
X137.97
G01 Z-70.304
G00 Z-63.804
X102. Y-82.996
G01 Z-70.304
G00 Z-63.804
X131. Y-42.996
G01 Z-70.304
G00 Z-63.804
X137. Y0.0
G01 Z-70.304
G00 Z-63.804
X131. Y42.996
G01 Z-70.304
G00 Z-63.804
X102. Y82.996
G01 Z-70.304
G00 Z-63.804
X137.97 Y128.46
G01 Z-70.304
G00 Z-63.804
X102.97
G01 Z-70.304
G00 Z-63.804
X68. Y104.996
G01 Z-70.304
G00 Z-63.804
X25.03 Y120.501
G01 Z-70.304
G00 Z-63.804
( Z6 ---> D=6.00 R=0.00 )
S1000 M03
G00 X-177. Y35.
Z-55.
G01 Z-61.5 F120.
G00 Z-55.
Y-35.
G01 Z-61.5
G00 Z-55.
X-142. Y0.0
G01 Z-61.5
G00 Z-55.
M09
M05
G91 G28 Z0.0
G28 Y0.0
M30
%
(TOTAL Machine Time: 1.6 min)
