%
G40 G17 G49 G54 G80
G91 G28 Z0.0
( NAME: Administrator )
( PART: H:\CNC-File\2018-8\À¶ÏÃ\SG-2000\Raw-File\SG-2000ÂÁÔ²ÅÌÄ£¾ßÍ¼-18.8.31\3D\DZB.prt )
( DATE: Tue Sep 25 11:20:18 2018 )
( R3 ---> D=6.00 R=3.00 )
S2000 M03
G00 G90 X-74.811 Y-94.811
Z5.
G17 G01 Z-1.5 F120.
G00 Z5.
X114.811
G01 Z-1.5
G00 Z5.
Y94.811
G01 Z-1.5
G00 Z5.
X-74.811
G01 Z-1.5
G00 Z5.
X8.8 Y44.694
G01 Z-1.5
G00 Z5.
X-56.619 Y153.238
G01 Z-1.5
G00 Z5.
M09
M05
G91 G28 Z0.0
G28 Y0.0
M30
%
(TOTAL Machine Time: 0.6 min)
