%
G40 G17 G49 G54 G80
G91 G28 Z0.0
( NAME: Capful )
( PART: D:\Program Files\Siemens\NX 12.0\UGII\HM-µç¼«±à³Ì.prt )
( DATE: Sun May 27 04:46:22 2018 )
( D10 ---> D=10.00 R=0.00 )
S6000 M03
G00 G90 X0.0 Y-30.5
Z15.
G17 G01 Z.802 F2500.
Z-.198 F1000.
Y-25.
X-129. F2500.
X-134.5 F2188.
X-140. F1875.
Y-19.5
Y14. F2500.
Y19.5 F2188.
Y25. F1875.
X-134.5
X129. F2500.
X134.5 F2188.
X140. F1875.
Y19.5
Y-14. F2500.
Y-19.5 F2188.
Y-25. F1875.
X134.5
X0.0 F2500.
Y-17.5
X-132.5
Y17.5
X132.5
Y-17.5
X0.0
Y-10.
X-125.
Y10.
X125.
Y-10.
X0.0
Y-2.5
X-117.5
Y2.5
X117.5
Y-2.5
X0.0
Y-7.5
Z.802
G00 Z1.
Y-30.5
G01 Z.603
Z-.397 F1000.
Y-25.
X-129. F2500.
X-134.5 F2188.
X-140. F1875.
Y-19.5
Y14. F2500.
Y19.5 F2188.
Y25. F1875.
X-134.5
X129. F2500.
X134.5 F2188.
X140. F1875.
Y19.5
Y-14. F2500.
Y-19.5 F2188.
Y-25. F1875.
X134.5
X0.0 F2500.
Y-17.5
X-132.5
Y17.5
X132.5
Y-17.5
X0.0
Y-10.
X-125.
Y10.
X125.
Y-10.
X0.0
Y-2.5
X-117.5
Y2.5
X117.5
Y-2.5
X0.0
Y-7.5
Z.603
G00 Z.802
Y-30.5
G01 Z.405
Z-.595 F1000.
Y-25.
X-129. F2500.
X-134.5 F2188.
X-140. F1875.
Y-19.5
Y14. F2500.
Y19.5 F2188.
Y25. F1875.
X-134.5
X129. F2500.
X134.5 F2188.
X140. F1875.
Y19.5
Y-14. F2500.
Y-19.5 F2188.
Y-25. F1875.
X134.5
X71.104 F2500.
Y-17.5
G40 G03 X72.133 Y-12.569 I-11.304 J4.931 F1500.
G01 Y12.569
G03 X71.104 Y17.5 I-12.333 J0.0
G01 X69.729 Y16.9 F2500.
G02 X70.633 Y12.569 I-9.929 J-4.331
G01 Y-12.569
G02 X59.8 Y-23.402 I-10.833 J0.0
X51.253 Y-19.225 I0.0 J10.833
X42.706 Y-23.402 I-8.547 J6.656
X34.16 Y-19.225 I0.0 J10.833
X25.613 Y-23.402 I-8.547 J6.656
X17.066 Y-19.225 I0.0 J10.833
X8.519 Y-23.402 I-8.547 J6.656
X-.028 Y-19.225 I0.0 J10.833
X-8.574 Y-23.402 I-8.547 J6.656
X-17.121 Y-19.225 I0.0 J10.833
X-25.668 Y-23.402 I-8.547 J6.656
X-34.215 Y-19.225 I0.0 J10.833
X-42.761 Y-23.402 I-8.547 J6.656
X-51.308 Y-19.225 I0.0 J10.833
X-59.855 Y-23.402 I-8.547 J6.656
X-68.402 Y-19.225 I0.0 J10.833
X-76.948 Y-23.402 I-8.547 J6.656
X-85.495 Y-19.225 I0.0 J10.833
X-94.042 Y-23.402 I-8.547 J6.656
X-102.589 Y-19.225 I0.0 J10.833
X-111.135 Y-23.402 I-8.547 J6.656
X-119.682 Y-19.225 I0.0 J10.833
X-128.229 Y-23.402 I-8.547 J6.656
X-139.062 Y-12.571 I0.0 J10.833
G01 Y12.571
G02 X-128.229 Y23.402 I10.833 J-.002
X-119.682 Y19.225 I0.0 J-10.833
X-111.135 Y23.402 I8.547 J-6.656
X-102.589 Y19.225 I0.0 J-10.833
X-94.042 Y23.402 I8.547 J-6.656
X-85.495 Y19.225 I0.0 J-10.833
X-76.948 Y23.402 I8.547 J-6.656
X-68.402 Y19.225 I0.0 J-10.833
X-59.855 Y23.402 I8.547 J-6.656
X-51.308 Y19.225 I0.0 J-10.833
X-42.761 Y23.402 I8.547 J-6.656
X-34.215 Y19.225 I0.0 J-10.833
X-25.668 Y23.402 I8.547 J-6.656
X-17.121 Y19.225 I0.0 J-10.833
X-8.574 Y23.402 I8.547 J-6.656
X-.028 Y19.225 I0.0 J-10.833
X8.519 Y23.402 I8.547 J-6.656
X17.066 Y19.225 I0.0 J-10.833
X25.613 Y23.402 I8.547 J-6.656
X34.16 Y19.225 I0.0 J-10.833
X42.706 Y23.402 I8.547 J-6.656
X51.253 Y19.225 I0.0 J-10.833
X59.8 Y23.402 I8.547 J-6.656
X69.729 Y16.9 I0.0 J-10.833
G01 X71.104 Y17.5
X99.776
G03 X98.747 Y12.569 I11.304 J-4.931 F1500.
G01 Y12.567
Y-12.567
Y-12.569
G03 X99.776 Y-17.5 I12.333 J0.0
G01 X101.151 Y-16.9 F2500.
G02 X100.247 Y-12.569 I9.929 J4.331
G01 Y-12.567
Y12.567
Y12.569
G02 X111.08 Y23.402 I10.833 J0.0
X119.627 Y19.225 I0.0 J-10.833
X128.174 Y23.402 I8.547 J-6.656
X139.007 Y12.569 I0.0 J-10.833
G01 Y12.565
Y-12.565
Y-12.569
G02 X128.174 Y-23.402 I-10.833 J0.0
X119.627 Y-19.225 I0.0 J10.833
X111.08 Y-23.402 I-8.547 J6.656
X101.151 Y-16.9 I0.0 J10.833
G01 X99.776 Y-17.5
X71.104
X79.633 Y-10.
Y10.
X91.247
Y-10.
X79.633
X84.133 Y-5.5
Y5.5
X86.747
Y-5.5
X84.133
X79.633 Y-10.
X71.104 Y-17.5
Y-25.
X0.0
Y-30.5
Z.405
G00 Z.603
G01 Z.206
Z-.794 F1000.
Y-25.
X-129. F2500.
X-134.5 F2188.
X-140. F1875.
Y-19.5
Y14. F2500.
Y19.5 F2188.
Y25. F1875.
X-134.5
X129. F2500.
X134.5 F2188.
X140. F1875.
Y19.5
Y-14. F2500.
Y-19.5 F2188.
Y-25. F1875.
X134.5
X71.133 F2500.
Y-17.5
G03 X72.159 Y-12.569 I-11.333 J4.931 F1500.
G01 Y12.569
G03 X71.133 Y17.5 I-12.359 J0.0
G01 X69.757 Y16.902 F2500.
G02 X70.659 Y12.569 I-9.958 J-4.333
G01 Y-12.569
G02 X59.8 Y-23.428 I-10.859 J0.0
X51.253 Y-19.268 I0.0 J10.859
X42.706 Y-23.428 I-8.547 J6.699
X34.16 Y-19.268 I0.0 J10.859
X25.613 Y-23.428 I-8.547 J6.699
X17.066 Y-19.268 I0.0 J10.859
X8.519 Y-23.428 I-8.547 J6.699
X-.028 Y-19.268 I0.0 J10.859
X-8.574 Y-23.428 I-8.547 J6.699
X-17.121 Y-19.268 I0.0 J10.859
X-25.668 Y-23.428 I-8.547 J6.699
X-34.215 Y-19.268 I0.0 J10.859
X-42.761 Y-23.428 I-8.547 J6.699
X-51.308 Y-19.268 I0.0 J10.859
X-59.855 Y-23.428 I-8.547 J6.699
X-68.402 Y-19.268 I0.0 J10.859
X-76.948 Y-23.428 I-8.547 J6.699
X-85.495 Y-19.268 I0.0 J10.859
X-94.042 Y-23.428 I-8.547 J6.699
X-102.589 Y-19.268 I0.0 J10.859
X-111.135 Y-23.428 I-8.547 J6.699
X-119.682 Y-19.268 I0.0 J10.859
X-128.229 Y-23.428 I-8.547 J6.699
X-139.088 Y-12.569 I0.0 J10.859
G01 Y12.569
G02 X-128.229 Y23.428 I10.859 J0.0
X-119.682 Y19.268 I0.0 J-10.859
X-111.135 Y23.428 I8.547 J-6.699
X-102.589 Y19.268 I0.0 J-10.859
X-94.042 Y23.428 I8.547 J-6.699
X-85.495 Y19.268 I0.0 J-10.859
X-76.948 Y23.428 I8.547 J-6.699
X-68.402 Y19.268 I0.0 J-10.859
X-59.855 Y23.428 I8.547 J-6.699
X-51.308 Y19.268 I0.0 J-10.859
X-42.761 Y23.428 I8.547 J-6.699
X-34.215 Y19.268 I0.0 J-10.859
X-25.668 Y23.428 I8.547 J-6.699
X-17.121 Y19.268 I0.0 J-10.859
X-8.574 Y23.428 I8.547 J-6.699
X-.028 Y19.268 I0.0 J-10.859
X8.519 Y23.428 I8.547 J-6.699
X17.066 Y19.268 I0.0 J-10.859
X25.613 Y23.428 I8.547 J-6.699
X34.16 Y19.268 I0.0 J-10.859
X42.706 Y23.428 I8.547 J-6.699
X51.253 Y19.268 I0.0 J-10.859
X59.8 Y23.428 I8.547 J-6.699
X69.757 Y16.902 I0.0 J-10.859
G01 X71.133 Y17.5
X99.747
G03 X98.721 Y12.569 I11.333 J-4.931 F1500.
G01 Y-12.569
G03 X99.747 Y-17.5 I12.359 J0.0
G01 X101.123 Y-16.902 F2500.
G02 X100.221 Y-12.569 I9.958 J4.333
G01 Y12.569
G02 X111.08 Y23.428 I10.859 J0.0
X119.627 Y19.268 I0.0 J-10.859
X128.174 Y23.428 I8.547 J-6.699
X139.033 Y12.569 I0.0 J-10.859
G01 Y-12.569
G02 X128.174 Y-23.428 I-10.859 J0.0
X119.627 Y-19.268 I0.0 J10.859
X111.08 Y-23.428 I-8.547 J6.699
X101.123 Y-16.902 I0.0 J10.859
G01 X99.747 Y-17.5
X71.133
X79.659 Y-10.
Y10.
X91.221
Y-10.
X79.659
X84.159 Y-5.5
Y5.5
X86.721
Y-5.5
X84.159
X79.659 Y-10.
X71.133 Y-17.5
Y-25.
X0.0
Y-30.5
Z.206
G00 Z.405
G01 Z.008
Z-.992 F1000.
Y-25.
X-129. F2500.
X-134.5 F2188.
X-140. F1875.
Y-19.5
Y14. F2500.
Y19.5 F2188.
Y25. F1875.
X-134.5
X129. F2500.
X134.5 F2188.
X140. F1875.
Y19.5
Y-14. F2500.
Y-19.5 F2188.
Y-25. F1875.
X134.5
X71.148 F2500.
Y-17.5
G03 X72.173 Y-12.569 I-11.348 J4.931 F1500.
G01 Y12.569
G03 X71.148 Y17.5 I-12.373 J0.0
G01 X69.772 Y16.902 F2500.
G02 X70.673 Y12.569 I-9.972 J-4.333
G01 Y-12.569
G02 X67.972 Y-19.741 I-10.873 J0.0
X67.082 Y-20.663 I-9.085 J7.879
X66.318 Y-21.298 I-6.163 J6.642
X59.8 Y-23.463 I-6.518 J8.729
X53.282 Y-21.298 I0.0 J10.894
X51.608 Y-19.719 I6.281 J8.335
X51.253 Y-19.291 I8.192 J7.15
X50.878 Y-19.741 I-8.547 J6.722
X49.224 Y-21.298 I-7.98 J6.822
X42.706 Y-23.463 I-6.518 J8.729
X36.189 Y-21.298 I0.0 J10.894
G01 X36.011 Y-21.164
G02 X35.612 Y-20.833 I3.508 J4.639
G01 X35.505 Y-20.736
G02 X34.527 Y-19.734 I7.685 J8.472
X34.16 Y-19.291 I8.179 J7.165
X33.785 Y-19.741 I-8.547 J6.722
X32.13 Y-21.298 I-8.012 J6.856
X25.613 Y-23.463 I-6.518 J8.729
X19.095 Y-21.298 I0.0 J10.894
X17.278 Y-19.552 I6.486 J8.567
X17.066 Y-19.291 I8.335 J6.983
X16.691 Y-19.741 I-8.547 J6.722
X15.037 Y-21.298 I-7.978 J6.821
X8.519 Y-23.463 I-6.518 J8.729
X2.001 Y-21.298 I0.0 J10.894
X.34 Y-19.734 I6.389 J8.448
X-.028 Y-19.291 I8.179 J7.165
X-.402 Y-19.741 I-8.547 J6.722
X-1.508 Y-20.856 I-8.529 J7.352
X-1.843 Y-21.135 I-5.346 J6.099
X-8.574 Y-23.463 I-6.731 J8.566
X-15.092 Y-21.298 I0.0 J10.894
X-16.83 Y-19.644 I6.438 J8.509
X-17.121 Y-19.291 I8.256 J7.076
X-17.496 Y-19.741 I-8.547 J6.722
X-19.15 Y-21.298 I-7.972 J6.814
X-25.668 Y-23.463 I-6.518 J8.729
X-32.185 Y-21.298 I0.0 J10.894
X-33.847 Y-19.734 I6.377 J8.435
X-34.215 Y-19.291 I8.179 J7.165
X-34.517 Y-19.658 I-8.547 J6.722
X-35.521 Y-20.701 I-8.917 J7.584
X-36.149 Y-21.227 I-6.149 J6.704
X-42.761 Y-23.463 I-6.612 J8.658
X-49.279 Y-21.298 I0.0 J10.894
X-50.94 Y-19.734 I6.345 J8.402
X-51.308 Y-19.291 I8.179 J7.165
X-51.683 Y-19.741 I-8.547 J6.722
X-53.337 Y-21.298 I-7.975 J6.818
X-59.855 Y-23.463 I-6.518 J8.729
X-66.373 Y-21.298 I0.0 J10.894
X-68.034 Y-19.734 I6.362 J8.419
X-68.402 Y-19.291 I8.179 J7.165
X-68.776 Y-19.741 I-8.547 J6.722
X-70.43 Y-21.298 I-7.933 J6.772
X-76.948 Y-23.463 I-6.518 J8.729
X-83.466 Y-21.298 I0.0 J10.894
X-85.127 Y-19.734 I6.256 J8.307
X-85.495 Y-19.291 I8.179 J7.165
X-85.87 Y-19.741 I-8.547 J6.722
X-87.524 Y-21.298 I-7.959 J6.801
X-94.042 Y-23.463 I-6.518 J8.729
X-100.559 Y-21.298 I0.0 J10.894
X-102.221 Y-19.734 I6.383 J8.441
X-102.589 Y-19.291 I8.179 J7.165
X-102.929 Y-19.702 I-8.547 J6.722
X-104.618 Y-21.298 I-8.085 J6.864
X-111.135 Y-23.463 I-6.518 J8.729
X-117.653 Y-21.298 I0.0 J10.894
X-119.314 Y-19.734 I6.367 J8.424
X-119.682 Y-19.291 I8.179 J7.165
X-120.057 Y-19.741 I-8.547 J6.722
X-121.711 Y-21.298 I-7.986 J6.829
X-128.229 Y-23.463 I-6.518 J8.729
X-134.747 Y-21.298 I0.0 J10.894
X-136.408 Y-19.734 I6.387 J8.445
X-139.102 Y-12.569 I8.179 J7.165
G01 Y12.569
G02 X-136.401 Y19.741 I10.873 J0.0
X-134.992 Y21.109 I8.176 J-7.009
X-134.747 Y21.298 I4.012 J-4.967
X-128.229 Y23.463 I6.518 J-8.729
X-121.711 Y21.298 I0.0 J-10.894
X-120.05 Y19.734 I-6.332 J-8.388
X-119.682 Y19.291 I-8.179 J-7.165
X-119.308 Y19.741 I8.547 J-6.722
X-117.897 Y21.111 I8.284 J-7.117
X-117.653 Y21.298 I3.564 J-4.401
X-111.135 Y23.463 I6.518 J-8.729
X-104.618 Y21.298 I0.0 J-10.894
X-102.929 Y19.702 I-6.379 J-8.441
X-102.589 Y19.291 I-8.206 J-7.134
X-102.214 Y19.741 I8.547 J-6.722
X-100.644 Y21.237 I8.223 J-7.057
G01 X-100.639 Y21.238
X-100.559 Y21.298
G02 X-94.042 Y23.463 I6.518 J-8.729
X-87.524 Y21.298 I0.0 J-10.894
X-85.863 Y19.734 I-6.328 J-8.383
X-85.495 Y19.291 I-8.179 J-7.165
X-85.12 Y19.741 I8.547 J-6.722
X-83.551 Y21.237 I8.167 J-6.999
G01 X-83.546 Y21.238
X-83.466 Y21.298
G02 X-76.948 Y23.463 I6.518 J-8.729
X-70.43 Y21.298 I0.0 J-10.894
X-68.769 Y19.734 I-6.299 J-8.353
X-68.402 Y19.291 I-8.179 J-7.165
X-68.027 Y19.741 I8.547 J-6.722
X-66.615 Y21.112 I8.304 J-7.141
X-66.373 Y21.298 I3.713 J-4.586
X-59.855 Y23.463 I6.518 J-8.729
X-53.337 Y21.298 I0.0 J-10.894
X-51.676 Y19.734 I-6.333 J-8.388
X-51.308 Y19.291 I-8.179 J-7.165
X-51.096 Y19.552 I8.547 J-6.722
X-50.043 Y20.663 I9.309 J-7.768
X-49.279 Y21.298 I6.13 J-6.595
X-42.761 Y23.463 I6.518 J-8.729
X-36.244 Y21.298 I0.0 J-10.894
X-35.024 Y20.218 I-6.069 J-8.083
G01 X-34.852 Y20.035
X-34.814 Y19.996
X-34.618 Y19.774
X-34.573 Y19.723
G02 X-34.215 Y19.291 I-8.188 J-7.154
X-33.84 Y19.741 I8.547 J-6.722
X-32.853 Y20.75 I8.64 J-7.462
X-32.275 Y21.23 I6.068 J-6.717
X-25.668 Y23.463 I6.608 J-8.661
X-19.15 Y21.298 I0.0 J-10.894
X-17.489 Y19.734 I-6.327 J-8.382
X-17.121 Y19.291 I-8.179 J-7.165
X-16.83 Y19.644 I8.547 J-6.722
X-15.468 Y21.003 I8.613 J-7.28
X-15.272 Y21.161 I4.479 J-5.336
X-8.574 Y23.463 I6.698 J-8.592
X-2.056 Y21.298 I0.0 J-10.894
X-.395 Y19.734 I-6.301 J-8.355
X-.028 Y19.291 I-8.179 J-7.165
X.347 Y19.741 I8.547 J-6.722
X2.001 Y21.298 I7.992 J-6.835
X8.519 Y23.463 I6.518 J-8.729
X15.037 Y21.298 I0.0 J-10.894
X16.698 Y19.734 I-6.333 J-8.388
X17.066 Y19.291 I-8.179 J-7.165
X17.278 Y19.552 I8.547 J-6.722
X18.331 Y20.663 I9.287 J-7.747
X19.095 Y21.298 I6.196 J-6.674
X25.613 Y23.463 I6.518 J-8.729
X32.13 Y21.298 I0.0 J-10.894
X33.792 Y19.734 I-6.361 J-8.418
X34.16 Y19.291 I-8.179 J-7.165
X34.534 Y19.741 I8.547 J-6.722
X35.523 Y20.752 I8.639 J-7.461
G01 X35.936 Y21.107
G02 X36.189 Y21.298 I6.793 J-8.716
X42.706 Y23.463 I6.518 J-8.729
X49.224 Y21.298 I0.0 J-10.894
X50.885 Y19.734 I-6.342 J-8.398
X51.253 Y19.291 I-8.179 J-7.165
X51.519 Y19.615 I8.547 J-6.722
X53.033 Y21.107 I8.479 J-7.092
X53.282 Y21.298 I2.802 J-3.396
X59.8 Y23.463 I6.518 J-8.729
X66.318 Y21.298 I0.0 J-10.894
X67.979 Y19.734 I-6.304 J-8.357
X69.772 Y16.902 I-8.179 J-7.165
G01 X71.148 Y17.5
X99.732
G03 X98.707 Y12.569 I11.348 J-4.931 F1500.
G01 Y-12.569
G03 X99.732 Y-17.5 I12.373 J0.0
G01 X101.108 Y-16.902 F2500.
G02 X100.207 Y-12.569 I9.972 J4.333
G01 Y12.569
G02 X102.908 Y19.741 I10.873 J0.0
X103.899 Y20.754 I8.502 J-7.327
X104.514 Y21.262 I6.191 J-6.874
X111.08 Y23.463 I6.566 J-8.693
X117.598 Y21.298 I0.0 J-10.894
X119.259 Y19.734 I-6.299 J-8.353
X119.627 Y19.291 I-8.179 J-7.165
X119.883 Y19.604 I8.547 J-6.722
X120.891 Y20.663 I9.183 J-7.736
X121.656 Y21.298 I6.103 J-6.567
X128.174 Y23.463 I6.518 J-8.729
X134.692 Y21.298 I0.0 J-10.894
X136.353 Y19.734 I-6.31 J-8.364
X139.047 Y12.569 I-8.179 J-7.165
G01 Y-12.569
G02 X136.346 Y-19.741 I-10.873 J0.0
X134.692 Y-21.298 I-7.959 J6.801
X128.174 Y-23.463 I-6.518 J8.729
X121.656 Y-21.298 I0.0 J10.894
X119.972 Y-19.708 I6.353 J8.413
X119.627 Y-19.291 I8.201 J7.139
X119.252 Y-19.741 I-8.547 J6.722
X117.598 Y-21.298 I-8.004 J6.848
X111.08 Y-23.463 I-6.518 J8.729
X104.563 Y-21.298 I0.0 J10.894
G01 X104.477 Y-21.234
G02 X103.865 Y-20.724 I5.16 J6.824
X102.901 Y-19.734 I7.978 J8.725
X101.108 Y-16.902 I8.179 J7.165
G01 X99.732 Y-17.5
X71.148
X79.673 Y-10.
Y10.
X91.207
Y-10.
X79.673
X84.173 Y-5.5
Y5.5
X86.707
Y-5.5
X84.173
X79.673 Y-10.
X71.148 Y-17.5
Y-25.
X0.0
Y-30.5
Z.008
G00 Z.206
G01 Z-.191
Z-1.191 F1000.
Y-25.
X-129. F2500.
X-134.5 F2188.
X-140. F1875.
Y-19.5
Y14. F2500.
Y19.5 F2188.
Y25. F1875.
X-134.5
X129. F2500.
X134.5 F2188.
X140. F1875.
Y19.5
Y-14. F2500.
Y-19.5 F2188.
Y-25. F1875.
X134.5
X71.163 F2500.
Y-17.5
G03 X72.187 Y-12.569 I-11.363 J4.931 F1500.
G01 Y12.569
G03 X71.163 Y17.5 I-12.387 J0.0
G01 X69.787 Y16.903 F2500.
G02 X70.687 Y12.569 I-9.987 J-4.334
G01 Y-12.569
G02 X68.854 Y-18.615 I-10.887 J0.0
X68.034 Y-19.774 I-15.376 J10.007
X66.353 Y-21.44 I-6.658 J5.034
X59.8 Y-23.599 I-6.554 J8.872
X53.201 Y-21.407 I0.0 J11.03
X51.929 Y-20.218 I4.682 J6.286
X51.253 Y-19.359 I10.549 J8.994
X50.376 Y-20.441 I-9.374 J6.705
X49.305 Y-21.407 I-5.472 J4.989
X42.706 Y-23.599 I-6.599 J8.838
X36.107 Y-21.407 I0.0 J11.03
X34.629 Y-19.975 I4.84 J6.475
X34.16 Y-19.359 I13.134 J10.506
X33.571 Y-20.118 I-11.232 J8.107
X32.213 Y-21.406 I-6.139 J5.114
X25.613 Y-23.599 I-6.601 J8.837
X19.011 Y-21.404 I0.0 J11.03
X17.573 Y-20.018 I4.784 J6.403
X17.066 Y-19.359 I13.907 J11.212
X16.309 Y-20.31 I-10.04 J7.221
X15.118 Y-21.407 I-5.891 J5.2
X8.519 Y-23.599 I-6.599 J8.838
X1.92 Y-21.407 I0.0 J11.03
X.648 Y-20.218 I4.66 J6.264
X-.027 Y-19.359 I9.254 J7.972
G01 X-.447 Y-19.91
X-.516 Y-19.996
G02 X-1.975 Y-21.407 I-6.391 J5.153
X-8.574 Y-23.599 I-6.599 J8.838
X-15.173 Y-21.407 I0.0 J11.03
X-16.756 Y-19.842 I5.057 J6.698
G01 X-16.809 Y-19.774
X-16.83 Y-19.749
X-17.121 Y-19.359
G02 X-17.873 Y-20.304 I-10.117 J7.277
X-19.069 Y-21.407 I-5.775 J5.065
X-25.668 Y-23.599 I-6.599 J8.838
X-32.267 Y-21.407 I0.0 J11.03
X-33.539 Y-20.218 I4.702 J6.31
X-34.214 Y-19.359 I9.665 J8.291
G01 X-34.294 Y-19.466
X-34.629 Y-19.904
X-34.703 Y-19.996
G02 X-36.162 Y-21.407 I-6.378 J5.14
X-42.761 Y-23.599 I-6.599 J8.838
X-49.36 Y-21.407 I0.0 J11.03
X-50.996 Y-19.774 I5.117 J6.762
G01 X-51.308 Y-19.359
G02 X-52.055 Y-20.299 I-9.718 J6.962
X-53.256 Y-21.407 I-5.921 J5.212
X-59.855 Y-23.599 I-6.599 J8.838
X-66.454 Y-21.407 I0.0 J11.03
X-67.917 Y-19.995 I5.025 J6.672
G01 X-68.09 Y-19.774
X-68.141 Y-19.711
X-68.401 Y-19.359
G02 X-68.89 Y-19.996 I-13.969 J10.203
X-70.349 Y-21.407 I-6.306 J5.066
X-76.948 Y-23.599 I-6.599 J8.838
X-83.547 Y-21.407 I0.0 J11.03
X-85.12 Y-19.856 I5.049 J6.692
G01 X-85.439 Y-19.434
X-85.496 Y-19.357
G02 X-86.584 Y-20.663 I-8.384 J5.877
X-87.443 Y-21.407 I-5.159 J5.089
X-94.042 Y-23.599 I-6.599 J8.838
X-100.641 Y-21.407 I0.0 J11.03
X-101.652 Y-20.506 I4.522 J6.097
X-102.588 Y-19.359 I8.22 J7.666
X-103.265 Y-20.218 I-11.441 J8.316
X-104.536 Y-21.407 I-5.956 J5.098
X-111.135 Y-23.599 I-6.599 J8.838
X-117.734 Y-21.407 I0.0 J11.03
X-119.371 Y-19.774 I5.158 J6.807
G01 X-119.682 Y-19.359
G02 X-120.358 Y-20.218 I-10.979 J7.948
X-121.63 Y-21.407 I-5.88 J5.017
X-128.229 Y-23.599 I-6.599 J8.838
X-134.828 Y-21.407 I0.0 J11.03
X-136.281 Y-20.006 I4.974 J6.617
X-137.287 Y-18.609 I13.415 J10.713
X-139.116 Y-12.569 I9.058 J6.04
G01 Y12.569
G02 X-137.283 Y18.615 I10.887 J0.0
X-136.325 Y19.951 I14.433 J-9.333
X-134.828 Y21.407 I6.32 J-5.004
X-128.229 Y23.599 I6.599 J-8.838
X-121.63 Y21.407 I0.0 J-11.03
X-120.358 Y20.218 I-4.66 J-6.261
X-119.682 Y19.359 I-9.475 J-8.153
X-118.639 Y20.616 I8.825 J-6.266
X-117.861 Y21.311 I5.122 J-4.951
X-111.135 Y23.599 I6.725 J-8.742
X-104.536 Y21.407 I0.0 J-11.03
X-102.844 Y19.702 I-5.156 J-6.811
G01 X-102.589 Y19.359
G02 X-101.496 Y20.664 I8.563 J-6.058
X-100.723 Y21.345 I5.173 J-5.098
X-94.042 Y23.599 I6.681 J-8.776
X-87.443 Y21.407 I0.0 J-11.03
X-86.171 Y20.218 I-4.666 J-6.269
X-85.495 Y19.359 I-9.028 J-7.798
X-84.392 Y20.675 I8.827 J-6.28
X-83.678 Y21.308 I4.95 J-4.868
X-76.948 Y23.599 I6.729 J-8.739
X-70.349 Y21.407 I0.0 J-11.03
X-68.89 Y19.996 I-4.847 J-6.476
X-68.402 Y19.359 I-13.931 J-11.18
X-67.253 Y20.72 I8.654 J-6.14
X-66.585 Y21.307 I4.861 J-4.858
X-59.855 Y23.599 I6.731 J-8.738
X-53.256 Y21.407 I0.0 J-11.03
X-51.608 Y19.76 I-5.126 J-6.776
G01 X-51.308 Y19.359
G02 X-50.715 Y20.122 I11.664 J-8.465
X-49.36 Y21.407 I6.295 J-5.28
X-42.761 Y23.599 I6.599 J-8.838
X-36.162 Y21.407 I0.0 J-11.03
X-34.703 Y19.996 I-4.96 J-6.594
X-34.215 Y19.359 I-13.169 J-10.594
X-33.288 Y20.494 I9.018 J-6.417
X-32.266 Y21.407 I5.352 J-4.961
X-25.668 Y23.599 I6.599 J-8.838
X-19.069 Y21.407 I0.0 J-11.03
X-17.797 Y20.218 I-4.637 J-6.239
X-17.121 Y19.359 I-10.162 J-8.688
X-16.309 Y20.37 I9.541 J-6.832
X-15.173 Y21.407 I5.817 J-5.234
X-8.574 Y23.599 I6.599 J-8.838
X-1.975 Y21.407 I0.0 J-11.03
X-.447 Y19.91 I-4.978 J-6.614
X-.028 Y19.359 I-14.097 J-11.159
X.71 Y20.288 I9.76 J-6.987
X1.911 Y21.4 I5.919 J-5.193
X8.519 Y23.599 I6.608 J-8.831
X15.118 Y21.407 I0.0 J-11.03
X16.532 Y20.051 I-4.951 J-6.581
X17.066 Y19.359 I-12.712 J-10.352
X17.742 Y20.218 I11.057 J-8.003
X19.014 Y21.407 I6.2 J-5.362
X25.613 Y23.599 I6.599 J-8.838
X32.212 Y21.407 I0.0 J-11.03
X33.847 Y19.774 I-4.985 J-6.628
G01 X34.159 Y19.359
G02 X34.852 Y20.24 I11.242 J-8.13
X36.108 Y21.407 I5.931 J-5.123
X42.706 Y23.599 I6.599 J-8.838
X49.305 Y21.407 I0.0 J-11.03
X50.491 Y20.315 I-4.582 J-6.168
X51.253 Y19.359 I-9.188 J-8.105
X52.502 Y20.823 I8.961 J-6.38
X52.835 Y21.122 I3.357 J-3.415
X59.8 Y23.599 I6.964 J-8.553
X66.353 Y21.44 I0.0 J-11.03
X68.034 Y19.774 I-4.972 J-6.694
X68.858 Y18.609 I-14.57 J-11.177
X69.787 Y16.903 I-9.058 J-6.04
G01 X71.163 Y17.5
X99.717
G03 X98.693 Y12.569 I11.363 J-4.931 F1500.
G01 Y-12.569
G03 X99.717 Y-17.5 I12.387 J0.0
G01 X101.093 Y-16.903 F2500.
G02 X100.193 Y-12.569 I9.987 J4.334
G01 Y12.569
G02 X102.026 Y18.615 I10.887 J0.0
X102.993 Y19.963 I14.878 J-9.653
X104.482 Y21.407 I6.448 J-5.156
X111.08 Y23.599 I6.599 J-8.838
X117.679 Y21.407 I0.0 J-11.03
X118.951 Y20.218 I-4.726 J-6.335
X119.627 Y19.359 I-9.673 J-8.301
X120.419 Y20.349 I9.854 J-7.076
X121.575 Y21.407 I5.614 J-4.973
X128.174 Y23.599 I6.599 J-8.838
X134.717 Y21.448 I0.0 J-11.03
X136.281 Y19.939 I-4.933 J-6.676
X137.342 Y18.441 I-14.613 J-11.469
X139.061 Y12.569 I-9.168 J-5.872
G01 Y-12.569
G02 X137.227 Y-18.616 I-10.887 J0.0
X136.265 Y-19.957 I-14.06 J9.076
X134.72 Y-21.446 I-6.392 J5.084
X128.174 Y-23.599 I-6.547 J8.877
X121.575 Y-21.407 I0.0 J11.03
X120.303 Y-20.218 I4.586 J6.181
X119.627 Y-19.359 I9.703 J8.333
X118.632 Y-20.568 I-9.283 J6.634
X117.679 Y-21.407 I-5.386 J5.154
X111.08 Y-23.599 I-6.599 J8.838
X104.481 Y-21.407 I0.0 J11.03
X102.993 Y-19.963 I4.958 J6.599
X102.022 Y-18.609 I13.916 J11.005
X101.093 Y-16.903 I9.058 J6.04
G01 X99.717 Y-17.5
X71.163
X79.687 Y-10.
Y10.
X91.193
Y-10.
X79.687
X84.187 Y-5.5
Y5.5
X86.693
Y-5.5
X84.187
X79.687 Y-10.
X71.163 Y-17.5
Y-25.
X0.0
Y-30.5
Z-.191
G00 Z.008
G01 Z-.389
Z-1.389 F1000.
Y-25.
X-129. F2500.
X-134.5 F2188.
X-140. F1875.
Y-19.5
Y14. F2500.
Y19.5 F2188.
Y25. F1875.
X-134.5
X129. F2500.
X134.5 F2188.
X140. F1875.
Y19.5
Y-14. F2500.
Y-19.5 F2188.
Y-25. F1875.
X134.5
X71.178 F2500.
Y-17.5
G03 X72.201 Y-12.569 I-11.378 J4.931 F1500.
G01 Y12.569
G03 X71.178 Y17.5 I-12.401 J0.0
G01 X69.802 Y16.904 F2500.
G02 X70.701 Y12.569 I-10.002 J-4.335
G01 Y-12.569
G02 X69.481 Y-17.579 I-10.901 J0.0
G03 X69.034 Y-18.466 I54.323 J-27.921
G02 X67.472 Y-20.884 I-6.327 J2.374
X66.409 Y-21.812 I-5.586 J5.332
X59.8 Y-23.931 I-6.609 J9.243
X53.007 Y-21.677 I0.0 J11.363
X51.905 Y-20.65 I5.684 J7.2
X51.253 Y-19.82 I5.404 J4.915
X49.315 Y-21.812 I-6.746 J4.626
X42.706 Y-23.931 I-6.609 J9.243
X35.916 Y-21.679 I0.0 J11.363
X34.626 Y-20.441 I5.614 J7.135
X34.16 Y-19.82 I5.117 J4.336
X32.222 Y-21.812 I-6.737 J4.618
X25.613 Y-23.931 I-6.609 J9.243
X18.822 Y-21.679 I0.0 J11.363
X17.712 Y-20.643 I5.515 J7.023
X17.066 Y-19.82 I5.595 J5.055
X15.789 Y-21.275 I-6.545 J4.461
X15.128 Y-21.812 I-4.474 J4.829
X8.519 Y-23.931 I-6.609 J9.243
X1.726 Y-21.677 I0.0 J11.363
X1.071 Y-21.107 I4.439 J5.758
X-.027 Y-19.82 I5.096 J5.464
X-1.285 Y-21.257 I-6.708 J4.604
X-1.965 Y-21.812 I-4.578 J4.919
X-8.574 Y-23.931 I-6.609 J9.243
X-15.366 Y-21.678 I0.0 J11.363
X-16.472 Y-20.646 I5.673 J7.189
X-17.121 Y-19.82 I5.445 J4.945
X-19.059 Y-21.812 I-6.737 J4.617
X-25.668 Y-23.931 I-6.609 J9.243
X-32.458 Y-21.68 I0.0 J11.363
X-33.747 Y-20.441 I5.542 J7.059
X-34.214 Y-19.82 I4.922 J4.192
X-36.152 Y-21.812 I-6.764 J4.644
X-42.761 Y-23.931 I-6.609 J9.243
X-49.551 Y-21.68 I0.0 J11.363
X-50.652 Y-20.654 I5.532 J7.04
X-51.309 Y-19.822 I5.774 J5.237
X-53.005 Y-21.631 I-6.81 J4.685
X-53.245 Y-21.811 I-4.022 J5.108
X-59.855 Y-23.931 I-6.61 J9.243
X-66.648 Y-21.677 I0.0 J11.363
X-67.917 Y-20.461 I5.591 J7.105
X-68.401 Y-19.82 I4.874 J4.187
X-69.683 Y-21.278 I-6.614 J4.526
X-70.339 Y-21.812 I-4.326 J4.646
X-76.948 Y-23.931 I-6.609 J9.243
X-83.739 Y-21.679 I0.0 J11.363
X-85.12 Y-20.329 I5.545 J7.056
X-85.495 Y-19.82 I4.97 J4.052
X-86.594 Y-21.107 I-6.234 J4.211
X-87.433 Y-21.812 I-4.987 J5.088
X-94.042 Y-23.931 I-6.609 J9.243
X-100.832 Y-21.679 I0.0 J11.363
X-102.099 Y-20.467 I5.609 J7.13
X-102.588 Y-19.82 I4.947 J4.251
X-104.526 Y-21.812 I-6.766 J4.646
X-111.135 Y-23.931 I-6.609 J9.243
X-117.925 Y-21.68 I0.0 J11.363
X-118.829 Y-20.862 I5.205 J6.663
X-119.682 Y-19.821 I4.828 J4.824
X-121.62 Y-21.812 I-6.751 J4.633
X-128.229 Y-23.931 I-6.609 J9.243
X-135.023 Y-21.677 I0.0 J11.363
X-136.544 Y-20.147 I5.456 J6.949
X-137.398 Y-18.612 I4.565 J3.546
G03 X-137.896 Y-17.606 I-28.436 J-13.448
G02 X-139.13 Y-12.569 I9.668 J5.037
G01 Y12.569
G02 X-137.897 Y17.605 I10.901 J0.0
G03 X-137.477 Y18.441 I-38.192 J19.719
G02 X-136.112 Y20.663 I6.33 J-2.357
G01 X-136.058 Y20.722
G02 X-135.022 Y21.677 I6.583 J-6.097
X-128.229 Y23.931 I6.794 J-9.108
X-121.438 Y21.679 I0.0 J-11.363
X-120.346 Y20.663 I-5.495 J-6.997
G01 X-120.271 Y20.579
G02 X-119.682 Y19.82 I-4.742 J-4.287
X-117.812 Y21.763 I6.777 J-4.654
X-111.135 Y23.931 I6.677 J-9.194
X-104.344 Y21.679 I0.0 J-11.363
X-103.687 Y21.107 I-4.569 J-5.918
X-102.587 Y19.822 I-5.283 J-5.634
X-102.099 Y20.467 I5.711 J-3.82
X-100.835 Y21.677 I6.91 J-5.951
X-94.042 Y23.931 I6.794 J-9.108
X-87.251 Y21.679 I0.0 J-11.363
X-86.46 Y20.977 I-5.099 J-6.535
X-85.495 Y19.82 I-4.988 J-5.145
X-84.398 Y21.107 I6.315 J-4.275
X-83.629 Y21.76 I5.153 J-5.29
X-76.948 Y23.931 I6.681 J-9.191
X-70.174 Y21.692 I0.0 J-11.363
X-69.034 Y20.632 I-5.472 J-7.029
X-68.402 Y19.82 I-5.216 J-4.719
X-67.247 Y21.161 I6.431 J-4.37
X-66.648 Y21.677 I5.292 J-5.54
X-59.855 Y23.931 I6.794 J-9.108
X-53.064 Y21.679 I0.0 J-11.363
X-51.832 Y20.508 I-5.679 J-7.209
X-51.308 Y19.82 I-4.837 J-4.226
X-49.438 Y21.763 I6.794 J-4.669
X-42.761 Y23.931 I6.677 J-9.194
X-35.969 Y21.678 I0.0 J-11.363
X-34.629 Y20.377 I-5.543 J-7.054
X-34.215 Y19.822 I-4.718 J-3.943
X-32.461 Y21.677 I6.92 J-4.785
X-25.668 Y23.931 I6.794 J-9.108
X-18.877 Y21.679 I0.0 J-11.363
X-17.65 Y20.513 I-5.593 J-7.118
X-17.121 Y19.821 I-5.275 J-4.573
X-16.022 Y21.107 I6.288 J-4.259
X-15.264 Y21.754 I4.849 J-4.921
X-8.574 Y23.931 I6.689 J-9.185
X-1.783 Y21.679 I0.0 J-11.363
X-.447 Y20.384 I-5.516 J-7.029
X-.027 Y19.821 I-4.794 J-4.011
X1.07 Y21.107 I6.277 J-4.244
X1.726 Y21.677 I5.27 J-5.399
X8.519 Y23.931 I6.794 J-9.108
X15.31 Y21.679 I0.0 J-11.363
X16.532 Y20.519 I-5.63 J-7.156
X17.066 Y19.82 I-5.019 J-4.386
X18.936 Y21.763 I6.778 J-4.654
X25.613 Y23.931 I6.677 J-9.194
X32.404 Y21.679 I0.0 J-11.363
X33.735 Y20.39 I-5.516 J-7.029
X34.159 Y19.822 I-4.766 J-3.995
X35.913 Y21.677 I6.898 J-4.765
X42.706 Y23.931 I6.794 J-9.108
X49.497 Y21.679 I0.0 J-11.363
X50.715 Y20.524 I-5.642 J-7.168
X51.253 Y19.82 I-4.945 J-4.339
X52.351 Y21.107 I6.255 J-4.228
X53.106 Y21.751 I4.926 J-5.013
X59.8 Y23.931 I6.693 J-9.182
X66.591 Y21.679 I0.0 J-11.363
X68.152 Y20.096 I-5.314 J-6.806
X68.786 Y19.026 I-4.304 J-3.27
G01 X69.034 Y18.468
X69.481 Y17.579
G02 X69.802 Y16.904 I-9.681 J-5.01
G01 X71.178 Y17.5
X99.702
G03 X98.679 Y12.569 I11.378 J-4.931 F1500.
G01 Y-12.569
G03 X99.702 Y-17.5 I12.401 J0.0
G01 X101.078 Y-16.904 F2500.
G02 X100.179 Y-12.569 I10.002 J4.335
G01 Y12.569
G02 X101.385 Y17.552 I10.901 J0.0
G03 X101.876 Y18.531 I-38.186 J19.773
G02 X102.993 Y20.431 I5.934 J-2.209
X104.287 Y21.677 I6.911 J-5.883
X111.08 Y23.931 I6.794 J-9.108
X117.871 Y21.679 I0.0 J-11.363
X119.16 Y20.441 I-5.558 J-7.074
X119.627 Y19.82 I-4.764 J-4.072
X120.405 Y20.786 I6.708 J-4.612
X121.379 Y21.676 I6.387 J-6.009
X128.174 Y23.931 I6.794 J-9.108
X134.965 Y21.679 I0.0 J-11.363
X136.444 Y20.204 I-5.404 J-6.901
X137.298 Y18.724 I-4.659 J-3.673
G01 X137.322 Y18.663
G03 X137.845 Y17.598 I18.615 J8.484
G02 X139.075 Y12.569 I-9.671 J-5.029
G01 Y-12.569
G02 X137.845 Y-17.598 I-10.901 J0.0
G03 X137.101 Y-19.168 I18.332 J-9.66
G02 X135.841 Y-20.889 I-5.976 J3.049
X134.783 Y-21.812 I-5.607 J5.366
X128.174 Y-23.931 I-6.609 J9.243
X121.379 Y-21.676 I0.0 J11.363
X120.277 Y-20.649 I5.651 J7.164
X119.627 Y-19.82 I5.402 J4.909
X118.53 Y-21.107 I-6.336 J4.294
X117.558 Y-21.904 I-5.151 J5.289
X111.08 Y-23.931 I-6.478 J9.335
X104.291 Y-21.68 I0.0 J11.363
X102.993 Y-20.431 I5.646 J7.168
X101.876 Y-18.538 I4.919 J4.179
G03 X101.385 Y-17.552 I-26.876 J-12.765
G02 X101.078 Y-16.904 I9.695 J4.984
G01 X99.702 Y-17.5
X71.178
X79.701 Y-10.
Y10.
X91.179
Y-10.
X79.701
X84.201 Y-5.5
Y5.5
X86.679
Y-5.5
X84.201
X79.701 Y-10.
X71.178 Y-17.5
Y-25.
X0.0
Y-30.5
Z-.389
G00 Z-.191
G01 Z-.588
Z-1.588 F1000.
Y-25.
X-129. F2500.
X-134.5 F2188.
X-140. F1875.
Y-19.5
Y14. F2500.
Y19.5 F2188.
Y25. F1875.
X-134.5
X129. F2500.
X134.5 F2188.
X140. F1875.
Y19.5
Y-14. F2500.
Y-19.5 F2188.
Y-25. F1875.
X134.5
X71.205 F2500.
Y-17.5
G02 X71.336 Y-17.157 I8.054 J-2.864 F1500.
G03 X72.215 Y-12.569 I-11.536 J4.589
G01 Y12.569
G03 X71.341 Y17.144 I-12.415 J0.0
G01 X71.205 Y17.5
X69.804 Y16.966 F2500.
X69.943 Y16.6
G02 X70.715 Y12.569 I-10.143 J-4.031
G01 Y-12.569
G02 X69.945 Y-16.595 I-10.915 J0.0
G03 X69.754 Y-17.108 I9.315 J-3.769
G02 X68.92 Y-19.108 I-5.89 J1.282
X67.051 Y-21.296 I-9.41 J6.142
X66.41 Y-21.813 I-4.771 J5.258
X59.8 Y-23.934 I-6.611 J9.245
X53.001 Y-21.676 I0.0 J11.365
X52.833 Y-21.543 I2.234 J2.993
X51.253 Y-19.907 I7.037 J8.376
X49.958 Y-21.296 I-8.845 J6.947
X49.317 Y-21.813 I-4.771 J5.258
X42.706 Y-23.934 I-6.611 J9.245
X35.91 Y-21.678 I0.0 J11.365
G01 X35.748 Y-21.552
G02 X34.16 Y-19.907 I7.112 J8.458
X32.864 Y-21.296 I-8.887 J6.992
X32.223 Y-21.813 I-4.771 J5.258
X25.613 Y-23.934 I-6.611 J9.245
X18.815 Y-21.676 I0.0 J11.365
X18.617 Y-21.519 I2.445 J3.276
X17.067 Y-19.907 I7.115 J8.395
X15.771 Y-21.296 I-8.87 J6.974
X15.13 Y-21.813 I-4.771 J5.258
X8.519 Y-23.934 I-6.611 J9.245
X1.723 Y-21.678 I0.0 J11.365
G01 X1.561 Y-21.552
G02 X-.027 Y-19.907 I7.109 J8.454
X-1.323 Y-21.296 I-8.834 J6.94
X-1.964 Y-21.813 I-4.771 J5.258
X-8.574 Y-23.934 I-6.611 J9.245
X-15.371 Y-21.677 I0.0 J11.365
X-15.551 Y-21.535 I2.325 J3.116
X-17.121 Y-19.907 I7.06 J8.379
X-18.416 Y-21.296 I-8.874 J6.977
X-19.057 Y-21.813 I-4.771 J5.258
X-25.668 Y-23.934 I-6.611 J9.245
X-32.464 Y-21.678 I0.0 J11.365
X-32.842 Y-21.366 I3.129 J4.18
X-34.214 Y-19.907 I7.444 J8.376
X-35.51 Y-21.296 I-8.847 J6.954
X-36.151 Y-21.813 I-4.771 J5.258
X-42.761 Y-23.934 I-6.611 J9.245
X-49.557 Y-21.678 I0.0 J11.365
X-49.755 Y-21.521 I2.452 J3.286
X-51.308 Y-19.907 I7.096 J8.38
X-52.603 Y-21.296 I-8.785 J6.89
X-53.244 Y-21.813 I-4.771 J5.258
X-59.855 Y-23.934 I-6.61 J9.245
X-66.651 Y-21.678 I0.0 J11.365
X-67.033 Y-21.362 I3.131 J4.182
G01 X-67.247 Y-21.165
G02 X-68.401 Y-19.907 I7.334 J7.886
X-69.68 Y-21.281 I-8.858 J6.965
X-70.338 Y-21.813 I-4.787 J5.243
X-76.948 Y-23.934 I-6.611 J9.245
X-83.746 Y-21.676 I0.0 J11.365
X-83.935 Y-21.527 I2.38 J3.188
X-85.495 Y-19.907 I7.087 J8.385
X-86.786 Y-21.292 I-8.85 J6.953
X-87.431 Y-21.813 I-4.775 J5.254
X-94.042 Y-23.934 I-6.611 J9.245
X-100.838 Y-21.678 I0.0 J11.365
X-101.206 Y-21.376 I3.144 J4.2
X-102.588 Y-19.907 I7.451 J8.399
X-103.887 Y-21.299 I-8.834 J6.94
X-104.525 Y-21.813 I-4.768 J5.261
X-111.135 Y-23.934 I-6.611 J9.245
X-117.933 Y-21.676 I0.0 J11.365
X-118.128 Y-21.521 I2.433 J3.26
X-119.682 Y-19.906 I7.091 J8.377
X-120.977 Y-21.296 I-8.771 J6.875
X-121.618 Y-21.813 I-4.771 J5.258
X-128.229 Y-23.934 I-6.611 J9.245
X-129.703 Y-23.838 I0.0 J11.365
X-134.777 Y-21.858 I1.474 J11.269 F2188.
X-135.025 Y-21.678 I6.548 J9.289 F1875.
X-135.402 Y-21.367 I3.138 J4.191
X-137.349 Y-19.108 I7.477 J8.411
X-138.069 Y-17.559 I5.238 J3.376
G03 X-138.292 Y-16.805 I-3.993 J-.772
G01 X-138.348 Y-16.664
X-138.372 Y-16.6
G02 X-139.144 Y-12.569 I10.143 J4.031
G01 Y-12.205
Y12.569 F2500.
G02 X-138.374 Y16.595 I10.915 J0.0
G03 X-138.182 Y17.108 I-10.171 J4.09
G02 X-137.398 Y19.028 I5.852 J-1.269
X-135.187 Y21.552 I9.367 J-5.977
G01 X-135.164 Y21.57
X-135.025 Y21.678
G02 X-128.229 Y23.934 I6.796 J-9.109
X-121.425 Y21.672 I0.0 J-11.365
X-121.046 Y21.359 I-3.059 J-4.08
X-119.682 Y19.907 I-7.411 J-8.329
X-118.182 Y21.477 I8.807 J-6.913
X-117.934 Y21.676 I2.977 J-3.457
X-111.135 Y23.934 I6.799 J-9.107
X-104.333 Y21.674 I0.0 J-11.365
X-103.953 Y21.359 I-3.058 J-4.082
X-102.588 Y19.907 I-7.439 J-8.359
X-101.206 Y21.376 I8.829 J-6.926
X-100.838 Y21.678 I3.326 J-3.672
X-94.042 Y23.934 I6.796 J-9.109
X-87.249 Y21.681 I0.0 J-11.365
X-86.862 Y21.361 I-3.048 J-4.089
X-85.495 Y19.907 I-7.423 J-8.345
X-83.955 Y21.51 I8.762 J-6.878
X-83.747 Y21.676 I2.7 J-3.171
X-76.948 Y23.934 I6.798 J-9.107
X-70.146 Y21.673 I0.0 J-11.365
X-69.769 Y21.362 I-3.058 J-4.082
X-68.402 Y19.907 I-7.457 J-8.379
X-66.932 Y21.451 I8.855 J-6.954
X-66.652 Y21.677 I3.177 J-3.656
X-59.855 Y23.934 I6.797 J-9.109
X-53.05 Y21.672 I0.0 J-11.365
X-52.672 Y21.358 I-3.06 J-4.08
X-51.308 Y19.907 I-7.406 J-8.324
X-49.802 Y21.482 I8.777 J-6.885
X-49.561 Y21.675 I2.942 J-3.423
X-42.761 Y23.934 I6.799 J-9.107
X-35.969 Y21.681 I0.0 J-11.365
X-35.579 Y21.358 I-3.048 J-4.089
X-34.214 Y19.907 I-7.472 J-8.39
X-32.741 Y21.455 I8.805 J-6.905
X-32.465 Y21.677 I3.161 J-3.645
X-25.668 Y23.934 I6.797 J-9.108
X-18.864 Y21.672 I0.0 J-11.365
X-18.486 Y21.359 I-3.06 J-4.08
X-17.121 Y19.907 I-7.41 J-8.33
X-15.601 Y21.493 I8.75 J-6.86
X-15.371 Y21.678 I2.87 J-3.353
X-8.574 Y23.934 I6.797 J-9.109
X-1.774 Y21.675 I0.0 J-11.365
X-1.402 Y21.367 I-3.056 J-4.083
X-.027 Y19.907 I-7.512 J-8.445
X1.45 Y21.458 I8.812 J-6.912
X1.721 Y21.676 I3.126 J-3.607
X8.519 Y23.934 I6.799 J-9.107
X15.325 Y21.671 I0.0 J-11.365
X15.703 Y21.358 I-3.061 J-4.079
X17.066 Y19.907 I-7.401 J-8.318
X18.567 Y21.478 I8.812 J-6.919
X18.814 Y21.676 I2.968 J-3.447
X25.613 Y23.934 I6.798 J-9.107
X32.415 Y21.673 I0.0 J-11.365
X32.796 Y21.358 I-3.058 J-4.081
X34.16 Y19.907 I-7.454 J-8.371
X35.638 Y21.459 I8.799 J-6.9
X35.909 Y21.677 I3.13 J-3.613
X42.706 Y23.934 I6.798 J-9.108
X49.511 Y21.671 I0.0 J-11.365
X49.891 Y21.357 I-3.061 J-4.079
X51.252 Y19.908 I-7.404 J-8.319
X52.753 Y21.477 I8.919 J-7.03
X53.003 Y21.677 I2.961 J-3.433
X59.8 Y23.934 I6.797 J-9.109
X66.601 Y21.674 I0.0 J-11.365
X66.985 Y21.356 I-3.057 J-4.083
X68.92 Y19.108 I-7.492 J-8.404
X69.754 Y17.108 I-5.057 J-3.283
G01 X69.776 Y17.039
X69.804 Y16.966
X71.205 Y17.5
X99.672
X99.56 Y17.198 F1500.
G03 X98.665 Y12.57 I11.52 J-4.628
G01 Y-12.569
G03 X99.54 Y-17.146 I12.415 J0.0
G01 X99.558 Y-17.194
X99.672 Y-17.5
X101.078 Y-16.978 F2500.
X100.961 Y-16.664
X100.937 Y-16.6
G02 X100.165 Y-12.569 I10.143 J4.031
G01 Y12.569
G02 X100.935 Y16.595 I10.915 J0.0
G01 X100.962 Y16.664
X101.127 Y17.108
G02 X101.961 Y19.108 I5.852 J-1.267
X104.014 Y21.46 I9.395 J-6.126
X104.283 Y21.677 I3.117 J-3.599
X111.08 Y23.934 I6.797 J-9.108
X117.873 Y21.681 I0.0 J-11.365
X118.257 Y21.364 I-3.048 J-4.089
X119.626 Y19.907 I-7.42 J-8.348
X121.148 Y21.494 I8.803 J-6.916
X121.377 Y21.678 I2.849 J-3.326
X128.174 Y23.934 I6.797 J-9.109
X134.976 Y21.673 I0.0 J-11.365
X135.224 Y21.474 I-2.71 J-3.627
X137.249 Y19.175 I-7.349 J-8.518
X138.128 Y17.108 I-5.091 J-3.383
G03 X138.317 Y16.6 I8.465 J2.863
G02 X139.089 Y12.569 I-10.143 J-4.031
G01 Y-12.569
G02 X138.319 Y-16.595 I-10.915 J0.0
G03 X138.128 Y-17.108 I8.746 J-3.556
G02 X137.294 Y-19.108 I-5.867 J1.272
X135.425 Y-21.296 I-9.417 J6.148
X134.784 Y-21.813 I-4.771 J5.258
X128.174 Y-23.934 I-6.611 J9.245
X121.378 Y-21.678 I0.0 J11.365
X120.995 Y-21.361 I2.957 J3.963
G01 X120.866 Y-21.243
G02 X119.628 Y-19.907 I7.295 J8.004
X118.333 Y-21.296 I-8.882 J6.986
X117.691 Y-21.813 I-4.771 J5.258
X111.08 Y-23.934 I-6.611 J9.245
X104.284 Y-21.678 I0.0 J11.365
X104.019 Y-21.465 I2.82 J3.78
X101.961 Y-19.108 I7.348 J8.494
X101.126 Y-17.108 I5.032 J3.273
G01 X101.078 Y-16.978
X99.672 Y-17.5
X71.205
X79.715 Y-10.
Y10.
X91.165
Y-10.
X79.715
X84.215 Y-5.5
Y5.5
X86.665
Y-5.5
X84.215
X79.715 Y-10.
X71.205 Y-17.5
Y-25.
X0.0
Y-30.5
Z-.588
G00 Z-.389
G01 Z-.786
Z-1.786 F1000.
Y-25.
X-129. F2500.
X-134.5 F2188.
X-140. F1875.
Y-19.5
Y14. F2500.
Y19.5 F2188.
Y25. F1875.
X-134.5
X129. F2500.
X134.5 F2188.
X140. F1875.
Y19.5
Y-14. F2500.
Y-19.5 F2188.
Y-25. F1875.
X134.5
X71.388 F2500.
Y-17.5
G03 X71.666 Y-16.3 I-7.362 J2.338 F1500.
G01 X71.778 Y-15.885
G03 X72.229 Y-12.569 I-11.978 J3.317
G01 Y12.569
G03 X71.779 Y15.882 I-12.429 J0.0
G01 X71.666 Y16.3
G03 X71.388 Y17.5 I-7.64 J-1.137
G01 X69.958 Y17.046 F2500.
G02 X70.194 Y15.997 I-5.932 J-1.883
G01 X70.332 Y15.487
G02 X70.729 Y12.569 I-10.532 J-2.918
G01 Y-12.569
G02 X70.331 Y-15.489 I-10.929 J0.0
G01 X70.194 Y-15.997
G02 X69.567 Y-17.997 I-6.168 J.835
X67.052 Y-21.295 I-10.246 J5.204
X66.41 Y-21.813 I-4.772 J5.257
X59.8 Y-23.934 I-6.611 J9.245
X53.003 Y-21.678 I0.0 J11.365
X52.831 Y-21.541 I2.269 J3.042
X51.253 Y-19.907 I7.039 J8.374
X49.959 Y-21.295 I-8.842 J6.945
X49.317 Y-21.813 I-4.772 J5.257
X42.706 Y-23.934 I-6.611 J9.245
X35.91 Y-21.678 I0.0 J11.365
G01 X35.748 Y-21.552
G02 X34.16 Y-19.907 I7.112 J8.457
X32.865 Y-21.295 I-8.885 J6.991
X32.223 Y-21.813 I-4.772 J5.257
X25.613 Y-23.934 I-6.611 J9.245
X18.816 Y-21.678 I0.0 J11.365
X18.614 Y-21.517 I2.476 J3.319
X17.067 Y-19.907 I7.119 J8.394
X15.772 Y-21.295 I-8.868 J6.973
X15.13 Y-21.813 I-4.772 J5.257
X8.519 Y-23.934 I-6.611 J9.245
X1.723 Y-21.678 I0.0 J11.365
G01 X1.561 Y-21.552
G02 X-.027 Y-19.907 I7.109 J8.455
X-1.322 Y-21.295 I-8.833 J6.939
X-1.964 Y-21.813 I-4.772 J5.257
X-8.574 Y-23.934 I-6.611 J9.245
X-15.372 Y-21.677 I0.0 J11.365
X-15.551 Y-21.535 I2.318 J3.106
X-17.121 Y-19.907 I7.06 J8.379
X-18.415 Y-21.295 I-8.873 J6.976
X-19.057 Y-21.813 I-4.772 J5.257
X-25.668 Y-23.934 I-6.611 J9.245
X-32.464 Y-21.678 I0.0 J11.365
X-32.842 Y-21.366 I3.125 J4.176
X-34.214 Y-19.907 I7.445 J8.376
X-35.516 Y-21.302 I-8.846 J6.952
X-36.151 Y-21.813 I-4.765 J5.264
X-42.761 Y-23.934 I-6.611 J9.245
X-49.558 Y-21.678 I0.0 J11.365
X-49.755 Y-21.521 I2.446 J3.278
X-51.308 Y-19.907 I7.095 J8.38
X-52.602 Y-21.295 I-8.784 J6.889
X-53.244 Y-21.813 I-4.772 J5.257
X-59.855 Y-23.934 I-6.61 J9.245
X-66.651 Y-21.678 I0.0 J11.365
X-67.033 Y-21.362 I3.128 J4.179
G01 X-67.247 Y-21.165
G02 X-68.401 Y-19.907 I7.334 J7.886
X-69.68 Y-21.281 I-8.856 J6.964
X-70.338 Y-21.813 I-4.787 J5.243
X-76.948 Y-23.934 I-6.611 J9.245
X-83.745 Y-21.678 I0.0 J11.365
X-83.936 Y-21.525 I2.409 J3.229
X-85.495 Y-19.907 I7.087 J8.383
X-86.786 Y-21.292 I-8.848 J6.952
X-87.431 Y-21.813 I-4.775 J5.254
X-94.042 Y-23.934 I-6.611 J9.245
X-100.838 Y-21.678 I0.0 J11.365
X-101.206 Y-21.376 I3.138 J4.192
X-102.588 Y-19.907 I7.451 J8.399
X-103.887 Y-21.299 I-8.833 J6.939
X-104.525 Y-21.813 I-4.768 J5.261
X-111.135 Y-23.934 I-6.611 J9.245
X-117.931 Y-21.678 I0.0 J11.365
X-118.13 Y-21.52 I2.46 J3.297
X-119.682 Y-19.906 I7.092 J8.374
X-120.976 Y-21.295 I-8.769 J6.873
X-121.618 Y-21.813 I-4.772 J5.257
X-128.229 Y-23.934 I-6.611 J9.245
X-135.025 Y-21.678 I0.0 J11.365
X-135.402 Y-21.367 I3.137 J4.189
X-138.104 Y-17.774 I7.605 J8.53
X-138.623 Y-15.997 I5.628 J2.609
G01 X-138.761 Y-15.487
G02 X-139.158 Y-12.569 I10.532 J2.918
G01 Y12.569
G02 X-138.76 Y15.489 I10.929 J0.0
G01 X-138.744 Y15.553
X-138.623 Y15.997
G02 X-138.437 Y16.886 I7.894 J-1.186
X-137.88 Y18.219 I6.4 J-1.893
G01 X-137.845 Y18.283
G02 X-135.402 Y21.367 I10.081 J-5.477
X-135.025 Y21.678 I3.337 J-3.666
X-128.229 Y23.934 I6.796 J-9.109
X-121.425 Y21.672 I0.0 J-11.365
X-121.046 Y21.359 I-3.059 J-4.08
X-119.682 Y19.907 I-7.41 J-8.328
X-118.182 Y21.477 I8.806 J-6.912
X-117.934 Y21.676 I2.977 J-3.456
X-111.135 Y23.934 I6.799 J-9.107
X-104.333 Y21.674 I0.0 J-11.365
X-103.953 Y21.359 I-3.058 J-4.082
X-102.588 Y19.907 I-7.438 J-8.357
X-101.206 Y21.376 I8.83 J-6.927
X-100.838 Y21.678 I3.327 J-3.673
X-94.042 Y23.934 I6.796 J-9.109
X-87.249 Y21.681 I0.0 J-11.365
X-86.862 Y21.361 I-3.048 J-4.089
X-85.495 Y19.907 I-7.43 J-8.352
X-83.958 Y21.507 I8.763 J-6.88
X-83.745 Y21.677 I2.738 J-3.213
X-76.948 Y23.934 I6.797 J-9.109
X-70.146 Y21.673 I0.0 J-11.365
X-69.769 Y21.362 I-3.058 J-4.082
X-68.402 Y19.907 I-7.455 J-8.377
X-66.933 Y21.451 I8.856 J-6.955
X-66.652 Y21.677 I3.179 J-3.657
X-59.855 Y23.934 I6.797 J-9.108
X-53.05 Y21.672 I0.0 J-11.365
X-52.672 Y21.358 I-3.06 J-4.08
X-51.308 Y19.907 I-7.404 J-8.322
X-49.803 Y21.481 I8.779 J-6.886
X-49.561 Y21.675 I2.944 J-3.424
X-42.761 Y23.934 I6.8 J-9.106
X-35.969 Y21.681 I0.0 J-11.365
X-35.579 Y21.358 I-3.048 J-4.089
X-34.214 Y19.907 I-7.47 J-8.388
X-32.741 Y21.455 I8.806 J-6.906
X-32.466 Y21.677 I3.162 J-3.645
X-25.668 Y23.934 I6.798 J-9.108
X-18.864 Y21.672 I0.0 J-11.365
X-18.486 Y21.359 I-3.06 J-4.08
X-17.121 Y19.907 I-7.409 J-8.329
X-15.602 Y21.493 I8.75 J-6.861
X-15.371 Y21.677 I2.87 J-3.353
X-8.574 Y23.934 I6.797 J-9.108
X-1.774 Y21.675 I0.0 J-11.365
X-1.402 Y21.367 I-3.056 J-4.083
X-.027 Y19.907 I-7.51 J-8.443
X1.447 Y21.456 I8.812 J-6.912
X1.723 Y21.678 I3.158 J-3.642
X8.519 Y23.934 I6.796 J-9.109
X15.325 Y21.671 I0.0 J-11.365
X15.703 Y21.358 I-3.061 J-4.079
X17.066 Y19.907 I-7.397 J-8.315
X18.568 Y21.478 I8.811 J-6.918
X18.814 Y21.676 I2.966 J-3.445
X25.613 Y23.934 I6.799 J-9.107
X32.415 Y21.673 I0.0 J-11.365
X32.796 Y21.358 I-3.058 J-4.081
X34.16 Y19.907 I-7.452 J-8.369
X35.639 Y21.46 I8.79 J-6.892
X35.909 Y21.677 I3.131 J-3.616
X42.706 Y23.934 I6.797 J-9.108
X49.511 Y21.671 I0.0 J-11.365
X49.891 Y21.357 I-3.061 J-4.079
X51.252 Y19.908 I-7.402 J-8.317
X52.753 Y21.477 I8.919 J-7.03
X53.003 Y21.677 I2.961 J-3.432
X59.8 Y23.934 I6.797 J-9.108
X66.601 Y21.674 I0.0 J-11.365
X66.985 Y21.356 I-3.057 J-4.083
X69.655 Y17.819 I-7.649 J-8.551
X69.958 Y17.046 I-5.628 J-2.656
G01 X71.388 Y17.5
X99.491
G03 X99.287 Y16.7 I7.11 J-2.239 F1500.
X99.217 Y16.312 I11.978 J-2.358
G01 X99.102 Y15.885
G03 X98.651 Y12.569 I11.978 J-3.317
G01 Y-12.569
G03 X99.101 Y-15.882 I12.429 J0.0
G01 X99.22 Y-16.321
X99.285 Y-16.697
X99.294 Y-16.745
G03 X99.491 Y-17.5 I7.405 J1.529
G01 X100.921 Y-17.047 F2500.
G02 X100.763 Y-16.441 I5.778 J1.831
G01 X100.686 Y-15.997
X100.548 Y-15.487
G02 X100.151 Y-12.569 I10.532 J2.918
G01 Y12.569
G02 X100.549 Y15.489 I10.929 J0.0
G01 X100.686 Y15.997
G02 X100.759 Y16.411 I10.58 J-1.655
X101.325 Y18.019 I5.842 J-1.15
G01 X101.38 Y18.125
G02 X103.989 Y21.439 I10.15 J-5.306
X104.283 Y21.677 I3.212 J-3.671
X111.08 Y23.934 I6.797 J-9.108
X117.873 Y21.681 I0.0 J-11.365
X118.257 Y21.364 I-3.048 J-4.089
X119.626 Y19.907 I-7.418 J-8.346
X121.147 Y21.493 I8.804 J-6.917
X121.377 Y21.677 I2.851 J-3.328
X128.174 Y23.934 I6.797 J-9.109
X134.974 Y21.675 I0.0 J-11.365
X135.25 Y21.452 I-2.818 J-3.773
X138.037 Y17.801 I-7.52 J-8.629
X138.56 Y16.026 I-5.396 J-2.556
G01 X138.706 Y15.487
G02 X139.103 Y12.569 I-10.532 J-2.918
G01 Y-12.569
G02 X138.705 Y-15.489 I-10.929 J0.0
G01 X138.568 Y-15.997
G02 X137.941 Y-17.997 I-6.12 J.82
X135.425 Y-21.296 I-10.249 J5.205
X134.784 Y-21.813 I-4.771 J5.258
X128.174 Y-23.934 I-6.611 J9.245
X121.377 Y-21.677 I0.0 J11.365
X120.995 Y-21.361 I2.954 J3.958
G01 X120.866 Y-21.243
G02 X119.628 Y-19.907 I7.296 J8.005
X118.334 Y-21.295 I-8.881 J6.984
X117.691 Y-21.813 I-4.773 J5.257
X111.08 Y-23.934 I-6.611 J9.245
X104.284 Y-21.678 I0.0 J11.365
X103.995 Y-21.444 I2.886 J3.869
X101.206 Y-17.777 I7.536 J8.626
X100.921 Y-17.047 I5.493 J2.562
G01 X99.491 Y-17.5
X71.388
X79.729 Y-10.
Y10.
X91.151
Y-10.
X79.729
X84.229 Y-5.5
Y5.5
X86.651
Y-5.5
X84.229
X79.729 Y-10.
X71.388 Y-17.5
Y-25.
X0.0
Y-30.5
Z-.786
G00 Z-.588
G01 Z-.985
Z-1.985 F1000.
Y-25.
X-129. F2500.
X-134.5 F2188.
X-140. F1875.
Y-19.5
Y14. F2500.
Y19.5 F2188.
Y25. F1875.
X-134.5
X129. F2500.
X134.5 F2188.
X140. F1875.
Y19.5
Y-14. F2500.
Y-19.5 F2188.
Y-25. F1875.
X134.5
X71.435 F2500.
Y-17.5
X71.47 Y-17.411 F1500.
G03 X71.972 Y-15.33 I-7.231 J2.846
G02 X72.018 Y-14.987 I5.477 J-.561
G03 X72.16 Y-14. I-21.69 J3.612
X72.242 Y-12.569 I-12.36 J1.432
G01 Y12.569
G03 X72.149 Y14.089 I-12.443 J0.0
X71.997 Y15.115 I-22.804 J-2.866
G01 X71.974 Y15.279
X71.956 Y15.472
X71.952 Y15.509
G03 X71.614 Y17.01 I-7.493 J-.9
X71.434 Y17.5 I-12.349 J-4.265
G01 X70.037 Y16.954 F2500.
G02 X70.196 Y16.52 I-10.772 J-4.209
X70.463 Y15.33 I-5.737 J-1.91
G01 X70.484 Y15.107
X70.514 Y14.886
G02 X70.66 Y13.906 I-21.169 J-3.664
X70.742 Y12.569 I-10.861 J-1.337
G01 Y-12.569
G02 X70.671 Y-13.821 I-10.943 J0.0
X70.539 Y-14.741 I-20.342 J2.446
G03 X70.48 Y-15.18 I6.911 J-1.151
G02 X70.077 Y-16.855 I-6.24 J.615
G01 X69.976 Y-17.108
G02 X67.053 Y-21.295 I-10.725 J4.374
X66.41 Y-21.813 I-4.773 J5.257
X59.8 Y-23.934 I-6.611 J9.245
X53.003 Y-21.677 I0.0 J11.365
X52.831 Y-21.541 I2.263 J3.033
X51.253 Y-19.907 I7.039 J8.374
X49.96 Y-21.295 I-8.84 J6.943
X49.317 Y-21.813 I-4.773 J5.257
X42.706 Y-23.934 I-6.611 J9.245
X35.91 Y-21.678 I0.0 J11.365
G01 X35.748 Y-21.552
G02 X34.16 Y-19.907 I7.112 J8.457
X32.866 Y-21.295 I-8.879 J6.985
X32.223 Y-21.813 I-4.773 J5.257
X25.613 Y-23.934 I-6.611 J9.245
X18.816 Y-21.677 I0.0 J11.365
X18.614 Y-21.516 I2.475 J3.317
X17.067 Y-19.907 I7.121 J8.395
X15.773 Y-21.295 I-8.866 J6.971
X15.13 Y-21.813 I-4.773 J5.257
X8.519 Y-23.934 I-6.611 J9.245
X1.723 Y-21.678 I0.0 J11.365
G01 X1.561 Y-21.552
G02 X-.027 Y-19.907 I7.109 J8.455
X-1.321 Y-21.295 I-8.831 J6.938
X-1.964 Y-21.813 I-4.773 J5.257
X-8.574 Y-23.934 I-6.611 J9.245
X-15.372 Y-21.676 I0.0 J11.365
X-15.551 Y-21.535 I2.311 J3.096
X-17.121 Y-19.907 I7.06 J8.38
X-18.414 Y-21.295 I-8.871 J6.975
X-19.057 Y-21.813 I-4.773 J5.257
X-25.668 Y-23.934 I-6.611 J9.245
X-32.464 Y-21.678 I0.0 J11.365
X-32.842 Y-21.366 I3.121 J4.172
X-34.214 Y-19.907 I7.446 J8.377
X-35.516 Y-21.302 I-8.844 J6.951
X-36.151 Y-21.813 I-4.765 J5.264
X-42.761 Y-23.934 I-6.611 J9.245
X-49.558 Y-21.677 I0.0 J11.365
X-49.754 Y-21.521 I2.44 J3.269
X-51.308 Y-19.907 I7.093 J8.38
X-52.602 Y-21.295 I-8.782 J6.887
X-53.244 Y-21.813 I-4.773 J5.257
X-59.855 Y-23.934 I-6.61 J9.245
X-66.651 Y-21.678 I0.0 J11.365
X-67.033 Y-21.362 I3.125 J4.176
G01 X-67.247 Y-21.165
G02 X-68.401 Y-19.907 I7.335 J7.887
X-69.68 Y-21.281 I-8.855 J6.962
X-70.338 Y-21.813 I-4.787 J5.243
X-76.948 Y-23.934 I-6.611 J9.245
X-83.745 Y-21.677 I0.0 J11.365
X-83.936 Y-21.526 I2.403 J3.221
X-85.495 Y-19.907 I7.086 J8.382
X-86.786 Y-21.292 I-8.847 J6.951
X-87.431 Y-21.813 I-4.775 J5.254
X-94.042 Y-23.934 I-6.611 J9.245
X-100.838 Y-21.678 I0.0 J11.365
X-101.206 Y-21.376 I3.132 J4.185
X-102.588 Y-19.907 I7.451 J8.399
X-103.887 Y-21.299 I-8.832 J6.938
X-104.525 Y-21.813 I-4.768 J5.261
X-111.135 Y-23.934 I-6.611 J9.245
X-117.932 Y-21.678 I0.0 J11.365
X-118.13 Y-21.52 I2.456 J3.291
X-119.682 Y-19.906 I7.09 J8.374
X-120.975 Y-21.295 I-8.767 J6.871
X-121.618 Y-21.813 I-4.773 J5.257
X-128.229 Y-23.934 I-6.611 J9.245
X-135.025 Y-21.678 I0.0 J11.365
X-135.402 Y-21.367 I3.136 J4.188
G01 X-135.611 Y-21.175
X-135.683 Y-21.107
G02 X-138.59 Y-16.626 I8.019 J8.385
X-138.86 Y-15.553 I5.834 J2.041
G01 X-138.943 Y-14.886
G02 X-139.089 Y-13.906 I19.373 J3.395
X-139.171 Y-12.569 I10.861 J1.337
G01 Y12.569
G02 X-139.1 Y13.821 I10.943 J0.0
X-138.943 Y14.886 I18.702 J-2.206
X-138.718 Y16.219 I7.829 J-.638
X-138.292 Y17.374 I8.381 J-2.433
G01 X-138.211 Y17.552
G02 X-135.402 Y21.367 I10.496 J-4.788
X-135.025 Y21.678 I3.342 J-3.672
X-128.229 Y23.934 I6.796 J-9.109
X-121.425 Y21.672 I0.0 J-11.365
X-121.046 Y21.359 I-3.059 J-4.08
X-119.682 Y19.907 I-7.409 J-8.328
X-118.182 Y21.477 I8.805 J-6.912
X-117.935 Y21.675 I2.976 J-3.455
X-111.135 Y23.934 I6.799 J-9.107
X-104.333 Y21.674 I0.0 J-11.365
X-103.953 Y21.359 I-3.058 J-4.082
X-102.588 Y19.907 I-7.435 J-8.355
X-101.206 Y21.376 I8.831 J-6.927
X-100.838 Y21.678 I3.327 J-3.674
X-94.042 Y23.934 I6.796 J-9.109
X-87.249 Y21.681 I0.0 J-11.365
X-86.862 Y21.361 I-3.048 J-4.089
X-85.495 Y19.907 I-7.428 J-8.35
X-83.955 Y21.51 I8.755 J-6.872
X-83.747 Y21.676 I2.701 J-3.172
X-76.948 Y23.934 I6.798 J-9.107
X-70.146 Y21.673 I0.0 J-11.365
X-69.769 Y21.362 I-3.058 J-4.082
X-68.402 Y19.907 I-7.453 J-8.376
X-66.933 Y21.45 I8.857 J-6.956
X-66.652 Y21.677 I3.18 J-3.659
X-59.855 Y23.934 I6.797 J-9.108
X-53.05 Y21.672 I0.0 J-11.365
X-52.672 Y21.358 I-3.06 J-4.08
X-51.308 Y19.907 I-7.402 J-8.32
X-49.804 Y21.48 I8.78 J-6.887
X-49.561 Y21.675 I2.945 J-3.425
X-42.761 Y23.934 I6.8 J-9.106
X-35.969 Y21.681 I0.0 J-11.365
X-35.579 Y21.358 I-3.048 J-4.089
X-34.214 Y19.907 I-7.469 J-8.387
X-32.742 Y21.454 I8.807 J-6.907
X-32.466 Y21.676 I3.163 J-3.646
X-25.668 Y23.934 I6.798 J-9.108
X-18.864 Y21.672 I0.0 J-11.365
X-18.486 Y21.359 I-3.06 J-4.08
X-17.121 Y19.907 I-7.408 J-8.328
X-15.602 Y21.493 I8.751 J-6.862
X-15.372 Y21.677 I2.87 J-3.352
X-8.574 Y23.934 I6.797 J-9.108
X-1.774 Y21.675 I0.0 J-11.365
X-1.402 Y21.367 I-3.056 J-4.083
X-.027 Y19.907 I-7.507 J-8.44
X1.447 Y21.455 I8.812 J-6.912
X1.722 Y21.677 I3.159 J-3.642
X8.519 Y23.934 I6.797 J-9.109
X15.325 Y21.671 I0.0 J-11.365
X15.703 Y21.358 I-3.061 J-4.079
X17.066 Y19.907 I-7.402 J-8.32
X18.568 Y21.478 I8.81 J-6.917
X18.814 Y21.676 I2.964 J-3.443
X25.613 Y23.934 I6.799 J-9.107
X32.415 Y21.673 I0.0 J-11.365
X32.796 Y21.358 I-3.058 J-4.081
X34.16 Y19.907 I-7.45 J-8.368
X35.639 Y21.459 I8.791 J-6.892
X35.909 Y21.677 I3.132 J-3.617
X42.706 Y23.934 I6.798 J-9.108
X49.511 Y21.671 I0.0 J-11.365
X49.891 Y21.357 I-3.061 J-4.079
X51.252 Y19.908 I-7.4 J-8.316
X52.752 Y21.476 I8.919 J-7.03
X53.002 Y21.677 I2.961 J-3.432
X59.8 Y23.934 I6.797 J-9.108
X66.592 Y21.681 I0.0 J-11.365
X66.985 Y21.356 I-3.048 J-4.089
X70.037 Y16.954 I-7.72 J-8.611
G01 X71.434 Y17.5
X99.445
G03 X99.322 Y17.175 I12.277 J-4.823 F1500.
X98.929 Y15.505 I7.087 J-2.546
G01 X98.926 Y15.471
G02 X98.851 Y14.919 I-6.963 J.657
G03 X98.719 Y13.989 I14.372 J-2.523
X98.638 Y12.569 I12.361 J-1.42
G01 Y-12.569
G03 X98.731 Y-14.089 I12.443 J0.0
G01 X98.742 Y-14.181
X98.745 Y-14.203
X98.807 Y-14.648
G03 X98.818 Y-14.72 I1.486 J.206
G02 X98.921 Y-15.425 I-8.36 J-1.577
G03 X99.323 Y-17.177 I7.307 J.753
X99.445 Y-17.5 I12.385 J4.493
G01 X100.841 Y-16.952 F2500.
G02 X100.733 Y-16.666 I10.867 J4.267
X100.413 Y-15.271 I5.495 J1.994
G03 X100.292 Y-14.442 I-9.955 J-1.026
G01 X100.231 Y-13.997
X100.22 Y-13.906
G02 X100.138 Y-12.569 I10.861 J1.337
G01 Y12.569
G02 X100.209 Y13.821 I10.943 J0.0
X100.329 Y14.659 I13.013 J-1.426
G03 X100.419 Y15.33 I-8.366 J1.469
G02 X100.732 Y16.664 I5.99 J-.702
X103.44 Y20.928 I10.989 J-3.986
X104.284 Y21.677 I6.164 J-6.091
X111.08 Y23.934 I6.797 J-9.109
X117.873 Y21.681 I0.0 J-11.365
X118.257 Y21.364 I-3.048 J-4.089
X119.626 Y19.907 I-7.416 J-8.344
X121.146 Y21.493 I8.805 J-6.918
X121.377 Y21.677 I2.852 J-3.329
X128.174 Y23.934 I6.797 J-9.108
X134.973 Y21.675 I0.0 J-11.365
X135.269 Y21.435 I-2.878 J-3.854
X138.559 Y16.553 I-7.633 J-8.692
X138.839 Y15.275 I-5.164 J-1.801
G03 X138.897 Y14.825 I6.893 J.663
G01 X138.96 Y14.442
X139.024 Y13.997
X139.035 Y13.906
G02 X139.116 Y12.569 I-10.861 J-1.337
G01 Y-12.569
G02 X139.044 Y-13.823 I-10.943 J0.0
X138.931 Y-14.609 I-12.093 J1.34
G03 X138.847 Y-15.219 I7.792 J-1.383
G02 X138.488 Y-16.755 I-5.977 J.587
G01 X138.439 Y-16.886
G02 X135.425 Y-21.296 I-10.831 J4.165
X134.784 Y-21.813 I-4.771 J5.258
X128.174 Y-23.934 I-6.611 J9.245
X121.376 Y-21.677 I0.0 J11.365
X120.995 Y-21.361 I2.951 J3.954
G01 X120.866 Y-21.243
G02 X119.628 Y-19.907 I7.297 J8.006
X118.335 Y-21.294 I-8.879 J6.983
X117.691 Y-21.813 I-4.774 J5.256
X111.08 Y-23.934 I-6.611 J9.245
X104.284 Y-21.678 I0.0 J11.365
X103.44 Y-20.927 I5.384 J6.905
X100.841 Y-16.952 I8.268 J8.243
G01 X99.445 Y-17.5
X71.435
X79.742 Y-10.
Y10.
X91.138
Y-10.
X79.742
X84.242 Y-5.5
Y5.5
X86.638
Y-5.5
X84.242
X79.742 Y-10.
X71.435 Y-17.5
Y-25.
X0.0
Y-30.5
Z-.985
G00 Z-.786
G01 Z-1.183
Z-2.183 F1000.
Y-25.
X-129. F2500.
X-134.5 F2188.
X-140. F1875.
Y-19.5
Y14. F2500.
Y19.5 F2188.
Y25. F1875.
X-134.5
X129. F2500.
X134.5 F2188.
X140. F1875.
Y19.5
Y-14. F2500.
Y-19.5 F2188.
Y-25. F1875.
X134.5
X71.436 F2500.
Y-17.5
G03 X72.007 Y-15.675 I-12.372 J4.877 F1500.
X72.201 Y-14.378 I-7.646 J1.803
G01 X72.219 Y-14.099
G03 X72.277 Y-12.569 I-22.774 J1.628
G01 Y12.571
G03 X72.237 Y13.822 I-19.524 J0.0
G01 X72.203 Y14.352
G03 X71.986 Y15.768 I-8.163 J-.524
X71.435 Y17.5 I-12.918 J-3.154
G01 X70.04 Y16.949 F2500.
G02 X70.529 Y15.412 I-10.972 J-4.335
X70.706 Y14.256 I-6.489 J-1.584
G01 X70.74 Y13.726
G02 X70.777 Y12.571 I-17.987 J-1.155
G01 Y-12.569
G02 X70.722 Y-13.997 I-21.332 J.098
G01 X70.704 Y-14.282
G02 X70.547 Y-15.33 I-6.343 J.41
X68.092 Y-20.218 I-11.484 J2.707
X67.054 Y-21.294 I-8.383 J7.055
X66.41 Y-21.813 I-4.773 J5.256
X59.8 Y-23.934 I-6.611 J9.245
X53.002 Y-21.677 I0.0 J11.365
X52.831 Y-21.541 I2.257 J3.024
X51.253 Y-19.907 I7.038 J8.374
X49.96 Y-21.294 I-8.838 J6.941
X49.317 Y-21.813 I-4.773 J5.256
X42.706 Y-23.934 I-6.611 J9.245
X35.91 Y-21.678 I0.0 J11.365
G01 X35.748 Y-21.552
G02 X34.16 Y-19.907 I7.112 J8.457
X32.867 Y-21.294 I-8.878 J6.984
X32.223 Y-21.813 I-4.773 J5.256
X25.613 Y-23.934 I-6.611 J9.245
X18.815 Y-21.677 I0.0 J11.365
X18.613 Y-21.516 I2.475 J3.316
X17.067 Y-19.907 I7.123 J8.395
X15.773 Y-21.295 I-8.865 J6.97
X15.13 Y-21.813 I-4.773 J5.257
X8.519 Y-23.934 I-6.611 J9.245
X1.723 Y-21.678 I0.0 J11.365
G01 X1.561 Y-21.552
G02 X-.027 Y-19.907 I7.11 J8.455
X-1.32 Y-21.294 I-8.829 J6.936
X-1.964 Y-21.813 I-4.773 J5.256
X-8.574 Y-23.934 I-6.611 J9.245
X-15.373 Y-21.676 I0.0 J11.365
X-15.55 Y-21.535 I2.304 J3.087
X-17.121 Y-19.907 I7.06 J8.38
X-18.414 Y-21.294 I-8.87 J6.973
X-19.057 Y-21.813 I-4.773 J5.256
X-25.668 Y-23.934 I-6.611 J9.245
X-32.464 Y-21.678 I0.0 J11.365
X-32.842 Y-21.366 I3.118 J4.167
X-34.214 Y-19.907 I7.446 J8.377
X-35.516 Y-21.302 I-8.842 J6.949
X-36.151 Y-21.813 I-4.765 J5.264
X-42.761 Y-23.934 I-6.611 J9.245
X-49.559 Y-21.677 I0.0 J11.365
X-49.754 Y-21.522 I2.434 J3.261
X-51.308 Y-19.907 I7.092 J8.38
X-52.601 Y-21.294 I-8.78 J6.886
X-53.244 Y-21.813 I-4.773 J5.256
X-59.855 Y-23.934 I-6.61 J9.245
X-66.651 Y-21.678 I0.0 J11.365
X-67.033 Y-21.363 I3.122 J4.172
G01 X-67.247 Y-21.165
G02 X-68.401 Y-19.907 I7.335 J7.887
X-69.68 Y-21.281 I-8.853 J6.96
X-70.338 Y-21.813 I-4.787 J5.243
X-76.948 Y-23.934 I-6.611 J9.245
X-83.745 Y-21.677 I0.0 J11.365
X-83.936 Y-21.526 I2.398 J3.213
X-85.495 Y-19.907 I7.085 J8.382
X-86.786 Y-21.292 I-8.836 J6.941
X-87.431 Y-21.813 I-4.775 J5.254
X-94.042 Y-23.934 I-6.611 J9.245
X-100.838 Y-21.678 I0.0 J11.365
X-101.206 Y-21.376 I3.126 J4.178
X-102.588 Y-19.907 I7.45 J8.398
X-103.887 Y-21.299 I-8.831 J6.937
X-104.525 Y-21.813 I-4.768 J5.261
X-111.135 Y-23.934 I-6.611 J9.245
X-117.932 Y-21.677 I0.0 J11.365
X-118.129 Y-21.521 I2.451 J3.285
X-119.682 Y-19.906 I7.089 J8.374
X-120.975 Y-21.294 I-8.764 J6.869
X-121.618 Y-21.813 I-4.773 J5.256
X-128.229 Y-23.934 I-6.611 J9.245
X-135.025 Y-21.678 I0.0 J11.365
X-135.402 Y-21.367 I3.127 J4.178
X-138.311 Y-17.33 I7.703 J8.616
G01 X-138.358 Y-17.218
G02 X-138.939 Y-15.487 I10.972 J4.645
X-139.123 Y-14.442 I7.632 J1.881
G01 X-139.168 Y-13.748
G02 X-139.206 Y-12.571 I18.283 J1.177
G01 Y12.569
G02 X-139.163 Y13.828 I19.248 J-.028
X-138.862 Y15.775 I7.874 J-.218
G01 X-138.798 Y15.997
G02 X-135.684 Y21.107 I11.203 J-3.324
G01 X-135.486 Y21.293
G02 X-135.028 Y21.676 I3.694 J-3.951
X-128.229 Y23.934 I6.799 J-9.107
X-121.425 Y21.672 I0.0 J-11.365
X-121.046 Y21.359 I-3.059 J-4.08
X-119.682 Y19.907 I-7.408 J-8.327
X-118.182 Y21.477 I8.804 J-6.911
X-117.935 Y21.675 I2.975 J-3.454
X-111.135 Y23.934 I6.799 J-9.107
X-104.333 Y21.674 I0.0 J-11.365
X-103.953 Y21.359 I-3.058 J-4.082
X-102.588 Y19.907 I-7.432 J-8.352
X-101.206 Y21.376 I8.831 J-6.928
X-100.838 Y21.677 I3.328 J-3.675
X-94.042 Y23.934 I6.797 J-9.109
X-87.249 Y21.681 I0.0 J-11.365
X-86.862 Y21.361 I-3.048 J-4.089
X-85.495 Y19.907 I-7.426 J-8.348
X-83.958 Y21.507 I8.757 J-6.873
X-83.745 Y21.677 I2.738 J-3.214
X-76.948 Y23.934 I6.797 J-9.109
X-70.146 Y21.673 I0.0 J-11.365
X-69.769 Y21.362 I-3.058 J-4.082
X-68.402 Y19.907 I-7.451 J-8.374
X-66.934 Y21.45 I8.858 J-6.956
X-66.653 Y21.677 I3.182 J-3.66
X-59.855 Y23.934 I6.798 J-9.108
X-53.05 Y21.672 I0.0 J-11.365
X-52.672 Y21.358 I-3.06 J-4.08
X-51.308 Y19.907 I-7.409 J-8.327
X-49.808 Y21.477 I8.781 J-6.888
X-49.558 Y21.677 I3.001 J-3.486
X-42.761 Y23.934 I6.797 J-9.109
X-35.969 Y21.681 I0.0 J-11.365
X-35.579 Y21.358 I-3.048 J-4.089
X-34.214 Y19.907 I-7.467 J-8.385
X-32.742 Y21.454 I8.808 J-6.908
X-32.466 Y21.676 I3.164 J-3.647
X-25.668 Y23.934 I6.798 J-9.107
X-18.864 Y21.672 I0.0 J-11.365
X-18.486 Y21.359 I-3.06 J-4.08
X-17.121 Y19.907 I-7.407 J-8.327
X-15.603 Y21.492 I8.752 J-6.862
X-15.372 Y21.677 I2.87 J-3.352
X-8.574 Y23.934 I6.798 J-9.108
X-1.774 Y21.675 I0.0 J-11.365
X-1.402 Y21.367 I-3.056 J-4.083
X-.027 Y19.907 I-7.504 J-8.438
X1.446 Y21.455 I8.812 J-6.912
X1.722 Y21.677 I3.16 J-3.643
X8.519 Y23.934 I6.797 J-9.108
X15.325 Y21.671 I0.0 J-11.365
X15.703 Y21.358 I-3.061 J-4.079
X17.066 Y19.907 I-7.398 J-8.316
X18.568 Y21.479 I8.809 J-6.916
X18.814 Y21.676 I2.962 J-3.441
X25.613 Y23.934 I6.799 J-9.107
X32.415 Y21.673 I0.0 J-11.365
X32.796 Y21.358 I-3.058 J-4.081
X34.16 Y19.907 I-7.449 J-8.366
X35.638 Y21.459 I8.791 J-6.892
X35.909 Y21.677 I3.133 J-3.618
X42.706 Y23.934 I6.798 J-9.108
X49.511 Y21.671 I0.0 J-11.365
X49.891 Y21.357 I-3.061 J-4.079
X51.252 Y19.908 I-7.398 J-8.314
X52.752 Y21.476 I8.919 J-7.03
X53.002 Y21.677 I2.96 J-3.431
X59.8 Y23.934 I6.798 J-9.108
X66.592 Y21.681 I0.0 J-11.365
X66.985 Y21.356 I-3.048 J-4.089
X69.928 Y17.223 I-7.722 J-8.614
G01 X69.976 Y17.108
G02 X70.04 Y16.949 I-10.908 J-4.494
G01 X71.435 Y17.5
X99.444
G03 X98.944 Y15.955 I12.295 J-4.834 F1500.
G01 X98.911 Y15.828
G03 X98.666 Y14.208 I7.822 J-2.011
G01 X98.661 Y14.088
G03 X98.603 Y12.569 I22.315 J-1.602
G01 Y-12.569
Y-12.596
G03 X98.634 Y-13.642 I17.674 J0.0
G01 X98.66 Y-14.078
X98.666 Y-14.19
G03 X98.915 Y-15.844 I8.219 J.395
G01 X99.001 Y-16.175
G03 X99.443 Y-17.5 I12.754 J3.525
G01 X100.839 Y-16.95 F2500.
G02 X100.446 Y-15.775 I10.916 J4.3
G01 X100.368 Y-15.47
G02 X100.164 Y-14.118 I6.516 J1.675
G01 X100.158 Y-13.997
X100.132 Y-13.553
G02 X100.103 Y-12.596 I16.145 J.957
G01 Y-12.569
Y12.569
G02 X100.158 Y13.997 I20.872 J-.084
G01 X100.165 Y14.135
G02 X100.364 Y15.454 I6.569 J-.319
G01 X100.397 Y15.582
G02 X103.528 Y21.016 I11.343 J-2.916
X104.283 Y21.677 I6.075 J-6.177
X111.08 Y23.934 I6.797 J-9.109
X117.873 Y21.681 I0.0 J-11.365
X118.257 Y21.364 I-3.048 J-4.089
X119.626 Y19.907 I-7.414 J-8.342
X121.146 Y21.492 I8.806 J-6.919
X121.376 Y21.677 I2.854 J-3.331
X128.174 Y23.934 I6.798 J-9.108
X134.975 Y21.674 I0.0 J-11.365
X135.265 Y21.439 I-2.851 J-3.817
X138.164 Y17.535 I-7.597 J-8.669
G01 X138.182 Y17.496
G02 X138.895 Y15.442 I-10.835 J-4.914
X139.068 Y14.442 I-7.286 J-1.772
G01 X139.096 Y13.997
X139.122 Y13.553
G02 X139.151 Y12.569 I-17.095 J-.993
G01 Y-12.569
G02 X139.096 Y-13.997 I-22.522 J.144
G01 X139.079 Y-14.265
G02 X138.921 Y-15.33 I-6.408 J.405
X136.058 Y-20.677 I-11.453 J2.694
X135.425 Y-21.296 I-7.823 J7.354
X134.784 Y-21.813 I-4.771 J5.258
X128.174 Y-23.934 I-6.611 J9.245
X121.376 Y-21.676 I0.0 J11.365
X120.995 Y-21.361 I2.948 J3.949
G01 X120.866 Y-21.243
G02 X119.628 Y-19.907 I7.298 J8.007
X118.335 Y-21.294 I-8.878 J6.982
X117.691 Y-21.813 I-4.774 J5.256
X111.08 Y-23.934 I-6.611 J9.245
X104.284 Y-21.678 I0.0 J11.365
X103.44 Y-20.927 I5.377 J6.897
X100.839 Y-16.95 I8.315 J8.277
G01 X99.443 Y-17.5
X71.436
X79.777 Y-10.
Y10.
X91.103
Y-10.
X79.777
X84.277 Y-5.5
Y5.5
X86.603
Y-5.5
X84.277
X79.777 Y-10.
X71.436 Y-17.5
Y-25.
X0.0
Y-30.5
Z-1.183
G00 Z-.985
G01 Z-1.382
Z-2.382 F1000.
Y-25.
X-129. F2500.
X-134.5 F2188.
X-140. F1875.
Y-19.5
Y14. F2500.
Y19.5 F2188.
Y25. F1875.
X-134.5
X129. F2500.
X134.5 F2188.
X140. F1875.
Y19.5
Y-14. F2500.
Y-19.5 F2188.
Y-25. F1875.
X134.5
X71.436 F2500.
Y-17.5
G03 X71.879 Y-16.175 I-12.368 J4.874 F1500.
X72.371 Y-12.569 I-13.156 J3.631
G01 Y12.569
Y12.572
G03 X71.435 Y17.5 I-13.44 J0.0
G01 X70.039 Y16.95 F2500.
G02 X70.871 Y12.572 I-11.109 J-4.378
G01 Y12.569
Y-12.569
G02 X70.433 Y-15.775 I-12.148 J.025
X68.092 Y-20.218 I-11.366 J3.149
X67.054 Y-21.294 I-8.381 J7.054
X66.41 Y-21.813 I-4.774 J5.256
X59.8 Y-23.934 I-6.611 J9.245
X53.002 Y-21.676 I0.0 J11.365
X52.831 Y-21.541 I2.25 J3.015
X51.253 Y-19.907 I7.038 J8.374
X49.961 Y-21.293 I-8.836 J6.939
X49.317 Y-21.813 I-4.774 J5.255
X42.706 Y-23.934 I-6.611 J9.245
X35.91 Y-21.678 I0.0 J11.365
G01 X35.748 Y-21.552
G02 X34.16 Y-19.907 I7.112 J8.457
X32.868 Y-21.293 I-8.876 J6.983
X32.223 Y-21.813 I-4.774 J5.255
X25.613 Y-23.934 I-6.611 J9.245
X18.815 Y-21.676 I0.0 J11.365
X18.612 Y-21.515 I2.474 J3.314
X17.067 Y-19.907 I7.125 J8.396
X15.773 Y-21.295 I-8.862 J6.967
X15.13 Y-21.813 I-4.773 J5.257
X8.519 Y-23.934 I-6.611 J9.245
X1.723 Y-21.678 I0.0 J11.365
G01 X1.561 Y-21.552
G02 X-.027 Y-19.907 I7.11 J8.455
X-1.319 Y-21.293 I-8.828 J6.935
X-1.964 Y-21.813 I-4.774 J5.255
X-8.574 Y-23.934 I-6.611 J9.245
X-15.371 Y-21.677 I0.0 J11.365
X-15.552 Y-21.533 I2.336 J3.13
X-17.121 Y-19.907 I7.063 J8.379
X-18.413 Y-21.293 I-8.868 J6.972
X-19.057 Y-21.813 I-4.774 J5.255
X-25.668 Y-23.934 I-6.611 J9.245
X-32.464 Y-21.678 I0.0 J11.365
X-32.842 Y-21.367 I3.114 J4.163
X-34.214 Y-19.907 I7.447 J8.378
X-35.516 Y-21.302 I-8.84 J6.948
X-36.151 Y-21.813 I-4.765 J5.264
X-42.761 Y-23.934 I-6.611 J9.245
X-49.559 Y-21.677 I0.0 J11.365
X-49.753 Y-21.522 I2.428 J3.253
X-51.308 Y-19.907 I7.091 J8.38
X-52.6 Y-21.293 I-8.779 J6.885
X-53.244 Y-21.813 I-4.774 J5.255
X-59.855 Y-23.934 I-6.61 J9.245
X-66.651 Y-21.678 I0.0 J11.365
X-67.033 Y-21.363 I3.119 J4.169
G01 X-67.247 Y-21.165
G02 X-68.401 Y-19.907 I7.335 J7.887
X-69.68 Y-21.281 I-8.851 J6.959
X-70.338 Y-21.813 I-4.787 J5.243
X-76.948 Y-23.934 I-6.611 J9.245
X-83.745 Y-21.678 I0.0 J11.365
X-83.939 Y-21.523 I2.425 J3.25
X-85.495 Y-19.907 I7.096 J8.387
X-86.786 Y-21.292 I-8.835 J6.94
X-87.431 Y-21.813 I-4.775 J5.254
X-94.042 Y-23.934 I-6.611 J9.245
X-100.838 Y-21.678 I0.0 J11.365
X-101.206 Y-21.376 I3.12 J4.17
X-102.588 Y-19.907 I7.45 J8.398
X-103.887 Y-21.299 I-8.829 J6.936
X-104.525 Y-21.813 I-4.768 J5.261
X-111.135 Y-23.934 I-6.611 J9.245
X-117.932 Y-21.677 I0.0 J11.365
X-118.129 Y-21.521 I2.447 J3.279
X-119.682 Y-19.906 I7.088 J8.373
X-120.974 Y-21.293 I-8.762 J6.867
X-121.618 Y-21.813 I-4.774 J5.255
X-128.229 Y-23.934 I-6.611 J9.245
X-135.025 Y-21.678 I0.0 J11.365
X-135.402 Y-21.367 I3.126 J4.177
X-138.311 Y-17.33 I7.703 J8.616
G01 X-138.357 Y-17.22
G02 X-139.3 Y-12.576 I10.969 J4.644
G01 Y12.569
G02 X-138.73 Y16.219 I12.121 J-.024
X-135.684 Y21.107 I11.127 J-3.54
G01 X-135.486 Y21.293
G02 X-135.028 Y21.675 I3.691 J-3.948
X-128.229 Y23.934 I6.799 J-9.107
X-121.425 Y21.672 I0.0 J-11.365
X-121.046 Y21.359 I-3.059 J-4.08
X-119.682 Y19.907 I-7.407 J-8.326
X-118.182 Y21.477 I8.804 J-6.91
X-117.935 Y21.675 I2.974 J-3.453
X-111.135 Y23.934 I6.8 J-9.106
X-104.333 Y21.674 I0.0 J-11.365
X-103.953 Y21.359 I-3.058 J-4.082
X-102.588 Y19.907 I-7.439 J-8.358
X-101.206 Y21.376 I8.832 J-6.928
X-100.838 Y21.677 I3.329 J-3.676
X-94.042 Y23.934 I6.797 J-9.109
X-87.249 Y21.681 I0.0 J-11.365
X-86.862 Y21.361 I-3.048 J-4.089
X-85.495 Y19.907 I-7.424 J-8.347
X-83.959 Y21.507 I8.758 J-6.875
X-83.745 Y21.677 I2.739 J-3.215
X-76.948 Y23.934 I6.797 J-9.108
X-70.146 Y21.673 I0.0 J-11.365
X-69.769 Y21.362 I-3.058 J-4.082
X-68.402 Y19.907 I-7.45 J-8.372
X-66.934 Y21.449 I8.859 J-6.957
X-66.653 Y21.676 I3.184 J-3.661
X-59.855 Y23.934 I6.798 J-9.108
X-53.05 Y21.672 I0.0 J-11.365
X-52.672 Y21.358 I-3.06 J-4.08
X-51.308 Y19.907 I-7.406 J-8.325
X-49.809 Y21.476 I8.782 J-6.889
X-49.558 Y21.677 I3.002 J-3.487
X-42.761 Y23.934 I6.797 J-9.108
X-35.969 Y21.681 I0.0 J-11.365
X-35.579 Y21.358 I-3.048 J-4.089
X-34.214 Y19.907 I-7.465 J-8.384
X-32.743 Y21.453 I8.809 J-6.908
X-32.466 Y21.676 I3.165 J-3.648
X-25.668 Y23.934 I6.799 J-9.107
X-18.864 Y21.672 I0.0 J-11.365
X-18.486 Y21.359 I-3.06 J-4.08
X-17.121 Y19.907 I-7.406 J-8.326
X-15.603 Y21.492 I8.753 J-6.863
X-15.373 Y21.676 I2.87 J-3.351
X-8.574 Y23.934 I6.798 J-9.107
X-1.774 Y21.675 I0.0 J-11.365
X-1.402 Y21.367 I-3.056 J-4.083
X-.027 Y19.907 I-7.502 J-8.435
X1.446 Y21.455 I8.813 J-6.912
X1.722 Y21.677 I3.161 J-3.643
X8.519 Y23.934 I6.798 J-9.108
X15.325 Y21.671 I0.0 J-11.365
X15.703 Y21.358 I-3.061 J-4.079
X17.066 Y19.907 I-7.395 J-8.313
X18.568 Y21.479 I8.808 J-6.915
X18.814 Y21.676 I2.96 J-3.439
X25.613 Y23.934 I6.799 J-9.107
X32.415 Y21.673 I0.0 J-11.365
X32.796 Y21.358 I-3.058 J-4.081
X34.16 Y19.907 I-7.447 J-8.365
X35.638 Y21.459 I8.792 J-6.893
X35.908 Y21.677 I3.135 J-3.62
X42.706 Y23.934 I6.798 J-9.108
X49.511 Y21.671 I0.0 J-11.365
X49.891 Y21.357 I-3.061 J-4.079
X51.252 Y19.908 I-7.396 J-8.312
X52.752 Y21.476 I8.919 J-7.03
X53.002 Y21.676 I2.96 J-3.43
X59.8 Y23.934 I6.798 J-9.108
X66.592 Y21.681 I0.0 J-11.365
X66.985 Y21.356 I-3.048 J-4.089
X69.928 Y17.223 I-7.722 J-8.614
G01 X69.976 Y17.108
G02 X70.039 Y16.95 I-11.045 J-4.536
G01 X71.435 Y17.5
X99.444
G03 X99.001 Y16.174 I12.317 J-4.851 F1500.
X98.509 Y12.569 I13.179 J-3.634
G01 Y-12.569
G03 X98.763 Y-15.174 I13.598 J.012
X99.443 Y-17.5 I13.012 J2.539
G01 X100.838 Y-16.95 F2500.
G02 X100.235 Y-14.886 I10.937 J4.315
X100.009 Y-12.569 I11.872 J2.329
G01 Y12.569
G02 X100.447 Y15.775 I12.171 J-.028
X103.44 Y20.928 I11.314 J-3.126
X104.283 Y21.677 I6.162 J-6.088
X111.08 Y23.934 I6.797 J-9.108
X117.873 Y21.681 I0.0 J-11.365
X118.257 Y21.364 I-3.048 J-4.089
X119.626 Y19.907 I-7.421 J-8.349
X121.145 Y21.492 I8.808 J-6.92
X121.376 Y21.677 I2.856 J-3.332
X128.174 Y23.934 I6.798 J-9.108
X134.976 Y21.674 I0.0 J-11.365
X135.266 Y21.439 I-2.852 J-3.817
X138.164 Y17.535 I-7.597 J-8.669
G01 X138.18 Y17.5
G02 X139.245 Y12.573 I-10.865 J-4.927
G01 Y-12.569
G02 X138.922 Y-15.33 I-12.218 J.032
X136.058 Y-20.677 I-11.454 J2.695
X135.425 Y-21.296 I-7.818 J7.349
X134.784 Y-21.813 I-4.771 J5.258
X128.174 Y-23.934 I-6.611 J9.245
X121.375 Y-21.676 I0.0 J11.365
X120.995 Y-21.361 I2.945 J3.945
G01 X120.866 Y-21.243
G02 X119.628 Y-19.907 I7.3 J8.008
X118.335 Y-21.294 I-8.877 J6.981
X117.691 Y-21.813 I-4.774 J5.256
X111.08 Y-23.934 I-6.611 J9.245
X104.284 Y-21.678 I0.0 J11.365
X103.44 Y-20.927 I5.37 J6.89
X100.838 Y-16.95 I8.335 J8.292
G01 X99.443 Y-17.5
X71.436
X79.871 Y-10.
Y10.
X91.009
Y-10.
X79.871
X84.371 Y-5.5
Y5.5
X86.509
Y-5.5
X84.371
X79.871 Y-10.
X71.436 Y-17.5
Y-25.
X0.0
Y-30.5
Z-1.382
G00 Z-1.183
G01 Z-1.58
Z-2.58 F1000.
Y-25.
X-129. F2500.
X-134.5 F2188.
X-140. F1875.
Y-19.5
Y14. F2500.
Y19.5 F2188.
Y25. F1875.
X-134.5
X129. F2500.
X134.5 F2188.
X140. F1875.
Y19.5
Y-14. F2500.
Y-19.5 F2188.
Y-25. F1875.
X134.5
X71.436 F2500.
Y-17.5
G03 X71.879 Y-16.175 I-12.369 J4.875 F1500.
X72.371 Y-12.569 I-13.154 J3.631
G01 Y12.569
Y12.572
G03 X71.435 Y17.5 I-13.44 J0.0
G01 X70.039 Y16.95 F2500.
G02 X70.871 Y12.572 I-11.109 J-4.378
G01 Y12.569
Y-12.569
G02 X70.433 Y-15.775 I-12.146 J.024
X68.092 Y-20.218 I-11.366 J3.15
X67.054 Y-21.294 I-8.38 J7.053
X66.41 Y-21.813 I-4.774 J5.256
X59.8 Y-23.934 I-6.611 J9.245
X53.001 Y-21.676 I0.0 J11.365
X52.832 Y-21.542 I2.244 J3.006
X51.253 Y-19.907 I7.038 J8.374
X49.961 Y-21.293 I-8.834 J6.937
X49.317 Y-21.813 I-4.774 J5.255
X42.706 Y-23.934 I-6.611 J9.245
X35.91 Y-21.677 I0.0 J11.365
G01 X35.748 Y-21.552
G02 X34.16 Y-19.907 I7.112 J8.457
X32.868 Y-21.293 I-8.875 J6.981
X32.223 Y-21.813 I-4.775 J5.255
X25.613 Y-23.934 I-6.611 J9.245
X18.816 Y-21.677 I0.0 J11.365
X18.61 Y-21.513 I2.504 J3.356
X17.067 Y-19.907 I7.129 J8.395
X15.773 Y-21.295 I-8.86 J6.966
X15.13 Y-21.813 I-4.773 J5.257
X8.519 Y-23.934 I-6.611 J9.245
X1.723 Y-21.677 I0.0 J11.365
G01 X1.561 Y-21.552
G02 X-.027 Y-19.907 I7.11 J8.456
X-1.319 Y-21.293 I-8.826 J6.934
X-1.964 Y-21.813 I-4.775 J5.255
X-8.574 Y-23.934 I-6.611 J9.245
X-15.372 Y-21.677 I0.0 J11.365
X-15.552 Y-21.534 I2.329 J3.121
X-17.121 Y-19.907 I7.063 J8.379
X-18.418 Y-21.298 I-8.867 J6.972
X-19.057 Y-21.813 I-4.769 J5.26
X-25.668 Y-23.934 I-6.611 J9.245
X-32.464 Y-21.678 I0.0 J11.365
X-32.842 Y-21.367 I3.111 J4.159
X-34.214 Y-19.907 I7.447 J8.378
X-35.516 Y-21.302 I-8.838 J6.946
X-36.151 Y-21.813 I-4.765 J5.264
X-42.761 Y-23.934 I-6.611 J9.245
X-49.559 Y-21.676 I0.0 J11.365
X-49.753 Y-21.523 I2.422 J3.245
X-51.308 Y-19.907 I7.09 J8.379
X-52.6 Y-21.293 I-8.777 J6.883
X-53.244 Y-21.813 I-4.774 J5.255
X-59.855 Y-23.934 I-6.61 J9.245
X-66.651 Y-21.677 I0.0 J11.365
X-67.033 Y-21.363 I3.116 J4.166
G01 X-67.247 Y-21.165
G02 X-68.401 Y-19.907 I7.335 J7.887
X-69.68 Y-21.281 I-8.849 J6.957
X-70.338 Y-21.813 I-4.787 J5.243
X-76.948 Y-23.934 I-6.611 J9.245
X-83.745 Y-21.677 I0.0 J11.365
X-83.939 Y-21.523 I2.42 J3.243
X-85.495 Y-19.907 I7.095 J8.386
X-86.786 Y-21.292 I-8.833 J6.939
X-87.431 Y-21.813 I-4.775 J5.254
X-94.042 Y-23.934 I-6.611 J9.245
X-100.838 Y-21.678 I0.0 J11.365
X-101.206 Y-21.376 I3.114 J4.163
X-102.588 Y-19.907 I7.449 J8.398
X-103.887 Y-21.299 I-8.828 J6.935
X-104.525 Y-21.813 I-4.768 J5.261
X-111.135 Y-23.934 I-6.611 J9.245
X-117.933 Y-21.677 I0.0 J11.365
X-118.129 Y-21.521 I2.442 J3.273
X-119.682 Y-19.906 I7.087 J8.373
X-120.973 Y-21.293 I-8.76 J6.865
X-121.618 Y-21.813 I-4.775 J5.255
X-128.229 Y-23.934 I-6.611 J9.245
X-135.025 Y-21.677 I0.0 J11.365
X-135.402 Y-21.367 I3.125 J4.175
X-138.311 Y-17.33 I7.704 J8.617
G01 X-138.357 Y-17.221
G02 X-139.3 Y-12.576 I10.969 J4.644
G01 Y12.569
G02 X-138.577 Y16.664 I12.097 J-.023
X-135.684 Y21.107 I10.954 J-3.968
G01 X-135.486 Y21.293
G02 X-135.029 Y21.675 I3.688 J-3.944
X-128.229 Y23.934 I6.8 J-9.106
X-121.425 Y21.672 I0.0 J-11.365
X-121.046 Y21.359 I-3.059 J-4.08
X-119.682 Y19.907 I-7.405 J-8.325
X-118.182 Y21.477 I8.803 J-6.909
X-117.935 Y21.675 I2.973 J-3.452
X-111.135 Y23.934 I6.8 J-9.106
X-104.333 Y21.674 I0.0 J-11.365
X-103.953 Y21.359 I-3.058 J-4.082
X-102.588 Y19.907 I-7.436 J-8.356
X-101.206 Y21.376 I8.832 J-6.929
X-100.839 Y21.677 I3.329 J-3.677
X-94.042 Y23.934 I6.797 J-9.109
X-87.249 Y21.681 I0.0 J-11.365
X-86.862 Y21.361 I-3.048 J-4.089
X-85.495 Y19.907 I-7.423 J-8.345
X-83.959 Y21.506 I8.759 J-6.876
X-83.746 Y21.677 I2.74 J-3.215
X-76.948 Y23.934 I6.797 J-9.108
X-70.146 Y21.673 I0.0 J-11.365
X-69.769 Y21.362 I-3.058 J-4.082
X-68.402 Y19.907 I-7.448 J-8.371
X-66.935 Y21.449 I8.86 J-6.958
X-66.653 Y21.676 I3.185 J-3.662
X-59.855 Y23.934 I6.798 J-9.107
X-53.05 Y21.672 I0.0 J-11.365
X-52.672 Y21.358 I-3.06 J-4.08
X-51.308 Y19.907 I-7.404 J-8.323
X-49.809 Y21.476 I8.783 J-6.89
X-49.559 Y21.677 I3.003 J-3.488
X-42.761 Y23.934 I6.798 J-9.108
X-35.969 Y21.681 I0.0 J-11.365
X-35.579 Y21.358 I-3.048 J-4.089
X-34.214 Y19.907 I-7.464 J-8.383
X-32.743 Y21.453 I8.81 J-6.909
X-32.467 Y21.676 I3.167 J-3.648
X-25.668 Y23.934 I6.799 J-9.107
X-18.864 Y21.672 I0.0 J-11.365
X-18.486 Y21.359 I-3.06 J-4.08
X-17.121 Y19.907 I-7.405 J-8.325
X-15.604 Y21.491 I8.754 J-6.864
X-15.373 Y21.676 I2.87 J-3.35
X-8.574 Y23.934 I6.799 J-9.107
X-1.774 Y21.675 I0.0 J-11.365
X-1.402 Y21.367 I-3.056 J-4.083
X-.027 Y19.907 I-7.499 J-8.433
X1.446 Y21.455 I8.81 J-6.91
X1.722 Y21.677 I3.162 J-3.644
X8.519 Y23.934 I6.798 J-9.108
X15.325 Y21.671 I0.0 J-11.365
X15.703 Y21.358 I-3.061 J-4.079
X17.066 Y19.907 I-7.391 J-8.309
X18.568 Y21.479 I8.807 J-6.915
X18.814 Y21.676 I2.958 J-3.438
X25.613 Y23.934 I6.799 J-9.107
X32.405 Y21.681 I0.0 J-11.365
X32.796 Y21.358 I-3.048 J-4.089
X34.16 Y19.907 I-7.445 J-8.363
X35.637 Y21.459 I8.792 J-6.893
X35.908 Y21.676 I3.136 J-3.621
X42.706 Y23.934 I6.798 J-9.108
X49.511 Y21.671 I0.0 J-11.365
X49.891 Y21.357 I-3.061 J-4.079
X51.252 Y19.908 I-7.403 J-8.318
X52.752 Y21.476 I8.918 J-7.029
X53.001 Y21.676 I2.959 J-3.429
X59.8 Y23.934 I6.799 J-9.107
X66.592 Y21.681 I0.0 J-11.365
X66.985 Y21.356 I-3.048 J-4.089
X69.928 Y17.223 I-7.724 J-8.615
G01 X69.976 Y17.108
G02 X70.039 Y16.95 I-11.045 J-4.536
G01 X71.435 Y17.5
X99.444
G03 X99.001 Y16.174 I12.317 J-4.851 F1500.
X98.509 Y12.569 I13.179 J-3.634
G01 Y-12.569
G03 X98.763 Y-15.174 I13.595 J.012
X99.443 Y-17.5 I13.012 J2.539
G01 X100.838 Y-16.95 F2500.
G02 X100.235 Y-14.886 I10.937 J4.315
X100.009 Y-12.569 I11.869 J2.329
G01 Y12.569
G02 X100.447 Y15.775 I12.17 J-.028
X103.44 Y20.928 I11.314 J-3.126
X104.283 Y21.677 I6.16 J-6.087
X111.08 Y23.934 I6.797 J-9.108
X117.873 Y21.681 I0.0 J-11.365
X118.257 Y21.364 I-3.048 J-4.089
X119.626 Y19.907 I-7.419 J-8.347
X121.144 Y21.491 I8.809 J-6.921
X121.375 Y21.676 I2.858 J-3.334
X128.174 Y23.934 I6.798 J-9.107
X134.976 Y21.674 I0.0 J-11.365
X135.266 Y21.439 I-2.853 J-3.818
X138.164 Y17.535 I-7.597 J-8.669
G01 X138.18 Y17.5
G02 X139.245 Y12.573 I-10.864 J-4.926
G01 Y-12.569
G02 X138.922 Y-15.33 I-12.214 J.031
X136.058 Y-20.677 I-11.454 J2.695
X135.425 Y-21.296 I-7.813 J7.344
X134.784 Y-21.813 I-4.771 J5.258
X128.174 Y-23.934 I-6.611 J9.245
X121.374 Y-21.675 I0.0 J11.365
X120.995 Y-21.361 I2.942 J3.94
G01 X120.866 Y-21.243
G02 X119.628 Y-19.907 I7.301 J8.009
X118.335 Y-21.294 I-8.875 J6.98
X117.691 Y-21.813 I-4.774 J5.256
X111.08 Y-23.934 I-6.611 J9.245
X104.284 Y-21.678 I0.0 J11.365
X103.44 Y-20.927 I5.364 J6.883
X100.838 Y-16.95 I8.335 J8.292
G01 X99.443 Y-17.5
X71.436
X79.871 Y-10.
Y10.
X91.009
Y-10.
X79.871
X84.371 Y-5.5
Y5.5
X86.509
Y-5.5
X84.371
X79.871 Y-10.
X71.436 Y-17.5
Y-25.
X0.0
Y-30.5
Z-1.58
G00 Z-1.382
G01 Z-1.779
Z-2.779 F1000.
Y-25.
X-129. F2500.
X-134.5 F2188.
X-140. F1875.
Y-19.5
Y14. F2500.
Y19.5 F2188.
Y25. F1875.
X-134.5
X129. F2500.
X134.5 F2188.
X140. F1875.
Y19.5
Y-14. F2500.
Y-19.5 F2188.
Y-25. F1875.
X134.5
X71.436 F2500.
Y-17.5
G03 X71.879 Y-16.175 I-12.369 J4.875 F1500.
X72.371 Y-12.569 I-13.153 J3.631
G01 Y12.569
Y12.572
G03 X71.435 Y17.5 I-13.441 J0.0
G01 X70.039 Y16.95 F2500.
G02 X70.871 Y12.572 I-11.11 J-4.378
G01 Y12.569
Y-12.569
G02 X70.433 Y-15.775 I-12.145 J.024
X68.092 Y-20.218 I-11.367 J3.15
X67.054 Y-21.294 I-8.379 J7.052
X66.41 Y-21.813 I-4.774 J5.256
X59.8 Y-23.934 I-6.611 J9.245
X53.001 Y-21.676 I0.0 J11.365
X52.832 Y-21.542 I2.238 J2.997
X51.253 Y-19.907 I7.037 J8.374
X49.961 Y-21.293 I-8.831 J6.936
X49.317 Y-21.813 I-4.774 J5.255
X42.706 Y-23.934 I-6.611 J9.245
X35.91 Y-21.677 I0.0 J11.365
G01 X35.748 Y-21.552
G02 X34.16 Y-19.907 I7.112 J8.457
X32.869 Y-21.292 I-8.873 J6.98
X32.223 Y-21.813 I-4.776 J5.254
X25.613 Y-23.934 I-6.611 J9.245
X18.815 Y-21.677 I0.0 J11.365
X18.609 Y-21.513 I2.503 J3.354
X17.067 Y-19.907 I7.131 J8.396
X15.773 Y-21.295 I-8.858 J6.965
X15.13 Y-21.813 I-4.773 J5.257
X8.519 Y-23.934 I-6.611 J9.245
X1.723 Y-21.677 I0.0 J11.365
G01 X1.561 Y-21.552
G02 X-.027 Y-19.907 I7.11 J8.456
X-1.318 Y-21.292 I-8.825 J6.932
X-1.964 Y-21.813 I-4.776 J5.254
X-8.574 Y-23.934 I-6.611 J9.245
X-15.372 Y-21.676 I0.0 J11.365
X-15.552 Y-21.534 I2.322 J3.111
X-17.121 Y-19.907 I7.063 J8.38
X-18.418 Y-21.298 I-8.866 J6.971
X-19.057 Y-21.813 I-4.769 J5.26
X-25.668 Y-23.934 I-6.611 J9.245
X-32.464 Y-21.678 I0.0 J11.365
X-32.842 Y-21.367 I3.107 J4.155
X-34.214 Y-19.907 I7.448 J8.379
X-35.516 Y-21.302 I-8.837 J6.944
X-36.151 Y-21.813 I-4.765 J5.264
X-42.761 Y-23.934 I-6.611 J9.245
X-49.558 Y-21.678 I0.0 J11.365
X-49.754 Y-21.521 I2.448 J3.282
X-51.308 Y-19.907 I7.091 J8.377
X-52.6 Y-21.293 I-8.776 J6.882
X-53.244 Y-21.813 I-4.774 J5.255
X-59.855 Y-23.934 I-6.61 J9.245
X-66.651 Y-21.677 I0.0 J11.365
X-67.033 Y-21.363 I3.113 J4.162
G01 X-67.247 Y-21.165
G02 X-68.401 Y-19.907 I7.335 J7.887
X-69.68 Y-21.281 I-8.847 J6.955
X-70.338 Y-21.813 I-4.787 J5.243
X-76.948 Y-23.934 I-6.611 J9.245
X-83.746 Y-21.677 I0.0 J11.365
X-83.938 Y-21.524 I2.414 J3.235
X-85.495 Y-19.907 I7.094 J8.385
X-86.785 Y-21.292 I-8.832 J6.938
X-87.431 Y-21.813 I-4.776 J5.254
X-94.042 Y-23.934 I-6.611 J9.245
X-100.838 Y-21.678 I0.0 J11.365
X-101.206 Y-21.376 I3.108 J4.156
X-102.588 Y-19.907 I7.449 J8.397
X-103.887 Y-21.299 I-8.827 J6.934
X-104.525 Y-21.813 I-4.768 J5.261
X-111.135 Y-23.934 I-6.611 J9.245
X-117.933 Y-21.677 I0.0 J11.365
X-118.128 Y-21.521 I2.438 J3.266
X-119.682 Y-19.906 I7.086 J8.372
X-120.972 Y-21.292 I-8.758 J6.864
X-121.618 Y-21.813 I-4.776 J5.254
X-128.229 Y-23.934 I-6.611 J9.245
X-135.025 Y-21.677 I0.0 J11.365
X-135.402 Y-21.367 I3.124 J4.174
X-138.311 Y-17.33 I7.7 J8.614
G01 X-138.357 Y-17.221
G02 X-139.3 Y-12.576 I10.968 J4.645
G01 Y12.569
G02 X-138.577 Y16.664 I12.095 J-.023
X-135.684 Y21.107 I10.954 J-3.968
G01 X-135.486 Y21.293
G02 X-135.029 Y21.674 I3.686 J-3.942
X-128.229 Y23.934 I6.801 J-9.106
X-121.425 Y21.672 I0.0 J-11.365
X-121.046 Y21.359 I-3.059 J-4.08
X-119.682 Y19.907 I-7.404 J-8.324
X-118.182 Y21.477 I8.802 J-6.909
X-117.935 Y21.675 I2.972 J-3.451
X-111.135 Y23.934 I6.8 J-9.106
X-104.333 Y21.674 I0.0 J-11.365
X-103.953 Y21.359 I-3.058 J-4.082
X-102.588 Y19.907 I-7.433 J-8.354
X-101.206 Y21.376 I8.833 J-6.929
X-100.839 Y21.677 I3.33 J-3.678
X-94.042 Y23.934 I6.797 J-9.109
X-87.249 Y21.681 I0.0 J-11.365
X-86.862 Y21.361 I-3.048 J-4.089
X-85.495 Y19.907 I-7.422 J-8.345
X-83.96 Y21.506 I8.761 J-6.877
X-83.746 Y21.677 I2.741 J-3.216
X-76.948 Y23.934 I6.798 J-9.108
X-70.146 Y21.673 I0.0 J-11.365
X-69.769 Y21.362 I-3.058 J-4.082
X-68.402 Y19.907 I-7.446 J-8.369
X-66.936 Y21.448 I8.861 J-6.959
X-66.654 Y21.676 I3.187 J-3.663
X-59.855 Y23.934 I6.799 J-9.107
X-53.05 Y21.672 I0.0 J-11.365
X-52.672 Y21.358 I-3.06 J-4.08
X-51.308 Y19.907 I-7.402 J-8.321
X-49.81 Y21.475 I8.784 J-6.891
X-49.559 Y21.676 I3.005 J-3.489
X-42.761 Y23.934 I6.798 J-9.108
X-35.969 Y21.681 I0.0 J-11.365
X-35.579 Y21.358 I-3.048 J-4.089
X-34.214 Y19.907 I-7.462 J-8.381
X-32.746 Y21.451 I8.811 J-6.91
X-32.465 Y21.677 I3.195 J-3.679
X-25.668 Y23.934 I6.797 J-9.109
X-18.864 Y21.672 I0.0 J-11.365
X-18.486 Y21.359 I-3.06 J-4.08
X-17.121 Y19.907 I-7.404 J-8.324
X-15.606 Y21.489 I8.754 J-6.865
X-15.371 Y21.677 I2.901 J-3.386
X-8.574 Y23.934 I6.797 J-9.108
X-1.774 Y21.675 I0.0 J-11.365
X-1.402 Y21.367 I-3.056 J-4.083
X-.027 Y19.907 I-7.497 J-8.431
X1.445 Y21.454 I8.81 J-6.91
X1.721 Y21.676 I3.162 J-3.645
X8.519 Y23.934 I6.798 J-9.108
X15.325 Y21.671 I0.0 J-11.365
X15.703 Y21.358 I-3.061 J-4.079
X17.066 Y19.907 I-7.396 J-8.314
X18.569 Y21.479 I8.806 J-6.914
X18.814 Y21.676 I2.957 J-3.436
X25.613 Y23.934 I6.799 J-9.107
X32.405 Y21.681 I0.0 J-11.365
X32.796 Y21.358 I-3.048 J-4.089
X34.16 Y19.907 I-7.443 J-8.362
X35.637 Y21.458 I8.792 J-6.893
X35.908 Y21.676 I3.137 J-3.622
X42.706 Y23.934 I6.798 J-9.108
X49.511 Y21.671 I0.0 J-11.365
X49.891 Y21.357 I-3.061 J-4.079
X51.252 Y19.908 I-7.401 J-8.317
X52.751 Y21.475 I8.918 J-7.029
X53.001 Y21.676 I2.959 J-3.429
X59.8 Y23.934 I6.799 J-9.107
X66.592 Y21.681 I0.0 J-11.365
X66.985 Y21.356 I-3.048 J-4.089
X69.864 Y17.371 I-7.713 J-8.606
G01 X69.928 Y17.223
G02 X70.039 Y16.95 I-10.998 J-4.651
G01 X71.435 Y17.5
X99.444
G03 X99.001 Y16.174 I12.317 J-4.851 F1500.
X98.509 Y12.569 I13.178 J-3.634
G01 Y-12.569
G03 X98.763 Y-15.174 I13.592 J.011
X99.443 Y-17.5 I13.012 J2.539
G01 X100.838 Y-16.95 F2500.
G02 X100.235 Y-14.886 I10.937 J4.314
X100.009 Y-12.569 I11.865 J2.328
G01 Y12.569
G02 X100.447 Y15.775 I12.169 J-.028
X103.44 Y20.928 I11.314 J-3.126
X104.283 Y21.677 I6.159 J-6.086
X111.08 Y23.934 I6.797 J-9.108
X117.873 Y21.681 I0.0 J-11.365
X118.257 Y21.364 I-3.048 J-4.089
X119.626 Y19.907 I-7.417 J-8.345
X121.144 Y21.491 I8.81 J-6.922
X121.375 Y21.676 I2.86 J-3.335
X128.174 Y23.934 I6.799 J-9.107
X134.976 Y21.673 I0.0 J-11.365
X135.266 Y21.438 I-2.853 J-3.819
X138.164 Y17.535 I-7.597 J-8.668
G01 X138.18 Y17.499
G02 X139.245 Y12.573 I-10.864 J-4.926
G01 Y-12.569
G02 X138.922 Y-15.33 I-12.21 J.03
X136.058 Y-20.677 I-11.455 J2.696
X135.425 Y-21.296 I-7.808 J7.339
X134.784 Y-21.813 I-4.771 J5.258
X128.174 Y-23.934 I-6.611 J9.245
X121.374 Y-21.675 I0.0 J11.365
X120.995 Y-21.361 I2.939 J3.936
G01 X120.866 Y-21.243
G02 X119.628 Y-19.907 I7.302 J8.01
X118.335 Y-21.294 I-8.874 J6.979
X117.691 Y-21.813 I-4.774 J5.256
X111.08 Y-23.934 I-6.611 J9.245
X104.284 Y-21.678 I0.0 J11.365
X103.44 Y-20.927 I5.357 J6.875
X100.838 Y-16.95 I8.335 J8.292
G01 X99.443 Y-17.5
X71.436
X79.871 Y-10.
Y10.
X91.009
Y-10.
X79.871
X84.371 Y-5.5
Y5.5
X86.509
Y-5.5
X84.371
X79.871 Y-10.
X71.436 Y-17.5
Y-25.
X0.0
Y-30.5
Z-1.779
G00 Z-1.58
G01 Z-1.977
Z-2.977 F1000.
Y-25.
X-129. F2500.
X-134.5 F2188.
X-140. F1875.
Y-19.5
Y14. F2500.
Y19.5 F2188.
Y25. F1875.
X-134.5
X129. F2500.
X134.5 F2188.
X140. F1875.
Y19.5
Y-14. F2500.
Y-19.5 F2188.
Y-25. F1875.
X134.5
X71.436 F2500.
Y-17.5
G03 X71.879 Y-16.175 I-12.369 J4.875 F1500.
X72.371 Y-12.569 I-13.152 J3.63
G01 Y12.569
Y12.572
G03 X71.435 Y17.5 I-13.441 J0.0
G01 X70.039 Y16.95 F2500.
G02 X70.871 Y12.572 I-11.11 J-4.378
G01 Y12.569
Y-12.569
G02 X70.434 Y-15.775 I-12.143 J.024
X68.092 Y-20.218 I-11.367 J3.15
X67.054 Y-21.294 I-8.378 J7.051
X66.41 Y-21.813 I-4.774 J5.256
X59.8 Y-23.934 I-6.611 J9.245
X53.003 Y-21.677 I0.0 J11.365
X52.83 Y-21.54 I2.273 J3.046
X51.253 Y-19.907 I7.039 J8.372
X49.961 Y-21.293 I-8.829 J6.934
X49.317 Y-21.813 I-4.774 J5.255
X42.706 Y-23.934 I-6.611 J9.245
X35.91 Y-21.677 I0.0 J11.365
G01 X35.748 Y-21.552
G02 X34.16 Y-19.907 I7.111 J8.456
X32.87 Y-21.291 I-8.871 J6.978
X32.223 Y-21.813 I-4.776 J5.253
X25.613 Y-23.934 I-6.611 J9.245
X18.815 Y-21.677 I0.0 J11.365
X18.609 Y-21.512 I2.502 J3.353
X17.067 Y-19.907 I7.133 J8.396
X15.773 Y-21.295 I-8.857 J6.963
X15.13 Y-21.813 I-4.773 J5.257
X8.519 Y-23.934 I-6.611 J9.245
X1.722 Y-21.677 I0.0 J11.365
G01 X1.561 Y-21.552
G02 X-.027 Y-19.907 I7.111 J8.456
X-1.324 Y-21.298 I-8.825 J6.932
X-1.964 Y-21.813 I-4.769 J5.26
X-8.574 Y-23.934 I-6.611 J9.245
X-15.373 Y-21.676 I0.0 J11.365
X-15.552 Y-21.534 I2.316 J3.102
X-17.121 Y-19.907 I7.063 J8.38
X-18.418 Y-21.298 I-8.866 J6.97
X-19.057 Y-21.813 I-4.769 J5.26
X-25.668 Y-23.934 I-6.611 J9.245
X-32.464 Y-21.678 I0.0 J11.365
X-32.842 Y-21.367 I3.104 J4.151
X-34.214 Y-19.907 I7.448 J8.379
X-35.516 Y-21.302 I-8.835 J6.943
X-36.151 Y-21.813 I-4.765 J5.264
X-42.761 Y-23.934 I-6.611 J9.245
X-49.558 Y-21.677 I0.0 J11.365
X-49.754 Y-21.522 I2.443 J3.274
X-51.308 Y-19.907 I7.09 J8.377
X-52.6 Y-21.293 I-8.774 J6.881
X-53.244 Y-21.813 I-4.774 J5.255
X-59.855 Y-23.934 I-6.61 J9.245
X-66.652 Y-21.677 I0.0 J11.365
X-67.033 Y-21.363 I3.11 J4.159
G01 X-67.247 Y-21.165
G02 X-68.401 Y-19.907 I7.335 J7.887
X-69.68 Y-21.281 I-8.845 J6.954
X-70.338 Y-21.813 I-4.787 J5.243
X-76.948 Y-23.934 I-6.611 J9.245
X-83.746 Y-21.677 I0.0 J11.365
X-83.938 Y-21.524 I2.409 J3.228
X-85.495 Y-19.907 I7.092 J8.385
X-86.785 Y-21.291 I-8.83 J6.936
X-87.431 Y-21.813 I-4.776 J5.253
X-94.042 Y-23.934 I-6.611 J9.245
X-100.838 Y-21.678 I0.0 J11.365
X-101.206 Y-21.376 I3.102 J4.148
X-102.588 Y-19.907 I7.449 J8.397
X-103.887 Y-21.299 I-8.826 J6.933
X-104.525 Y-21.813 I-4.768 J5.261
X-111.135 Y-23.934 I-6.611 J9.245
X-117.931 Y-21.678 I0.0 J11.365
X-118.13 Y-21.52 I2.465 J3.304
X-119.682 Y-19.906 I7.087 J8.37
X-120.972 Y-21.292 I-8.756 J6.862
X-121.618 Y-21.813 I-4.776 J5.254
X-128.229 Y-23.934 I-6.611 J9.245
X-135.026 Y-21.677 I0.0 J11.365
X-135.402 Y-21.367 I3.122 J4.173
X-138.311 Y-17.33 I7.701 J8.615
G01 X-138.357 Y-17.222
G02 X-139.3 Y-12.576 I10.971 J4.646
G01 Y12.569
G02 X-138.578 Y16.664 I12.093 J-.022
X-135.684 Y21.107 I10.954 J-3.968
G01 X-135.486 Y21.293
G02 X-135.03 Y21.674 I3.684 J-3.94
X-128.229 Y23.934 I6.801 J-9.105
X-121.425 Y21.672 I0.0 J-11.365
X-121.046 Y21.359 I-3.059 J-4.08
X-119.682 Y19.907 I-7.404 J-8.323
X-118.182 Y21.477 I8.801 J-6.908
X-117.935 Y21.675 I2.972 J-3.45
X-111.135 Y23.934 I6.8 J-9.106
X-104.333 Y21.674 I0.0 J-11.365
X-103.953 Y21.359 I-3.058 J-4.082
X-102.588 Y19.907 I-7.431 J-8.351
X-101.206 Y21.376 I8.833 J-6.93
X-100.839 Y21.677 I3.33 J-3.679
X-94.042 Y23.934 I6.797 J-9.108
X-87.249 Y21.681 I0.0 J-11.365
X-86.862 Y21.361 I-3.048 J-4.089
X-85.495 Y19.907 I-7.422 J-8.345
X-83.96 Y21.506 I8.762 J-6.878
X-83.747 Y21.676 I2.743 J-3.217
X-76.948 Y23.934 I6.798 J-9.107
X-70.146 Y21.673 I0.0 J-11.365
X-69.769 Y21.362 I-3.058 J-4.082
X-68.402 Y19.907 I-7.445 J-8.368
X-66.938 Y21.446 I8.862 J-6.96
X-66.652 Y21.677 I3.215 J-3.694
X-59.855 Y23.934 I6.797 J-9.108
X-53.05 Y21.672 I0.0 J-11.365
X-52.672 Y21.358 I-3.06 J-4.08
X-51.308 Y19.907 I-7.401 J-8.319
X-49.811 Y21.475 I8.785 J-6.892
X-49.56 Y21.676 I3.006 J-3.489
X-42.761 Y23.934 I6.798 J-9.107
X-35.969 Y21.681 I0.0 J-11.365
X-35.579 Y21.358 I-3.048 J-4.089
X-34.214 Y19.907 I-7.461 J-8.38
X-32.746 Y21.451 I8.812 J-6.911
X-32.465 Y21.677 I3.196 J-3.68
X-25.668 Y23.934 I6.797 J-9.108
X-18.864 Y21.672 I0.0 J-11.365
X-18.486 Y21.359 I-3.06 J-4.08
X-17.121 Y19.907 I-7.403 J-8.324
X-15.607 Y21.489 I8.755 J-6.865
X-15.372 Y21.677 I2.901 J-3.385
X-8.574 Y23.934 I6.797 J-9.108
X-1.774 Y21.675 I0.0 J-11.365
X-1.402 Y21.367 I-3.056 J-4.083
X-.027 Y19.907 I-7.495 J-8.429
X1.445 Y21.454 I8.81 J-6.91
X1.721 Y21.676 I3.163 J-3.646
X8.519 Y23.934 I6.798 J-9.107
X15.325 Y21.671 I0.0 J-11.365
X15.703 Y21.358 I-3.061 J-4.079
X17.066 Y19.907 I-7.392 J-8.31
X18.569 Y21.479 I8.805 J-6.913
X18.813 Y21.675 I2.955 J-3.434
X25.613 Y23.934 I6.799 J-9.107
X32.405 Y21.681 I0.0 J-11.365
X32.796 Y21.358 I-3.048 J-4.089
X34.16 Y19.907 I-7.442 J-8.36
X35.637 Y21.458 I8.793 J-6.894
X35.908 Y21.676 I3.139 J-3.623
X42.706 Y23.934 I6.798 J-9.107
X49.511 Y21.671 I0.0 J-11.365
X49.891 Y21.357 I-3.061 J-4.079
X51.252 Y19.908 I-7.399 J-8.315
X52.749 Y21.473 I8.918 J-7.029
X53.003 Y21.677 I2.988 J-3.461
X59.8 Y23.934 I6.797 J-9.108
X66.592 Y21.681 I0.0 J-11.365
X66.985 Y21.356 I-3.048 J-4.089
X69.864 Y17.371 I-7.712 J-8.605
G01 X69.928 Y17.223
G02 X70.039 Y16.95 I-10.998 J-4.651
G01 X71.435 Y17.5
X99.444
G03 X99.001 Y16.174 I12.317 J-4.851 F1500.
X98.509 Y12.569 I13.177 J-3.633
G01 Y-12.569
G03 X98.763 Y-15.174 I13.588 J.011
X99.443 Y-17.5 I13.011 J2.539
G01 X100.838 Y-16.95 F2500.
G02 X100.235 Y-14.886 I10.937 J4.314
X100.009 Y-12.569 I11.862 J2.328
G01 Y12.569
G02 X100.447 Y15.775 I12.168 J-.028
X103.44 Y20.928 I11.314 J-3.126
X104.283 Y21.677 I6.158 J-6.084
X111.08 Y23.934 I6.797 J-9.108
X117.873 Y21.681 I0.0 J-11.365
X118.257 Y21.364 I-3.048 J-4.089
X119.626 Y19.907 I-7.415 J-8.344
X121.143 Y21.49 I8.811 J-6.923
X121.375 Y21.676 I2.862 J-3.337
X128.174 Y23.934 I6.799 J-9.107
X134.976 Y21.673 I0.0 J-11.365
X135.266 Y21.438 I-2.854 J-3.82
X138.164 Y17.535 I-7.597 J-8.668
G01 X138.181 Y17.499
G02 X139.245 Y12.574 I-10.863 J-4.925
G01 Y-12.569
G02 X138.922 Y-15.33 I-12.206 J.03
X136.058 Y-20.677 I-11.455 J2.696
X135.425 Y-21.296 I-7.803 J7.334
X134.784 Y-21.813 I-4.771 J5.258
X128.174 Y-23.934 I-6.611 J9.245
X121.373 Y-21.674 I0.0 J11.365
X120.995 Y-21.361 I2.936 J3.931
G01 X120.866 Y-21.243
G02 X119.628 Y-19.907 I7.303 J8.012
X118.335 Y-21.294 I-8.873 J6.978
X117.691 Y-21.813 I-4.774 J5.256
X111.08 Y-23.934 I-6.611 J9.245
X104.284 Y-21.678 I0.0 J11.365
X103.44 Y-20.927 I5.35 J6.868
X100.838 Y-16.95 I8.335 J8.292
G01 X99.443 Y-17.5
X71.436
X79.871 Y-10.
Y10.
X91.009
Y-10.
X79.871
X84.371 Y-5.5
Y5.5
X86.509
Y-5.5
X84.371
X79.871 Y-10.
X71.436 Y-17.5
Y-25.
X0.0
Y-30.5
Z-1.977
G00 Z-1.779
G01 Z-2.176
Z-3.176 F1000.
Y-25.
X-129. F2500.
X-134.5 F2188.
X-140. F1875.
Y-19.5
Y14. F2500.
Y19.5 F2188.
Y25. F1875.
X-134.5
X129. F2500.
X134.5 F2188.
X140. F1875.
Y19.5
Y-14. F2500.
Y-19.5 F2188.
Y-25. F1875.
X134.5
X71.436 F2500.
Y-17.5
G03 X71.879 Y-16.175 I-12.37 J4.875 F1500.
X72.371 Y-12.569 I-13.15 J3.63
G01 Y12.569
Y12.572
G03 X71.435 Y17.5 I-13.441 J0.0
G01 X70.039 Y16.95 F2500.
G02 X70.871 Y12.572 I-11.109 J-4.378
G01 Y12.569
Y-12.569
G02 X70.434 Y-15.775 I-12.142 J.024
X68.093 Y-20.218 I-11.367 J3.15
X67.054 Y-21.294 I-8.377 J7.051
X66.41 Y-21.813 I-4.774 J5.256
X59.8 Y-23.934 I-6.611 J9.245
X53.002 Y-21.677 I0.0 J11.365
X52.83 Y-21.54 I2.267 J3.038
X51.253 Y-19.907 I7.039 J8.372
X49.961 Y-21.293 I-8.827 J6.932
X49.317 Y-21.813 I-4.774 J5.255
X42.706 Y-23.934 I-6.611 J9.245
X35.91 Y-21.677 I0.0 J11.365
G01 X35.748 Y-21.552
G02 X34.16 Y-19.907 I7.111 J8.456
X32.863 Y-21.297 I-8.871 J6.978
X32.223 Y-21.813 I-4.77 J5.259
X25.613 Y-23.934 I-6.611 J9.245
X18.814 Y-21.676 I0.0 J11.365
X18.608 Y-21.512 I2.502 J3.351
X17.067 Y-19.907 I7.135 J8.397
X15.773 Y-21.295 I-8.855 J6.962
X15.13 Y-21.813 I-4.773 J5.257
X8.519 Y-23.934 I-6.611 J9.245
X1.722 Y-21.677 I0.0 J11.365
G01 X1.561 Y-21.552
G02 X-.027 Y-19.907 I7.111 J8.456
X-1.317 Y-21.292 I-8.822 J6.93
X-1.964 Y-21.813 I-4.776 J5.253
X-8.574 Y-23.934 I-6.611 J9.245
X-15.373 Y-21.676 I0.0 J11.365
X-15.552 Y-21.534 I2.309 J3.093
X-17.121 Y-19.907 I7.063 J8.381
X-18.418 Y-21.298 I-8.865 J6.97
X-19.057 Y-21.813 I-4.769 J5.26
X-25.668 Y-23.934 I-6.611 J9.245
X-32.464 Y-21.678 I0.0 J11.365
X-32.842 Y-21.367 I3.1 J4.148
X-34.214 Y-19.907 I7.449 J8.38
X-35.516 Y-21.302 I-8.833 J6.941
X-36.151 Y-21.813 I-4.765 J5.264
X-42.761 Y-23.934 I-6.611 J9.245
X-49.558 Y-21.677 I0.0 J11.365
X-49.754 Y-21.522 I2.437 J3.266
X-51.308 Y-19.907 I7.088 J8.377
X-52.6 Y-21.293 I-8.773 J6.88
X-53.244 Y-21.813 I-4.774 J5.255
X-59.855 Y-23.934 I-6.61 J9.245
X-66.652 Y-21.677 I0.0 J11.365
X-67.033 Y-21.363 I3.107 J4.156
G01 X-67.247 Y-21.165
G02 X-68.401 Y-19.907 I7.335 J7.887
X-69.68 Y-21.281 I-8.843 J6.952
X-70.338 Y-21.813 I-4.787 J5.243
X-76.948 Y-23.934 I-6.611 J9.245
X-83.746 Y-21.676 I0.0 J11.365
X-83.938 Y-21.524 I2.404 J3.221
X-85.495 Y-19.907 I7.091 J8.384
X-86.784 Y-21.29 I-8.827 J6.933
X-87.431 Y-21.813 I-4.777 J5.252
X-94.042 Y-23.934 I-6.611 J9.245
X-100.838 Y-21.678 I0.0 J11.365
X-101.206 Y-21.376 I3.095 J4.141
X-102.588 Y-19.907 I7.448 J8.397
X-103.887 Y-21.299 I-8.824 J6.932
X-104.525 Y-21.813 I-4.768 J5.261
X-111.135 Y-23.934 I-6.611 J9.245
X-117.932 Y-21.678 I0.0 J11.365
X-118.13 Y-21.52 I2.461 J3.299
X-119.682 Y-19.907 I7.086 J8.37
X-120.972 Y-21.292 I-8.754 J6.86
X-121.618 Y-21.813 I-4.776 J5.254
X-128.229 Y-23.934 I-6.611 J9.245
X-135.026 Y-21.677 I0.0 J11.365
X-135.402 Y-21.367 I3.121 J4.171
X-138.405 Y-17.108 I7.723 J8.633
G01 X-138.449 Y-16.996
G02 X-139.3 Y-12.575 I11.069 J4.422
G01 Y12.569
G02 X-138.578 Y16.664 I12.092 J-.022
X-135.684 Y21.107 I10.954 J-3.968
G01 X-135.486 Y21.292
G02 X-135.03 Y21.674 I3.683 J-3.939
X-128.229 Y23.934 I6.802 J-9.105
X-121.425 Y21.672 I0.0 J-11.365
X-121.046 Y21.359 I-3.059 J-4.08
X-119.682 Y19.907 I-7.403 J-8.322
X-118.182 Y21.477 I8.8 J-6.907
X-117.936 Y21.675 I2.971 J-3.45
X-111.135 Y23.934 I6.8 J-9.106
X-104.333 Y21.674 I0.0 J-11.365
X-103.953 Y21.359 I-3.058 J-4.082
X-102.588 Y19.907 I-7.428 J-8.349
X-101.206 Y21.376 I8.834 J-6.93
X-100.839 Y21.677 I3.331 J-3.68
X-94.042 Y23.934 I6.797 J-9.108
X-87.249 Y21.681 I0.0 J-11.365
X-86.862 Y21.361 I-3.048 J-4.089
X-85.495 Y19.907 I-7.422 J-8.345
X-83.965 Y21.502 I8.773 J-6.888
X-83.745 Y21.677 I2.781 J-3.258
X-76.948 Y23.934 I6.797 J-9.108
X-70.146 Y21.673 I0.0 J-11.365
X-69.769 Y21.362 I-3.058 J-4.082
X-68.402 Y19.907 I-7.443 J-8.366
X-66.939 Y21.446 I8.863 J-6.961
X-66.652 Y21.677 I3.217 J-3.695
X-59.855 Y23.934 I6.797 J-9.108
X-53.05 Y21.672 I0.0 J-11.365
X-52.672 Y21.358 I-3.06 J-4.08
X-51.308 Y19.907 I-7.4 J-8.318
X-49.811 Y21.474 I8.787 J-6.893
X-49.56 Y21.676 I3.008 J-3.49
X-42.761 Y23.934 I6.799 J-9.107
X-35.969 Y21.681 I0.0 J-11.365
X-35.579 Y21.358 I-3.048 J-4.089
X-34.214 Y19.907 I-7.459 J-8.378
X-32.747 Y21.45 I8.812 J-6.911
X-32.465 Y21.677 I3.197 J-3.68
X-25.668 Y23.934 I6.797 J-9.108
X-18.864 Y21.672 I0.0 J-11.365
X-18.486 Y21.359 I-3.06 J-4.08
X-17.121 Y19.907 I-7.402 J-8.323
X-15.607 Y21.489 I8.756 J-6.866
X-15.372 Y21.677 I2.901 J-3.384
X-8.574 Y23.934 I6.798 J-9.108
X-1.774 Y21.675 I0.0 J-11.365
X-1.402 Y21.367 I-3.056 J-4.083
X-.027 Y19.907 I-7.492 J-8.427
X1.444 Y21.453 I8.81 J-6.91
X1.721 Y21.676 I3.164 J-3.646
X8.519 Y23.934 I6.799 J-9.107
X15.325 Y21.671 I0.0 J-11.365
X15.703 Y21.358 I-3.061 J-4.079
X17.066 Y19.907 I-7.39 J-8.309
X18.569 Y21.479 I8.804 J-6.912
X18.813 Y21.675 I2.953 J-3.432
X25.613 Y23.934 I6.799 J-9.107
X32.405 Y21.681 I0.0 J-11.365
X32.796 Y21.358 I-3.048 J-4.089
X34.16 Y19.907 I-7.44 J-8.359
X35.636 Y21.458 I8.793 J-6.894
X35.908 Y21.676 I3.14 J-3.624
X42.706 Y23.934 I6.798 J-9.107
X49.511 Y21.671 I0.0 J-11.365
X49.891 Y21.357 I-3.061 J-4.079
X51.252 Y19.908 I-7.397 J-8.313
X52.749 Y21.473 I8.918 J-7.029
X53.002 Y21.677 I2.988 J-3.46
X59.8 Y23.934 I6.798 J-9.108
X66.592 Y21.681 I0.0 J-11.365
X66.985 Y21.356 I-3.048 J-4.089
X69.864 Y17.371 I-7.711 J-8.605
G01 X69.928 Y17.223
G02 X70.039 Y16.95 I-10.998 J-4.651
G01 X71.435 Y17.5
X99.443
G03 X99.001 Y16.174 I12.317 J-4.851 F1500.
X98.509 Y12.569 I13.176 J-3.633
G01 Y-12.569
G03 X98.763 Y-15.174 I13.585 J.01
X99.443 Y-17.5 I13.011 J2.539
G01 X100.838 Y-16.95 F2500.
G02 X100.235 Y-14.886 I10.937 J4.314
X100.009 Y-12.569 I11.859 J2.328
G01 Y12.569
G02 X100.447 Y15.775 I12.168 J-.028
X103.44 Y20.928 I11.314 J-3.126
X104.283 Y21.677 I6.157 J-6.083
X111.08 Y23.934 I6.798 J-9.108
X117.873 Y21.681 I0.0 J-11.365
X118.257 Y21.364 I-3.048 J-4.089
X119.626 Y19.907 I-7.413 J-8.342
X121.142 Y21.49 I8.812 J-6.924
X121.374 Y21.675 I2.864 J-3.339
X128.174 Y23.934 I6.799 J-9.107
X134.973 Y21.675 I0.0 J-11.365
X135.269 Y21.436 I-2.882 J-3.859
X138.164 Y17.535 I-7.599 J-8.666
G01 X138.181 Y17.499
G02 X139.245 Y12.574 I-10.863 J-4.925
G01 Y-12.569
G02 X138.922 Y-15.33 I-12.202 J.029
X136.058 Y-20.677 I-11.455 J2.696
X135.425 Y-21.296 I-7.798 J7.33
X134.784 Y-21.813 I-4.771 J5.258
X128.174 Y-23.934 I-6.611 J9.245
X121.372 Y-21.674 I0.0 J11.365
X120.995 Y-21.361 I2.933 J3.926
G01 X120.866 Y-21.243
G02 X119.628 Y-19.907 I7.305 J8.013
X118.335 Y-21.294 I-8.873 J6.978
X117.691 Y-21.813 I-4.774 J5.256
X111.08 Y-23.934 I-6.611 J9.245
X104.284 Y-21.678 I0.0 J11.365
X103.44 Y-20.927 I5.343 J6.86
X100.838 Y-16.95 I8.335 J8.292
G01 X99.443 Y-17.5
X71.436
X79.871 Y-10.
Y10.
X91.009
Y-10.
X79.871
X84.371 Y-5.5
Y5.5
X86.509
Y-5.5
X84.371
X79.871 Y-10.
X71.436 Y-17.5
Y-25.
X0.0
Y-30.5
Z-2.176
G00 Z-1.977
G01 Z-2.374
Z-3.374 F1000.
Y-25.
X-129. F2500.
X-134.5 F2188.
X-140. F1875.
Y-19.5
Y14. F2500.
Y19.5 F2188.
Y25. F1875.
X-134.5
X129. F2500.
X134.5 F2188.
X140. F1875.
Y19.5
Y-14. F2500.
Y-19.5 F2188.
Y-25. F1875.
X134.5
X71.436 F2500.
Y-17.5
G03 X71.879 Y-16.175 I-12.37 J4.876 F1500.
X72.371 Y-12.569 I-13.149 J3.63
G01 Y12.569
Y12.572
G03 X71.435 Y17.5 I-13.441 J0.0
G01 X70.039 Y16.95 F2500.
G02 X70.871 Y12.572 I-11.109 J-4.378
G01 Y12.569
Y-12.569
G02 X70.434 Y-15.775 I-12.141 J.023
X68.093 Y-20.218 I-11.368 J3.15
X67.054 Y-21.294 I-8.376 J7.05
X66.41 Y-21.813 I-4.774 J5.256
X59.8 Y-23.934 I-6.611 J9.245
X53.001 Y-21.676 I0.0 J11.365
X52.83 Y-21.54 I2.261 J3.029
X51.253 Y-19.907 I7.038 J8.372
X49.961 Y-21.293 I-8.825 J6.93
X49.317 Y-21.813 I-4.774 J5.255
X42.706 Y-23.934 I-6.611 J9.245
X35.91 Y-21.677 I0.0 J11.365
G01 X35.748 Y-21.552
G02 X34.16 Y-19.907 I7.111 J8.456
X32.863 Y-21.297 I-8.869 J6.976
X32.223 Y-21.813 I-4.77 J5.259
X25.613 Y-23.934 I-6.611 J9.245
X18.814 Y-21.676 I0.0 J11.365
X18.607 Y-21.511 I2.501 J3.35
X17.067 Y-19.907 I7.137 J8.398
X15.773 Y-21.295 I-8.853 J6.96
X15.13 Y-21.813 I-4.773 J5.257
X8.519 Y-23.934 I-6.611 J9.245
X1.722 Y-21.677 I0.0 J11.365
G01 X1.561 Y-21.552
G02 X-.027 Y-19.907 I7.111 J8.456
X-1.317 Y-21.292 I-8.82 J6.929
X-1.964 Y-21.813 I-4.776 J5.253
X-8.574 Y-23.934 I-6.611 J9.245
X-15.372 Y-21.677 I0.0 J11.365
X-15.554 Y-21.532 I2.341 J3.137
X-17.121 Y-19.907 I7.065 J8.38
X-18.418 Y-21.298 I-8.864 J6.969
X-19.057 Y-21.813 I-4.769 J5.26
X-25.668 Y-23.934 I-6.611 J9.245
X-32.464 Y-21.678 I0.0 J11.365
X-32.842 Y-21.367 I3.097 J4.144
X-34.214 Y-19.907 I7.45 J8.38
X-35.516 Y-21.302 I-8.831 J6.939
X-36.151 Y-21.813 I-4.765 J5.264
X-42.761 Y-23.934 I-6.611 J9.245
X-49.559 Y-21.677 I0.0 J11.365
X-49.753 Y-21.522 I2.431 J3.258
X-51.308 Y-19.907 I7.087 J8.377
X-52.6 Y-21.293 I-8.772 J6.879
X-53.244 Y-21.813 I-4.774 J5.255
X-59.855 Y-23.934 I-6.61 J9.245
X-66.652 Y-21.677 I0.0 J11.365
X-67.033 Y-21.363 I3.104 J4.152
G01 X-67.247 Y-21.165
G02 X-68.401 Y-19.907 I7.335 J7.887
X-69.678 Y-21.279 I-8.833 J6.943
X-70.338 Y-21.813 I-4.789 J5.241
X-76.948 Y-23.934 I-6.611 J9.245
X-83.747 Y-21.676 I0.0 J11.365
X-83.937 Y-21.525 I2.398 J3.213
X-85.495 Y-19.907 I7.089 J8.383
X-86.783 Y-21.29 I-8.825 J6.931
X-87.431 Y-21.813 I-4.778 J5.252
X-94.042 Y-23.934 I-6.611 J9.245
X-100.838 Y-21.678 I0.0 J11.365
X-101.206 Y-21.376 I3.089 J4.134
X-102.588 Y-19.907 I7.448 J8.397
X-103.887 Y-21.299 I-8.823 J6.931
X-104.525 Y-21.813 I-4.768 J5.261
X-111.135 Y-23.934 I-6.611 J9.245
X-117.932 Y-21.678 I0.0 J11.365
X-118.129 Y-21.521 I2.457 J3.293
X-119.682 Y-19.907 I7.085 J8.369
X-120.972 Y-21.292 I-8.752 J6.858
X-121.618 Y-21.813 I-4.776 J5.254
X-128.229 Y-23.934 I-6.611 J9.245
X-135.026 Y-21.677 I0.0 J11.365
X-135.402 Y-21.367 I3.12 J4.17
X-138.405 Y-17.108 I7.723 J8.633
G01 X-138.45 Y-16.996
G02 X-139.3 Y-12.575 I11.069 J4.421
G01 Y12.569
G02 X-138.578 Y16.664 I12.09 J-.022
X-135.684 Y21.107 I10.954 J-3.968
G01 X-135.485 Y21.293
G02 X-135.032 Y21.672 I3.67 J-3.925
X-128.229 Y23.934 I6.803 J-9.104
X-121.425 Y21.672 I0.0 J-11.365
X-121.046 Y21.359 I-3.059 J-4.08
X-119.682 Y19.907 I-7.402 J-8.321
X-118.182 Y21.477 I8.8 J-6.907
X-117.936 Y21.675 I2.97 J-3.449
X-111.135 Y23.934 I6.8 J-9.106
X-104.333 Y21.674 I0.0 J-11.365
X-103.953 Y21.359 I-3.058 J-4.082
X-102.588 Y19.907 I-7.434 J-8.355
X-101.206 Y21.376 I8.834 J-6.931
X-100.839 Y21.677 I3.331 J-3.681
X-94.042 Y23.934 I6.797 J-9.108
X-87.249 Y21.681 I0.0 J-11.365
X-86.862 Y21.361 I-3.048 J-4.089
X-85.495 Y19.907 I-7.421 J-8.344
X-83.965 Y21.501 I8.774 J-6.889
X-83.746 Y21.677 I2.782 J-3.258
X-76.948 Y23.934 I6.798 J-9.108
X-70.146 Y21.673 I0.0 J-11.365
X-69.769 Y21.362 I-3.058 J-4.082
X-68.402 Y19.907 I-7.441 J-8.365
X-66.939 Y21.445 I8.864 J-6.962
X-66.652 Y21.677 I3.218 J-3.696
X-59.855 Y23.934 I6.798 J-9.108
X-53.05 Y21.672 I0.0 J-11.365
X-52.672 Y21.358 I-3.06 J-4.08
X-51.308 Y19.907 I-7.398 J-8.318
X-49.812 Y21.474 I8.788 J-6.894
X-49.561 Y21.675 I3.009 J-3.491
X-42.761 Y23.934 I6.799 J-9.107
X-35.969 Y21.681 I0.0 J-11.365
X-35.579 Y21.358 I-3.048 J-4.089
X-34.214 Y19.907 I-7.457 J-8.377
X-32.747 Y21.45 I8.813 J-6.912
X-32.465 Y21.677 I3.198 J-3.681
X-25.668 Y23.934 I6.798 J-9.108
X-18.875 Y21.681 I0.0 J-11.365
X-18.486 Y21.359 I-3.048 J-4.089
X-17.121 Y19.907 I-7.401 J-8.322
X-15.607 Y21.488 I8.757 J-6.867
X-15.373 Y21.676 I2.901 J-3.384
X-8.574 Y23.934 I6.798 J-9.107
X-1.782 Y21.681 I0.0 J-11.365
X-1.402 Y21.367 I-3.048 J-4.089
X-.027 Y19.907 I-7.49 J-8.425
X1.444 Y21.453 I8.81 J-6.91
X1.72 Y21.676 I3.165 J-3.647
X8.519 Y23.934 I6.799 J-9.107
X15.325 Y21.671 I0.0 J-11.365
X15.703 Y21.358 I-3.061 J-4.079
X17.066 Y19.907 I-7.389 J-8.308
X18.569 Y21.48 I8.803 J-6.911
X18.813 Y21.675 I2.951 J-3.43
X25.613 Y23.934 I6.8 J-9.106
X32.405 Y21.681 I0.0 J-11.365
X32.796 Y21.358 I-3.048 J-4.089
X34.16 Y19.907 I-7.438 J-8.357
X35.636 Y21.457 I8.793 J-6.894
X35.908 Y21.676 I3.141 J-3.626
X42.706 Y23.934 I6.799 J-9.107
X49.511 Y21.671 I0.0 J-11.365
X49.891 Y21.357 I-3.061 J-4.079
X51.252 Y19.908 I-7.395 J-8.311
X52.748 Y21.473 I8.918 J-7.029
X53.002 Y21.676 I2.987 J-3.459
X59.8 Y23.934 I6.798 J-9.108
X66.592 Y21.681 I0.0 J-11.365
X66.985 Y21.356 I-3.048 J-4.089
X69.864 Y17.371 I-7.711 J-8.604
G01 X69.928 Y17.223
G02 X70.039 Y16.95 I-10.998 J-4.651
G01 X71.435 Y17.5
X99.443
G03 X99.001 Y16.174 I12.317 J-4.851 F1500.
X98.509 Y12.569 I13.175 J-3.633
G01 Y-12.569
G03 X98.763 Y-15.174 I13.582 J.01
X99.443 Y-17.5 I13.011 J2.539
G01 X100.838 Y-16.95 F2500.
G02 X100.235 Y-14.886 I10.936 J4.314
X100.009 Y-12.569 I11.856 J2.327
G01 Y12.569
G02 X100.446 Y15.775 I12.167 J-.028
X103.44 Y20.928 I11.314 J-3.126
X104.282 Y21.677 I6.156 J-6.082
X111.08 Y23.934 I6.798 J-9.108
X117.873 Y21.681 I0.0 J-11.365
X118.257 Y21.364 I-3.048 J-4.089
X119.626 Y19.907 I-7.411 J-8.34
X121.142 Y21.489 I8.814 J-6.925
X121.374 Y21.675 I2.865 J-3.34
X128.174 Y23.934 I6.8 J-9.106
X134.973 Y21.675 I0.0 J-11.365
X135.269 Y21.436 I-2.883 J-3.86
X138.164 Y17.535 I-7.599 J-8.666
G01 X138.181 Y17.498
G02 X139.245 Y12.574 I-10.863 J-4.925
G01 Y-12.569
G02 X138.922 Y-15.33 I-12.198 J.029
X136.058 Y-20.677 I-11.455 J2.696
X135.425 Y-21.296 I-7.793 J7.325
X134.784 Y-21.813 I-4.771 J5.258
X128.174 Y-23.934 I-6.611 J9.245
X121.372 Y-21.673 I0.0 J11.365
X120.995 Y-21.361 I2.93 J3.922
G01 X120.866 Y-21.243
G02 X119.628 Y-19.907 I7.306 J8.014
X118.335 Y-21.294 I-8.873 J6.978
X117.691 Y-21.813 I-4.774 J5.256
X111.08 Y-23.934 I-6.611 J9.245
X104.284 Y-21.678 I0.0 J11.365
X103.44 Y-20.927 I5.337 J6.853
X100.838 Y-16.95 I8.335 J8.292
G01 X99.443 Y-17.5
X71.436
X79.871 Y-10.
Y10.
X91.009
Y-10.
X79.871
X84.371 Y-5.5
Y5.5
X86.509
Y-5.5
X84.371
X79.871 Y-10.
X71.436 Y-17.5
Y-25.
X0.0
Y-30.5
Z-2.374
G00 Z-2.176
G01 Z-2.573
Z-3.573 F1000.
Y-25.
X-129. F2500.
X-134.5 F2188.
X-140. F1875.
Y-19.5
Y14. F2500.
Y19.5 F2188.
Y25. F1875.
X-134.5
X129. F2500.
X134.5 F2188.
X140. F1875.
Y19.5
Y-14. F2500.
Y-19.5 F2188.
Y-25. F1875.
X134.5
X71.436 F2500.
Y-17.5
G03 X71.879 Y-16.175 I-12.37 J4.876 F1500.
X72.371 Y-12.569 I-13.147 J3.63
G01 Y12.569
Y12.573
G03 X71.435 Y17.5 I-13.437 J0.0
G01 X70.039 Y16.95 F2500.
G02 X70.871 Y12.573 I-11.106 J-4.377
G01 Y12.569
Y-12.569
G02 X70.434 Y-15.775 I-12.139 J.023
X68.093 Y-20.218 I-11.368 J3.151
X67.054 Y-21.294 I-8.375 J7.049
X66.41 Y-21.813 I-4.774 J5.256
X59.8 Y-23.934 I-6.611 J9.245
X53.001 Y-21.676 I0.0 J11.365
X52.83 Y-21.541 I2.255 J3.02
X51.253 Y-19.907 I7.038 J8.372
X49.961 Y-21.293 I-8.824 J6.929
X49.317 Y-21.813 I-4.774 J5.255
X42.706 Y-23.934 I-6.611 J9.245
X35.91 Y-21.677 I0.0 J11.365
G01 X35.748 Y-21.552
G02 X34.16 Y-19.907 I7.111 J8.456
X32.863 Y-21.297 I-8.868 J6.975
X32.223 Y-21.813 I-4.77 J5.259
X25.613 Y-23.934 I-6.611 J9.245
X18.815 Y-21.677 I0.0 J11.365
X18.605 Y-21.509 I2.53 J3.39
X17.067 Y-19.907 I7.141 J8.397
X15.773 Y-21.295 I-8.852 J6.959
X15.13 Y-21.813 I-4.773 J5.257
X8.519 Y-23.934 I-6.611 J9.245
X1.722 Y-21.677 I0.0 J11.365
G01 X1.561 Y-21.552
G02 X-.027 Y-19.907 I7.111 J8.457
X-1.317 Y-21.292 I-8.819 J6.928
X-1.964 Y-21.813 I-4.776 J5.253
X-8.574 Y-23.934 I-6.611 J9.245
X-15.372 Y-21.676 I0.0 J11.365
X-15.553 Y-21.533 I2.334 J3.128
X-17.121 Y-19.907 I7.065 J8.38
X-18.418 Y-21.298 I-8.864 J6.969
X-19.057 Y-21.813 I-4.769 J5.26
X-25.668 Y-23.934 I-6.611 J9.245
X-32.464 Y-21.678 I0.0 J11.365
X-32.842 Y-21.367 I3.093 J4.14
X-34.214 Y-19.907 I7.45 J8.381
X-35.516 Y-21.302 I-8.829 J6.938
X-36.151 Y-21.813 I-4.765 J5.264
X-42.761 Y-23.934 I-6.611 J9.245
X-49.559 Y-21.676 I0.0 J11.365
X-49.753 Y-21.523 I2.426 J3.25
X-51.308 Y-19.907 I7.086 J8.376
X-52.6 Y-21.293 I-8.77 J6.878
X-53.244 Y-21.813 I-4.774 J5.255
X-59.855 Y-23.934 I-6.61 J9.245
X-66.652 Y-21.677 I0.0 J11.365
X-67.033 Y-21.363 I3.102 J4.149
G01 X-67.247 Y-21.165
G02 X-68.401 Y-19.907 I7.336 J7.888
X-69.68 Y-21.281 I-8.832 J6.942
X-70.338 Y-21.813 I-4.787 J5.243
X-76.948 Y-23.934 I-6.611 J9.245
X-83.747 Y-21.676 I0.0 J11.365
X-83.937 Y-21.525 I2.392 J3.204
X-85.495 Y-19.907 I7.088 J8.383
X-86.782 Y-21.289 I-8.822 J6.929
X-87.431 Y-21.813 I-4.779 J5.251
X-94.042 Y-23.934 I-6.611 J9.245
X-100.838 Y-21.678 I0.0 J11.365
X-101.206 Y-21.376 I3.083 J4.127
X-102.588 Y-19.907 I7.448 J8.396
X-103.887 Y-21.299 I-8.822 J6.93
X-104.525 Y-21.813 I-4.768 J5.261
X-111.135 Y-23.934 I-6.611 J9.245
X-117.932 Y-21.677 I0.0 J11.365
X-118.129 Y-21.521 I2.453 J3.287
X-119.682 Y-19.907 I7.084 J8.369
X-120.972 Y-21.292 I-8.75 J6.857
X-121.618 Y-21.813 I-4.776 J5.254
X-128.229 Y-23.934 I-6.611 J9.245
X-135.026 Y-21.677 I0.0 J11.365
X-135.402 Y-21.367 I3.119 J4.169
X-138.405 Y-17.108 I7.724 J8.633
G01 X-138.45 Y-16.996
G02 X-139.3 Y-12.575 I11.069 J4.421
G01 Y12.569
G02 X-138.578 Y16.664 I12.088 J-.021
X-135.684 Y21.107 I10.954 J-3.968
G01 X-135.486 Y21.293
G02 X-135.033 Y21.672 I3.669 J-3.923
X-128.229 Y23.934 I6.804 J-9.103
X-121.436 Y21.681 I0.0 J-11.365
X-121.046 Y21.359 I-3.048 J-4.089
X-119.682 Y19.907 I-7.401 J-8.321
X-118.182 Y21.477 I8.799 J-6.906
X-117.936 Y21.674 I2.969 J-3.448
X-111.135 Y23.934 I6.801 J-9.106
X-104.333 Y21.674 I0.0 J-11.365
X-103.953 Y21.359 I-3.058 J-4.082
X-102.588 Y19.907 I-7.432 J-8.352
X-101.206 Y21.376 I8.835 J-6.931
