%
G40 G17 G49 G54 G80
G91 G28 Z0.0
( NAME: Capful )
( PART: D:\Program Files\Siemens\NX 12.0\UGII\HM-µç¼«±à³Ì.prt )
( DATE: Sun May 27 04:44:47 2018 )
( D10 ---> D=10.00 R=0.00 )
S8000 M03
G00 G90 X85.44 Y-32.
Z15.
G17 G01 Z-5.982 F1300.
Z-8.982 F520.
Y-25.5
X49.014 F1300.
Y-22.5
G40 G03 X49.531 Y-22.152 I-6.308 J9.931 F780.
X50.253 Y-21.569 I-4.344 J6.114
X51.265 Y-20.532 I-7.968 J8.788
G01 X51.968 Y-21.303
X52.535 Y-21.827
X52.768 Y-22.001
G03 X53.492 Y-22.5 I7.032 J9.432
G01 X49.014 F1300.
Y-25.5
X31.92
Y-22.5
G03 X32.437 Y-22.152 I-6.308 J9.931 F780.
X33.159 Y-21.569 I-4.344 J6.114
X34.171 Y-20.532 I-7.967 J8.786
G01 X34.874 Y-21.303
X35.441 Y-21.827
X35.674 Y-22.001
G03 X36.399 Y-22.5 I7.032 J9.432
G01 X31.92 F1300.
Y-25.5
X14.827
Y-22.5
G03 X15.344 Y-22.152 I-6.308 J9.931 F780.
X16.066 Y-21.569 I-4.344 J6.114
X17.078 Y-20.532 I-7.967 J8.786
G01 X17.777 Y-21.299
X18.339 Y-21.82
X18.574 Y-21.996
G03 X19.305 Y-22.5 I7.039 J9.427
G01 X14.827 F1300.
Y-25.5
X-2.267
Y-22.5
G03 X-1.75 Y-22.152 I-6.308 J9.931 F780.
X-1.028 Y-21.569 I-4.344 J6.114
X-.016 Y-20.532 I-7.967 J8.786
G01 X.687 Y-21.303
X1.254 Y-21.827
X1.487 Y-22.001
G03 X2.212 Y-22.5 I7.032 J9.432
G01 X-2.267 F1300.
Y-25.5
X-19.36
Y-22.5
G03 X-18.843 Y-22.152 I-6.308 J9.931 F780.
X-18.121 Y-21.569 I-4.344 J6.114
X-17.109 Y-20.532 I-7.967 J8.786
G01 X-16.406 Y-21.303
X-15.839 Y-21.827
X-15.606 Y-22.001
G03 X-14.882 Y-22.5 I7.032 J9.432
G01 X-19.36 F1300.
Y-25.5
X-36.454
Y-22.5
G03 X-35.937 Y-22.152 I-6.308 J9.931 F780.
X-35.215 Y-21.569 I-4.344 J6.114
X-34.203 Y-20.532 I-7.968 J8.788
G01 X-33.503 Y-21.299
X-32.942 Y-21.82
X-32.706 Y-21.996
G03 X-31.975 Y-22.5 I7.039 J9.427
G01 X-36.454 F1300.
Y-25.5
X-53.547
Y-22.5
G03 X-53.03 Y-22.152 I-6.308 J9.931 F780.
X-52.308 Y-21.569 I-4.344 J6.114
X-51.296 Y-20.532 I-7.967 J8.787
G01 X-50.597 Y-21.299
X-50.035 Y-21.82
X-49.8 Y-21.996
G03 X-49.069 Y-22.5 I7.039 J9.427
G01 X-53.547 F1300.
Y-25.5
X-70.641
Y-22.5
G03 X-70.124 Y-22.152 I-6.308 J9.931 F780.
X-69.402 Y-21.569 I-4.344 J6.114
X-68.39 Y-20.532 I-7.976 J8.797
G01 X-67.69 Y-21.299
X-67.129 Y-21.82
X-66.893 Y-21.996
G03 X-66.162 Y-22.5 I7.039 J9.427
G01 X-70.641 F1300.
Y-25.5
X-87.734
Y-22.5
G03 X-87.217 Y-22.152 I-6.308 J9.931 F780.
X-86.495 Y-21.569 I-4.344 J6.114
X-85.483 Y-20.532 I-7.976 J8.797
G01 X-84.784 Y-21.299
X-84.222 Y-21.82
X-83.987 Y-21.996
G03 X-83.256 Y-22.5 I7.039 J9.427
G01 X-87.734 F1300.
Y-25.5
X-104.828
Y-22.5
G03 X-104.311 Y-22.152 I-6.308 J9.931 F780.
X-103.589 Y-21.569 I-4.344 J6.114
X-102.577 Y-20.532 I-7.976 J8.797
G01 X-101.877 Y-21.299
X-101.316 Y-21.82
X-101.08 Y-21.996
G03 X-100.349 Y-22.5 I7.039 J9.427
G01 X-104.828 F1300.
Y-25.5
X-121.921
Y-22.5
G03 X-121.404 Y-22.152 I-6.308 J9.931 F780.
X-120.682 Y-21.569 I-4.344 J6.114
X-119.67 Y-20.532 I-7.976 J8.797
G01 X-118.967 Y-21.303
X-118.4 Y-21.827
X-118.167 Y-22.001
G03 X-117.443 Y-22.5 I7.032 J9.432
G01 X-121.921 F1300.
Y-25.5
X-135.621
X-140.5 Y-20.621
Y23.
G02 X-138. Y25.5 I2.5 J0.0
G01 X-134.536
Y22.5
G03 X-135.26 Y22.001 I6.308 J-9.931 F780.
G01 X-135.559 Y21.778
X-136.51 Y20.845
X-137.427 Y19.719
X-137.5 Y19.6
Y22.5 F1300.
X-134.536
Y25.5
X-117.443
Y22.5
G03 X-118.167 Y22.001 I6.308 J-9.931 F780.
G01 X-118.466 Y21.778
X-119.417 Y20.845
X-119.681 Y20.521
X-120.402 Y21.307
X-120.964 Y21.827
X-121.197 Y22.001
G03 X-121.921 Y22.5 I-7.032 J-9.432
G01 X-117.443 F1300.
Y25.5
X-100.349
Y22.5
G03 X-101.073 Y22.001 I6.308 J-9.931 F780.
G01 X-101.372 Y21.778
X-102.323 Y20.845
X-102.587 Y20.521
X-103.308 Y21.307
X-103.87 Y21.827
X-104.103 Y22.001
G03 X-104.828 Y22.5 I-7.032 J-9.432
G01 X-100.349 F1300.
Y25.5
X-83.256
Y22.5
G03 X-83.98 Y22.001 I6.308 J-9.931 F780.
G01 X-84.279 Y21.778
X-85.23 Y20.845
X-85.494 Y20.521
X-86.215 Y21.307
X-86.777 Y21.827
X-87.01 Y22.001
G03 X-87.734 Y22.5 I-7.032 J-9.432
G01 X-83.256 F1300.
Y25.5
X-66.162
Y22.5
G03 X-66.886 Y22.001 I6.308 J-9.931 F780.
G01 X-67.185 Y21.778
G03 X-68.411 Y20.532 I8.056 J-9.154
G01 X-69.117 Y21.303
X-69.674 Y21.82
X-69.91 Y21.996
G03 X-70.641 Y22.5 I-7.039 J-9.427
G01 X-66.162 F1300.
Y25.5
X-49.069
Y22.5
G03 X-49.793 Y22.001 I6.308 J-9.931 F780.
G01 X-50.092 Y21.778
X-51.043 Y20.845
X-51.308 Y20.519
X-52.019 Y21.299
X-52.581 Y21.82
X-52.816 Y21.996
G03 X-53.547 Y22.5 I-7.039 J-9.427
G01 X-49.069 F1300.
Y25.5
X-31.975
Y22.5
G03 X-32.699 Y22.001 I6.308 J-9.931 F780.
G01 X-32.998 Y21.778
X-33.949 Y20.845
X-34.215 Y20.519
X-34.929 Y21.303
X-35.496 Y21.827
X-35.729 Y22.001
G03 X-36.454 Y22.5 I-7.032 J-9.432
G01 X-31.975 F1300.
Y25.5
X-14.882
Y22.5
G03 X-15.606 Y22.001 I6.308 J-9.931 F780.
G01 X-15.905 Y21.778
X-16.856 Y20.845
X-17.121 Y20.519
X-17.836 Y21.303
X-18.403 Y21.827
X-18.636 Y22.001
G03 X-19.36 Y22.5 I-7.032 J-9.432
G01 X-14.882 F1300.
Y25.5
X2.212
Y22.5
G03 X1.488 Y22.001 I6.308 J-9.931 F780.
G01 X1.189 Y21.778
X.238 Y20.845
X-.028 Y20.519
X-.739 Y21.299
X-1.3 Y21.82
X-1.536 Y21.996
G03 X-2.267 Y22.5 I-7.039 J-9.427
G01 X2.212 F1300.
Y25.5
X19.305
Y22.5
G03 X18.581 Y22.001 I6.308 J-9.931 F780.
G01 X18.282 Y21.778
X17.331 Y20.845
X17.066 Y20.519
X16.355 Y21.299
X15.793 Y21.82
X15.558 Y21.996
G03 X14.827 Y22.5 I-7.039 J-9.427
G01 X19.305 F1300.
Y25.5
X36.399
Y22.5
G03 X35.675 Y22.001 I6.308 J-9.931 F780.
G01 X35.376 Y21.778
X34.425 Y20.845
X34.159 Y20.519
X33.448 Y21.299
X32.887 Y21.82
X32.651 Y21.996
G03 X31.92 Y22.5 I-7.039 J-9.427
G01 X36.399 F1300.
Y25.5
X53.492
Y22.5
G03 X52.768 Y22.001 I6.308 J-9.931 F780.
G01 X52.469 Y21.778
X51.518 Y20.845
X51.253 Y20.519
X50.542 Y21.299
X49.98 Y21.82
X49.745 Y21.996
G03 X49.014 Y22.5 I-7.039 J-9.427
G01 X53.492 F1300.
Y25.5
X121.866
Y22.5
G03 X121.14 Y21.999 I6.308 J-9.931 F780.
G01 X120.841 Y21.776
X119.892 Y20.844
X119.627 Y20.519
X118.916 Y21.299
X118.355 Y21.82
X118.119 Y21.996
G03 X117.388 Y22.5 I-7.039 J-9.427
G01 X121.866 F1300.
Y25.5
X138.
G02 X140.5 Y23. I0.0 J-2.5
G01 Y19.54
X137.5
G03 X136.999 Y20.218 I-10.049 J-6.908 F780.
G01 X136.004 Y21.304
X135.448 Y21.82
X135.212 Y21.996
G03 X134.481 Y22.5 I-7.039 J-9.427
G01 X137.5 F1300.
Y19.54
X140.5
Y-23.
G02 X138. Y-25.5 I-2.5 J0.0
G01 X134.481
Y-22.5
G03 X134.998 Y-22.152 I-6.308 J9.931 F780.
X135.72 Y-21.568 I-4.344 J6.114
X137.5 Y-19.541 I-7.979 J8.799
G01 Y-22.5 F1300.
X134.481
Y-25.5
X117.388
Y-22.5
G03 X117.905 Y-22.152 I-6.308 J9.931 F780.
X118.627 Y-21.568 I-4.344 J6.114
X119.639 Y-20.532 I-7.966 J8.786
G01 X120.338 Y-21.299
X120.899 Y-21.82
X121.135 Y-21.996
G03 X121.866 Y-22.5 I7.039 J9.427
G01 X117.388 F1300.
Y-25.5
X85.44
Y-22.5
X66.107
G03 X66.624 Y-22.152 I-6.308 J9.931 F780.
X67.346 Y-21.569 I-4.344 J6.114
X71.045 Y-14.926 I-7.967 J8.786
G01 X71.157 Y-14.281
X71.225 Y-13.542
X71.266 Y-12.831
X71.271 Y-12.647
Y12.711
G03 X68.655 Y20.18 I-12.195 J-.078
G01 X67.635 Y21.299
X67.074 Y21.82
X66.838 Y21.996
G03 X66.107 Y22.5 I-7.039 J-9.427
G01 X104.773 F1300.
G03 X104.049 Y22.001 I6.308 J-9.931 F780.
G01 X103.75 Y21.778
G03 X99.609 Y12.757 I7.989 J-9.128
G01 Y-12.708
G03 X102.225 Y-20.18 I12.196 J.075
G01 X103.245 Y-21.299
X103.806 Y-21.82
X104.042 Y-21.996
G03 X104.773 Y-22.5 I7.039 J9.427
G01 X85.44 F1300.
Y-19.5
X72.635
G03 X73.998 Y-15.454 I-13.255 J6.718
G01 X74.133 Y-14.676
X74.271 Y-12.691
Y12.73
G03 X72.631 Y19.5 I-15.195 J-.098
G01 X98.25
G03 X96.609 Y12.86 I13.416 J-6.838
G01 Y-12.717
G03 X98.249 Y-19.5 I15.196 J.084
G01 X85.44
Y-16.5
X76.849
G03 X76.951 Y-15.981 I-17.469 J3.718
G01 X77.11 Y-15.07
X77.271 Y-12.734
Y12.74
G03 X76.855 Y16.5 I-18.195 J-.107
G01 X94.048
X93.708 Y14.794
X93.609 Y12.962
Y-12.734
G03 X94.024 Y-16.5 I18.196 J.101
G01 X85.44
Y-13.5
X80.242
X80.271 Y12.749
G03 X80.253 Y13.5 I-21.195 J-.116
G01 X90.639
X90.609 Y-12.75
G03 X90.626 Y-13.5 I21.196 J.118
G01 X85.44
Y-10.5
X83.271
Y10.5
X87.609
Y-10.5
X85.44
Y-13.5
Z-5.982
G00 Z-5.932
Y-32.
G01 Z-6.032
Z-9.032 F520.
Y-25.5
X49.014 F1300.
Y-22.5
G03 X49.531 Y-22.152 I-6.308 J9.931 F780.
X50.253 Y-21.569 I-4.344 J6.114
X51.265 Y-20.532 I-7.968 J8.788
G01 X51.968 Y-21.303
X52.535 Y-21.827
X52.768 Y-22.001
G03 X53.492 Y-22.5 I7.032 J9.432
G01 X49.014 F1300.
Y-25.5
X31.92
Y-22.5
G03 X32.437 Y-22.152 I-6.308 J9.931 F780.
X33.159 Y-21.569 I-4.344 J6.114
X34.171 Y-20.532 I-7.967 J8.786
G01 X34.874 Y-21.303
X35.441 Y-21.827
X35.674 Y-22.001
G03 X36.399 Y-22.5 I7.032 J9.432
G01 X31.92 F1300.
Y-25.5
X14.827
Y-22.5
G03 X15.344 Y-22.152 I-6.308 J9.931 F780.
X16.066 Y-21.569 I-4.344 J6.114
X17.078 Y-20.532 I-7.967 J8.786
G01 X17.777 Y-21.299
X18.339 Y-21.82
X18.574 Y-21.996
G03 X19.305 Y-22.5 I7.039 J9.427
G01 X14.827 F1300.
Y-25.5
X-2.267
Y-22.5
G03 X-1.75 Y-22.152 I-6.308 J9.931 F780.
X-1.028 Y-21.569 I-4.344 J6.114
X-.016 Y-20.532 I-7.967 J8.786
G01 X.687 Y-21.303
X1.254 Y-21.827
X1.487 Y-22.001
G03 X2.212 Y-22.5 I7.032 J9.432
G01 X-2.267 F1300.
Y-25.5
X-19.36
Y-22.5
G03 X-18.843 Y-22.152 I-6.308 J9.931 F780.
X-18.121 Y-21.569 I-4.344 J6.114
X-17.109 Y-20.532 I-7.967 J8.786
G01 X-16.406 Y-21.303
X-15.839 Y-21.827
X-15.606 Y-22.001
G03 X-14.882 Y-22.5 I7.032 J9.432
G01 X-19.36 F1300.
Y-25.5
X-36.454
Y-22.5
G03 X-35.937 Y-22.152 I-6.308 J9.931 F780.
X-35.215 Y-21.569 I-4.344 J6.114
X-34.203 Y-20.532 I-7.968 J8.788
G01 X-33.503 Y-21.299
X-32.942 Y-21.82
X-32.706 Y-21.996
G03 X-31.975 Y-22.5 I7.039 J9.427
G01 X-36.454 F1300.
Y-25.5
X-53.547
Y-22.5
G03 X-53.03 Y-22.152 I-6.308 J9.931 F780.
X-52.308 Y-21.569 I-4.344 J6.114
X-51.296 Y-20.532 I-7.967 J8.787
G01 X-50.597 Y-21.299
X-50.035 Y-21.82
X-49.8 Y-21.996
G03 X-49.069 Y-22.5 I7.039 J9.427
G01 X-53.547 F1300.
Y-25.5
X-70.641
Y-22.5
G03 X-70.124 Y-22.152 I-6.308 J9.931 F780.
X-69.402 Y-21.569 I-4.344 J6.114
X-68.39 Y-20.532 I-7.976 J8.797
G01 X-67.69 Y-21.299
X-67.129 Y-21.82
X-66.893 Y-21.996
G03 X-66.162 Y-22.5 I7.039 J9.427
G01 X-70.641 F1300.
Y-25.5
X-87.734
Y-22.5
G03 X-87.217 Y-22.152 I-6.308 J9.931 F780.
X-86.495 Y-21.569 I-4.344 J6.114
X-85.483 Y-20.532 I-7.976 J8.797
G01 X-84.784 Y-21.299
X-84.222 Y-21.82
X-83.987 Y-21.996
G03 X-83.256 Y-22.5 I7.039 J9.427
G01 X-87.734 F1300.
Y-25.5
X-104.828
Y-22.5
G03 X-104.311 Y-22.152 I-6.308 J9.931 F780.
X-103.589 Y-21.569 I-4.344 J6.114
X-102.577 Y-20.532 I-7.976 J8.797
G01 X-101.877 Y-21.299
X-101.316 Y-21.82
X-101.08 Y-21.996
G03 X-100.349 Y-22.5 I7.039 J9.427
G01 X-104.828 F1300.
Y-25.5
X-121.921
Y-22.5
G03 X-121.404 Y-22.152 I-6.308 J9.931 F780.
X-120.682 Y-21.569 I-4.344 J6.114
X-119.67 Y-20.532 I-7.976 J8.797
G01 X-118.967 Y-21.303
X-118.4 Y-21.827
X-118.167 Y-22.001
G03 X-117.443 Y-22.5 I7.032 J9.432
G01 X-121.921 F1300.
Y-25.5
X-135.621
X-140.5 Y-20.621
Y23.
G02 X-138. Y25.5 I2.5 J0.0
G01 X-134.536
Y22.5
G03 X-135.26 Y22.001 I6.308 J-9.931 F780.
G01 X-135.559 Y21.778
X-136.51 Y20.845
X-137.427 Y19.719
X-137.5 Y19.6
Y22.5 F1300.
X-134.536
Y25.5
X-117.443
Y22.5
G03 X-118.167 Y22.001 I6.308 J-9.931 F780.
G01 X-118.466 Y21.778
X-119.417 Y20.845
X-119.681 Y20.521
X-120.402 Y21.307
X-120.964 Y21.827
X-121.197 Y22.001
G03 X-121.921 Y22.5 I-7.032 J-9.432
G01 X-117.443 F1300.
Y25.5
X-100.349
Y22.5
G03 X-101.073 Y22.001 I6.308 J-9.931 F780.
G01 X-101.372 Y21.778
X-102.323 Y20.845
X-102.587 Y20.521
X-103.308 Y21.307
X-103.87 Y21.827
X-104.103 Y22.001
G03 X-104.828 Y22.5 I-7.032 J-9.432
G01 X-100.349 F1300.
Y25.5
X-83.256
Y22.5
G03 X-83.98 Y22.001 I6.308 J-9.931 F780.
G01 X-84.279 Y21.778
X-85.23 Y20.845
X-85.494 Y20.521
X-86.215 Y21.307
X-86.777 Y21.827
X-87.01 Y22.001
G03 X-87.734 Y22.5 I-7.032 J-9.432
G01 X-83.256 F1300.
Y25.5
X-66.162
Y22.5
G03 X-66.886 Y22.001 I6.308 J-9.931 F780.
G01 X-67.185 Y21.778
G03 X-68.411 Y20.532 I8.056 J-9.154
G01 X-69.117 Y21.303
X-69.674 Y21.82
X-69.91 Y21.996
G03 X-70.641 Y22.5 I-7.039 J-9.427
G01 X-66.162 F1300.
Y25.5
X-49.069
Y22.5
G03 X-49.793 Y22.001 I6.308 J-9.931 F780.
G01 X-50.092 Y21.778
X-51.043 Y20.845
X-51.308 Y20.519
X-52.019 Y21.299
X-52.581 Y21.82
X-52.816 Y21.996
G03 X-53.547 Y22.5 I-7.039 J-9.427
G01 X-49.069 F1300.
Y25.5
X-31.975
Y22.5
G03 X-32.699 Y22.001 I6.308 J-9.931 F780.
G01 X-32.998 Y21.778
X-33.949 Y20.845
X-34.215 Y20.519
X-34.929 Y21.303
X-35.496 Y21.827
X-35.729 Y22.001
G03 X-36.454 Y22.5 I-7.032 J-9.432
G01 X-31.975 F1300.
Y25.5
X-14.882
Y22.5
G03 X-15.606 Y22.001 I6.308 J-9.931 F780.
G01 X-15.905 Y21.778
X-16.856 Y20.845
X-17.121 Y20.519
X-17.836 Y21.303
X-18.403 Y21.827
X-18.636 Y22.001
G03 X-19.36 Y22.5 I-7.032 J-9.432
G01 X-14.882 F1300.
Y25.5
X2.212
Y22.5
G03 X1.488 Y22.001 I6.308 J-9.931 F780.
G01 X1.189 Y21.778
X.238 Y20.845
X-.028 Y20.519
X-.739 Y21.299
X-1.3 Y21.82
X-1.536 Y21.996
G03 X-2.267 Y22.5 I-7.039 J-9.427
G01 X2.212 F1300.
Y25.5
X19.305
Y22.5
G03 X18.581 Y22.001 I6.308 J-9.931 F780.
G01 X18.282 Y21.778
X17.331 Y20.845
X17.066 Y20.519
X16.355 Y21.299
X15.793 Y21.82
X15.558 Y21.996
G03 X14.827 Y22.5 I-7.039 J-9.427
G01 X19.305 F1300.
Y25.5
X36.399
Y22.5
G03 X35.675 Y22.001 I6.308 J-9.931 F780.
G01 X35.376 Y21.778
X34.425 Y20.845
X34.159 Y20.519
X33.448 Y21.299
X32.887 Y21.82
X32.651 Y21.996
G03 X31.92 Y22.5 I-7.039 J-9.427
G01 X36.399 F1300.
Y25.5
X53.492
Y22.5
G03 X52.768 Y22.001 I6.308 J-9.931 F780.
G01 X52.469 Y21.778
X51.518 Y20.845
X51.253 Y20.519
X50.542 Y21.299
X49.98 Y21.82
X49.745 Y21.996
G03 X49.014 Y22.5 I-7.039 J-9.427
G01 X53.492 F1300.
Y25.5
X121.866
Y22.5
G03 X121.14 Y21.999 I6.308 J-9.931 F780.
G01 X120.841 Y21.776
X119.892 Y20.844
X119.627 Y20.519
X118.916 Y21.299
X118.355 Y21.82
X118.119 Y21.996
G03 X117.388 Y22.5 I-7.039 J-9.427
G01 X121.866 F1300.
Y25.5
X138.
G02 X140.5 Y23. I0.0 J-2.5
G01 Y19.54
X137.5
G03 X136.999 Y20.218 I-10.049 J-6.908 F780.
G01 X136.004 Y21.304
X135.448 Y21.82
X135.212 Y21.996
G03 X134.481 Y22.5 I-7.039 J-9.427
G01 X137.5 F1300.
Y19.54
X140.5
Y-23.
G02 X138. Y-25.5 I-2.5 J0.0
G01 X134.481
Y-22.5
G03 X134.998 Y-22.152 I-6.308 J9.931 F780.
X135.72 Y-21.568 I-4.344 J6.114
X137.5 Y-19.541 I-7.979 J8.799
G01 Y-22.5 F1300.
X134.481
Y-25.5
X117.388
Y-22.5
G03 X117.905 Y-22.152 I-6.308 J9.931 F780.
X118.627 Y-21.568 I-4.344 J6.114
X119.639 Y-20.532 I-7.966 J8.786
G01 X120.338 Y-21.299
X120.899 Y-21.82
X121.135 Y-21.996
G03 X121.866 Y-22.5 I7.039 J9.427
G01 X117.388 F1300.
Y-25.5
X85.44
Y-22.5
X66.107
G03 X66.624 Y-22.152 I-6.308 J9.931 F780.
X67.346 Y-21.569 I-4.344 J6.114
X71.045 Y-14.926 I-7.967 J8.786
G01 X71.157 Y-14.281
X71.225 Y-13.542
X71.266 Y-12.831
X71.271 Y-12.647
Y12.711
G03 X68.655 Y20.18 I-12.195 J-.078
G01 X67.635 Y21.299
X67.074 Y21.82
X66.838 Y21.996
G03 X66.107 Y22.5 I-7.039 J-9.427
G01 X104.773 F1300.
G03 X104.049 Y22.001 I6.308 J-9.931 F780.
G01 X103.75 Y21.778
G03 X99.609 Y12.757 I7.989 J-9.128
G01 Y-12.708
G03 X102.225 Y-20.18 I12.196 J.075
G01 X103.245 Y-21.299
X103.806 Y-21.82
X104.042 Y-21.996
G03 X104.773 Y-22.5 I7.039 J9.427
G01 X85.44 F1300.
Y-19.5
X72.635
G03 X73.998 Y-15.454 I-13.255 J6.718
G01 X74.133 Y-14.676
X74.271 Y-12.691
Y12.73
G03 X72.631 Y19.5 I-15.195 J-.098
G01 X98.25
G03 X96.609 Y12.86 I13.416 J-6.838
G01 Y-12.717
G03 X98.249 Y-19.5 I15.196 J.084
G01 X85.44
Y-16.5
X76.849
G03 X76.951 Y-15.981 I-17.469 J3.718
G01 X77.11 Y-15.07
X77.271 Y-12.734
Y12.74
G03 X76.855 Y16.5 I-18.195 J-.107
G01 X94.048
X93.708 Y14.794
X93.609 Y12.962
Y-12.734
G03 X94.024 Y-16.5 I18.196 J.101
G01 X85.44
Y-13.5
X80.242
X80.271 Y12.749
G03 X80.253 Y13.5 I-21.195 J-.116
G01 X90.639
X90.609 Y-12.75
G03 X90.626 Y-13.5 I21.196 J.118
G01 X85.44
Y-10.5
X83.271
Y10.5
X87.609
Y-10.5
X85.44
Y-13.5
Z-6.032
G00 Z15.
M09
M05
G91 G28 Z0.0
G28 Y0.0
M30
%
(TOTAL Machine Time: 3.1 min)
