%
G40 G17 G49 G54 G80
G91 G28 Z0.0
( NAME: Capful )
( PART: D:\Program Files\Siemens\NX 12.0\UGII\HM-µç¼«±à³Ì.prt )
( DATE: Sun May 27 04:44:47 2018 )
( D4 ---> D=4.00 R=0.00 )
S9000 M03
G00 G90 X-125.738 Y-13.01
Z15.
G17 G01 Z.1 F2000.
X-125.902 Y-13.577 Z.079 F800.
X-126.317 Y-14.235 Z.052
X-127.179 Y-14.877 Z.015
X-128.229 Y-15.104 Z-.023
X-129.279 Y-14.877 Z-.06
X-130.14 Y-14.235 Z-.098
X-130.555 Y-13.577 Z-.125
X-130.734 Y-12.958 Z-.148
Y0.0 Z-.6
Y12.569 F1200.
G40 G02 X-128.229 Y15.074 I2.506 J0.0
X-125.723 Y12.569 I0.0 J-2.506
G01 Y-12.569
G02 X-128.229 Y-15.074 I-2.506 J0.0
X-130.734 Y-12.569 I0.0 J2.506
G01 Y0.0
X-128.934 F2000.
Y12.569
G02 X-128.229 Y13.274 I.706 J0.0
X-127.523 Y12.569 I0.0 J-.706
G01 Y-12.569
G02 X-128.229 Y-13.274 I-.706 J0.0
X-128.934 Y-12.569 I0.0 J.706
G01 Y0.0
X-129.109 Y1.992
Z.4
G00 Z1.
X-130.717 Y-8.591
G01 Z-.5
Y0.0 Z-.8 F800.
Y12.569 F1200.
G02 X-128.229 Y15.057 I2.488 J0.0
X-125.74 Y12.569 I0.0 J-2.488
G01 Y-12.569
G02 X-128.229 Y-15.057 I-2.488 J0.0
X-130.717 Y-12.569 I0.0 J2.488
G01 Y0.0
X-128.917 F2000.
Y12.569
G02 X-128.229 Y13.257 I.688 J0.0
X-127.54 Y12.569 I0.0 J-.688
G01 Y-12.569
G02 X-128.229 Y-13.257 I-.688 J0.0
X-128.917 Y-12.569 I0.0 J.688
G01 Y0.0
X-129.091 Y1.992
Z.2
G00 Z.4
X-130.717 Y-8.591
G01 Z-.7
Y0.0 Z-1. F800.
Y12.569 F1200.
G02 X-128.229 Y15.057 I2.488 J0.0
X-125.74 Y12.569 I0.0 J-2.488
G01 Y-12.569
G02 X-128.229 Y-15.057 I-2.488 J0.0
X-130.717 Y-12.569 I0.0 J2.488
G01 Y0.0
X-128.917 F2000.
Y12.569
G02 X-128.229 Y13.257 I.688 J0.0
X-127.54 Y12.569 I0.0 J-.688
G01 Y-12.569
G02 X-128.229 Y-13.257 I-.688 J0.0
X-128.917 Y-12.569 I0.0 J.688
G01 Y0.0
X-129.091 Y1.992
Z0.0
G00 Z.2
X-130.717 Y-8.591
G01 Z-.9
Y0.0 Z-1.2 F800.
Y12.569 F1200.
G02 X-128.229 Y15.057 I2.488 J0.0
X-125.74 Y12.569 I0.0 J-2.488
G01 Y-12.569
G02 X-128.229 Y-15.057 I-2.488 J0.0
X-130.717 Y-12.569 I0.0 J2.488
G01 Y0.0
X-128.917 F2000.
Y12.569
G02 X-128.229 Y13.257 I.688 J0.0
X-127.54 Y12.569 I0.0 J-.688
G01 Y-12.569
G02 X-128.229 Y-13.257 I-.688 J0.0
X-128.917 Y-12.569 I0.0 J.688
G01 Y0.0
X-129.091 Y1.992
Z-.2
G00 Z0.0
X-130.717 Y-8.591
G01 Z-1.1
Y0.0 Z-1.4 F800.
Y12.569 F1200.
G02 X-128.229 Y15.057 I2.488 J0.0
X-125.74 Y12.569 I0.0 J-2.488
G01 Y-12.569
G02 X-128.229 Y-15.057 I-2.488 J0.0
X-130.717 Y-12.569 I0.0 J2.488
G01 Y0.0
X-128.917 F2000.
Y12.569
G02 X-128.229 Y13.257 I.688 J0.0
X-127.54 Y12.569 I0.0 J-.688
G01 Y-12.569
G02 X-128.229 Y-13.257 I-.688 J0.0
X-128.917 Y-12.569 I0.0 J.688
G01 Y0.0
X-129.091 Y1.992
Z-.4
G00 Z-.2
X-130.717 Y-8.591
G01 Z-1.3
Y0.0 Z-1.6 F800.
Y12.569 F1200.
G02 X-128.229 Y15.057 I2.488 J0.0
X-125.74 Y12.569 I0.0 J-2.488
G01 Y-12.569
G02 X-128.229 Y-15.057 I-2.488 J0.0
X-130.717 Y-12.569 I0.0 J2.488
G01 Y0.0
X-128.917 F2000.
Y12.569
G02 X-128.229 Y13.257 I.688 J0.0
X-127.54 Y12.569 I0.0 J-.688
G01 Y-12.569
G02 X-128.229 Y-13.257 I-.688 J0.0
X-128.917 Y-12.569 I0.0 J.688
G01 Y0.0
X-129.091 Y1.992
Z-.6
G00 Z-.4
X-130.717 Y-8.591
G01 Z-1.5
Y0.0 Z-1.8 F800.
Y12.569 F1200.
G02 X-128.229 Y15.057 I2.488 J0.0
X-125.74 Y12.569 I0.0 J-2.488
G01 Y-12.569
G02 X-128.229 Y-15.057 I-2.488 J0.0
X-130.717 Y-12.569 I0.0 J2.488
G01 Y0.0
X-128.917 F2000.
Y12.569
G02 X-128.229 Y13.257 I.688 J0.0
X-127.54 Y12.569 I0.0 J-.688
G01 Y-12.569
G02 X-128.229 Y-13.257 I-.688 J0.0
X-128.917 Y-12.569 I0.0 J.688
G01 Y0.0
X-129.091 Y1.992
Z-.8
G00 Z1.
X-120.157 Y19.747
G01 Z.4
Z-.6 F800.
X-118.292 Y17.707
G02 X-117.617 Y17.969 I.675 J-.738 F2000.
X-117.004 Y17.759 I0.0 J-1.
G03 X-118.97 Y12.579 I5.869 J-5.19 F1200.
G01 Y-12.589
G03 X-118.867 Y-13.837 I7.835 J.021
X-118.212 Y-15.929 I7.732 J1.268 F1050.
X-117.708 Y-16.833 I7.077 J3.361 F900.
X-117.004 Y-17.759 I6.572 J4.265
G02 X-117.617 Y-17.969 I-.613 J.79 F2000.
X-118.292 Y-17.707 I0.0 J1.
G03 X-119.682 Y-17.168 I-1.39 J-1.52
X-121.072 Y-17.707 I0.0 J-2.06
G02 X-121.747 Y-17.969 I-.675 J.738
X-122.36 Y-17.759 I0.0 J1.
G03 X-121.538 Y-16.645 I-5.869 J5.19 F1200.
X-120.394 Y-12.591 I-6.691 J4.076
G01 Y12.591
G03 X-120.497 Y13.837 I-7.835 J-.022
X-121.152 Y15.929 I-7.731 J-1.268 F1050.
X-122.36 Y17.759 I-7.077 J-3.361 F900.
G02 X-121.747 Y17.969 I.613 J-.79 F2000.
X-121.072 Y17.707 I0.0 J-1.
G03 X-119.682 Y17.168 I1.39 J1.52
X-118.292 Y17.707 I0.0 J2.06
G01 X-120.155 Y19.746
Z.4
G00 Z1.
X-120.125 Y19.767
G01 Z.2
Z-.8 F800.
X-118.312 Y17.73
X-118.297 Y17.744 F2000.
G02 X-117.624 Y18.004 I.673 J-.74
X-117.008 Y17.792 I0.0 J-1.
G03 X-118.995 Y12.569 I5.873 J-5.223 F1200.
G01 Y-12.569
G03 X-118.886 Y-13.876 I7.86 J0.0
X-118.223 Y-15.966 I7.75 J1.307 F1050.
X-117.008 Y-17.792 I7.088 J3.397 F900.
G02 X-117.624 Y-18.004 I-.616 J.788 F2000.
X-118.297 Y-17.744 I0.0 J1.
G03 X-119.682 Y-17.209 I-1.385 J-1.525
X-121.067 Y-17.744 I0.0 J-2.06
G02 X-121.74 Y-18.004 I-.673 J.74
X-122.356 Y-17.792 I0.0 J1.
G03 X-120.369 Y-12.569 I-5.873 J5.223 F1200.
G01 Y12.569
G03 X-120.478 Y13.876 I-7.86 J0.0
X-121.141 Y15.966 I-7.75 J-1.307 F1050.
X-122.356 Y17.792 I-7.088 J-3.397 F900.
G02 X-121.74 Y18.004 I.616 J-.788 F2000.
X-121.067 Y17.744 I0.0 J-1.
G03 X-119.682 Y17.209 I1.385 J1.525
X-118.312 Y17.73 I0.0 J2.06
G01 X-120.125 Y19.767
Z.2
G00 Z.4
X-120.11 Y19.779
G01 Z0.0
Z-1. F800.
X-118.324 Y17.743
X-118.299 Y17.764 F2000.
G02 X-117.628 Y18.023 I.671 J-.741
X-117.015 Y17.813 I0.0 J-1.
G03 X-117.136 Y17.666 I5.301 J-4.497 F1200.
X-119.009 Y12.569 I6.001 J-5.098
G01 Y-12.569
G03 X-118.896 Y-13.898 I7.874 J0.0
X-118.229 Y-15.986 I7.761 J1.329 F1050.
X-117.136 Y-17.666 I7.093 J3.418 F900.
X-117.015 Y-17.814 I5.298 J4.225
G02 X-117.628 Y-18.023 I-.613 J.79 F2000.
X-118.299 Y-17.764 I0.0 J1.
G03 X-119.682 Y-17.231 I-1.383 J-1.527
X-121.065 Y-17.764 I0.0 J-2.06
G02 X-121.736 Y-18.023 I-.671 J.741
X-122.349 Y-17.814 I0.0 J1.
G03 X-122.027 Y-17.42 I-5.943 J5.184 F1200.
X-120.355 Y-12.569 I-6.202 J4.852
G01 Y12.569
G03 X-120.468 Y13.898 I-7.874 J0.0
X-121.135 Y15.986 I-7.761 J-1.329 F1050.
X-122.284 Y17.732 I-7.093 J-3.418 F900.
X-122.352 Y17.811 I-6.024 J-5.089
G02 X-121.736 Y18.023 I.616 J-.788 F2000.
X-121.065 Y17.764 I0.0 J-1.
G03 X-119.682 Y17.231 I1.383 J1.527
X-118.324 Y17.743 I0.0 J2.06
G01 X-120.11 Y19.779
Z0.0
G00 Z.2
X-120.092 Y19.884
G01 Z-.2
Z-1.2 F800.
X-118.375 Y17.805
G03 X-118.241 Y17.926 I-1.312 J1.588 F2000.
G02 X-117.539 Y18.214 I.702 J-.712
X-116.945 Y18.018 I0.0 J-1.
G03 X-117.771 Y16.833 I6.11 J-5.143 F1200.
X-119.023 Y12.569 I6.636 J-4.265
G01 Y-12.569
G03 X-118.874 Y-14.097 I7.888 J0.0
X-118.154 Y-16.168 I7.738 J1.528 F1050.
X-117.771 Y-16.833 I7.019 J3.6 F900.
X-116.953 Y-18.007 I6.936 J3.959
G02 X-117.547 Y-18.202 I-.593 J.805 F2000.
X-118.24 Y-17.923 I0.0 J1.
G03 X-119.667 Y-17.349 I-1.427 J-1.486
X-121.155 Y-17.985 I0.0 J-2.06
G02 X-121.877 Y-18.294 I-.723 J.691
X-122.486 Y-18.087 I0.0 J1.
G03 X-121.538 Y-16.746 I-6.264 J5.435 F1200.
X-120.341 Y-12.569 I-6.691 J4.178
G01 Y12.569
G03 X-120.483 Y14.06 I-7.888 J0.0
X-121.193 Y16.135 I-7.746 J-1.491 F1050.
X-121.375 Y16.473 I-7.036 J-3.566 F900.
X-122.39 Y17.974 I-7.758 J-4.154
G02 X-121.792 Y18.173 I.598 J-.801 F2000.
X-121.104 Y17.898 I0.0 J-1.
G03 X-119.687 Y17.333 I1.417 J1.495
X-118.375 Y17.805 I0.0 J2.06
G01 X-120.092 Y19.884
Z-.2
G00 Z0.0
X-119.582 Y-20.114
G01 Z-.4
Z-1.4 F800.
X-121.129 Y-18.388
G03 X-121.265 Y-18.521 I1.375 J-1.534 F2000.
G02 X-121.998 Y-18.841 I-.733 J.68
X-122.578 Y-18.655 I0.0 J1.
G03 X-122.249 Y-18.253 I-3.969 J3.582 F1050.
X-122.027 Y-17.929 I-4.298 J3.18 F900.
G01 X-121.987 Y-17.809
X-121.049 Y-15.869
G03 X-120.327 Y-12.569 I-7.18 J3.3 F1200.
G01 Y12.569
G03 X-120.596 Y14.614 I-7.902 J0.0
X-121.201 Y16.181 I-7.633 J-2.045 F1050.
G01 X-121.42 Y16.649
X-121.836 Y17.54 F900.
G03 X-122.488 Y18.563 I-4.243 J-1.983
G02 X-121.932 Y18.732 I.557 J-.831 F2000.
X-121.198 Y18.412 I0.0 J-1.
G03 X-119.687 Y17.752 I1.511 J1.4
X-118.157 Y18.433 I0.0 J2.06
G02 X-117.414 Y18.764 I.743 J-.67
X-116.849 Y18.589 I0.0 J-1.
G03 X-117.554 Y17.488 I3.766 J-3.186 F1200.
G01 X-118.162 Y16.183
G03 X-119.037 Y12.569 I7.027 J-3.614
G01 Y-12.569
G03 X-118.761 Y-14.638 I7.902 J0.0
X-118.163 Y-16.181 I7.626 J2.069 F1050.
G01 X-117.934 Y-16.672
X-117.535 Y-17.526 F900.
G03 X-116.859 Y-18.582 I4.307 J2.012
G02 X-117.421 Y-18.754 I-.561 J.828 F2000.
X-118.152 Y-18.436 I0.0 J1.
G03 X-119.659 Y-17.781 I-1.507 J-1.405
X-120.985 Y-18.265 I0.0 J-2.06
G01 X-121.129 Y-18.388
X-119.582 Y-20.114
Z-.4
G00 Z-.2
X-119.154 Y-20.463
G01 Z-.6
Z-1.6 F800.
X-121.089 Y-18.43
X-121.095 Y-18.435 F2000.
G02 X-121.787 Y-18.713 I-.692 J.722
X-122.411 Y-18.494 I0.0 J1.
G03 X-121.299 Y-16.833 I-4.331 J4.104 F1200.
G02 X-120.804 Y-15.314 I11.271 J-2.831
G03 X-120.313 Y-12.569 I-7.424 J2.746
G01 Y11.931
Y12.569 F1050.
G03 X-120.467 Y14.121 I-7.916 J0.0
X-120.804 Y15.314 I-7.762 J-1.552 F900.
G01 X-121.136 Y16.214
G03 X-121.587 Y17.409 I-3.087 J-.482 F1200.
X-122.368 Y18.442 I-6.795 J-4.322
G02 X-121.75 Y18.655 I.617 J-.787 F2000.
X-121.078 Y18.396 I0.0 J-1.
G03 X-119.694 Y17.862 I1.384 J1.526
X-118.255 Y18.448 I0.0 J2.06
G02 X-117.556 Y18.733 I.699 J-.715
X-116.933 Y18.516 I0.0 J-1.
G03 X-117.823 Y17.321 I5.643 J-5.131 F1200.
X-118.603 Y15.193 I50.633 J-19.785
X-119.051 Y12.569 I7.468 J-2.624
G01 Y-12.569
G03 X-118.812 Y-14.498 I7.916 J0.0
X-118.603 Y-15.193 I7.677 J1.929 F1050.
X-118.107 Y-16.581 I48.858 J16.679
X-117.824 Y-17.321 I48.361 J18.068 F900.
X-116.989 Y-18.452 I6.612 J4.009
G02 X-117.604 Y-18.664 I-.615 J.789 F2000.
X-118.279 Y-18.402 I0.0 J1.
G03 X-119.669 Y-17.862 I-1.39 J-1.52
X-121.089 Y-18.43 I0.0 J-2.06
G01 X-119.154 Y-20.463
Z-.6
G00 Z-.4
X-119.167 Y-20.449
G01 Z-.8
Z-1.8 F800.
X-121.089 Y-18.43
X-121.098 Y-18.438 F2000.
G02 X-121.792 Y-18.718 I-.694 J.72
X-122.418 Y-18.498 I0.0 J1.
G03 X-121.002 Y-16.345 I-6.233 J5.642 F1200.
X-120.512 Y-14.394 I-40.905 J11.308
X-120.299 Y-12.569 I-7.717 J1.825
G01 Y12.569
G03 X-120.512 Y14.394 I-7.93 J0.0
G01 X-120.539 Y14.504
X-120.999 Y16.345 F1050.
G03 X-121.129 Y16.617 I-7.604 J-3.474
X-122.361 Y18.433 I-7.474 J-3.746 F900.
G02 X-121.742 Y18.647 I.619 J-.785 F2000.
X-121.073 Y18.391 I0.0 J-1.
G03 X-119.694 Y17.862 I1.378 J1.531
X-118.272 Y18.432 I0.0 J2.06
G02 X-117.581 Y18.709 I.691 J-.723
X-116.956 Y18.489 I0.0 J-1.
G03 X-118.01 Y17.03 I6.005 J-5.451 F1050.
X-118.239 Y16.596 I7.06 J-3.992 F900.
G01 X-118.291 Y16.49
G03 X-118.603 Y15.343 I2.862 J-1.397
G01 X-118.852 Y14.394
G03 X-119.041 Y13.191 I7.717 J-1.825
X-119.065 Y12.569 I7.905 J-.623 F1200.
G01 Y-10.992
Y-12.569 F1050.
G03 X-119.041 Y-13.191 I7.93 J0.0
X-118.852 Y-14.394 I7.905 J.623 F900.
G01 X-118.603 Y-15.343
G03 X-118.292 Y-16.493 I3.038 J.207 F1200.
G01 X-118.122 Y-16.833
G03 X-117.004 Y-18.432 I7.345 J3.947
G02 X-117.623 Y-18.647 I-.619 J.785 F2000.
X-118.292 Y-18.39 I0.0 J1.
G03 X-119.669 Y-17.862 I-1.378 J-1.532
X-121.089 Y-18.43 I0.0 J-2.06
G01 X-119.167 Y-20.449
Z-.8
G00 Z-.6
X-119.171 Y-20.446
G01 Z-1.
Z-2. F800.
X-121.09 Y-18.43
X-121.092 Y-18.432 F2000.
G02 X-121.782 Y-18.708 I-.69 J.723
X-122.407 Y-18.489 I0.0 J1.
G03 X-120.63 Y-15.37 I-6.166 J5.58 F1200.
X-120.32 Y-13.316 I-14.933 J3.302
X-120.285 Y-12.569 I-7.909 J.747
G01 Y12.606
G03 X-120.472 Y14.524 I-16.539 J-.646
X-120.627 Y15.37 I-16.352 J-2.563 F1050.
X-121.126 Y16.612 I-7.926 J-2.461
X-122.356 Y18.429 I-7.428 J-3.703 F900.
G02 X-121.737 Y18.643 I.619 J-.785 F2000.
X-121.069 Y18.388 I0.0 J-1.
G03 X-119.694 Y17.862 I1.375 J1.534
X-118.268 Y18.436 I0.0 J2.06
G02 X-117.575 Y18.715 I.693 J-.721
X-116.947 Y18.493 I0.0 J-1.
G03 X-118.748 Y15.37 I6.257 J-5.687 F1200.
X-119.027 Y13.472 I29.139 J-5.265
X-119.079 Y12.569 I7.892 J-.904
G01 Y-12.569
G03 X-119.049 Y-13.255 I7.944 J0.0
X-118.892 Y-14.522 I17.155 J1.488
X-118.733 Y-15.37 I16.997 J2.755 F1050.
X-118.237 Y-16.61 I7.885 J2.428
X-117.01 Y-18.428 I7.39 J3.668 F900.
G02 X-117.628 Y-18.642 I-.618 J.786 F2000.
X-118.295 Y-18.387 I0.0 J1.
G03 X-119.669 Y-17.862 I-1.374 J-1.535
X-121.09 Y-18.43 I0.0 J-2.06
G01 X-119.171 Y-20.446
Z-1.
G00 Z-.8
X-119.161 Y-20.456
G01 Z-1.2
Z-2.2 F800.
X-121.09 Y-18.429
X-121.098 Y-18.438 F2000.
G02 X-121.792 Y-18.717 I-.694 J.72
X-122.418 Y-18.497 I0.0 J1.
G03 X-121.049 Y-16.455 I-6.318 J5.717 F1200.
G01 X-120.912 Y-16.158
G03 X-120.245 Y-13.115 I-6.607 J3.042
G01 Y12.569
G03 X-120.243 Y12.783 I-12.329 J.215
X-120.349 Y14.394 I-12.331 J0.0
X-120.385 Y14.565 I-8.47 J-1.706
X-121.13 Y16.629 I-8.433 J-1.878 F1050.
X-122.371 Y18.439 I-7.688 J-3.942 F900.
G02 X-121.75 Y18.655 I.621 J-.784 F2000.
X-121.078 Y18.396 I0.0 J-1.
G03 X-119.694 Y17.862 I1.384 J1.526
X-118.27 Y18.433 I0.0 J2.06
G02 X-117.579 Y18.711 I.691 J-.723
X-116.952 Y18.49 I0.0 J-1.
G03 X-118.123 Y16.833 I6.168 J-5.603 F1200.
X-119.119 Y13.057 I6.666 J-3.776
G01 Y-12.869
G03 X-119.015 Y-14.394 I11.259 J0.0
X-118.978 Y-14.566 I8.471 J1.707
X-118.233 Y-16.629 I8.435 J1.879 F1050.
X-116.992 Y-18.439 I7.69 J3.943 F900.
G02 X-117.614 Y-18.655 I-.621 J.784 F2000.
X-118.286 Y-18.396 I0.0 J1.
G03 X-119.67 Y-17.862 I-1.384 J-1.526
X-121.09 Y-18.429 I0.0 J-2.06
G01 X-119.161 Y-20.456
Z-1.2
G00 Z-1.
X-119.15 Y-20.468
G01 Z-1.4
Z-2.4 F800.
X-121.09 Y-18.429
X-121.095 Y-18.435 F2000.
G02 X-121.787 Y-18.713 I-.692 J.722
X-122.414 Y-18.491 I0.0 J1.
G03 X-120.157 Y-12.63 I-6.484 J5.861 F1200.
G01 X-120.158 Y-12.569
Y12.569
X-120.157 Y12.607
G03 X-120.383 Y14.585 I-8.775 J0.0
X-121.142 Y16.644 I-8.549 J-1.979 F1050.
X-122.387 Y18.451 I-7.791 J-4.038 F900.
G02 X-121.765 Y18.668 I.622 J-.783 F2000.
X-121.088 Y18.405 I0.0 J-1.
G03 X-119.694 Y17.862 I1.394 J1.517
X-118.248 Y18.455 I0.0 J2.06
G02 X-117.546 Y18.743 I.702 J-.712
X-116.915 Y18.519 I0.0 J-1.
G03 X-119.206 Y12.605 I6.486 J-5.913 F1200.
G01 Y12.569
Y-12.569
X-119.207 Y-12.606
G03 X-118.98 Y-14.586 I8.776 J0.0
X-118.222 Y-16.645 I8.55 J1.98 F1050.
X-116.976 Y-18.452 I7.791 J4.039 F900.
G02 X-117.599 Y-18.669 I-.622 J.783 F2000.
X-118.276 Y-18.405 I0.0 J1.
G03 X-119.67 Y-17.862 I-1.394 J-1.517
X-121.09 Y-18.429 I0.0 J-2.06
G01 X-119.15 Y-20.468
Z-1.4
G00 Z-1.2
G01 X-119.151 Z-1.6
Z-2.6 F800.
X-121.09 Y-18.429
X-121.095 Y-18.434 F2000.
G02 X-121.787 Y-18.712 I-.692 J.722
X-122.414 Y-18.491 I0.0 J1.
G03 X-120.157 Y-12.63 I-6.484 J5.861 F1200.
G01 X-120.158 Y-12.569
Y12.569
X-120.157 Y12.607
G03 X-120.383 Y14.585 I-8.774 J0.0
X-121.142 Y16.644 I-8.548 J-1.978 F1050.
X-122.387 Y18.451 I-7.79 J-4.037 F900.
G02 X-121.764 Y18.668 I.622 J-.783 F2000.
X-121.088 Y18.405 I0.0 J-1.
G03 X-119.694 Y17.862 I1.394 J1.517
X-118.248 Y18.455 I0.0 J2.06
G02 X-117.546 Y18.743 I.702 J-.712
X-116.916 Y18.519 I0.0 J-1.
G03 X-119.207 Y12.606 I6.486 J-5.913 F1200.
G01 X-119.206 Y12.569
Y-12.569
X-119.207 Y-12.607
G03 X-118.98 Y-14.586 I8.774 J0.0
X-118.222 Y-16.645 I8.548 J1.979 F1050.
X-116.977 Y-18.452 I7.79 J4.038 F900.
G02 X-117.599 Y-18.669 I-.623 J.783 F2000.
X-118.276 Y-18.405 I0.0 J1.
G03 X-119.67 Y-17.862 I-1.394 J-1.517
X-121.09 Y-18.429 I0.0 J-2.06
G01 X-119.151 Y-20.468
Z-1.6
G00 Z-1.4
G01 Z-1.8
Z-2.8 F800.
X-121.09 Y-18.429
X-121.095 Y-18.434 F2000.
G02 X-121.786 Y-18.712 I-.692 J.722
X-122.413 Y-18.491 I0.0 J1.
G03 X-120.157 Y-12.63 I-6.484 J5.86 F1200.
G01 X-120.158 Y-12.569
Y12.569
X-120.157 Y12.607
G03 X-120.383 Y14.585 I-8.774 J0.0
X-121.141 Y16.644 I-8.548 J-1.978 F1050.
X-122.387 Y18.451 I-7.79 J-4.037 F900.
G02 X-121.764 Y18.668 I.622 J-.783 F2000.
X-121.088 Y18.405 I0.0 J-1.
G03 X-119.694 Y17.862 I1.394 J1.517
X-118.248 Y18.455 I0.0 J2.06
G02 X-117.546 Y18.742 I.702 J-.712
X-116.916 Y18.518 I0.0 J-1.
G03 X-119.207 Y12.606 I6.486 J-5.913 F1200.
G01 X-119.206 Y12.569
Y-12.569
X-119.207 Y-12.608
G03 X-118.981 Y-14.586 I8.773 J0.0
X-118.222 Y-16.645 I8.547 J1.978 F1050.
X-116.977 Y-18.452 I7.789 J4.037 F900.
G02 X-117.599 Y-18.669 I-.623 J.783 F2000.
X-118.276 Y-18.405 I0.0 J1.
G03 X-119.67 Y-17.862 I-1.394 J-1.517
X-121.09 Y-18.429 I0.0 J-2.06
G01 X-119.151 Y-20.468
Z-1.8
G00 Z-1.6
G01 Z-2.
Z-3. F800.
X-121.09 Y-18.429
X-121.094 Y-18.434 F2000.
G02 X-121.786 Y-18.711 I-.691 J.722
X-122.413 Y-18.49 I0.0 J1.
G03 X-120.157 Y-12.63 I-6.485 J5.86 F1200.
G01 X-120.158 Y-12.569
Y12.569
X-120.157 Y12.608
G03 X-120.383 Y14.585 I-8.773 J0.0
X-121.141 Y16.644 I-8.547 J-1.978 F1050.
X-122.387 Y18.451 I-7.789 J-4.037 F900.
G02 X-121.764 Y18.668 I.622 J-.783 F2000.
X-121.088 Y18.405 I0.0 J-1.
G03 X-119.694 Y17.862 I1.394 J1.517
X-118.251 Y18.452 I0.0 J2.06
G02 X-117.55 Y18.738 I.701 J-.714
X-116.92 Y18.515 I0.0 J-1.
G03 X-119.207 Y12.611 I6.479 J-5.904 F1200.
G01 X-119.206 Y12.569
Y-12.569
X-119.207 Y-12.608
G03 X-118.981 Y-14.586 I8.771 J0.0
X-118.222 Y-16.645 I8.545 J1.978 F1050.
X-116.977 Y-18.452 I7.787 J4.037 F900.
G02 X-117.599 Y-18.669 I-.623 J.783 F2000.
X-118.276 Y-18.405 I0.0 J1.
G03 X-119.67 Y-17.862 I-1.394 J-1.517
X-121.09 Y-18.429 I0.0 J-2.06
G01 X-119.151 Y-20.468
Z-2.
G00 Z-1.8
G01 Z-2.2
Z-3.2 F800.
X-121.09 Y-18.429
X-121.094 Y-18.433 F2000.
G02 X-121.786 Y-18.711 I-.691 J.723
X-122.412 Y-18.49 I0.0 J1.
G03 X-120.157 Y-12.63 I-6.485 J5.86 F1200.
G01 X-120.158 Y-12.569
Y12.569
X-120.157 Y12.608
G03 X-120.383 Y14.585 I-8.773 J0.0
X-121.141 Y16.644 I-8.547 J-1.977 F1050.
X-122.387 Y18.451 I-7.789 J-4.036 F900.
G02 X-121.764 Y18.668 I.622 J-.783 F2000.
X-121.088 Y18.405 I0.0 J-1.
G03 X-119.694 Y17.862 I1.394 J1.517
X-118.249 Y18.454 I0.0 J2.06
G02 X-117.548 Y18.741 I.701 J-.713
X-116.917 Y18.517 I0.0 J-1.
G03 X-119.207 Y12.607 I6.484 J-5.91 F1200.
G01 X-119.206 Y12.569
Y-12.569
X-119.207 Y-12.609
G03 X-118.981 Y-14.586 I8.77 J0.0
X-118.222 Y-16.645 I8.544 J1.977 F1050.
X-116.977 Y-18.452 I7.786 J4.036 F900.
G02 X-117.599 Y-18.669 I-.623 J.783 F2000.
X-118.276 Y-18.405 I0.0 J1.
G03 X-119.67 Y-17.862 I-1.394 J-1.517
X-121.09 Y-18.429 I0.0 J-2.06
G01 X-119.151 Y-20.468
Z-2.2
G00 Z-2.
G01 X-119.152 Z-2.4
Z-3.4 F800.
X-121.09 Y-18.429
X-121.094 Y-18.433 F2000.
G02 X-121.785 Y-18.71 I-.691 J.723
X-122.412 Y-18.489 I0.0 J1.
G03 X-120.157 Y-12.63 I-6.486 J5.859 F1200.
G01 X-120.158 Y-12.569
Y12.569
X-120.157 Y12.608
G03 X-120.383 Y14.585 I-8.772 J0.0
X-121.141 Y16.644 I-8.546 J-1.977 F1050.
X-122.387 Y18.451 I-7.788 J-4.036 F900.
G02 X-121.764 Y18.668 I.622 J-.783 F2000.
X-121.088 Y18.405 I0.0 J-1.
G03 X-119.694 Y17.862 I1.393 J1.517
X-118.25 Y18.453 I0.0 J2.06
G02 X-117.548 Y18.74 I.701 J-.713
X-116.918 Y18.517 I0.0 J-1.
G03 X-119.207 Y12.608 I6.483 J-5.909 F1200.
G01 X-119.206 Y12.569
Y-12.569
X-119.207 Y-12.609
G03 X-118.981 Y-14.586 I8.769 J0.0
X-118.223 Y-16.645 I8.543 J1.977 F1050.
X-116.977 Y-18.452 I7.785 J4.036 F900.
G02 X-117.6 Y-18.669 I-.623 J.783 F2000.
X-118.276 Y-18.405 I0.0 J1.
G03 X-119.671 Y-17.862 I-1.394 J-1.516
X-121.09 Y-18.429 I0.0 J-2.06
G01 X-119.152 Y-20.468
Z-2.4
G00 Z-2.2
G01 Z-2.6
Z-3.6 F800.
X-121.09 Y-18.429
X-121.094 Y-18.433 F2000.
G02 X-121.785 Y-18.71 I-.691 J.723
X-122.412 Y-18.489 I0.0 J1.
G03 X-120.157 Y-12.63 I-6.486 J5.859 F1200.
G01 X-120.158 Y-12.569
Y12.569
X-120.157 Y12.608
G03 X-120.383 Y14.585 I-8.771 J0.0
X-121.141 Y16.644 I-8.546 J-1.977 F1050.
X-122.386 Y18.451 I-7.788 J-4.036 F900.
G02 X-121.764 Y18.668 I.622 J-.783 F2000.
X-121.088 Y18.405 I0.0 J-1.
G03 X-119.694 Y17.862 I1.393 J1.517
X-118.25 Y18.453 I0.0 J2.06
G02 X-117.549 Y18.74 I.701 J-.713
X-116.918 Y18.516 I0.0 J-1.
G03 X-119.207 Y12.608 I6.483 J-5.908 F1200.
G01 X-119.206 Y12.569
Y-12.569
X-119.207 Y-12.61
G03 X-118.981 Y-14.586 I8.768 J0.0
X-118.223 Y-16.645 I8.542 J1.976 F1050.
X-116.977 Y-18.452 I7.784 J4.035 F900.
G02 X-117.6 Y-18.669 I-.623 J.782 F2000.
X-118.276 Y-18.405 I0.0 J1.
G03 X-119.671 Y-17.862 I-1.394 J-1.516
X-121.09 Y-18.429 I0.0 J-2.06
G01 X-119.152 Y-20.468
Z-2.6
G00 Z-2.4
G01 Z-2.8
Z-3.8 F800.
X-121.09 Y-18.429
X-121.094 Y-18.432 F2000.
G02 X-121.784 Y-18.709 I-.691 J.723
X-122.411 Y-18.488 I0.0 J1.
G03 X-120.157 Y-12.63 I-6.486 J5.858 F1200.
G01 X-120.158 Y-12.569
Y12.569
X-120.157 Y12.609
G03 X-120.383 Y14.585 I-8.771 J0.0
X-121.141 Y16.644 I-8.545 J-1.976 F1050.
X-122.386 Y18.451 I-7.787 J-4.036 F900.
G02 X-121.764 Y18.668 I.622 J-.783 F2000.
X-121.088 Y18.405 I0.0 J-1.
G03 X-119.694 Y17.862 I1.393 J1.517
X-118.251 Y18.451 I0.0 J2.06
G02 X-117.551 Y18.737 I.7 J-.714
X-116.921 Y18.514 I0.0 J-1.
G03 X-119.207 Y12.612 I6.478 J-5.902 F1200.
G01 X-119.206 Y12.569
Y-12.569
X-119.207 Y-12.611
G03 X-118.981 Y-14.587 I8.766 J0.0
X-118.223 Y-16.646 I8.541 J1.976 F1050.
X-116.977 Y-18.452 I7.783 J4.035 F900.
G02 X-117.6 Y-18.669 I-.623 J.782 F2000.
X-118.276 Y-18.405 I0.0 J1.
G03 X-119.671 Y-17.862 I-1.394 J-1.516
X-121.09 Y-18.429 I0.0 J-2.06
G01 X-119.152 Y-20.468
Z-2.8
G00 Z-2.6
G01 Z-3.
Z-4. F800.
X-121.09 Y-18.429
X-121.094 Y-18.432 F2000.
G02 X-121.784 Y-18.709 I-.691 J.723
X-122.411 Y-18.488 I0.0 J1.
G03 X-120.157 Y-12.63 I-6.487 J5.858 F1200.
G01 X-120.158 Y-12.569
Y12.569
X-120.157 Y12.609
G03 X-120.383 Y14.585 I-8.77 J0.0
X-121.141 Y16.644 I-8.545 J-1.976 F1050.
X-122.386 Y18.451 I-7.787 J-4.035 F900.
G02 X-121.764 Y18.668 I.622 J-.783 F2000.
X-121.087 Y18.405 I0.0 J-1.
G03 X-119.694 Y17.862 I1.393 J1.517
X-118.252 Y18.451 I0.0 J2.06
G02 X-117.551 Y18.737 I.7 J-.714
X-116.921 Y18.514 I0.0 J-1.
G03 X-119.207 Y12.612 I6.478 J-5.902 F1200.
G01 X-119.206 Y12.569
Y-12.569
X-119.207 Y-12.611
G03 X-118.981 Y-14.587 I8.765 J0.0
X-118.223 Y-16.646 I8.54 J1.975 F1050.
X-116.977 Y-18.452 I7.781 J4.035 F900.
G02 X-117.6 Y-18.67 I-.623 J.782 F2000.
X-118.277 Y-18.406 I0.0 J1.
G03 X-119.671 Y-17.862 I-1.394 J-1.516
X-121.09 Y-18.429 I0.0 J-2.06
G01 X-119.152 Y-20.468
Z-3.
G00 Z-2.8
G01 Z-3.2
Z-4.2 F800.
X-121.09 Y-18.429
X-121.093 Y-18.432 F2000.
G02 X-121.784 Y-18.708 I-.69 J.723
X-122.41 Y-18.487 I0.0 J1.
G03 X-120.157 Y-12.63 I-6.487 J5.857 F1200.
G01 X-120.158 Y-12.569
Y12.569
X-120.157 Y12.609
G03 X-120.383 Y14.585 I-8.77 J0.0
X-121.141 Y16.644 I-8.544 J-1.976 F1050.
X-122.386 Y18.451 I-7.786 J-4.035 F900.
G02 X-121.764 Y18.668 I.623 J-.783 F2000.
X-121.087 Y18.405 I0.0 J-1.
G03 X-119.694 Y17.862 I1.393 J1.517
X-118.252 Y18.451 I0.0 J2.06
G02 X-117.552 Y18.737 I.7 J-.714
X-116.921 Y18.513 I0.0 J-1.
G03 X-119.207 Y12.612 I6.478 J-5.902 F1200.
G01 X-119.206 Y12.569
Y-12.569
X-119.207 Y-12.612
G03 X-118.981 Y-14.587 I8.764 J0.0
X-118.223 Y-16.646 I8.538 J1.975 F1050.
X-116.977 Y-18.452 I7.78 J4.034 F900.
G02 X-117.6 Y-18.67 I-.623 J.782 F2000.
X-118.277 Y-18.406 I0.0 J1.
G03 X-119.671 Y-17.862 I-1.395 J-1.516
X-121.09 Y-18.429 I0.0 J-2.06
G01 X-119.152 Y-20.468
Z-3.2
G00 Z-3.
G01 X-119.153 Z-3.4
Z-4.4 F800.
X-121.09 Y-18.429
X-121.093 Y-18.431 F2000.
G02 X-121.783 Y-18.708 I-.69 J.724
X-122.41 Y-18.487 I0.0 J1.
G03 X-120.157 Y-12.63 I-6.488 J5.857 F1200.
G01 X-120.158 Y-12.569
Y12.569
X-120.157 Y12.609
G03 X-120.383 Y14.585 I-8.769 J0.0
X-121.141 Y16.644 I-8.544 J-1.976 F1050.
X-122.386 Y18.451 I-7.786 J-4.035 F900.
G02 X-121.764 Y18.668 I.623 J-.783 F2000.
X-121.087 Y18.405 I0.0 J-1.
G03 X-119.694 Y17.862 I1.393 J1.517
X-118.252 Y18.451 I0.0 J2.06
G02 X-117.552 Y18.737 I.7 J-.714
X-116.922 Y18.513 I0.0 J-1.
G03 X-119.207 Y12.612 I6.478 J-5.901 F1200.
G01 X-119.206 Y12.569
Y-12.569
X-119.207 Y-12.612
G03 X-118.981 Y-14.587 I8.763 J0.0
X-118.223 Y-16.646 I8.537 J1.975 F1050.
X-116.977 Y-18.452 I7.779 J4.034 F900.
G02 X-117.6 Y-18.67 I-.623 J.782 F2000.
X-118.277 Y-18.406 I0.0 J1.
G03 X-119.671 Y-17.862 I-1.395 J-1.516
X-121.09 Y-18.429 I0.0 J-2.06
G01 X-119.153 Y-20.468
Z-3.4
G00 Z-3.2
G01 Z-3.6
Z-4.6 F800.
X-121.091 Y-18.428
X-121.093 Y-18.431 F2000.
G02 X-121.783 Y-18.707 I-.69 J.724
X-122.41 Y-18.487 I0.0 J1.
G03 X-120.157 Y-12.63 I-6.488 J5.856 F1200.
G01 X-120.158 Y-12.569
Y12.569
X-120.157 Y12.61
G03 X-120.383 Y14.585 I-8.769 J0.0
X-121.141 Y16.644 I-8.543 J-1.975 F1050.
X-122.386 Y18.451 I-7.785 J-4.034 F900.
G02 X-121.764 Y18.668 I.623 J-.783 F2000.
X-121.087 Y18.405 I0.0 J-1.
G03 X-119.694 Y17.862 I1.393 J1.517
X-118.252 Y18.451 I0.0 J2.06
G02 X-117.552 Y18.736 I.7 J-.714
X-116.922 Y18.513 I0.0 J-1.
G03 X-119.207 Y12.612 I6.478 J-5.901 F1200.
G01 X-119.206 Y12.569
Y-12.569
X-119.207 Y-12.613
G03 X-118.981 Y-14.587 I8.761 J0.0
X-118.223 Y-16.646 I8.536 J1.974 F1050.
X-116.977 Y-18.452 I7.778 J4.033 F900.
G02 X-117.6 Y-18.67 I-.623 J.782 F2000.
X-118.277 Y-18.406 I0.0 J1.
G03 X-119.672 Y-17.862 I-1.395 J-1.516
X-121.091 Y-18.428 I0.0 J-2.06
G01 X-119.153 Y-20.468
Z-3.6
G00 Z-3.4
G01 Z-3.8
Z-4.8 F800.
X-121.091 Y-18.428
X-121.093 Y-18.431 F2000.
G02 X-121.783 Y-18.707 I-.69 J.724
X-122.409 Y-18.486 I0.0 J1.
G03 X-120.157 Y-12.63 I-6.488 J5.856 F1200.
G01 X-120.158 Y-12.569
Y12.569
X-120.157 Y12.61
G03 X-120.383 Y14.585 I-8.768 J0.0
X-121.141 Y16.644 I-8.543 J-1.975 F1050.
X-122.386 Y18.451 I-7.785 J-4.034 F900.
G02 X-121.764 Y18.668 I.623 J-.783 F2000.
X-121.087 Y18.404 I0.0 J-1.
G03 X-119.694 Y17.862 I1.393 J1.517
X-118.252 Y18.45 I0.0 J2.06
G02 X-117.552 Y18.736 I.7 J-.714
X-116.922 Y18.513 I0.0 J-1.
G03 X-119.207 Y12.612 I6.478 J-5.9 F1200.
G01 X-119.206 Y12.569
Y-12.569
X-119.207 Y-12.613
G03 X-118.981 Y-14.587 I8.76 J0.0
X-118.223 Y-16.646 I8.535 J1.974 F1050.
X-116.977 Y-18.452 I7.777 J4.033 F900.
G02 X-117.6 Y-18.67 I-.623 J.782 F2000.
X-118.277 Y-18.406 I0.0 J1.
G03 X-119.672 Y-17.862 I-1.395 J-1.516
X-121.091 Y-18.428 I0.0 J-2.06
G01 X-119.153 Y-20.468
Z-3.8
G00 Z-3.6
G01 Z-4.
Z-5. F800.
X-121.091 Y-18.428
X-121.093 Y-18.43 F2000.
G02 X-121.782 Y-18.706 I-.69 J.724
X-122.409 Y-18.486 I0.0 J1.
G03 X-120.157 Y-12.63 I-6.489 J5.856 F1200.
G01 X-120.158 Y-12.569
Y12.442
G03 X-120.156 Y12.604 I-8.777 J.162
X-120.383 Y14.587 I-8.778 J0.0
X-121.142 Y16.645 I-8.551 J-1.983 F1050.
X-122.388 Y18.452 I-7.792 J-4.041 F900.
G02 X-121.765 Y18.669 I.623 J-.783 F2000.
X-121.088 Y18.405 I0.0 J-1.
G03 X-119.694 Y17.862 I1.394 J1.516
X-118.252 Y18.45 I0.0 J2.06
G02 X-117.552 Y18.736 I.7 J-.714
X-116.922 Y18.513 I0.0 J-1.
G03 X-119.207 Y12.613 I6.478 J-5.9 F1200.
G01 X-119.206 Y12.569
Y-12.569
X-119.207 Y-12.614
G03 X-118.981 Y-14.587 I8.759 J0.0
X-118.223 Y-16.646 I8.534 J1.973 F1050.
X-116.977 Y-18.452 I7.775 J4.032 F900.
G02 X-117.6 Y-18.67 I-.623 J.782 F2000.
X-118.277 Y-18.406 I0.0 J1.
G03 X-119.672 Y-17.862 I-1.395 J-1.516
X-121.091 Y-18.428 I0.0 J-2.06
G01 X-119.153 Y-20.468
Z-4.
G00 Z-3.8
G01 Z-4.2
Z-5.2 F800.
X-121.091 Y-18.428
X-121.093 Y-18.43 F2000.
G02 X-121.782 Y-18.706 I-.69 J.724
X-122.408 Y-18.485 I0.0 J1.
G03 X-120.157 Y-12.63 I-6.489 J5.855 F1200.
G01 X-120.158 Y-12.569
Y12.442
G03 X-120.156 Y12.609 I-8.765 J.167
X-120.381 Y14.583 I-8.767 J0.0
X-121.139 Y16.642 I-8.542 J-1.974 F1050.
X-122.384 Y18.449 I-7.784 J-4.033 F900.
G02 X-121.762 Y18.666 I.623 J-.783 F2000.
X-121.086 Y18.403 I0.0 J-1.
G03 X-119.694 Y17.862 I1.392 J1.518
X-118.252 Y18.45 I0.0 J2.06
G02 X-117.553 Y18.736 I.7 J-.714
X-116.923 Y18.512 I0.0 J-1.
G03 X-119.207 Y12.613 I6.477 J-5.9 F1200.
G01 X-119.206 Y12.569
Y-12.569
X-119.207 Y-12.615
G03 X-118.981 Y-14.587 I8.758 J0.0
X-118.223 Y-16.646 I8.532 J1.973 F1050.
X-116.977 Y-18.452 I7.774 J4.032 F900.
G02 X-117.6 Y-18.67 I-.623 J.782 F2000.
X-118.277 Y-18.406 I0.0 J1.
G03 X-119.672 Y-17.862 I-1.395 J-1.516
X-121.091 Y-18.428 I0.0 J-2.06
G01 X-119.153 Y-20.468
Z-4.2
G00 Z-4.
G01 X-119.154 Z-4.4
Z-5.4 F800.
X-121.091 Y-18.428
X-121.092 Y-18.43 F2000.
G02 X-121.782 Y-18.705 I-.689 J.724
X-122.408 Y-18.485 I0.0 J1.
G03 X-120.157 Y-12.63 I-6.49 J5.855 F1200.
G01 X-120.158 Y-12.569
Y12.442
G03 X-120.156 Y12.609 I-8.766 J.167
X-120.381 Y14.583 I-8.767 J0.0
X-121.139 Y16.643 I-8.542 J-1.975 F1050.
X-122.384 Y18.449 I-7.784 J-4.034 F900.
G02 X-121.762 Y18.666 I.623 J-.783 F2000.
X-121.086 Y18.404 I0.0 J-1.
G03 X-119.694 Y17.862 I1.392 J1.518
X-118.252 Y18.45 I0.0 J2.06
G02 X-117.553 Y18.736 I.7 J-.714
X-116.923 Y18.512 I0.0 J-1.
G03 X-119.207 Y12.613 I6.477 J-5.899 F1200.
G01 X-119.206 Y12.569
Y-12.569
X-119.207 Y-12.615
G03 X-118.982 Y-14.588 I8.756 J0.0
X-118.223 Y-16.647 I8.531 J1.972 F1050.
X-116.977 Y-18.452 I7.773 J4.031 F900.
G02 X-117.6 Y-18.67 I-.623 J.782 F2000.
X-118.277 Y-18.406 I0.0 J1.
G03 X-119.672 Y-17.862 I-1.395 J-1.516
X-121.091 Y-18.428 I0.0 J-2.06
G01 X-119.154 Y-20.468
Z-4.4
G00 Z-4.2
G01 Z-4.6
Z-5.6 F800.
X-121.091 Y-18.428
X-121.092 Y-18.429 F2000.
G02 X-121.781 Y-18.705 I-.689 J.725
X-122.408 Y-18.484 I0.0 J1.
G03 X-120.157 Y-12.63 I-6.49 J5.854 F1200.
G01 X-120.158 Y-12.569
Y12.442
G03 X-120.156 Y12.609 I-8.765 J.167
X-120.381 Y14.583 I-8.767 J0.0
X-121.139 Y16.643 I-8.542 J-1.974 F1050.
X-122.384 Y18.449 I-7.784 J-4.034 F900.
G02 X-121.762 Y18.667 I.623 J-.783 F2000.
X-121.086 Y18.404 I0.0 J-1.
G03 X-119.694 Y17.862 I1.392 J1.518
X-118.253 Y18.45 I0.0 J2.06
G02 X-117.553 Y18.735 I.7 J-.715
X-116.923 Y18.512 I0.0 J-1.
G03 X-119.207 Y12.613 I6.477 J-5.899 F1200.
G01 X-119.206 Y12.569
Y-12.569
X-119.207 Y-12.616
G03 X-118.982 Y-14.588 I8.755 J0.0
X-118.223 Y-16.647 I8.53 J1.972 F1050.
X-116.977 Y-18.453 I7.772 J4.031 F900.
G02 X-117.6 Y-18.67 I-.623 J.782 F2000.
X-118.277 Y-18.406 I0.0 J1.
G03 X-119.672 Y-17.862 I-1.395 J-1.516
X-121.091 Y-18.428 I0.0 J-2.06
G01 X-119.154 Y-20.468
Z-4.6
G00 Z-4.4
G01 Z-4.8
Z-5.8 F800.
X-121.091 Y-18.428
X-121.092 Y-18.429 F2000.
G02 X-121.781 Y-18.704 I-.689 J.725
X-122.407 Y-18.484 I0.0 J1.
G03 X-120.157 Y-12.63 I-6.49 J5.854 F1200.
G01 X-120.158 Y-12.569
Y12.442
G03 X-120.156 Y12.609 I-8.765 J.167
X-120.381 Y14.583 I-8.767 J0.0
X-121.139 Y16.643 I-8.542 J-1.974 F1050.
X-122.384 Y18.449 I-7.784 J-4.034 F900.
G02 X-121.762 Y18.667 I.623 J-.783 F2000.
X-121.086 Y18.404 I0.0 J-1.
G03 X-119.694 Y17.862 I1.392 J1.518
X-118.253 Y18.45 I0.0 J2.06
G02 X-117.553 Y18.735 I.699 J-.715
X-116.923 Y18.512 I0.0 J-1.
G03 X-119.207 Y12.613 I6.477 J-5.898 F1200.
G01 X-119.206 Y12.569
Y-12.569
X-119.207 Y-12.616
G03 X-118.982 Y-14.588 I8.754 J0.0
X-118.223 Y-16.647 I8.529 J1.972 F1050.
X-116.977 Y-18.453 I7.771 J4.031 F900.
G02 X-117.6 Y-18.67 I-.623 J.782 F2000.
X-118.277 Y-18.406 I0.0 J1.
G03 X-119.672 Y-17.862 I-1.395 J-1.516
X-121.091 Y-18.428 I0.0 J-2.06
G01 X-119.154 Y-20.468
Z-4.8
G00 Z-4.6
G01 Z-5.
Z-6. F800.
X-121.091 Y-18.428
X-121.092 Y-18.429 F2000.
G02 X-121.781 Y-18.704 I-.689 J.725
X-122.407 Y-18.484 I0.0 J1.
G03 X-120.157 Y-12.63 I-6.491 J5.853 F1200.
G01 X-120.158 Y-12.569
Y12.442
G03 X-120.156 Y12.609 I-8.765 J.167
X-120.381 Y14.583 I-8.766 J0.0
X-121.139 Y16.643 I-8.541 J-1.974 F1050.
X-122.384 Y18.449 I-7.783 J-4.033 F900.
G02 X-121.762 Y18.667 I.623 J-.783 F2000.
X-121.086 Y18.404 I0.0 J-1.
G03 X-119.694 Y17.862 I1.392 J1.518
X-118.253 Y18.449 I0.0 J2.06
G02 X-117.554 Y18.734 I.699 J-.715
X-116.924 Y18.511 I0.0 J-1.
G03 X-119.207 Y12.613 I6.48 J-5.898 F1200.
G01 X-119.206 Y12.569
Y-12.569
X-119.207 Y-12.617
G03 X-118.982 Y-14.588 I8.753 J0.0
X-118.224 Y-16.647 I8.528 J1.971 F1050.
X-116.977 Y-18.453 I7.77 J4.03 F900.
G02 X-117.6 Y-18.671 I-.623 J.782 F2000.
X-118.277 Y-18.406 I0.0 J1.
G03 X-119.673 Y-17.862 I-1.395 J-1.516
X-121.091 Y-18.428 I0.0 J-2.06
G01 X-119.154 Y-20.468
Z-5.
G00 Z-4.8
G01 Z-5.2
Z-6.2 F800.
X-121.091 Y-18.428
G02 X-121.78 Y-18.703 I-.689 J.725 F2000.
X-122.406 Y-18.483 I0.0 J1.
G03 X-120.157 Y-12.63 I-6.491 J5.853 F1200.
G01 X-120.158 Y-12.569
Y12.442
G03 X-120.156 Y12.609 I-8.765 J.167
X-120.381 Y14.583 I-8.766 J0.0
X-121.139 Y16.643 I-8.541 J-1.974 F1050.
X-122.384 Y18.449 I-7.783 J-4.033 F900.
G02 X-121.762 Y18.667 I.623 J-.783 F2000.
X-121.086 Y18.404 I0.0 J-1.
G03 X-119.694 Y17.862 I1.392 J1.518
X-118.256 Y18.447 I0.0 J2.06
G02 X-117.558 Y18.73 I.698 J-.716
X-116.928 Y18.507 I0.0 J-1.
G03 X-119.207 Y12.618 I6.472 J-5.889 F1200.
G01 X-119.206 Y12.569
Y-12.569
X-119.207 Y-12.617
G03 X-118.982 Y-14.588 I8.751 J0.0
X-118.224 Y-16.647 I8.527 J1.971 F1050.
X-116.977 Y-18.453 I7.768 J4.03 F900.
G02 X-117.6 Y-18.671 I-.623 J.782 F2000.
X-118.277 Y-18.406 I0.0 J1.
G03 X-119.673 Y-17.862 I-1.395 J-1.515
X-121.091 Y-18.428 I0.0 J-2.06
G01 X-119.154 Y-20.468
Z-5.2
G00 Z-5.
G01 X-119.155 Z-5.4
Z-6.4 F800.
X-121.091 Y-18.428
G02 X-121.78 Y-18.703 I-.689 J.725 F2000.
X-122.406 Y-18.483 I0.0 J1.
G03 X-120.157 Y-12.63 I-6.492 J5.853 F1200.
G01 X-120.158 Y-12.569
Y12.442
G03 X-120.156 Y12.609 I-8.764 J.167
X-120.381 Y14.584 I-8.766 J0.0
X-121.139 Y16.643 I-8.541 J-1.974 F1050.
X-122.384 Y18.449 I-7.783 J-4.033 F900.
G02 X-121.762 Y18.667 I.623 J-.783 F2000.
X-121.086 Y18.404 I0.0 J-1.
G03 X-119.694 Y17.862 I1.392 J1.518
X-118.256 Y18.446 I0.0 J2.06
G02 X-117.558 Y18.73 I.698 J-.716
X-116.929 Y18.507 I0.0 J-1.
G03 X-119.207 Y12.619 I6.472 J-5.888 F1200.
G01 X-119.206 Y12.569
Y-12.569
X-119.207 Y-12.618
G03 X-118.982 Y-14.588 I8.75 J0.0
X-118.224 Y-16.647 I8.525 J1.97 F1050.
X-116.977 Y-18.453 I7.767 J4.029 F900.
G02 X-117.6 Y-18.671 I-.623 J.782 F2000.
X-118.278 Y-18.406 I0.0 J1.
G03 X-119.673 Y-17.862 I-1.395 J-1.515
X-121.091 Y-18.428 I0.0 J-2.06
G01 X-119.155 Y-20.468
Z-5.4
G00 Z-5.2
G01 Z-5.6
Z-6.6 F800.
X-121.091 Y-18.428
G02 X-121.78 Y-18.702 I-.688 J.725 F2000.
X-122.406 Y-18.482 I0.0 J1.
G03 X-120.157 Y-12.63 I-6.492 J5.852 F1200.
G01 X-120.158 Y-12.569
Y12.442
G03 X-120.156 Y12.61 I-8.764 J.168
X-120.381 Y14.584 I-8.766 J0.0
X-121.139 Y16.643 I-8.54 J-1.974 F1050.
X-122.384 Y18.449 I-7.783 J-4.033 F900.
G02 X-121.762 Y18.667 I.623 J-.783 F2000.
X-121.086 Y18.404 I0.0 J-1.
G03 X-119.694 Y17.862 I1.392 J1.518
X-118.256 Y18.446 I0.0 J2.06
G02 X-117.559 Y18.73 I.698 J-.716
X-116.929 Y18.507 I0.0 J-1.
G03 X-119.207 Y12.619 I6.472 J-5.888 F1200.
G01 X-119.206 Y12.569
Y-12.569
X-119.207 Y-12.618
G03 X-118.982 Y-14.588 I8.749 J0.0
X-118.224 Y-16.647 I8.524 J1.97 F1050.
X-116.977 Y-18.453 I7.766 J4.029 F900.
G02 X-117.6 Y-18.671 I-.623 J.782 F2000.
X-118.278 Y-18.406 I0.0 J1.
G03 X-119.673 Y-17.862 I-1.395 J-1.515
X-121.091 Y-18.428 I0.0 J-2.06
G01 X-119.155 Y-20.468
Z-5.6
G00 Z-5.4
X-119.159 Y-20.466
G01 Z-5.8
Z-6.8 F800.
X-121.091 Y-18.428
G02 X-121.779 Y-18.702 I-.688 J.726 F2000.
X-122.405 Y-18.482 I0.0 J1.
G03 X-120.157 Y-12.63 I-6.492 J5.852 F1200.
G01 X-120.158 Y-12.569
Y12.442
G03 X-120.156 Y12.61 I-8.764 J.168
X-120.381 Y14.584 I-8.765 J0.0
X-121.139 Y16.643 I-8.54 J-1.974 F1050.
X-122.384 Y18.449 I-7.782 J-4.033 F900.
G02 X-121.762 Y18.667 I.623 J-.783 F2000.
X-121.086 Y18.404 I0.0 J-1.
G03 X-119.694 Y17.862 I1.392 J1.518
X-118.257 Y18.446 I0.0 J2.06
G02 X-117.559 Y18.729 I.698 J-.717
X-116.93 Y18.506 I0.0 J-1.
G03 X-119.207 Y12.619 I6.471 J-5.887 F1200.
G01 X-119.206 Y12.569
Y-12.569
X-119.207 Y-12.619
G03 X-118.982 Y-14.588 I8.748 J0.0
X-118.224 Y-16.647 I8.523 J1.969 F1050.
X-116.977 Y-18.453 I7.765 J4.028 F900.
G02 X-117.6 Y-18.671 I-.623 J.782 F2000.
X-118.278 Y-18.407 I0.0 J1.
G03 X-119.673 Y-17.862 I-1.396 J-1.515
X-121.091 Y-18.428 I0.0 J-2.06
G01 X-119.159 Y-20.466
Z-5.8
G00 Z-5.6
X-119.163 Y-20.463
G01 Z-6.
Z-7. F800.
X-121.091 Y-18.428
G02 X-121.779 Y-18.701 I-.688 J.726 F2000.
X-122.405 Y-18.481 I0.0 J1.
G03 X-120.157 Y-12.63 I-6.493 J5.851 F1200.
G01 X-120.158 Y-12.569
Y12.442
G03 X-120.156 Y12.61 I-8.763 J.168
X-120.381 Y14.583 I-8.764 J0.0
X-121.139 Y16.643 I-8.539 J-1.973 F1050.
X-122.384 Y18.449 I-7.782 J-4.033 F900.
G02 X-121.762 Y18.667 I.623 J-.783 F2000.
X-121.086 Y18.404 I0.0 J-1.
G03 X-119.694 Y17.862 I1.392 J1.518
X-118.257 Y18.446 I0.0 J2.06
G02 X-117.559 Y18.729 I.697 J-.717
X-116.93 Y18.506 I0.0 J-1.
G03 X-119.207 Y12.62 I6.471 J-5.886 F1200.
G01 X-119.206 Y12.569
Y-12.569
X-119.207 Y-12.62
G03 X-118.982 Y-14.589 I8.746 J0.0
X-118.224 Y-16.648 I8.522 J1.969 F1050.
X-116.977 Y-18.453 I7.764 J4.028 F900.
G02 X-117.6 Y-18.671 I-.623 J.782 F2000.
X-118.278 Y-18.407 I0.0 J1.
G03 X-119.673 Y-17.862 I-1.396 J-1.515
X-121.091 Y-18.428 I0.0 J-2.06
G01 X-119.163 Y-20.463
Z-6.
G00 Z-5.8
X-119.168 Y-20.461
G01 Z-6.2
Z-7.2 F800.
X-121.091 Y-18.427
G02 X-121.779 Y-18.701 I-.687 J.726 F2000.
X-122.405 Y-18.481 I0.0 J1.
G03 X-120.157 Y-12.63 I-6.493 J5.851 F1200.
G01 X-120.158 Y-12.569
Y12.442
G03 X-120.156 Y12.611 I-8.762 J.169
X-120.381 Y14.583 I-8.763 J0.0
X-121.139 Y16.642 I-8.538 J-1.973 F1050.
X-122.384 Y18.449 I-7.781 J-4.032 F900.
G02 X-121.761 Y18.666 I.623 J-.783 F2000.
X-121.086 Y18.403 I0.0 J-1.
G03 X-119.693 Y17.862 I1.392 J1.518
X-118.257 Y18.445 I0.0 J2.06
G02 X-117.56 Y18.728 I.697 J-.717
X-116.93 Y18.505 I0.0 J-1.
G03 X-119.207 Y12.62 I6.47 J-5.885 F1200.
G01 X-119.206 Y12.569
Y-12.569
X-119.207 Y-12.62
G03 X-118.982 Y-14.589 I8.745 J0.0
X-118.224 Y-16.648 I8.521 J1.968 F1050.
X-116.977 Y-18.453 I7.762 J4.027 F900.
G02 X-117.6 Y-18.671 I-.623 J.782 F2000.
X-118.278 Y-18.407 I0.0 J1.
G03 X-119.674 Y-17.862 I-1.396 J-1.515
X-121.091 Y-18.427 I0.0 J-2.06
G01 X-119.168 Y-20.461
Z-6.2
G00 Z-6.
X-119.172 Y-20.458
G01 Z-6.4
Z-7.4 F800.
X-121.092 Y-18.427
G02 X-121.778 Y-18.7 I-.687 J.727 F2000.
X-122.404 Y-18.481 I0.0 J1.
G03 X-120.157 Y-12.63 I-6.493 J5.85 F1200.
G01 X-120.158 Y-12.569
Y12.442
G03 X-120.156 Y12.611 I-8.76 J.169
X-120.381 Y14.583 I-8.762 J0.0
X-121.138 Y16.642 I-8.537 J-1.972 F1050.
X-122.384 Y18.449 I-7.78 J-4.031 F900.
G02 X-121.761 Y18.666 I.623 J-.783 F2000.
X-121.085 Y18.403 I0.0 J-1.
G03 X-119.693 Y17.862 I1.392 J1.519
X-118.257 Y18.445 I0.0 J2.06
G02 X-117.56 Y18.728 I.697 J-.717
X-116.931 Y18.505 I0.0 J-1.
G03 X-119.207 Y12.62 I6.47 J-5.885 F1200.
G01 X-119.206 Y12.569
Y-12.569
X-119.207 Y-12.621
G03 X-118.982 Y-14.588 I8.743 J0.0
X-118.224 Y-16.648 I8.519 J1.967 F1050.
X-116.977 Y-18.453 I7.761 J4.026 F900.
G02 X-117.601 Y-18.671 I-.623 J.782 F2000.
X-118.278 Y-18.407 I0.0 J1.
G03 X-119.674 Y-17.862 I-1.396 J-1.515
X-121.092 Y-18.427 I0.0 J-2.06
G01 X-119.172 Y-20.458
Z-6.4
G00 Z-6.2
X-119.177 Y-20.456
G01 Z-6.6
Z-7.6 F800.
X-121.092 Y-18.427
G02 X-121.778 Y-18.7 I-.686 J.727 F2000.
X-122.404 Y-18.48 I0.0 J1.
G03 X-120.157 Y-12.63 I-6.494 J5.85 F1200.
G01 X-120.158 Y-12.569
Y12.442
G03 X-120.156 Y12.612 I-8.759 J.17
X-120.381 Y14.583 I-8.761 J0.0
X-121.138 Y16.642 I-8.536 J-1.971 F1050.
X-122.384 Y18.449 I-7.779 J-4.03 F900.
G02 X-121.761 Y18.666 I.623 J-.783 F2000.
X-121.085 Y18.403 I0.0 J-1.
G03 X-119.693 Y17.862 I1.392 J1.519
X-118.257 Y18.445 I0.0 J2.06
G02 X-117.56 Y18.728 I.697 J-.717
X-116.931 Y18.505 I0.0 J-1.
G03 X-119.207 Y12.621 I6.47 J-5.884 F1200.
G01 X-119.206 Y12.569
Y-12.569
X-119.207 Y-12.622
G03 X-118.983 Y-14.588 I8.741 J0.0
X-118.224 Y-16.648 I8.517 J1.967 F1050.
X-116.978 Y-18.453 I7.759 J4.026 F900.
G02 X-117.601 Y-18.671 I-.623 J.782 F2000.
X-118.278 Y-18.407 I0.0 J1.
G03 X-119.674 Y-17.862 I-1.396 J-1.515
X-121.092 Y-18.427 I0.0 J-2.06
G01 X-119.177 Y-20.456
Z-6.6
G00 Z-6.4
X-119.181 Y-20.454
G01 Z-6.8
Z-7.8 F800.
X-121.092 Y-18.427
G02 X-121.778 Y-18.7 I-.686 J.728 F2000.
X-122.403 Y-18.48 I0.0 J1.
G03 X-120.157 Y-12.63 I-6.494 J5.849 F1200.
G01 X-120.158 Y-12.569
Y12.442
G03 X-120.156 Y12.613 I-8.752 J.171
X-120.381 Y14.586 I-8.754 J0.0
X-121.14 Y16.645 I-8.528 J-1.973 F1050.
X-122.386 Y18.45 I-7.77 J-4.032 F900.
G02 X-121.763 Y18.668 I.623 J-.782 F2000.
X-121.087 Y18.405 I0.0 J-1.
G03 X-119.693 Y17.862 I1.393 J1.517
X-118.258 Y18.445 I0.0 J2.06
G02 X-117.561 Y18.727 I.697 J-.717
X-116.931 Y18.504 I0.0 J-1.
G03 X-119.207 Y12.621 I6.469 J-5.883 F1200.
G01 X-119.206 Y12.569
Y-12.569
X-119.207 Y-12.623
G03 X-118.983 Y-14.589 I8.738 J0.0
X-118.224 Y-16.648 I8.514 J1.966 F1050.
X-116.977 Y-18.453 I7.756 J4.025 F900.
G02 X-117.601 Y-18.671 I-.623 J.782 F2000.
X-118.278 Y-18.407 I0.0 J1.
G03 X-119.674 Y-17.862 I-1.396 J-1.515
X-121.092 Y-18.427 I0.0 J-2.06
G01 X-119.181 Y-20.454
Z-6.8
G00 Z-6.6
X-119.185 Y-20.452
G01 Z-7.
Z-8. F800.
X-121.092 Y-18.427
G02 X-121.777 Y-18.699 I-.686 J.728 F2000.
X-122.403 Y-18.479 I0.0 J1.
G03 X-120.157 Y-12.63 I-6.495 J5.849 F1200.
G01 X-120.158 Y-12.569
Y12.442
G03 X-120.156 Y12.614 I-8.749 J.172
X-120.381 Y14.585 I-8.751 J0.0
X-121.139 Y16.644 I-8.526 J-1.971 F1050.
X-122.386 Y18.45 I-7.768 J-4.03 F900.
G02 X-121.763 Y18.668 I.623 J-.782 F2000.
X-121.086 Y18.404 I0.0 J-1.
G03 X-119.693 Y17.862 I1.393 J1.518
X-118.258 Y18.444 I0.0 J2.06
G02 X-117.561 Y18.727 I.697 J-.717
X-116.932 Y18.504 I0.0 J-1.
G03 X-119.207 Y12.621 I6.469 J-5.883 F1200.
G01 X-119.206 Y12.569
Y-12.569
X-119.207 Y-12.623
G03 X-118.982 Y-14.59 I8.739 J0.0
X-118.224 Y-16.649 I8.515 J1.967 F1050.
X-116.977 Y-18.454 I7.757 J4.026 F900.
G02 X-117.6 Y-18.672 I-.624 J.782 F2000.
X-118.278 Y-18.407 I0.0 J1.
G03 X-119.674 Y-17.862 I-1.396 J-1.515
X-121.092 Y-18.427 I0.0 J-2.06
G01 X-119.185 Y-20.452
Z-7.
G00 Z-6.8
X-119.189 Y-20.45
G01 Z-7.2
Z-8.2 F800.
X-121.092 Y-18.427
G02 X-121.777 Y-18.699 I-.685 J.728 F2000.
X-122.403 Y-18.479 I0.0 J1.
G03 X-120.157 Y-12.63 I-6.495 J5.849 F1200.
G01 X-120.158 Y-12.569
Y12.442
G03 X-120.156 Y12.615 I-8.747 J.173
X-120.38 Y14.584 I-8.749 J0.0
X-121.139 Y16.643 I-8.524 J-1.969 F1050.
X-122.385 Y18.449 I-7.766 J-4.029 F900.
G02 X-121.762 Y18.667 I.623 J-.782 F2000.
X-121.086 Y18.404 I0.0 J-1.
G03 X-119.693 Y17.862 I1.393 J1.518
X-118.258 Y18.444 I0.0 J2.06
G02 X-117.561 Y18.727 I.697 J-.717
X-116.932 Y18.504 I0.0 J-1.
G03 X-119.207 Y12.622 I6.468 J-5.882 F1200.
G01 X-119.206 Y12.569
Y-12.569
X-119.207 Y-12.623
G03 X-118.982 Y-14.59 I8.738 J0.0
X-118.224 Y-16.649 I8.514 J1.967 F1050.
X-116.977 Y-18.454 I7.756 J4.026 F900.
G02 X-117.6 Y-18.672 I-.624 J.782 F2000.
X-118.278 Y-18.407 I0.0 J1.
G03 X-119.674 Y-17.862 I-1.396 J-1.515
X-121.092 Y-18.427 I0.0 J-2.06
G01 X-119.189 Y-20.45
Z-7.2
G00 Z-7.
X-119.194 Y-20.447
G01 Z-7.4
Z-8.4 F800.
X-121.092 Y-18.427
G02 X-121.777 Y-18.698 I-.685 J.729 F2000.
X-122.402 Y-18.478 I0.0 J1.
G03 X-120.157 Y-12.63 I-6.495 J5.848 F1200.
G01 X-120.158 Y-12.569
Y12.442
G03 X-120.156 Y12.615 I-8.746 J.173
X-120.38 Y14.584 I-8.748 J0.0
X-121.138 Y16.643 I-8.523 J-1.969 F1050.
X-122.385 Y18.449 I-7.765 J-4.028 F900.
G02 X-121.762 Y18.667 I.623 J-.782 F2000.
X-121.086 Y18.404 I0.0 J-1.
G03 X-119.693 Y17.862 I1.392 J1.518
X-118.258 Y18.444 I0.0 J2.06
G02 X-117.562 Y18.726 I.697 J-.717
X-116.932 Y18.503 I0.0 J-1.
G03 X-119.207 Y12.622 I6.468 J-5.881 F1200.
G01 X-119.206 Y12.569
Y-12.569
X-119.207 Y-12.624
G03 X-118.982 Y-14.59 I8.737 J0.0
X-118.224 Y-16.649 I8.513 J1.966 F1050.
X-116.977 Y-18.454 I7.754 J4.025 F900.
G02 X-117.6 Y-18.672 I-.624 J.782 F2000.
X-118.278 Y-18.407 I0.0 J1.
G03 X-119.675 Y-17.862 I-1.396 J-1.514
X-121.092 Y-18.427 I0.0 J-2.06
G01 X-119.194 Y-20.447
Z-7.4
G00 Z-7.2
X-119.198 Y-20.445
G01 Z-7.6
Z-8.6 F800.
X-121.092 Y-18.427
G02 X-121.776 Y-18.698 I-.684 J.729 F2000.
X-122.402 Y-18.478 I0.0 J1.
G03 X-120.157 Y-12.63 I-6.496 J5.848 F1200.
G01 X-120.158 Y-12.569
Y12.442
G03 X-120.156 Y12.616 I-8.745 J.174
X-120.38 Y14.584 I-8.746 J0.0
X-121.138 Y16.643 I-8.522 J-1.968 F1050.
X-122.385 Y18.449 I-7.764 J-4.027 F900.
G02 X-121.761 Y18.666 I.623 J-.782 F2000.
X-121.085 Y18.404 I0.0 J-1.
G03 X-119.693 Y17.862 I1.392 J1.518
X-118.259 Y18.443 I0.0 J2.06
G02 X-117.563 Y18.725 I.696 J-.718
X-116.934 Y18.502 I0.0 J-1.
G03 X-119.207 Y12.623 I6.466 J-5.879 F1200.
G01 X-119.206 Y12.569
Y-12.569
X-119.207 Y-12.624
G03 X-118.983 Y-14.59 I8.736 J0.0
X-118.224 Y-16.649 I8.512 J1.966 F1050.
X-116.977 Y-18.454 I7.753 J4.025 F900.
G02 X-117.6 Y-18.672 I-.624 J.782 F2000.
X-118.278 Y-18.407 I0.0 J1.
G03 X-119.675 Y-17.862 I-1.397 J-1.514
X-121.092 Y-18.427 I0.0 J-2.06
G01 X-119.198 Y-20.445
Z-7.6
G00 Z-7.4
X-119.203 Y-20.442
G01 Z-7.8
Z-8.8 F800.
X-121.092 Y-18.427
G02 X-121.776 Y-18.697 I-.684 J.73 F2000.
X-122.401 Y-18.478 I0.0 J1.
G03 X-120.157 Y-12.63 I-6.496 J5.847 F1200.
G01 X-120.158 Y-12.569
Y12.442
G03 X-120.156 Y12.621 I-8.733 J.179
X-120.378 Y14.58 I-8.735 J0.0
X-121.135 Y16.639 I-8.512 J-1.958 F1050.
X-122.381 Y18.446 I-7.756 J-4.018 F900.
G02 X-121.758 Y18.663 I.623 J-.782 F2000.
X-121.083 Y18.401 I0.0 J-1.
G03 X-119.693 Y17.862 I1.39 J1.52
X-118.256 Y18.446 I0.0 J2.06
G02 X-117.559 Y18.729 I.698 J-.717
X-116.929 Y18.506 I0.0 J-1.
G03 X-119.208 Y12.614 I6.479 J-5.892 F1200.
X-119.206 Y12.442 I8.758 J0.0
G01 Y-12.569
X-119.207 Y-12.625
G03 X-118.983 Y-14.59 I8.735 J0.0
X-118.224 Y-16.649 I8.511 J1.966 F1050.
X-116.977 Y-18.454 I7.752 J4.025 F900.
G02 X-117.6 Y-18.672 I-.624 J.782 F2000.
X-118.278 Y-18.408 I0.0 J1.
G03 X-119.675 Y-17.862 I-1.397 J-1.514
X-121.092 Y-18.427 I0.0 J-2.06
G01 X-119.203 Y-20.442
Z-7.8
G00 Z1.
X-108.645 Y-13.01
G01 Z.1
X-108.809 Y-13.577 Z.079 F800.
X-109.224 Y-14.235 Z.052
X-110.085 Y-14.877 Z.015
X-111.135 Y-15.104 Z-.023
X-112.185 Y-14.877 Z-.06
X-113.047 Y-14.235 Z-.098
X-113.462 Y-13.577 Z-.125
X-113.641 Y-12.958 Z-.148
Y0.0 Z-.6
Y12.569 F1200.
G02 X-111.135 Y15.074 I2.506 J0.0
X-108.63 Y12.569 I0.0 J-2.506
G01 Y-12.569
G02 X-111.135 Y-15.074 I-2.506 J0.0
X-113.641 Y-12.569 I0.0 J2.506
G01 Y0.0
X-111.841 F2000.
Y12.569
G02 X-111.135 Y13.274 I.706 J0.0
X-110.43 Y12.569 I0.0 J-.706
G01 Y-12.569
G02 X-111.135 Y-13.274 I-.706 J0.0
X-111.841 Y-12.569 I0.0 J.706
G01 Y0.0
X-112.015 Y1.992
Z.4
G00 Z1.
X-113.624 Y-8.591
G01 Z-.5
Y0.0 Z-.8 F800.
Y12.569 F1200.
G02 X-111.135 Y15.057 I2.488 J0.0
X-108.647 Y12.569 I0.0 J-2.488
G01 Y-12.569
G02 X-111.135 Y-15.057 I-2.488 J0.0
X-113.624 Y-12.569 I0.0 J2.488
G01 Y0.0
X-111.824 F2000.
Y12.569
G02 X-111.135 Y13.257 I.688 J0.0
X-110.447 Y12.569 I0.0 J-.688
G01 Y-12.569
G02 X-111.135 Y-13.257 I-.688 J0.0
X-111.824 Y-12.569 I0.0 J.688
G01 Y0.0
X-111.998 Y1.992
Z.2
G00 Z.4
X-113.624 Y-8.591
G01 Z-.7
Y0.0 Z-1. F800.
Y12.569 F1200.
G02 X-111.135 Y15.057 I2.488 J0.0
X-108.647 Y12.569 I0.0 J-2.488
G01 Y-12.569
G02 X-111.135 Y-15.057 I-2.488 J0.0
X-113.624 Y-12.569 I0.0 J2.488
G01 Y0.0
X-111.824 F2000.
Y12.569
G02 X-111.135 Y13.257 I.688 J0.0
X-110.447 Y12.569 I0.0 J-.688
G01 Y-12.569
G02 X-111.135 Y-13.257 I-.688 J0.0
X-111.824 Y-12.569 I0.0 J.688
G01 Y0.0
X-111.998 Y1.992
Z0.0
G00 Z.2
X-113.624 Y-8.591
G01 Z-.9
Y0.0 Z-1.2 F800.
Y12.569 F1200.
G02 X-111.135 Y15.057 I2.488 J0.0
X-108.647 Y12.569 I0.0 J-2.488
G01 Y-12.569
G02 X-111.135 Y-15.057 I-2.488 J0.0
X-113.624 Y-12.569 I0.0 J2.488
G01 Y0.0
X-111.824 F2000.
Y12.569
G02 X-111.135 Y13.257 I.688 J0.0
X-110.447 Y12.569 I0.0 J-.688
G01 Y-12.569
G02 X-111.135 Y-13.257 I-.688 J0.0
X-111.824 Y-12.569 I0.0 J.688
G01 Y0.0
X-111.998 Y1.992
Z-.2
G00 Z0.0
X-113.624 Y-8.591
G01 Z-1.1
Y0.0 Z-1.4 F800.
Y12.569 F1200.
G02 X-111.135 Y15.057 I2.488 J0.0
X-108.647 Y12.569 I0.0 J-2.488
G01 Y-12.569
G02 X-111.135 Y-15.057 I-2.488 J0.0
X-113.624 Y-12.569 I0.0 J2.488
G01 Y0.0
X-111.824 F2000.
Y12.569
G02 X-111.135 Y13.257 I.688 J0.0
X-110.447 Y12.569 I0.0 J-.688
G01 Y-12.569
G02 X-111.135 Y-13.257 I-.688 J0.0
X-111.824 Y-12.569 I0.0 J.688
G01 Y0.0
X-111.998 Y1.992
Z-.4
G00 Z-.2
X-113.624 Y-8.591
G01 Z-1.3
Y0.0 Z-1.6 F800.
Y12.569 F1200.
G02 X-111.135 Y15.057 I2.488 J0.0
X-108.647 Y12.569 I0.0 J-2.488
G01 Y-12.569
G02 X-111.135 Y-15.057 I-2.488 J0.0
X-113.624 Y-12.569 I0.0 J2.488
G01 Y0.0
X-111.824 F2000.
Y12.569
G02 X-111.135 Y13.257 I.688 J0.0
X-110.447 Y12.569 I0.0 J-.688
G01 Y-12.569
G02 X-111.135 Y-13.257 I-.688 J0.0
X-111.824 Y-12.569 I0.0 J.688
G01 Y0.0
X-111.998 Y1.992
Z-.6
G00 Z-.4
X-113.624 Y-8.591
G01 Z-1.5
Y0.0 Z-1.8 F800.
Y12.569 F1200.
G02 X-111.135 Y15.057 I2.488 J0.0
X-108.647 Y12.569 I0.0 J-2.488
G01 Y-12.569
G02 X-111.135 Y-15.057 I-2.488 J0.0
X-113.624 Y-12.569 I0.0 J2.488
G01 Y0.0
X-111.824 F2000.
Y12.569
G02 X-111.135 Y13.257 I.688 J0.0
X-110.447 Y12.569 I0.0 J-.688
G01 Y-12.569
G02 X-111.135 Y-13.257 I-.688 J0.0
X-111.824 Y-12.569 I0.0 J.688
G01 Y0.0
X-111.998 Y1.992
Z-.8
G00 Z1.
X-103.062 Y19.746
G01 Z.4
Z-.6 F800.
X-101.199 Y17.707
G02 X-100.524 Y17.969 I.675 J-.738 F2000.
X-99.91 Y17.759 I0.0 J-1.
G03 X-101.876 Y12.59 I5.869 J-5.19 F1200.
G01 Y-12.59
G03 X-101.773 Y-13.837 I7.835 J.022
X-101.119 Y-15.929 I7.732 J1.268 F1050.
X-100.614 Y-16.833 I7.077 J3.361 F900.
X-99.91 Y-17.759 I6.572 J4.265
G02 X-100.524 Y-17.969 I-.613 J.79 F2000.
X-101.198 Y-17.707 I0.0 J1.
G03 X-102.589 Y-17.168 I-1.39 J-1.52
X-103.979 Y-17.707 I0.0 J-2.06
G02 X-104.653 Y-17.969 I-.675 J.738
X-105.267 Y-17.759 I0.0 J1.
G03 X-103.301 Y-12.581 I-5.869 J5.19 F1200.
G01 Y12.59
G03 X-103.404 Y13.837 I-7.835 J-.022
X-104.058 Y15.929 I-7.731 J-1.268 F1050.
X-105.267 Y17.759 I-7.077 J-3.361 F900.
G02 X-104.653 Y17.969 I.613 J-.79 F2000.
X-103.978 Y17.707 I0.0 J-1.
G03 X-102.589 Y17.168 I1.39 J1.52
X-101.199 Y17.707 I0.0 J2.06
G01 X-103.062 Y19.746
Z.4
G00 Z1.
X-103.032 Y19.767
G01 Z.2
Z-.8 F800.
X-101.219 Y17.73
X-101.203 Y17.744 F2000.
G02 X-100.531 Y18.004 I.673 J-.74
X-99.915 Y17.792 I0.0 J-1.
G03 X-101.902 Y12.569 I5.873 J-5.223 F1200.
G01 Y-12.569
G03 X-101.792 Y-13.876 I7.86 J0.0
X-101.129 Y-15.966 I7.75 J1.307 F1050.
X-99.915 Y-17.792 I7.088 J3.397 F900.
G02 X-100.531 Y-18.004 I-.616 J.788 F2000.
X-101.203 Y-17.744 I0.0 J1.
G03 X-102.589 Y-17.209 I-1.385 J-1.525
X-103.974 Y-17.744 I0.0 J-2.06
G02 X-104.646 Y-18.004 I-.673 J.74
X-105.262 Y-17.792 I0.0 J1.
G03 X-103.275 Y-12.569 I-5.873 J5.223 F1200.
G01 Y12.569
G03 X-103.385 Y13.876 I-7.86 J0.0
X-104.048 Y15.966 I-7.75 J-1.307 F1050.
X-105.262 Y17.792 I-7.088 J-3.397 F900.
G02 X-104.646 Y18.004 I.616 J-.788 F2000.
X-103.974 Y17.744 I0.0 J-1.
G03 X-102.589 Y17.209 I1.385 J1.525
X-101.219 Y17.73 I0.0 J2.06
G01 X-103.032 Y19.767
Z.2
G00 Z.4
X-103.017 Y19.779
G01 Z0.0
Z-1. F800.
X-101.23 Y17.743
X-101.206 Y17.764 F2000.
G02 X-100.534 Y18.023 I.671 J-.741
X-99.919 Y17.812 I0.0 J-1.
G03 X-100.018 Y17.695 I5.954 J-5.171 F1200.
X-101.916 Y12.569 I5.976 J-5.126
G01 Y-12.569
G03 X-101.803 Y-13.898 I7.874 J0.0
X-101.135 Y-15.986 I7.761 J1.329 F1050.
X-100.018 Y-17.695 I7.093 J3.418 F900.
X-99.921 Y-17.813 I5.372 J4.295
G02 X-100.534 Y-18.023 I-.613 J.79 F2000.
X-101.206 Y-17.764 I0.0 J1.
G03 X-102.589 Y-17.231 I-1.383 J-1.527
X-103.971 Y-17.764 I0.0 J-2.06
G02 X-104.643 Y-18.023 I-.671 J.741
X-105.258 Y-17.811 I0.0 J1.
G03 X-105.193 Y-17.735 I-5.956 J5.168 F1200.
X-103.261 Y-12.569 I-5.942 J5.166
G01 Y12.569
G03 X-103.374 Y13.898 I-7.874 J0.0
X-104.042 Y15.986 I-7.761 J-1.329 F1050.
X-105.163 Y17.7 I-7.093 J-3.418 F900.
X-105.255 Y17.814 I-4.276 J-3.352
G02 X-104.643 Y18.023 I.612 J-.791 F2000.
X-103.971 Y17.764 I0.0 J-1.
G03 X-102.589 Y17.231 I1.383 J1.527
X-101.23 Y17.743 I0.0 J2.06
G01 X-103.017 Y19.779
Z0.0
G00 Z.2
X-102.999 Y19.883
G01 Z-.2
Z-1.2 F800.
X-101.276 Y17.799
G03 X-101.143 Y17.918 I-1.312 J1.588 F2000.
G02 X-100.442 Y18.206 I.701 J-.713
X-99.857 Y18.016 I0.0 J-1.
G03 X-99.928 Y17.914 I3.339 J-2.393 F1050.
X-99.996 Y17.809 I3.41 J-2.29 F900.
X-100.677 Y16.833 I6.398 J-5.193
X-101.167 Y15.952 I6.636 J-4.265
X-101.93 Y12.569 I7.125 J-3.383 F1200.
G01 Y-12.569
G03 X-101.829 Y-13.825 I7.888 J0.0
X-101.182 Y-15.92 I7.787 J1.256 F1050.
X-100.677 Y-16.833 I7.14 J3.352 F900.
X-100.018 Y-17.782 I6.386 J3.736
X-99.871 Y-18. I3.602 J2.265 F1200.
G02 X-100.456 Y-18.189 I-.585 J.811 F2000.
X-101.155 Y-17.904 I0.0 J1.
G03 X-102.595 Y-17.316 I-1.44 J-1.473
X-104.005 Y-17.874 I0.0 J-2.06
G02 X-104.689 Y-18.145 I-.684 J.729
X-105.278 Y-17.953 I0.0 J1.
G03 X-104.5 Y-16.833 I-6.37 J5.257 F1200.
X-103.247 Y-12.569 I-6.636 J4.265
G01 Y12.569
G03 X-103.39 Y14.063 I-7.888 J0.0
X-104.101 Y16.138 I-7.745 J-1.494 F1050.
X-104.42 Y16.707 I-7.034 J-3.569 F900.
X-105.297 Y17.979 I-7.299 J-4.094
G02 X-104.703 Y18.175 I.594 J-.804 F2000.
X-104.012 Y17.897 I0.0 J-1.
G03 X-102.588 Y17.326 I1.423 J1.489
X-101.276 Y17.799 I0.0 J2.06
G01 X-102.999 Y19.883
Z-.2
G00 Z0.0
X-102.603 Y20.035
G01 Z-.4
Z-1.4 F800.
X-101.203 Y18.329
G03 X-101.004 Y18.516 I-1.306 J1.593 F2000.
G02 X-100.273 Y18.833 I.731 J-.682
X-99.7 Y18.653 I0.0 J-1.
G03 X-100.472 Y17.432 I3.618 J-3.14 F1200.
G02 X-101.057 Y16.206 I-18.78 J8.209
G03 X-101.944 Y12.569 I7.015 J-3.637
G01 Y-12.569
G03 X-101.662 Y-14.659 I7.902 J0.0
X-101.069 Y-16.181 I7.62 J2.091 F1050.
G01 X-100.996 Y-16.325
X-100.828 Y-16.69
X-100.422 Y-17.569 F900.
G03 X-99.759 Y-18.603 I4.06 J1.875
G02 X-100.32 Y-18.775 I-.561 J.828 F2000.
X-101.064 Y-18.443 I0.0 J1.
G03 X-102.597 Y-17.759 I-1.533 J-1.376
X-104.119 Y-18.432 I0.0 J-2.06
G02 X-104.858 Y-18.758 I-.739 J.674
X-105.422 Y-18.584 I0.0 J1.
G03 X-105.127 Y-18.213 I-4.152 J3.613 F1050.
X-104.909 Y-17.891 I-4.448 J3.242 F900.
G01 X-104.883 Y-17.809
X-104.108 Y-16.183
G03 X-103.935 Y-15.824 I-7.027 J3.614
X-103.233 Y-12.569 I-7.2 J3.255 F1200.
G01 Y12.569
G03 X-103.51 Y14.642 I-7.902 J0.0
X-104.108 Y16.181 I-7.625 J-2.073 F1050.
G01 X-104.175 Y16.317
X-104.341 Y16.674
X-104.752 Y17.558 F900.
G03 X-105.411 Y18.587 I-4.141 J-1.925
G02 X-104.851 Y18.758 I.56 J-.829 F2000.
X-104.121 Y18.441 I0.0 J-1.
G03 X-102.615 Y17.787 I1.505 J1.406
X-101.423 Y18.167 I0.0 J2.06
G01 X-101.318 Y18.242
G03 X-101.203 Y18.329 I-1.192 J1.68
G01 X-102.603 Y20.035
Z-.4
G00 Z-.2
X-103.036 Y20.42
G01 Z-.6
Z-1.6 F800.
X-101.228 Y18.357
X-101.197 Y18.385 F2000.
G02 X-100.523 Y18.646 I.674 J-.739
X-99.91 Y18.436 I0.0 J-1.
G03 X-100.679 Y17.407 I5.781 J-5.117 F1050.
X-100.731 Y17.321 I6.55 J-4.088 F900.
X-101.129 Y16.212 I2.656 J-1.578
X-101.485 Y15.262 I4.856 J-2.365
X-101.804 Y14.123 I7.444 J-2.693
X-101.958 Y12.569 I7.762 J-1.554 F1200.
G01 Y-11.931
Y-12.569 F1050.
G03 X-101.804 Y-14.121 I7.916 J0.0
X-101.485 Y-15.262 I7.762 J1.552 F900.
X-101.13 Y-16.21 I5.138 J1.387
X-100.507 Y-17.678 I3.521 J.627 F1200.
X-99.911 Y-18.433 I6.716 J4.691
G02 X-100.529 Y-18.647 I-.618 J.786 F2000.
X-101.198 Y-18.391 I0.0 J1.
G03 X-102.576 Y-17.862 I-1.378 J-1.531
X-104.015 Y-18.448 I0.0 J-2.06
G02 X-104.713 Y-18.732 I-.698 J.716
X-105.329 Y-18.52 I0.0 J1.
G03 X-104.214 Y-16.833 I-4.825 J4.4 F1200.
G02 X-103.781 Y-15.497 I10.375 J-2.623
G03 X-103.219 Y-12.569 I-7.354 J2.928
G01 Y12.569
G03 X-103.463 Y14.516 I-7.916 J0.0
X-103.769 Y15.466 I-7.673 J-1.947 F1050.
G02 X-104.153 Y16.603 I11.531 J4.534
X-104.217 Y16.833 I11.915 J3.397 F900.
G03 X-105.284 Y18.47 I-6.041 J-2.772
G02 X-104.679 Y18.674 I.605 J-.796 F2000.
X-103.995 Y18.404 I0.0 J-1.
G03 X-102.586 Y17.846 I1.409 J1.503
X-101.228 Y18.357 I0.0 J2.06
G01 X-103.036 Y20.42
Z-.6
G00 Z-.4
X-103.016 Y20.397
G01 Z-.8
Z-1.8 F800.
X-101.228 Y18.357
X-101.21 Y18.374 F2000.
G02 X-100.542 Y18.629 I.668 J-.744
X-99.927 Y18.418 I0.0 J-1.
G03 X-101.257 Y16.345 I6.01 J-5.321 F1200.
G01 X-101.7 Y14.627
G03 X-101.972 Y12.569 I7.658 J-2.058
G01 Y-12.569
G03 X-101.759 Y-14.394 I7.93 J0.0
G01 X-101.731 Y-14.503
X-101.272 Y-16.345 F1050.
G03 X-101.142 Y-16.617 I7.6 J3.471
X-99.91 Y-18.432 I7.47 J3.742 F900.
G02 X-100.53 Y-18.647 I-.619 J.785 F2000.
X-101.198 Y-18.39 I0.0 J1.
G03 X-102.576 Y-17.862 I-1.378 J-1.532
X-104.002 Y-18.436 I0.0 J-2.06
G02 X-104.695 Y-18.714 I-.692 J.721
X-105.322 Y-18.493 I0.0 J1.
G03 X-104.764 Y-17.809 I-6.456 J5.838 F1200.
G01 X-104.665 Y-17.672
G03 X-103.768 Y-15.925 I-4.928 J3.632
G02 X-103.477 Y-14.627 I9.739 J-1.5
G03 X-103.205 Y-12.569 I-7.658 J2.058
G01 Y12.569
G03 X-103.444 Y14.498 I-7.93 J0.0
X-103.476 Y14.623 I-7.691 J-1.93 F1050.
X-103.906 Y16.345 I-33.222 J-7.37
X-104.033 Y16.612 I-7.593 J-3.466
X-105.264 Y18.428 I-7.466 J-3.733 F900.
G02 X-104.645 Y18.643 I.619 J-.786 F2000.
X-103.972 Y18.383 I0.0 J-1.
G03 X-102.586 Y17.847 I1.386 J1.524
X-101.228 Y18.357 I0.0 J2.06
G01 X-103.016 Y20.397
Z-.8
G00 Z-.6
X-103.012 Y20.394
G01 Z-1.
Z-2. F800.
X-101.228 Y18.357
X-101.209 Y18.374 F2000.
G02 X-100.541 Y18.63 I.668 J-.744
X-99.923 Y18.416 I0.0 J-1.
G03 X-101.653 Y15.37 I6.317 J-5.602 F1200.
X-101.939 Y13.432 I25.878 J-4.797
X-101.986 Y12.569 I7.897 J-.863
G01 Y-12.569
G03 X-101.975 Y-12.986 I7.944 J0.0
X-101.8 Y-14.514 I42.156 J4.034
X-101.73 Y-15.021 I41.982 J5.562 F1050.
X-101.148 Y-16.602 I7.882 J2.004
X-99.924 Y-18.423 I7.299 J3.586 F900.
G02 X-100.542 Y-18.636 I-.618 J.787 F2000.
X-101.206 Y-18.383 I0.0 J1.
G03 X-102.576 Y-17.862 I-1.37 J-1.539
X-104.008 Y-18.441 I0.0 J-2.06
G02 X-104.703 Y-18.722 I-.695 J.719
X-105.33 Y-18.501 I0.0 J1.
G03 X-103.605 Y-15.63 I-6.435 J5.82 F1200.
X-103.227 Y-13.316 I-13.976 J3.472
X-103.191 Y-12.569 I-7.909 J.747
G01 Y12.569
G03 X-103.376 Y14.518 I-15.529 J-.49
X-103.536 Y15.37 I-15.344 J-2.439 F1050.
X-104.03 Y16.606 I-7.894 J-2.436
X-105.257 Y18.424 I-7.4 J-3.673 F900.
G02 X-104.639 Y18.638 I.618 J-.786 F2000.
X-103.968 Y18.38 I0.0 J-1.
G03 X-102.586 Y17.847 I1.382 J1.527
X-101.228 Y18.357 I0.0 J2.06
G01 X-103.012 Y20.394
Z-1.
G00 Z-.8
X-103.021 Y20.404
G01 Z-1.2
Z-2.2 F800.
X-101.228 Y18.357
X-101.211 Y18.373 F2000.
G02 X-100.543 Y18.629 I.668 J-.745
X-99.926 Y18.416 I0.0 J-1.
G03 X-100.996 Y16.894 I6.216 J-5.51 F1200.
X-102.025 Y13.05 I6.664 J-3.843
G01 Y-12.847
G03 X-101.922 Y-14.394 I11.597 J0.0
X-101.885 Y-14.565 I8.471 J1.708
X-101.14 Y-16.629 I8.435 J1.879 F1050.
X-99.899 Y-18.439 I7.69 J3.943 F900.
G02 X-100.521 Y-18.655 I-.621 J.784 F2000.
X-101.192 Y-18.396 I0.0 J1.
G03 X-102.576 Y-17.862 I-1.384 J-1.526
X-104.009 Y-18.442 I0.0 J-2.06
G02 X-104.705 Y-18.724 I-.696 J.718
X-105.332 Y-18.503 I0.0 J1.
G03 X-104.125 Y-16.793 I-6.462 J5.845 F1200.
X-103.335 Y-14.746 I-7.669 J4.135 F1050.
X-103.256 Y-14.394 I-8.459 J2.088 F900.
X-103.128 Y-12.598 I-18.253 J2.203
G01 X-103.152 Y-12.569
Y-10.369
Y12.902 F1200.
G03 X-103.257 Y14.394 I-10.65 J0.0
X-103.292 Y14.561 I-8.462 J-1.7
X-104.036 Y16.626 I-8.427 J-1.868 F1050.
X-105.275 Y18.436 I-7.683 J-3.932 F900.
G02 X-104.654 Y18.652 I.621 J-.784 F2000.
X-103.978 Y18.389 I0.0 J-1.
G03 X-102.586 Y17.847 I1.393 J1.518
X-101.228 Y18.357 I0.0 J2.06
G01 X-103.021 Y20.404
Z-1.2
G00 Z-1.
X-103.031 Y20.416
G01 Z-1.4
Z-2.4 F800.
X-101.228 Y18.358
X-101.193 Y18.389 F2000.
G02 X-100.517 Y18.652 I.676 J-.737
X-99.896 Y18.436 I0.0 J-1.
G03 X-102.113 Y12.606 I6.559 J-5.83 F1200.
G01 Y12.569
Y-12.569
Y-12.609
G03 X-101.888 Y-14.584 I8.77 J0.0
X-101.13 Y-16.643 I8.545 J1.975 F1050.
X-99.885 Y-18.45 I7.787 J4.034 F900.
G02 X-100.507 Y-18.667 I-.622 J.783 F2000.
X-101.183 Y-18.404 I0.0 J1.
G03 X-102.576 Y-17.862 I-1.393 J-1.518
X-104.005 Y-18.438 I0.0 J-2.06
G02 X-104.699 Y-18.718 I-.694 J.72
X-105.326 Y-18.497 I0.0 J1.
G03 X-103.064 Y-12.621 I-6.498 J5.876 F1200.
G01 Y-12.569
Y12.569
Y12.604
G03 X-103.29 Y14.585 I-8.781 J0.0
X-104.048 Y16.644 I-8.554 J-1.981 F1050.
X-105.294 Y18.451 I-7.796 J-4.04 F900.
G02 X-104.671 Y18.668 I.622 J-.783 F2000.
X-103.99 Y18.4 I0.0 J-1.
G03 X-102.586 Y17.847 I1.404 J1.507
X-101.228 Y18.358 I0.0 J2.06
G01 X-103.031 Y20.416
Z-1.4
G00 Z-1.2
G01 Z-1.6
Z-2.6 F800.
X-101.228 Y18.358
X-101.193 Y18.389 F2000.
G02 X-100.517 Y18.652 I.676 J-.737
X-99.896 Y18.437 I0.0 J-1.
G03 X-102.113 Y12.606 I6.558 J-5.83 F1200.
G01 Y12.569
Y-12.569
Y-12.609
G03 X-101.888 Y-14.584 I8.77 J0.0
X-101.13 Y-16.643 I8.545 J1.975 F1050.
X-99.885 Y-18.45 I7.787 J4.034 F900.
G02 X-100.507 Y-18.667 I-.622 J.783 F2000.
X-101.184 Y-18.404 I0.0 J1.
G03 X-102.576 Y-17.862 I-1.393 J-1.518
X-104.005 Y-18.438 I0.0 J-2.06
G02 X-104.699 Y-18.718 I-.694 J.72
X-105.326 Y-18.497 I0.0 J1.
G03 X-103.064 Y-12.621 I-6.498 J5.875 F1200.
G01 Y-12.569
Y12.569
Y12.605
G03 X-103.29 Y14.585 I-8.779 J0.0
X-104.048 Y16.644 I-8.553 J-1.98 F1050.
X-105.293 Y18.451 I-7.795 J-4.039 F900.
G02 X-104.671 Y18.668 I.622 J-.783 F2000.
X-103.99 Y18.4 I0.0 J-1.
G03 X-102.586 Y17.847 I1.404 J1.508
X-101.228 Y18.358 I0.0 J2.06
G01 X-103.031 Y20.416
Z-1.6
G00 Z-1.4
G01 Z-1.8
Z-2.8 F800.
X-101.228 Y18.358
X-101.193 Y18.39 F2000.
G02 X-100.517 Y18.653 I.676 J-.737
X-99.896 Y18.437 I0.0 J-1.
G03 X-102.113 Y12.607 I6.558 J-5.83 F1200.
G01 Y12.569
Y-12.569
Y-12.609
G03 X-101.888 Y-14.584 I8.769 J0.0
X-101.13 Y-16.643 I8.544 J1.974 F1050.
X-99.885 Y-18.45 I7.787 J4.034 F900.
G02 X-100.508 Y-18.667 I-.622 J.783 F2000.
X-101.184 Y-18.404 I0.0 J1.
G03 X-102.576 Y-17.862 I-1.393 J-1.518
X-104.005 Y-18.438 I0.0 J-2.06
G02 X-104.699 Y-18.718 I-.694 J.72
X-105.326 Y-18.497 I0.0 J1.
G03 X-103.064 Y-12.621 I-6.499 J5.875 F1200.
G01 Y-12.569
Y12.569
Y12.606
G03 X-103.29 Y14.585 I-8.777 J0.0
X-104.048 Y16.644 I-8.551 J-1.979 F1050.
X-105.293 Y18.451 I-7.793 J-4.038 F900.
G02 X-104.671 Y18.668 I.622 J-.783 F2000.
X-103.989 Y18.4 I0.0 J-1.
G03 X-102.586 Y17.847 I1.404 J1.508
X-101.228 Y18.358 I0.0 J2.06
G01 X-103.031 Y20.416
Z-1.8
G00 Z-1.6
G01 Y20.415 Z-2.
Z-3. F800.
X-101.229 Y18.358
X-101.193 Y18.39 F2000.
G02 X-100.517 Y18.653 I.676 J-.737
X-99.896 Y18.437 I0.0 J-1.
G03 X-102.113 Y12.607 I6.557 J-5.83 F1200.
G01 Y12.569
Y-12.569
Y-12.609
G03 X-101.888 Y-14.584 I8.769 J0.0
X-101.13 Y-16.643 I8.544 J1.974 F1050.
X-99.885 Y-18.45 I7.786 J4.033 F900.
G02 X-100.508 Y-18.667 I-.622 J.783 F2000.
X-101.184 Y-18.404 I0.0 J1.
G03 X-102.576 Y-17.862 I-1.393 J-1.518
X-104.005 Y-18.438 I0.0 J-2.06
G02 X-104.699 Y-18.718 I-.694 J.72
X-105.326 Y-18.497 I0.0 J1.
G03 X-103.064 Y-12.621 I-6.499 J5.875 F1200.
G01 Y-12.569
Y12.569
Y12.607
G03 X-103.29 Y14.585 I-8.775 J0.0
X-104.048 Y16.644 I-8.549 J-1.978 F1050.
X-105.293 Y18.45 I-7.791 J-4.037 F900.
G02 X-104.671 Y18.668 I.622 J-.783 F2000.
X-103.989 Y18.4 I0.0 J-1.
G03 X-102.586 Y17.848 I1.404 J1.508
X-101.229 Y18.358 I0.0 J2.06
G01 X-103.031 Y20.415
Z-2.
G00 Z-1.8
G01 X-103.03 Y20.416 Z-2.2
Z-3.2 F800.
X-101.229 Y18.358
X-101.193 Y18.39 F2000.
G02 X-100.517 Y18.653 I.676 J-.737
X-99.896 Y18.437 I0.0 J-1.
G03 X-102.113 Y12.607 I6.556 J-5.83 F1200.
G01 Y12.569
Y-12.569
Y-12.61
G03 X-101.888 Y-14.584 I8.768 J0.0
X-101.13 Y-16.643 I8.543 J1.974 F1050.
X-99.885 Y-18.45 I7.786 J4.033 F900.
G02 X-100.508 Y-18.667 I-.622 J.783 F2000.
X-101.184 Y-18.404 I0.0 J1.
G03 X-102.576 Y-17.862 I-1.393 J-1.518
X-104.005 Y-18.438 I0.0 J-2.06
G02 X-104.699 Y-18.718 I-.694 J.72
X-105.326 Y-18.497 I0.0 J1.
G03 X-103.064 Y-12.621 I-6.499 J5.875 F1200.
G01 Y-12.569
Y12.569
Y12.607
G03 X-103.29 Y14.585 I-8.773 J0.0
X-104.048 Y16.644 I-8.548 J-1.977 F1050.
X-105.293 Y18.45 I-7.79 J-4.036 F900.
G02 X-104.67 Y18.668 I.622 J-.783 F2000.
X-103.989 Y18.4 I0.0 J-1.
G03 X-102.586 Y17.848 I1.403 J1.508
X-101.229 Y18.358 I0.0 J2.06
G01 X-103.03 Y20.416
Z-2.2
G00 Z-2.
G01 Z-2.4
Z-3.4 F800.
X-101.229 Y18.358
X-101.193 Y18.39 F2000.
G02 X-100.517 Y18.653 I.676 J-.737
X-99.896 Y18.437 I0.0 J-1.
G03 X-102.113 Y12.608 I6.555 J-5.829 F1200.
G01 Y12.569
Y-12.569
Y-12.61
G03 X-101.888 Y-14.583 I8.768 J0.0
X-101.13 Y-16.643 I8.543 J1.974 F1050.
X-99.885 Y-18.45 I7.785 J4.033 F900.
G02 X-100.508 Y-18.667 I-.622 J.783 F2000.
X-101.184 Y-18.404 I0.0 J1.
G03 X-102.576 Y-17.862 I-1.393 J-1.518
X-104.005 Y-18.438 I0.0 J-2.06
G02 X-104.699 Y-18.718 I-.694 J.72
X-105.326 Y-18.497 I0.0 J1.
G03 X-103.064 Y-12.621 I-6.499 J5.875 F1200.
G01 Y-12.569
Y12.569
Y12.608
G03 X-103.29 Y14.585 I-8.772 J0.0
X-104.048 Y16.644 I-8.547 J-1.977 F1050.
X-105.293 Y18.451 I-7.789 J-4.036 F900.
G02 X-104.67 Y18.668 I.622 J-.783 F2000.
X-103.989 Y18.4 I0.0 J-1.
G03 X-102.586 Y17.848 I1.403 J1.508
X-101.229 Y18.358 I0.0 J2.06
G01 X-103.03 Y20.416
Z-2.4
G00 Z-2.2
G01 Z-2.6
Z-3.6 F800.
X-101.229 Y18.358
X-101.193 Y18.39 F2000.
G02 X-100.517 Y18.654 I.676 J-.737
X-99.896 Y18.437 I0.0 J-1.
G03 X-102.113 Y12.608 I6.553 J-5.829 F1200.
G01 Y12.569
Y-12.569
Y-12.61
G03 X-101.888 Y-14.583 I8.768 J0.0
X-101.131 Y-16.643 I8.543 J1.973 F1050.
X-99.885 Y-18.45 I7.785 J4.033 F900.
G02 X-100.508 Y-18.667 I-.622 J.783 F2000.
X-101.184 Y-18.404 I0.0 J1.
G03 X-102.576 Y-17.862 I-1.393 J-1.518
X-104.005 Y-18.438 I0.0 J-2.06
G02 X-104.699 Y-18.718 I-.694 J.72
X-105.326 Y-18.496 I0.0 J1.
G03 X-103.064 Y-12.621 I-6.499 J5.875 F1200.
G01 Y-12.569
Y12.569
Y12.608
G03 X-103.29 Y14.585 I-8.771 J0.0
X-104.048 Y16.644 I-8.546 J-1.977 F1050.
X-105.293 Y18.451 I-7.788 J-4.036 F900.
G02 X-104.671 Y18.668 I.622 J-.783 F2000.
X-103.989 Y18.4 I0.0 J-1.
G03 X-102.586 Y17.848 I1.403 J1.508
X-101.229 Y18.358 I0.0 J2.06
G01 X-103.03 Y20.416
Z-2.6
G00 Z-2.4
G01 Z-2.8
Z-3.8 F800.
X-101.229 Y18.358
X-101.193 Y18.39 F2000.
G02 X-100.517 Y18.654 I.676 J-.737
X-99.896 Y18.438 I0.0 J-1.
G03 X-102.113 Y12.609 I6.552 J-5.828 F1200.
G01 Y12.569
Y-12.569
Y-12.61
G03 X-101.888 Y-14.583 I8.767 J0.0
X-101.131 Y-16.643 I8.542 J1.973 F1050.
X-99.886 Y-18.449 I7.784 J4.032 F900.
G02 X-100.508 Y-18.667 I-.622 J.783 F2000.
X-101.184 Y-18.404 I0.0 J1.
G03 X-102.576 Y-17.862 I-1.392 J-1.518
X-104.005 Y-18.438 I0.0 J-2.06
G02 X-104.699 Y-18.717 I-.694 J.72
X-105.326 Y-18.496 I0.0 J1.
G03 X-103.064 Y-12.621 I-6.499 J5.875 F1200.
G01 Y-12.569
Y12.569
Y12.609
G03 X-103.29 Y14.585 I-8.77 J0.0
X-104.048 Y16.644 I-8.545 J-1.976 F1050.
X-105.293 Y18.451 I-7.787 J-4.036 F900.
G02 X-104.671 Y18.668 I.623 J-.783 F2000.
X-103.989 Y18.4 I0.0 J-1.
G03 X-102.586 Y17.848 I1.404 J1.508
X-101.229 Y18.358 I0.0 J2.06
G01 X-103.03 Y20.416
Z-2.8
G00 Z-2.6
G01 Z-3.
Z-4. F800.
X-101.229 Y18.358
X-101.193 Y18.391 F2000.
G02 X-100.517 Y18.654 I.676 J-.737
X-99.896 Y18.438 I0.0 J-1.
G03 X-102.113 Y12.61 I6.551 J-5.828 F1200.
G01 Y12.569
Y-12.569
Y-12.611
G03 X-101.888 Y-14.583 I8.766 J0.0
X-101.131 Y-16.642 I8.541 J1.972 F1050.
X-99.886 Y-18.449 I7.784 J4.032 F900.
G02 X-100.508 Y-18.667 I-.622 J.783 F2000.
X-101.184 Y-18.404 I0.0 J1.
G03 X-102.576 Y-17.862 I-1.392 J-1.518
X-104.005 Y-18.438 I0.0 J-2.06
G02 X-104.699 Y-18.717 I-.694 J.72
X-105.326 Y-18.496 I0.0 J1.
G03 X-103.064 Y-12.621 I-6.499 J5.875 F1200.
G01 Y-12.569
Y12.569
Y12.609
G03 X-103.29 Y14.586 I-8.769 J0.0
X-104.048 Y16.645 I-8.544 J-1.976 F1050.
X-105.293 Y18.451 I-7.786 J-4.035 F900.
G02 X-104.671 Y18.669 I.623 J-.783 F2000.
X-103.989 Y18.401 I0.0 J-1.
G03 X-102.586 Y17.848 I1.404 J1.508
X-101.229 Y18.358 I0.0 J2.06
G01 X-103.03 Y20.416
Z-3.
G00 Z-2.8
X-103.031 Y20.417
G01 Z-3.2
Z-4.2 F800.
X-101.229 Y18.358
X-101.193 Y18.391 F2000.
G02 X-100.517 Y18.654 I.676 J-.737
X-99.896 Y18.438 I0.0 J-1.
G03 X-102.113 Y12.61 I6.55 J-5.827 F1200.
G01 Y12.569
Y-12.569
Y-12.611
G03 X-101.888 Y-14.583 I8.765 J0.0
X-101.131 Y-16.642 I8.54 J1.972 F1050.
X-99.886 Y-18.449 I7.783 J4.031 F900.
G02 X-100.508 Y-18.666 I-.622 J.783 F2000.
X-101.184 Y-18.403 I0.0 J1.
G03 X-102.576 Y-17.862 I-1.392 J-1.518
X-104.005 Y-18.438 I0.0 J-2.06
G02 X-104.699 Y-18.717 I-.694 J.72
X-105.326 Y-18.496 I0.0 J1.
G03 X-103.064 Y-12.621 I-6.499 J5.875 F1200.
G01 Y-12.569
Y12.442
G03 X-103.063 Y12.604 I-8.778 J.162
X-103.29 Y14.588 I-8.779 J0.0
X-104.049 Y16.647 I-8.552 J-1.984 F1050.
X-105.295 Y18.453 I-7.793 J-4.043 F900.
G02 X-104.672 Y18.67 I.623 J-.782 F2000.
X-103.99 Y18.402 I0.0 J-1.
G03 X-102.586 Y17.849 I1.405 J1.507
X-101.229 Y18.358 I0.0 J2.06
G01 X-103.031 Y20.417
Z-3.2
G00 Z-3.
G01 Z-3.4
Z-4.4 F800.
X-101.229 Y18.359
X-101.193 Y18.391 F2000.
G02 X-100.517 Y18.654 I.676 J-.737
X-99.896 Y18.438 I0.0 J-1.
G03 X-102.113 Y12.611 I6.548 J-5.827 F1200.
G01 Y12.569
Y-12.569
Y-12.612
G03 X-101.888 Y-14.583 I8.764 J0.0
X-101.131 Y-16.642 I8.54 J1.971 F1050.
X-99.886 Y-18.449 I7.782 J4.031 F900.
G02 X-100.509 Y-18.666 I-.622 J.783 F2000.
X-101.184 Y-18.403 I0.0 J1.
G03 X-102.576 Y-17.862 I-1.392 J-1.518
X-104.005 Y-18.438 I0.0 J-2.06
G02 X-104.699 Y-18.717 I-.694 J.72
X-105.326 Y-18.496 I0.0 J1.
G03 X-103.064 Y-12.621 I-6.499 J5.875 F1200.
G01 Y-12.569
Y12.442
G03 X-103.063 Y12.604 I-8.776 J.162
X-103.29 Y14.588 I-8.777 J0.0
X-104.049 Y16.647 I-8.55 J-1.984 F1050.
X-105.295 Y18.453 I-7.791 J-4.042 F900.
G02 X-104.672 Y18.67 I.623 J-.782 F2000.
X-103.99 Y18.402 I0.0 J-1.
G03 X-102.586 Y17.849 I1.405 J1.507
X-101.229 Y18.359 I0.0 J2.06
G01 X-103.031 Y20.417
Z-3.4
G00 Z-3.2
G01 Z-3.6
Z-4.6 F800.
X-101.229 Y18.359
X-101.193 Y18.391 F2000.
G02 X-100.517 Y18.654 I.676 J-.737
X-99.896 Y18.438 I0.0 J-1.
G03 X-102.113 Y12.611 I6.547 J-5.827 F1200.
G01 Y12.569
Y-12.569
Y-12.612
G03 X-101.889 Y-14.583 I8.763 J0.0
X-101.131 Y-16.642 I8.539 J1.971 F1050.
X-99.886 Y-18.449 I7.782 J4.03 F900.
G02 X-100.509 Y-18.666 I-.622 J.783 F2000.
X-101.184 Y-18.403 I0.0 J1.
G03 X-102.576 Y-17.862 I-1.392 J-1.519
X-104.005 Y-18.438 I0.0 J-2.06
G02 X-104.698 Y-18.717 I-.693 J.72
X-105.326 Y-18.496 I0.0 J1.
G03 X-103.064 Y-12.621 I-6.499 J5.875 F1200.
G01 Y-12.569
Y12.442
G03 X-103.063 Y12.605 I-8.775 J.163
X-103.29 Y14.588 I-8.776 J0.0
X-104.049 Y16.647 I-8.549 J-1.983 F1050.
X-105.295 Y18.453 I-7.79 J-4.042 F900.
G02 X-104.672 Y18.67 I.623 J-.782 F2000.
X-103.99 Y18.402 I0.0 J-1.
G03 X-102.586 Y17.849 I1.405 J1.507
X-101.229 Y18.359 I0.0 J2.06
G01 X-103.031 Y20.417
Z-3.6
G00 Z-3.4
G01 Y20.418 Z-3.8
Z-4.8 F800.
X-101.229 Y18.359
X-101.193 Y18.391 F2000.
G02 X-100.517 Y18.654 I.676 J-.737
X-99.896 Y18.438 I0.0 J-1.
G03 X-102.113 Y12.612 I6.546 J-5.826 F1200.
G01 Y12.569
Y-12.569
Y-12.612
G03 X-101.889 Y-14.582 I8.762 J0.0
X-101.132 Y-16.642 I8.538 J1.97 F1050.
X-99.887 Y-18.449 I7.781 J4.029 F900.
G02 X-100.509 Y-18.666 I-.622 J.783 F2000.
X-101.185 Y-18.403 I0.0 J1.
G03 X-102.576 Y-17.862 I-1.392 J-1.519
X-104.005 Y-18.438 I0.0 J-2.06
G02 X-104.698 Y-18.717 I-.693 J.72
X-105.326 Y-18.496 I0.0 J1.
G03 X-103.064 Y-12.621 I-6.499 J5.875 F1200.
G01 Y-12.569
Y12.442
G03 X-103.063 Y12.605 I-8.774 J.163
X-103.29 Y14.588 I-8.775 J0.0
X-104.049 Y16.647 I-8.548 J-1.983 F1050.
X-105.295 Y18.453 I-7.789 J-4.042 F900.
G02 X-104.672 Y18.671 I.623 J-.782 F2000.
X-103.99 Y18.402 I0.0 J-1.
G03 X-102.586 Y17.849 I1.405 J1.507
X-101.229 Y18.359 I0.0 J2.06
G01 X-103.031 Y20.418
Z-3.8
G00 Z-3.6
G01 Z-4.
Z-5. F800.
X-101.229 Y18.359
X-101.193 Y18.391 F2000.
G02 X-100.517 Y18.654 I.676 J-.737
X-99.896 Y18.438 I0.0 J-1.
G03 X-102.113 Y12.613 I6.545 J-5.826 F1200.
G01 Y12.569
Y-12.569
Y-12.613
G03 X-101.889 Y-14.582 I8.761 J0.0
X-101.132 Y-16.642 I8.537 J1.969 F1050.
X-99.887 Y-18.448 I7.78 J4.029 F900.
G02 X-100.509 Y-18.666 I-.622 J.783 F2000.
X-101.185 Y-18.403 I0.0 J1.
G03 X-102.576 Y-17.862 I-1.392 J-1.519
X-104.005 Y-18.438 I0.0 J-2.06
G02 X-104.698 Y-18.717 I-.693 J.721
X-105.325 Y-18.496 I0.0 J1.
G03 X-103.064 Y-12.621 I-6.499 J5.875 F1200.
G01 Y-12.569
Y12.442
G03 X-103.063 Y12.606 I-8.773 J.164
X-103.29 Y14.589 I-8.774 J0.0
X-104.049 Y16.647 I-8.547 J-1.983 F1050.
X-105.295 Y18.453 I-7.788 J-4.042 F900.
G02 X-104.672 Y18.671 I.623 J-.782 F2000.
X-103.99 Y18.402 I0.0 J-1.
G03 X-102.586 Y17.849 I1.405 J1.507
X-101.229 Y18.359 I0.0 J2.06
G01 X-103.031 Y20.418
Z-4.
G00 Z-3.8
G01 Z-4.2
Z-5.2 F800.
X-101.229 Y18.359
X-101.193 Y18.391 F2000.
G02 X-100.517 Y18.655 I.676 J-.737
X-99.896 Y18.438 I0.0 J-1.
G03 X-102.113 Y12.613 I6.543 J-5.825 F1200.
G01 Y12.569
Y-12.569
Y-12.613
G03 X-101.889 Y-14.582 I8.761 J0.0
X-101.132 Y-16.642 I8.536 J1.969 F1050.
X-99.887 Y-18.448 I7.779 J4.028 F900.
G02 X-100.509 Y-18.666 I-.622 J.783 F2000.
X-101.185 Y-18.403 I0.0 J1.
G03 X-102.576 Y-17.862 I-1.392 J-1.519
X-104.005 Y-18.437 I0.0 J-2.06
G02 X-104.698 Y-18.717 I-.693 J.721
X-105.325 Y-18.496 I0.0 J1.
G03 X-103.064 Y-12.621 I-6.499 J5.875 F1200.
G01 Y-12.569
Y12.442
G03 X-103.063 Y12.606 I-8.772 J.164
X-103.29 Y14.589 I-8.773 J0.0
X-104.049 Y16.647 I-8.546 J-1.983 F1050.
X-105.295 Y18.453 I-7.787 J-4.041 F900.
G02 X-104.672 Y18.671 I.623 J-.782 F2000.
X-103.99 Y18.403 I0.0 J-1.
G03 X-102.586 Y17.849 I1.405 J1.507
X-101.229 Y18.359 I0.0 J2.06
G01 X-103.031 Y20.418
Z-4.2
G00 Z-4.
G01 Z-4.4
Z-5.4 F800.
X-101.23 Y18.359
X-101.193 Y18.392 F2000.
G02 X-100.517 Y18.655 I.676 J-.737
X-99.896 Y18.438 I0.0 J-1.
G03 X-102.113 Y12.614 I6.542 J-5.824 F1200.
G01 Y12.569
Y-12.569
Y-12.614
G03 X-101.889 Y-14.582 I8.76 J0.0
X-101.132 Y-16.641 I8.536 J1.968 F1050.
X-99.887 Y-18.448 I7.779 J4.028 F900.
G02 X-100.51 Y-18.665 I-.622 J.783 F2000.
X-101.185 Y-18.403 I0.0 J1.
G03 X-102.576 Y-17.862 I-1.391 J-1.519
X-104.005 Y-18.437 I0.0 J-2.06
G02 X-104.698 Y-18.717 I-.693 J.721
X-105.325 Y-18.496 I0.0 J1.
G03 X-103.064 Y-12.621 I-6.499 J5.874 F1200.
G01 Y-12.569
Y12.442
G03 X-103.063 Y12.606 I-8.771 J.164
X-103.29 Y14.589 I-8.773 J0.0
X-104.049 Y16.648 I-8.546 J-1.983 F1050.
X-105.295 Y18.454 I-7.787 J-4.042 F900.
G02 X-104.672 Y18.671 I.623 J-.782 F2000.
X-103.991 Y18.403 I0.0 J-1.
G03 X-102.586 Y17.85 I1.405 J1.507
X-101.23 Y18.359 I0.0 J2.06
G01 X-103.031 Y20.418
Z-4.4
G00 Z-4.2
G01 X-103.03 Z-4.6
Z-5.6 F800.
X-101.23 Y18.359
X-101.193 Y18.392 F2000.
G02 X-100.517 Y18.655 I.676 J-.737
X-99.896 Y18.438 I0.0 J-1.
G03 X-102.113 Y12.615 I6.54 J-5.824 F1200.
G01 Y12.569
Y-12.569
Y-12.614
G03 X-101.889 Y-14.582 I8.759 J0.0
X-101.132 Y-16.641 I8.535 J1.968 F1050.
X-99.887 Y-18.448 I7.778 J4.027 F900.
G02 X-100.51 Y-18.665 I-.622 J.783 F2000.
X-101.185 Y-18.403 I0.0 J1.
G03 X-102.577 Y-17.862 I-1.391 J-1.519
X-104.005 Y-18.437 I0.0 J-2.06
G02 X-104.698 Y-18.717 I-.693 J.721
X-105.325 Y-18.496 I0.0 J1.
G03 X-103.064 Y-12.621 I-6.499 J5.874 F1200.
G01 Y-12.569
Y12.442
G03 X-103.063 Y12.607 I-8.77 J.165
X-103.29 Y14.589 I-8.772 J0.0
X-104.049 Y16.648 I-8.545 J-1.983 F1050.
X-105.296 Y18.454 I-7.786 J-4.041 F900.
G02 X-104.673 Y18.672 I.623 J-.782 F2000.
X-103.991 Y18.403 I0.0 J-1.
G03 X-102.586 Y17.85 I1.405 J1.507
X-101.23 Y18.359 I0.0 J2.06
G01 X-103.03 Y20.418
Z-4.6
G00 Z-4.4
G01 Z-4.8
Z-5.8 F800.
X-101.23 Y18.359
X-101.193 Y18.392 F2000.
G02 X-100.517 Y18.655 I.676 J-.737
X-99.896 Y18.438 I0.0 J-1.
G03 X-102.113 Y12.615 I6.539 J-5.823 F1200.
G01 Y12.569
Y-12.569
Y-12.614
G03 X-101.889 Y-14.581 I8.758 J0.0
X-101.132 Y-16.641 I8.534 J1.967 F1050.
X-99.887 Y-18.448 I7.777 J4.027 F900.
G02 X-100.51 Y-18.665 I-.622 J.783 F2000.
X-101.185 Y-18.403 I0.0 J1.
G03 X-102.577 Y-17.862 I-1.391 J-1.519
X-104.005 Y-18.437 I0.0 J-2.06
G02 X-104.698 Y-18.717 I-.693 J.721
X-105.325 Y-18.496 I0.0 J1.
G03 X-103.064 Y-12.621 I-6.499 J5.874 F1200.
G01 Y-12.569
Y12.442
G03 X-103.063 Y12.607 I-8.769 J.165
X-103.289 Y14.589 I-8.77 J0.0
X-104.049 Y16.648 I-8.543 J-1.982 F1050.
X-105.295 Y18.454 I-7.784 J-4.041 F900.
G02 X-104.672 Y18.672 I.623 J-.782 F2000.
X-103.99 Y18.403 I0.0 J-1.
G03 X-102.586 Y17.85 I1.405 J1.507
X-101.23 Y18.359 I0.0 J2.06
G01 X-103.03 Y20.418
Z-4.8
G00 Z-4.6
G01 Z-5.
Z-6. F800.
X-101.23 Y18.359
X-101.193 Y18.392 F2000.
G02 X-100.517 Y18.655 I.676 J-.737
X-99.896 Y18.438 I0.0 J-1.
G03 X-102.113 Y12.616 I6.538 J-5.823 F1200.
G01 Y12.569
Y-12.569
Y-12.615
G03 X-101.889 Y-14.581 I8.757 J0.0
X-101.133 Y-16.641 I8.533 J1.966 F1050.
X-99.888 Y-18.448 I7.777 J4.026 F900.
G02 X-100.51 Y-18.665 I-.622 J.783 F2000.
X-101.185 Y-18.403 I0.0 J1.
G03 X-102.577 Y-17.862 I-1.391 J-1.519
X-104.005 Y-18.437 I0.0 J-2.06
G02 X-104.698 Y-18.717 I-.693 J.721
X-105.325 Y-18.496 I0.0 J1.
G03 X-103.064 Y-12.621 I-6.5 J5.874 F1200.
G01 Y-12.569
Y12.442
G03 X-103.063 Y12.608 I-8.768 J.166
X-103.289 Y14.59 I-8.769 J0.0
X-104.049 Y16.648 I-8.542 J-1.982 F1050.
X-105.295 Y18.454 I-7.783 J-4.04 F900.
G02 X-104.672 Y18.672 I.623 J-.782 F2000.
X-103.99 Y18.403 I0.0 J-1.
G03 X-102.586 Y17.85 I1.405 J1.507
X-101.23 Y18.359 I0.0 J2.06
G01 X-103.03 Y20.418
Z-5.
G00 Z-4.8
G01 Z-5.2
Z-6.2 F800.
X-101.23 Y18.359
X-101.193 Y18.392 F2000.
G02 X-100.517 Y18.655 I.676 J-.737
X-99.896 Y18.439 I0.0 J-1.
G03 X-102.113 Y12.616 I6.537 J-5.822 F1200.
G01 Y12.569
Y-12.569
Y-12.615
G03 X-101.89 Y-14.581 I8.756 J0.0
X-101.133 Y-16.641 I8.533 J1.966 F1050.
X-99.888 Y-18.448 I7.776 J4.025 F900.
G02 X-100.51 Y-18.665 I-.622 J.783 F2000.
X-101.186 Y-18.402 I0.0 J1.
G03 X-102.577 Y-17.862 I-1.391 J-1.519
X-104.005 Y-18.437 I0.0 J-2.06
G02 X-104.698 Y-18.717 I-.693 J.721
X-105.325 Y-18.496 I0.0 J1.
G03 X-103.064 Y-12.621 I-6.5 J5.874 F1200.
G01 Y-12.569
Y12.442
G03 X-103.063 Y12.608 I-8.767 J.166
X-103.289 Y14.59 I-8.768 J0.0
X-104.049 Y16.649 I-8.541 J-1.982 F1050.
X-105.296 Y18.454 I-7.782 J-4.04 F900.
G02 X-104.672 Y18.672 I.623 J-.782 F2000.
X-103.99 Y18.403 I0.0 J-1.
G03 X-102.586 Y17.85 I1.405 J1.507
X-101.23 Y18.359 I0.0 J2.06
G01 X-103.03 Y20.418
Z-5.2
G00 Z-5.
G01 Y20.419 Z-5.4
Z-6.4 F800.
X-101.23 Y18.359
X-101.193 Y18.392 F2000.
G02 X-100.517 Y18.655 I.676 J-.737
X-99.896 Y18.439 I0.0 J-1.
G03 X-102.113 Y12.617 I6.535 J-5.822 F1200.
G01 Y12.569
Y-12.569
Y-12.616
G03 X-101.89 Y-14.581 I8.755 J0.0
X-101.133 Y-16.641 I8.532 J1.965 F1050.
X-99.888 Y-18.447 I7.775 J4.025 F900.
G02 X-100.51 Y-18.665 I-.622 J.783 F2000.
X-101.186 Y-18.402 I0.0 J1.
G03 X-102.577 Y-17.862 I-1.391 J-1.52
X-104.005 Y-18.437 I0.0 J-2.06
G02 X-104.698 Y-18.716 I-.693 J.721
X-105.325 Y-18.495 I0.0 J1.
G03 X-103.064 Y-12.621 I-6.5 J5.874 F1200.
G01 Y-12.569
Y12.442
G03 X-103.062 Y12.609 I-8.766 J.167
X-103.289 Y14.59 I-8.767 J0.0
X-104.049 Y16.649 I-8.54 J-1.981 F1050.
X-105.296 Y18.454 I-7.781 J-4.04 F900.
G02 X-104.672 Y18.672 I.623 J-.782 F2000.
X-103.991 Y18.404 I0.0 J-1.
G03 X-102.586 Y17.85 I1.405 J1.507
X-101.23 Y18.359 I0.0 J2.06
G01 X-103.03 Y20.419
Z-5.4
G00 Z-5.2
G01 Z-5.6
Z-6.6 F800.
X-101.23 Y18.36
X-101.193 Y18.392 F2000.
G02 X-100.518 Y18.655 I.676 J-.737
X-99.896 Y18.439 I0.0 J-1.
G03 X-102.113 Y12.618 I6.534 J-5.821 F1200.
G01 Y12.569
Y-12.569
Y-12.616
G03 X-101.89 Y-14.581 I8.754 J0.0
X-101.133 Y-16.64 I8.531 J1.965 F1050.
X-99.888 Y-18.447 I7.774 J4.024 F900.
G02 X-100.511 Y-18.665 I-.622 J.783 F2000.
X-101.186 Y-18.402 I0.0 J1.
G03 X-102.577 Y-17.862 I-1.391 J-1.52
X-104.005 Y-18.437 I0.0 J-2.06
G02 X-104.698 Y-18.716 I-.693 J.721
X-105.325 Y-18.495 I0.0 J1.
G03 X-103.064 Y-12.621 I-6.5 J5.874 F1200.
G01 Y-12.569
Y12.442
G03 X-103.062 Y12.609 I-8.765 J.167
X-103.289 Y14.59 I-8.766 J0.0
X-104.049 Y16.649 I-8.539 J-1.981 F1050.
X-105.296 Y18.454 I-7.78 J-4.04 F900.
G02 X-104.672 Y18.672 I.623 J-.782 F2000.
X-103.991 Y18.404 I0.0 J-1.
G03 X-102.586 Y17.85 I1.405 J1.507
X-101.23 Y18.36 I0.0 J2.06
G01 X-103.03 Y20.419
Z-5.6
G00 Z-5.4
G01 Z-5.8
Z-6.8 F800.
X-101.23 Y18.36
X-101.194 Y18.392 F2000.
G02 X-100.518 Y18.655 I.676 J-.737
X-99.896 Y18.439 I0.0 J-1.
G03 X-102.113 Y12.618 I6.533 J-5.821 F1200.
G01 Y12.569
Y-12.569
Y-12.616
G03 X-101.89 Y-14.581 I8.753 J0.0
X-101.133 Y-16.64 I8.53 J1.964 F1050.
X-99.888 Y-18.447 I7.774 J4.024 F900.
G02 X-100.511 Y-18.664 I-.622 J.783 F2000.
X-101.186 Y-18.402 I0.0 J1.
G03 X-102.577 Y-17.862 I-1.391 J-1.52
X-104.005 Y-18.437 I0.0 J-2.06
G02 X-104.698 Y-18.716 I-.693 J.721
X-105.325 Y-18.495 I0.0 J1.
G03 X-103.064 Y-12.621 I-6.5 J5.874 F1200.
G01 Y-12.569
Y12.442
G03 X-103.062 Y12.61 I-8.763 J.168
X-103.289 Y14.591 I-8.765 J0.0
X-104.049 Y16.649 I-8.538 J-1.981 F1050.
X-105.296 Y18.455 I-7.779 J-4.039 F900.
G02 X-104.673 Y18.673 I.623 J-.782 F2000.
X-103.991 Y18.404 I0.0 J-1.
G03 X-102.586 Y17.851 I1.405 J1.507
X-101.23 Y18.36 I0.0 J2.06
G01 X-103.03 Y20.419
Z-5.8
G00 Z-5.6
G01 Z-6.
Z-7. F800.
X-101.23 Y18.36
X-101.194 Y18.392 F2000.
G02 X-100.518 Y18.655 I.676 J-.737
X-99.896 Y18.439 I0.0 J-1.
G03 X-102.113 Y12.619 I6.531 J-5.82 F1200.
G01 Y12.569
Y-12.569
Y-12.617
G03 X-101.89 Y-14.58 I8.752 J0.0
X-101.134 Y-16.64 I8.529 J1.964 F1050.
X-99.889 Y-18.447 I7.773 J4.023 F900.
G02 X-100.511 Y-18.664 I-.622 J.783 F2000.
X-101.186 Y-18.402 I0.0 J1.
G03 X-102.577 Y-17.862 I-1.391 J-1.52
X-104.005 Y-18.437 I0.0 J-2.06
G02 X-104.698 Y-18.716 I-.693 J.721
X-105.325 Y-18.495 I0.0 J1.
G03 X-103.064 Y-12.621 I-6.5 J5.874 F1200.
G01 Y-12.569
Y12.442
G03 X-103.062 Y12.61 I-8.763 J.168
X-103.289 Y14.591 I-8.764 J0.0
X-104.049 Y16.649 I-8.537 J-1.981 F1050.
X-105.296 Y18.455 I-7.778 J-4.039 F900.
G02 X-104.673 Y18.673 I.623 J-.782 F2000.
X-103.991 Y18.404 I0.0 J-1.
G03 X-102.586 Y17.851 I1.405 J1.507
X-101.23 Y18.36 I0.0 J2.06
G01 X-103.03 Y20.419
Z-6.
G00 Z-5.8
G01 Z-6.2
Z-7.2 F800.
X-101.23 Y18.36
X-101.194 Y18.393 F2000.
G02 X-100.518 Y18.655 I.676 J-.737
X-99.896 Y18.439 I0.0 J-1.
G03 X-102.113 Y12.619 I6.53 J-5.819 F1200.
G01 Y12.569
Y-12.569
Y-12.622
G03 X-101.892 Y-14.577 I8.741 J0.0
X-101.137 Y-16.637 I8.52 J1.955 F1050.
X-99.892 Y-18.444 I7.764 J4.015 F900.
G02 X-100.514 Y-18.661 I-.622 J.783 F2000.
X-101.188 Y-18.4 I0.0 J1.
G03 X-102.577 Y-17.862 I-1.388 J-1.522
X-104.005 Y-18.437 I0.0 J-2.06
G02 X-104.698 Y-18.716 I-.693 J.721
X-105.325 Y-18.495 I0.0 J1.
G03 X-103.064 Y-12.621 I-6.5 J5.874 F1200.
G01 Y-12.569
Y12.442
G03 X-103.062 Y12.61 I-8.762 J.168
X-103.289 Y14.591 I-8.763 J0.0
X-104.049 Y16.65 I-8.537 J-1.981 F1050.
X-105.296 Y18.455 I-7.777 J-4.039 F900.
G02 X-104.673 Y18.673 I.623 J-.782 F2000.
X-103.991 Y18.404 I0.0 J-1.
G03 X-102.586 Y17.851 I1.405 J1.507
X-101.23 Y18.36 I0.0 J2.06
G01 X-103.03 Y20.419
Z-6.2
G00 Z-6.
G01 Z-6.4
Z-7.4 F800.
X-101.23 Y18.36
X-101.194 Y18.393 F2000.
G02 X-100.518 Y18.656 I.676 J-.737
X-99.896 Y18.439 I0.0 J-1.
G03 X-102.113 Y12.62 I6.528 J-5.819 F1200.
G01 Y12.569
Y-12.569
Y-12.623
G03 X-101.892 Y-14.577 I8.74 J0.0
X-101.137 Y-16.637 I8.519 J1.954 F1050.
X-99.892 Y-18.444 I7.764 J4.014 F900.
G02 X-100.515 Y-18.661 I-.622 J.783 F2000.
X-101.188 Y-18.4 I0.0 J1.
G03 X-102.577 Y-17.862 I-1.388 J-1.522
X-104.005 Y-18.437 I0.0 J-2.06
G02 X-104.698 Y-18.716 I-.693 J.721
X-105.325 Y-18.495 I0.0 J1.
G03 X-103.064 Y-12.621 I-6.5 J5.874 F1200.
G01 Y-12.569
Y12.442
G03 X-103.062 Y12.611 I-8.761 J.169
X-103.289 Y14.592 I-8.763 J0.0
X-104.049 Y16.65 I-8.536 J-1.981 F1050.
X-105.296 Y18.455 I-7.776 J-4.039 F900.
G02 X-104.673 Y18.673 I.623 J-.782 F2000.
X-103.991 Y18.405 I0.0 J-1.
G03 X-102.586 Y17.851 I1.405 J1.506
X-101.23 Y18.36 I0.0 J2.06
G01 X-103.03 Y20.419
Z-6.4
G00 Z-6.2
G01 Y20.42 Z-6.6
Z-7.6 F800.
X-101.23 Y18.36
X-101.194 Y18.393 F2000.
G02 X-100.518 Y18.656 I.676 J-.737
X-99.897 Y18.439 I0.0 J-1.
G03 X-102.113 Y12.621 I6.527 J-5.818 F1200.
G01 Y12.569
Y-12.569
Y-12.623
G03 X-101.892 Y-14.576 I8.739 J0.0
X-101.137 Y-16.637 I8.518 J1.953 F1050.
X-99.892 Y-18.444 I7.763 J4.014 F900.
G02 X-100.515 Y-18.661 I-.622 J.783 F2000.
X-101.189 Y-18.4 I0.0 J1.
G03 X-102.577 Y-17.862 I-1.388 J-1.522
X-104.005 Y-18.437 I0.0 J-2.06
G02 X-104.698 Y-18.716 I-.693 J.721
X-105.325 Y-18.495 I0.0 J1.
G03 X-103.064 Y-12.621 I-6.5 J5.874 F1200.
G01 Y-12.569
Y12.442
G03 X-103.062 Y12.611 I-8.76 J.169
X-103.289 Y14.592 I-8.762 J0.0
X-104.049 Y16.65 I-8.535 J-1.981 F1050.
X-105.296 Y18.456 I-7.775 J-4.039 F900.
G02 X-104.673 Y18.674 I.623 J-.782 F2000.
X-103.991 Y18.405 I0.0 J-1.
G03 X-102.586 Y17.851 I1.405 J1.506
X-101.23 Y18.36 I0.0 J2.06
G01 X-103.03 Y20.42
Z-6.6
G00 Z-6.4
G01 Z-6.8
Z-7.8 F800.
X-101.23 Y18.36
X-101.194 Y18.393 F2000.
G02 X-100.518 Y18.656 I.676 J-.737
X-99.897 Y18.439 I0.0 J-1.
G03 X-102.113 Y12.62 I6.53 J-5.819 F1200.
G01 Y12.569
Y-12.442
G03 X-102.115 Y-12.613 I8.755 J-.171
X-101.891 Y-14.581 I8.757 J0.0
X-101.134 Y-16.64 I8.533 J1.967 F1050.
X-99.889 Y-18.447 I7.776 J4.027 F900.
G02 X-100.511 Y-18.664 I-.623 J.783 F2000.
X-101.186 Y-18.402 I0.0 J1.
G03 X-102.577 Y-17.862 I-1.391 J-1.52
X-104.008 Y-18.441 I0.0 J-2.06
G02 X-104.703 Y-18.721 I-.695 J.719
X-105.33 Y-18.5 I0.0 J1.
G03 X-103.064 Y-12.612 I-6.516 J5.889 F1200.
G01 Y-12.569
Y12.442
G03 X-103.062 Y12.612 I-8.757 J.17
X-103.289 Y14.592 I-8.758 J0.0
X-104.049 Y16.65 I-8.532 J-1.979 F1050.
X-105.296 Y18.455 I-7.772 J-4.038 F900.
G02 X-104.673 Y18.674 I.624 J-.782 F2000.
X-103.991 Y18.405 I0.0 J-1.
G03 X-102.586 Y17.851 I1.405 J1.506
X-101.23 Y18.36 I0.0 J2.06
G01 X-103.03 Y20.42
Z-6.8
G00 Z-6.6
G01 Z-7.
Z-8. F800.
X-101.231 Y18.36
X-101.194 Y18.393 F2000.
G02 X-100.518 Y18.656 I.676 J-.737
X-99.897 Y18.439 I0.0 J-1.
G03 X-102.113 Y12.621 I6.528 J-5.818 F1200.
G01 Y12.569
Y-12.442
G03 X-102.115 Y-12.614 I8.754 J-.172
X-101.891 Y-14.58 I8.756 J0.0
X-101.134 Y-16.64 I8.532 J1.967 F1050.
X-99.889 Y-18.447 I7.775 J4.026 F900.
G02 X-100.511 Y-18.664 I-.623 J.783 F2000.
X-101.186 Y-18.402 I0.0 J1.
G03 X-102.577 Y-17.862 I-1.39 J-1.52
X-104.008 Y-18.44 I0.0 J-2.06
G02 X-104.703 Y-18.721 I-.695 J.719
X-105.33 Y-18.5 I0.0 J1.
G03 X-103.064 Y-12.612 I-6.516 J5.889 F1200.
G01 Y-12.569
Y12.442
G03 X-103.062 Y12.613 I-8.755 J.171
X-103.289 Y14.592 I-8.757 J0.0
X-104.049 Y16.651 I-8.53 J-1.979 F1050.
X-105.296 Y18.456 I-7.771 J-4.038 F900.
G02 X-104.673 Y18.674 I.624 J-.782 F2000.
X-103.991 Y18.405 I0.0 J-1.
G03 X-102.586 Y17.852 I1.405 J1.506
X-101.231 Y18.36 I0.0 J2.06
G01 X-103.03 Y20.42
Z-7.
G00 Z-6.8
G01 X-103.029 Z-7.2
Z-8.2 F800.
X-101.231 Y18.36
X-101.194 Y18.393 F2000.
G02 X-100.518 Y18.656 I.676 J-.737
X-99.897 Y18.439 I0.0 J-1.
G03 X-102.113 Y12.622 I6.526 J-5.817 F1200.
G01 Y12.569
Y-12.442
G03 X-102.115 Y-12.614 I8.753 J-.172
X-101.891 Y-14.58 I8.755 J0.0
X-101.134 Y-16.64 I8.531 J1.966 F1050.
X-99.889 Y-18.446 I7.774 J4.025 F900.
G02 X-100.512 Y-18.664 I-.622 J.783 F2000.
X-101.187 Y-18.402 I0.0 J1.
G03 X-102.577 Y-17.862 I-1.39 J-1.52
X-104.008 Y-18.44 I0.0 J-2.06
G02 X-104.703 Y-18.721 I-.695 J.719
X-105.33 Y-18.5 I0.0 J1.
G03 X-103.064 Y-12.612 I-6.517 J5.888 F1200.
G01 Y-12.569
Y12.442
G03 X-103.062 Y12.613 I-8.754 J.171
X-103.289 Y14.592 I-8.756 J0.0
X-104.049 Y16.651 I-8.53 J-1.979 F1050.
X-105.296 Y18.456 I-7.77 J-4.037 F900.
G02 X-104.673 Y18.674 I.624 J-.782 F2000.
X-103.991 Y18.405 I0.0 J-1.
G03 X-102.586 Y17.852 I1.405 J1.506
X-101.231 Y18.36 I0.0 J2.06
G01 X-103.029 Y20.42
Z-7.2
G00 Z-7.
G01 Z-7.4
Z-8.4 F800.
X-101.231 Y18.36
X-101.194 Y18.393 F2000.
G02 X-100.519 Y18.656 I.676 J-.737
X-99.897 Y18.439 I0.0 J-1.
G03 X-102.113 Y12.623 I6.525 J-5.817 F1200.
G01 Y12.569
Y-12.442
G03 X-102.115 Y-12.615 I8.751 J-.173
X-101.891 Y-14.58 I8.753 J0.0
X-101.135 Y-16.639 I8.53 J1.965 F1050.
X-99.89 Y-18.446 I7.773 J4.024 F900.
G02 X-100.512 Y-18.663 I-.622 J.783 F2000.
X-101.187 Y-18.402 I0.0 J1.
G03 X-102.577 Y-17.862 I-1.39 J-1.52
X-104.008 Y-18.44 I0.0 J-2.06
G02 X-104.703 Y-18.721 I-.695 J.719
X-105.33 Y-18.5 I0.0 J1.
G03 X-103.064 Y-12.612 I-6.517 J5.888 F1200.
G01 Y-12.569
Y12.442
G03 X-103.062 Y12.614 I-8.753 J.172
X-103.289 Y14.593 I-8.755 J0.0
X-104.049 Y16.651 I-8.529 J-1.979 F1050.
X-105.297 Y18.456 I-7.769 J-4.037 F900.
G02 X-104.673 Y18.674 I.624 J-.782 F2000.
X-103.991 Y18.405 I0.0 J-1.
G03 X-102.586 Y17.852 I1.405 J1.506
X-101.231 Y18.36 I0.0 J2.06
G01 X-103.029 Y20.42
Z-7.4
G00 Z-7.2
X-103.027 Y20.418
G01 Z-7.6
Z-8.6 F800.
X-101.231 Y18.36
X-101.195 Y18.393 F2000.
G02 X-100.519 Y18.655 I.675 J-.738
X-99.898 Y18.439 I0.0 J-1.
G03 X-102.113 Y12.624 I6.522 J-5.814 F1200.
G01 Y12.569
Y-12.442
G03 X-102.115 Y-12.616 I8.749 J-.174
X-101.892 Y-14.579 I8.751 J0.0
X-101.135 Y-16.639 I8.528 J1.963 F1050.
X-99.89 Y-18.446 I7.771 J4.023 F900.
G02 X-100.513 Y-18.663 I-.622 J.783 F2000.
X-101.187 Y-18.401 I0.0 J1.
G03 X-102.577 Y-17.862 I-1.39 J-1.521
X-104.008 Y-18.44 I0.0 J-2.06
G02 X-104.703 Y-18.721 I-.695 J.719
X-105.33 Y-18.5 I0.0 J1.
G03 X-103.064 Y-12.612 I-6.517 J5.888 F1200.
G01 Y-12.569
Y12.442
G03 X-103.062 Y12.619 I-8.742 J.177
X-103.287 Y14.589 I-8.744 J0.0
X-104.046 Y16.648 I-8.519 J-1.97 F1050.
X-105.293 Y18.453 I-7.76 J-4.029 F900.
G02 X-104.67 Y18.671 I.624 J-.782 F2000.
X-103.989 Y18.404 I0.0 J-1.
G03 X-102.586 Y17.852 I1.403 J1.508
X-101.231 Y18.36 I0.0 J2.06
G01 X-103.027 Y20.418
Z-7.6
G00 Z-7.4
G01 Z-7.8
Z-8.8 F800.
X-101.231 Y18.361
X-101.194 Y18.393 F2000.
G02 X-100.519 Y18.656 I.675 J-.737
X-99.897 Y18.439 I0.0 J-1.
G03 X-102.113 Y12.624 I6.522 J-5.815 F1200.
G01 Y12.569
Y-12.442
G03 X-102.115 Y-12.617 I8.747 J-.175
X-101.892 Y-14.579 I8.749 J0.0
X-101.136 Y-16.638 I8.526 J1.962 F1050.
X-99.891 Y-18.445 I7.77 J4.021 F900.
G02 X-100.513 Y-18.662 I-.622 J.783 F2000.
X-101.188 Y-18.401 I0.0 J1.
G03 X-102.577 Y-17.862 I-1.389 J-1.521
X-104.008 Y-18.44 I0.0 J-2.06
G02 X-104.703 Y-18.721 I-.695 J.719
X-105.33 Y-18.5 I0.0 J1.
G03 X-103.064 Y-12.612 I-6.517 J5.888 F1200.
G01 Y-12.569
Y12.442
G03 X-103.062 Y12.62 I-8.741 J.178
X-103.287 Y14.589 I-8.743 J0.0
X-104.046 Y16.648 I-8.518 J-1.97 F1050.
X-105.293 Y18.453 I-7.759 J-4.029 F900.
G02 X-104.67 Y18.672 I.624 J-.782 F2000.
X-103.989 Y18.404 I0.0 J-1.
G03 X-102.586 Y17.852 I1.403 J1.508
X-101.231 Y18.361 I0.0 J2.06
G01 X-103.027 Y20.418
Z-7.8
G00 Z1.
X-96.531 Y13.002
G01 Z.1
X-96.179 Y13.934 Z.065 F800.
X-95.448 Y14.679 Z.029
X-94.48 Y15.066 Z-.008
X-93.437 Y15.031 Z-.044
X-92.719 Y14.732 Z-.071
X-91.932 Y13.975 Z-.109
X-91.536 Y12.958 Z-.148
Y0.0 Z-.6
Y-12.569 F1200.
G02 X-94.042 Y-15.074 I-2.506 J0.0
X-96.547 Y-12.569 I0.0 J2.506
G01 Y12.569
G02 X-94.042 Y15.074 I2.506 J0.0
X-91.536 Y12.569 I0.0 J-2.506
G01 Y0.0
X-93.336 F2000.
Y-12.569
G02 X-94.042 Y-13.274 I-.706 J0.0
X-94.747 Y-12.569 I0.0 J.706
G01 Y12.569
G02 X-94.042 Y13.274 I.706 J0.0
X-93.336 Y12.569 I0.0 J-.706
G01 Y0.0
X-93.162 Y-1.992
Z.4
G00 Z1.
X-91.553 Y8.591
G01 Z-.5
Y0.0 Z-.8 F800.
Y-12.569 F1200.
G02 X-94.042 Y-15.057 I-2.488 J0.0
X-96.53 Y-12.569 I0.0 J2.488
G01 Y12.569
G02 X-94.042 Y15.057 I2.488 J0.0
X-91.553 Y12.569 I0.0 J-2.488
G01 Y0.0
X-93.353 F2000.
Y-12.569
G02 X-94.042 Y-13.257 I-.688 J0.0
X-94.73 Y-12.569 I0.0 J.688
G01 Y12.569
G02 X-94.042 Y13.257 I.688 J0.0
X-93.353 Y12.569 I0.0 J-.688
G01 Y0.0
X-93.179 Y-1.992
Z.2
G00 Z.4
X-91.553 Y8.591
G01 Z-.7
Y0.0 Z-1. F800.
Y-12.569 F1200.
G02 X-94.042 Y-15.057 I-2.488 J0.0
X-96.53 Y-12.569 I0.0 J2.488
G01 Y12.569
G02 X-94.042 Y15.057 I2.488 J0.0
X-91.553 Y12.569 I0.0 J-2.488
G01 Y0.0
X-93.353 F2000.
Y-12.569
G02 X-94.042 Y-13.257 I-.688 J0.0
X-94.73 Y-12.569 I0.0 J.688
G01 Y12.569
G02 X-94.042 Y13.257 I.688 J0.0
X-93.353 Y12.569 I0.0 J-.688
G01 Y0.0
X-93.179 Y-1.992
Z0.0
G00 Z.2
X-91.553 Y8.591
G01 Z-.9
Y0.0 Z-1.2 F800.
Y-12.569 F1200.
G02 X-94.042 Y-15.057 I-2.488 J0.0
X-96.53 Y-12.569 I0.0 J2.488
G01 Y12.569
G02 X-94.042 Y15.057 I2.488 J0.0
X-91.553 Y12.569 I0.0 J-2.488
G01 Y0.0
X-93.353 F2000.
Y-12.569
G02 X-94.042 Y-13.257 I-.688 J0.0
X-94.73 Y-12.569 I0.0 J.688
G01 Y12.569
G02 X-94.042 Y13.257 I.688 J0.0
X-93.353 Y12.569 I0.0 J-.688
G01 Y0.0
X-93.179 Y-1.992
Z-.2
G00 Z0.0
X-91.553 Y8.591
G01 Z-1.1
Y0.0 Z-1.4 F800.
Y-12.569 F1200.
G02 X-94.042 Y-15.057 I-2.488 J0.0
X-96.53 Y-12.569 I0.0 J2.488
G01 Y12.569
G02 X-94.042 Y15.057 I2.488 J0.0
X-91.553 Y12.569 I0.0 J-2.488
G01 Y0.0
X-93.353 F2000.
Y-12.569
G02 X-94.042 Y-13.257 I-.688 J0.0
X-94.73 Y-12.569 I0.0 J.688
G01 Y12.569
G02 X-94.042 Y13.257 I.688 J0.0
X-93.353 Y12.569 I0.0 J-.688
G01 Y0.0
X-93.179 Y-1.992
Z-.4
G00 Z-.2
X-91.553 Y8.591
G01 Z-1.3
Y0.0 Z-1.6 F800.
Y-12.569 F1200.
G02 X-94.042 Y-15.057 I-2.488 J0.0
X-96.53 Y-12.569 I0.0 J2.488
G01 Y12.569
G02 X-94.042 Y15.057 I2.488 J0.0
X-91.553 Y12.569 I0.0 J-2.488
G01 Y0.0
X-93.353 F2000.
Y-12.569
G02 X-94.042 Y-13.257 I-.688 J0.0
X-94.73 Y-12.569 I0.0 J.688
G01 Y12.569
G02 X-94.042 Y13.257 I.688 J0.0
X-93.353 Y12.569 I0.0 J-.688
G01 Y0.0
X-93.179 Y-1.992
Z-.6
G00 Z-.4
X-91.553 Y8.591
G01 Z-1.5
Y0.0 Z-1.8 F800.
Y-12.569 F1200.
G02 X-94.042 Y-15.057 I-2.488 J0.0
X-96.53 Y-12.569 I0.0 J2.488
G01 Y12.569
G02 X-94.042 Y15.057 I2.488 J0.0
X-91.553 Y12.569 I0.0 J-2.488
G01 Y0.0
X-93.353 F2000.
Y-12.569
G02 X-94.042 Y-13.257 I-.688 J0.0
X-94.73 Y-12.569 I0.0 J.688
G01 Y12.569
G02 X-94.042 Y13.257 I.688 J0.0
X-93.353 Y12.569 I0.0 J-.688
G01 Y0.0
X-93.179 Y-1.992
Z-.8
G00 Z1.
X-85.495 Y19.414
G01 Z.4
Z-.6 F800.
Y17.168
G03 X-84.105 Y17.707 I0.0 J2.06 F2000.
G02 X-83.43 Y17.969 I.675 J-.738
X-82.817 Y17.759 I0.0 J-1.
G03 X-84.783 Y12.569 I5.869 J-5.19 F1200.
G01 Y-12.569
G03 X-84.68 Y-13.837 I7.835 J0.0
X-84.025 Y-15.929 I7.731 J1.268 F1050.
X-82.817 Y-17.759 I7.077 J3.361 F900.
G02 X-83.43 Y-17.969 I-.613 J.79 F2000.
X-84.105 Y-17.707 I0.0 J1.
G03 X-85.495 Y-17.168 I-1.39 J-1.52
X-86.885 Y-17.707 I0.0 J-2.06
G02 X-87.56 Y-17.969 I-.675 J.738
X-88.173 Y-17.759 I0.0 J1.
G03 X-86.207 Y-12.569 I-5.869 J5.19 F1200.
G01 Y12.569
G03 X-86.31 Y13.837 I-7.835 J0.0
X-86.965 Y15.929 I-7.731 J-1.268 F1050.
X-88.173 Y17.759 I-7.077 J-3.361 F900.
G02 X-87.56 Y17.969 I.613 J-.79 F2000.
X-86.885 Y17.707 I0.0 J-1.
G03 X-85.495 Y17.168 I1.39 J1.52
G01 Y19.414
Z.4
G00 Z1.
Y19.455
G01 Z.2
Z-.8 F800.
Y17.209
G03 X-84.11 Y17.744 I0.0 J2.06 F2000.
G02 X-83.437 Y18.004 I.673 J-.74
X-82.821 Y17.792 I0.0 J-1.
G03 X-84.808 Y12.569 I5.873 J-5.223 F1200.
G01 Y-12.569
G03 X-84.699 Y-13.876 I7.86 J0.0
X-84.036 Y-15.966 I7.75 J1.307 F1050.
X-82.821 Y-17.792 I7.088 J3.397 F900.
G02 X-83.437 Y-18.004 I-.616 J.788 F2000.
X-84.11 Y-17.744 I0.0 J1.
G03 X-85.495 Y-17.209 I-1.385 J-1.525
X-86.88 Y-17.744 I0.0 J-2.06
G02 X-87.553 Y-18.004 I-.673 J.74
X-88.169 Y-17.792 I0.0 J1.
G03 X-86.182 Y-12.569 I-5.873 J5.223 F1200.
G01 Y12.569
G03 X-86.291 Y13.876 I-7.86 J0.0
X-86.954 Y15.966 I-7.75 J-1.307 F1050.
X-88.169 Y17.792 I-7.088 J-3.397 F900.
G02 X-87.553 Y18.004 I.616 J-.788 F2000.
X-86.88 Y17.744 I0.0 J-1.
G03 X-85.495 Y17.209 I1.385 J1.525
G01 Y19.455
Z.2
G00 Z.4
Y19.477
G01 Z0.0
Z-1. F800.
Y17.231
G03 X-84.112 Y17.764 I0.0 J2.06 F2000.
G02 X-83.441 Y18.023 I.671 J-.741
X-82.827 Y17.812 I0.0 J-1.
G03 X-82.9 Y17.723 I5.243 J-4.406 F1200.
X-84.822 Y12.569 I5.952 J-5.155
G01 Y-12.569
G03 X-84.709 Y-13.898 I7.874 J0.0
X-84.042 Y-15.986 I7.761 J1.329 F1050.
X-82.901 Y-17.723 I7.093 J3.418 F900.
X-82.827 Y-17.812 I5.522 J4.499
G02 X-83.441 Y-18.023 I-.614 J.789 F2000.
X-84.112 Y-17.764 I0.0 J1.
G03 X-85.495 Y-17.231 I-1.383 J-1.527
X-86.878 Y-17.764 I0.0 J-2.06
G02 X-87.549 Y-18.023 I-.671 J.741
X-88.165 Y-17.811 I0.0 J1.
G03 X-88.099 Y-17.735 I-5.956 J5.168 F1200.
X-86.168 Y-12.569 I-5.942 J5.166
G01 Y12.569
G03 X-86.281 Y13.898 I-7.874 J0.0
X-86.948 Y15.986 I-7.761 J-1.329 F1050.
X-87.791 Y17.357 I-7.093 J-3.418 F900.
X-88.161 Y17.814 I-6.311 J-4.729
G02 X-87.549 Y18.023 I.612 J-.791 F2000.
X-86.878 Y17.764 I0.0 J-1.
G03 X-85.495 Y17.231 I1.383 J1.527
G01 Y19.477
Z0.0
G00 Z.2
X-85.496 Y19.582
G01 Z-.2
Z-1.2 F800.
X-85.495 Y17.326
G03 X-84.021 Y17.948 I0.0 J2.06 F2000.
G02 X-83.305 Y18.249 I.716 J-.698
X-82.728 Y18.066 I0.0 J-1.
G03 X-83.584 Y16.833 I25.139 J-18.374 F1200.
X-84.836 Y12.569 I6.636 J-4.265
G01 Y-12.569
G03 X-84.729 Y-13.861 I7.888 J0.0
X-84.073 Y-15.954 I7.781 J1.293 F1050.
X-83.584 Y-16.833 I7.125 J3.385 F900.
X-82.9 Y-17.809 I6.682 J3.957
X-82.768 Y-18.008 I3.367 J2.08 F1200.
G02 X-83.354 Y-18.198 I-.586 J.81 F2000.
X-84.053 Y-17.913 I0.0 J1.
G03 X-85.491 Y-17.328 I-1.439 J-1.475
X-86.822 Y-17.816 I0.0 J-2.06
X-86.938 Y-17.918 I1.302 J-1.597
G02 X-87.626 Y-18.192 I-.688 J.726
X-88.22 Y-17.996 I0.0 J1.
G03 X-87.406 Y-16.833 I-6.337 J5.303 F1200.
X-86.154 Y-12.569 I-6.636 J4.264
G01 Y12.569
G03 X-86.299 Y14.075 I-7.888 J0.0
X-87.013 Y16.149 I-7.743 J-1.506 F1050.
X-87.406 Y16.833 I-7.029 J-3.58 F900.
X-88.212 Y17.988 I-7.075 J-4.076
G02 X-87.619 Y18.183 I.592 J-.806 F2000.
X-86.925 Y17.903 I0.0 J-1.
G03 X-85.495 Y17.326 I1.43 J1.483
G01 X-85.496 Y19.582
Z-.2
G00 Z0.0
X-85.5 Y20.032
G01 Z-.4
Z-1.4 F800.
X-84.121 Y18.317
G03 X-83.943 Y18.478 I-1.291 J1.605 F2000.
G02 X-83.23 Y18.777 I.713 J-.701
X-82.65 Y18.591 I0.0 J-1.
G03 X-83.216 Y17.809 I4.223 J-3.65 F1200.
G02 X-83.989 Y16.155 I-24.886 J10.627
G03 X-84.85 Y12.569 I7.041 J-3.586
G01 Y-12.569
G03 X-84.579 Y-14.622 I7.902 J0.0
X-83.964 Y-16.204 I7.63 J2.053 F1050.
G02 X-83.74 Y-16.651 I-17.831 J-9.239
X-83.348 Y-17.506 I-18.056 J-8.793 F900.
G03 X-82.69 Y-18.574 I3.981 J1.713
G02 X-83.239 Y-18.739 I-.549 J.836 F2000.
X-83.975 Y-18.416 I0.0 J1.
G03 X-85.491 Y-17.751 I-1.516 J-1.395
X-87.033 Y-18.446 I0.0 J-2.06
G02 X-87.782 Y-18.783 I-.749 J.663
X-88.344 Y-18.61 I0.0 J1.
G03 X-87.659 Y-17.531 I-3.437 J2.937 F1200.
G02 X-86.995 Y-16.144 I30.557 J-13.777
G03 X-86.14 Y-12.569 I-7.047 J3.575
G01 Y12.569
G03 X-86.422 Y14.661 I-7.902 J0.0
X-86.999 Y16.151 I-7.62 J-2.092 F1050.
G01 X-87.255 Y16.693
X-87.651 Y17.533 F900.
G03 X-88.338 Y18.599 I-4.376 J-2.067
G02 X-87.773 Y18.773 I.565 J-.825 F2000.
X-87.037 Y18.45 I0.0 J-1.
G03 X-85.52 Y17.784 I1.517 J1.394
X-84.314 Y18.174 I0.0 J2.06
G01 X-84.206 Y18.252
G03 X-84.121 Y18.317 I-1.206 J1.67
G01 X-85.5 Y20.032
Z-.4
G00 Z-.2
X-85.917 Y20.404
G01 Z-.6
Z-1.6 F800.
X-84.147 Y18.347
G03 X-84.091 Y18.398 I-1.343 J1.562 F2000.
G02 X-83.411 Y18.664 I.68 J-.734
X-82.804 Y18.459 I0.0 J-1.
G03 X-83.878 Y16.834 I5.233 J-4.629 F1200.
G02 X-84.282 Y15.547 I-8.08 J1.83
G03 X-84.864 Y12.569 I7.334 J-2.978
G01 Y-12.569
G03 X-84.621 Y-14.515 I7.916 J0.0
X-84.367 Y-15.328 I7.673 J1.946 F1050.
G02 X-83.936 Y-16.604 I-10.646 J-4.309
X-83.876 Y-16.833 I-11.077 J-3.033 F900.
G03 X-82.798 Y-18.466 I6.269 J2.968
G02 X-83.405 Y-18.672 I-.608 J.794 F2000.
X-84.087 Y-18.404 I0.0 J1.
G03 X-85.491 Y-17.851 I-1.404 J-1.507
X-86.897 Y-18.406 I0.0 J-2.06
G02 X-87.579 Y-18.675 I-.683 J.731
X-88.198 Y-18.46 I0.0 J1.
G03 X-87.571 Y-17.663 I-6.142 J5.473 F1050.
X-87.417 Y-17.422 I-3.242 J2.24
X-86.952 Y-16.213 I-3.396 J2. F900.
G01 X-86.568 Y-15.178
G03 X-86.28 Y-14.122 I-7.473 J2.609
X-86.126 Y-12.569 I-7.762 J1.553 F1200.
G01 Y12.569
G03 X-86.365 Y14.501 I-7.916 J0.0
X-86.638 Y15.37 I-7.676 J-1.932 F1050.
X-87.064 Y16.586 I-98.363 J-33.766
X-87.302 Y17.245 I-97.937 J-34.982 F900.
X-88.188 Y18.451 I-6.794 J-4.063
G02 X-87.571 Y18.665 I.617 J-.787 F2000.
X-86.891 Y18.398 I0.0 J-1.
G03 X-85.491 Y17.849 I1.4 J1.511
X-84.147 Y18.347 I0.0 J2.06
G01 X-85.917 Y20.404
Z-.6
G00 Z-.4
X-85.91 Y20.396
G01 Z-.8
Z-1.8 F800.
X-84.147 Y18.347
X-84.115 Y18.376 F2000.
G02 X-83.447 Y18.632 I.668 J-.744
X-82.83 Y18.419 I0.0 J-1.
G03 X-84.175 Y16.345 I6.192 J-5.491 F1200.
X-84.612 Y14.606 I20.149 J-5.985
X-84.878 Y12.569 I7.664 J-2.037
G01 Y-12.569
G03 X-84.693 Y-14.27 I7.93 J0.0
X-84.644 Y-14.493 I39.886 J8.807
X-84.178 Y-16.345 I39.836 J9.03 F1050.
X-84.053 Y-16.607 I7.587 J3.461
X-82.824 Y-18.424 I7.463 J3.722 F900.
G02 X-83.443 Y-18.638 I-.618 J.786 F2000.
X-84.112 Y-18.381 I0.0 J1.
G03 X-85.491 Y-17.851 I-1.379 J-1.53
X-86.893 Y-18.402 I0.0 J-2.06
G02 X-87.574 Y-18.67 I-.681 J.732
X-88.194 Y-18.455 I0.0 J1.
G03 X-87.409 Y-17.424 I-6.238 J5.556 F1050.
G01 X-87.343 Y-17.321
X-87.242 Y-17.17
G03 X-87.141 Y-17.01 I-3.395 J2.268
X-86.61 Y-15.575 I-3.496 J2.109 F900.
G01 X-86.568 Y-15.327
X-86.384 Y-14.627
G03 X-86.135 Y-13.174 I-7.658 J2.058
X-86.112 Y-12.569 I-7.907 J.605 F1200.
G01 Y12.569
G03 X-86.354 Y14.512 I-7.93 J0.0
X-86.383 Y14.623 I-7.688 J-1.943 F1050.
X-86.813 Y16.349 I-129.575 J-31.39
X-86.946 Y16.625 I-7.62 J-3.492
X-88.18 Y18.439 I-7.488 J-3.768 F900.
G02 X-87.56 Y18.654 I.62 J-.784 F2000.
X-86.883 Y18.391 I0.0 J-1.
G03 X-85.491 Y17.849 I1.393 J1.518
X-84.147 Y18.347 I0.0 J2.06
G01 X-85.91 Y20.396
Z-.8
G00 Z-.6
X-85.906 Y20.392
G01 Z-1.
Z-2. F800.
X-84.147 Y18.347
X-84.114 Y18.377 F2000.
G02 X-83.445 Y18.633 I.668 J-.744
X-82.827 Y18.419 I0.0 J-1.
G03 X-84.56 Y15.37 I6.319 J-5.609 F1200.
X-84.857 Y13.316 I30.117 J-5.4
X-84.892 Y12.569 I7.909 J-.747
G01 Y-12.569
X-84.884 Y-12.93
G03 X-84.849 Y-13.394 I7.936 J.361
X-84.707 Y-14.507 I16.386 J1.526
X-84.543 Y-15.37 I16.244 J2.638 F1050.
X-84.057 Y-16.597 I7.836 J2.392
X-82.834 Y-18.417 I7.35 J3.619 F900.
G02 X-83.451 Y-18.63 I-.617 J.787 F2000.
X-84.118 Y-18.376 I0.0 J1.
G03 X-85.491 Y-17.851 I-1.373 J-1.535
X-86.888 Y-18.397 I0.0 J-2.06
G02 X-87.566 Y-18.662 I-.678 J.735
X-88.186 Y-18.447 I0.0 J1.
G03 X-86.43 Y-15.37 I-6.373 J5.675 F1200.
X-86.133 Y-13.316 I-20.132 J3.961
X-86.098 Y-12.569 I-7.909 J.747
G01 Y12.442
G03 X-86.281 Y14.531 I-14.653 J-.232
X-86.441 Y15.37 I-14.47 J-2.321 F1050.
X-86.941 Y16.617 I-7.912 J-2.45
X-88.172 Y18.433 I-7.412 J-3.698 F900.
G02 X-87.553 Y18.648 I.619 J-.785 F2000.
X-86.879 Y18.387 I0.0 J-1.
G03 X-85.491 Y17.849 I1.388 J1.522
X-84.147 Y18.347 I0.0 J2.06
G01 X-85.906 Y20.392
Z-1.
G00 Z-.8
X-85.915 Y20.403
G01 Z-1.2
Z-2.2 F800.
X-84.148 Y18.347
X-84.115 Y18.376 F2000.
G02 X-83.447 Y18.632 I.668 J-.744
X-82.829 Y18.419 I0.0 J-1.
G03 X-83.878 Y16.938 I6.217 J-5.516 F1200.
X-84.932 Y13.048 I6.655 J-3.89
G01 Y-12.946
G03 X-84.828 Y-14.394 I10.15 J0.0
X-84.794 Y-14.554 I8.467 J1.705
X-84.052 Y-16.619 I8.434 J1.866 F1050.
X-82.813 Y-18.43 I7.691 J3.931 F900.
G02 X-83.434 Y-18.646 I-.62 J.784 F2000.
X-84.106 Y-18.386 I0.0 J1.
G03 X-85.491 Y-17.851 I-1.385 J-1.525
X-86.894 Y-18.403 I0.0 J-2.06
G02 X-87.575 Y-18.67 I-.681 J.732
X-88.196 Y-18.454 I0.0 J1.
G03 X-86.162 Y-14.394 I-6.523 J5.807 F1200.
X-86.055 Y-12.721 I-13.103 J1.673
X-86.058 Y-12.442 I-13.209 J0.0
G01 Y12.569
G03 X-86.056 Y12.786 I-12.417 J.218
X-86.161 Y14.394 I-12.419 J0.0
X-86.2 Y14.576 I-8.484 J-1.716
X-86.948 Y16.638 I-8.445 J-1.899 F1050.
X-88.192 Y18.446 I-7.696 J-3.961 F900.
G02 X-87.569 Y18.663 I.622 J-.783 F2000.
X-86.89 Y18.397 I0.0 J-1.
G03 X-85.491 Y17.849 I1.399 J1.512
X-84.148 Y18.347 I0.0 J2.06
G01 X-85.915 Y20.403
Z-1.2
G00 Z-1.
X-85.924 Y20.413
G01 Z-1.4
Z-2.4 F800.
X-84.148 Y18.347
X-84.097 Y18.393 F2000.
G02 X-83.42 Y18.656 I.677 J-.736
X-82.799 Y18.44 I0.0 J-1.
G03 X-85.021 Y12.6 I6.565 J-5.84 F1200.
X-85.019 Y12.442 I8.787 J0.0
G01 Y-12.569
X-85.02 Y-12.61
G03 X-84.797 Y-14.572 I8.767 J0.0
X-84.042 Y-16.633 I8.544 J1.962 F1050.
X-82.8 Y-18.441 I7.79 J4.022 F900.
G02 X-83.421 Y-18.658 I-.621 J.783 F2000.
X-84.097 Y-18.394 I0.0 J1.
G03 X-85.491 Y-17.851 I-1.393 J-1.517
X-86.887 Y-18.397 I0.0 J-2.06
G02 X-87.565 Y-18.662 I-.678 J.735
X-88.186 Y-18.445 I0.0 J1.
G03 X-85.97 Y-12.624 I-6.54 J5.822 F1200.
G01 X-85.971 Y-12.569
Y12.569
Y12.605
G03 X-86.199 Y14.597 I-8.778 J0.0
X-86.96 Y16.655 I-8.549 J-1.991 F1050.
X-88.208 Y18.46 I-7.789 J-4.05 F900.
G02 X-87.585 Y18.678 I.623 J-.782 F2000.
X-86.9 Y18.407 I0.0 J-1.
G03 X-85.491 Y17.849 I1.409 J1.502
X-84.148 Y18.347 I0.0 J2.06
G01 X-85.924 Y20.413
Z-1.4
G00 Z-1.2
G01 Y20.414 Z-1.6
Z-2.6 F800.
X-84.148 Y18.348
X-84.097 Y18.393 F2000.
G02 X-83.42 Y18.657 I.677 J-.736
X-82.799 Y18.44 I0.0 J-1.
G03 X-85.021 Y12.6 I6.564 J-5.84 F1200.
X-85.019 Y12.442 I8.786 J0.0
G01 Y-12.569
X-85.02 Y-12.611
G03 X-84.797 Y-14.572 I8.766 J0.0
X-84.042 Y-16.633 I8.544 J1.962 F1050.
X-82.8 Y-18.441 I7.789 J4.022 F900.
G02 X-83.421 Y-18.657 I-.621 J.783 F2000.
X-84.097 Y-18.394 I0.0 J1.
G03 X-85.491 Y-17.851 I-1.393 J-1.517
X-86.887 Y-18.397 I0.0 J-2.06
G02 X-87.565 Y-18.662 I-.678 J.735
X-88.186 Y-18.445 I0.0 J1.
G03 X-85.97 Y-12.624 I-6.539 J5.822 F1200.
G01 X-85.971 Y-12.569
Y12.569
Y12.605
G03 X-86.199 Y14.597 I-8.778 J0.0
X-86.961 Y16.655 I-8.549 J-1.992 F1050.
X-88.208 Y18.46 I-7.788 J-4.05 F900.
G02 X-87.585 Y18.678 I.623 J-.782 F2000.
X-86.9 Y18.407 I0.0 J-1.
G03 X-85.491 Y17.85 I1.41 J1.502
