%
G40 G17 G49 G54 G80
G91 G28 Z0.0
( NAME: Capful )
( PART: D:\Program Files\Siemens\NX 12.0\UGII\HM-µç¼«±à³Ì.prt )
( DATE: Sun May 27 04:44:48 2018 )
( D4R0.5 ---> D=4.00 R=0.50 )
S10000 M03
G00 G90 X128.174 Y23.119
Z15.
G17 G01 Z2.55 F1300.
Z-.45 F520.
Y18.719
G40 G02 X134.324 Y12.569 I0.0 J-6.151 F1300.
G01 Y-12.569
G02 X128.174 Y-18.719 I-6.151 J0.0
X122.023 Y-12.569 I0.0 J6.151
G01 Y12.569
G02 X128.174 Y18.719 I6.151 J0.0
G01 Y23.119
Z2.55
G00 Z2.6
G01 Z2.5
Z-.5 F520.
Y18.719
G02 X134.324 Y12.569 I0.0 J-6.151 F1300.
G01 Y-12.569
G02 X128.174 Y-18.719 I-6.151 J0.0
X122.023 Y-12.569 I0.0 J6.151
G01 Y12.569
G02 X128.174 Y18.719 I6.151 J0.0
G01 Y23.119
Z2.5
G00 Z15.
X111.08
G01 Z2.55
Z-.45 F520.
Y18.719
G02 X117.231 Y12.569 I0.0 J-6.151 F1300.
G01 Y-12.569
G02 X111.08 Y-18.719 I-6.151 J0.0
X104.93 Y-12.569 I0.0 J6.151
G01 Y12.569
G02 X111.08 Y18.719 I6.151 J0.0
G01 Y23.119
Z2.55
G00 Z2.6
G01 Z2.5
Z-.5 F520.
Y18.719
G02 X117.231 Y12.569 I0.0 J-6.151 F1300.
G01 Y-12.569
G02 X111.08 Y-18.719 I-6.151 J0.0
X104.93 Y-12.569 I0.0 J6.151
G01 Y12.569
G02 X111.08 Y18.719 I6.151 J0.0
G01 Y23.119
Z2.5
G00 Z15.
X59.8
G01 Z2.55
Z-.45 F520.
Y18.719
G02 X65.95 Y12.569 I0.0 J-6.151 F1300.
G01 Y-12.569
G02 X59.8 Y-18.719 I-6.151 J0.0
X53.649 Y-12.569 I0.0 J6.151
G01 Y12.569
G02 X59.8 Y18.719 I6.151 J0.0
G01 Y23.119
Z2.55
G00 Z2.6
G01 Z2.5
Z-.5 F520.
Y18.719
G02 X65.95 Y12.569 I0.0 J-6.151 F1300.
G01 Y-12.569
G02 X59.8 Y-18.719 I-6.151 J0.0
X53.649 Y-12.569 I0.0 J6.151
G01 Y12.569
G02 X59.8 Y18.719 I6.151 J0.0
G01 Y23.119
Z2.5
G00 Z15.
X42.706
G01 Z2.55
Z-.45 F520.
Y18.719
G02 X48.857 Y12.569 I0.0 J-6.151 F1300.
G01 Y-12.569
G02 X42.706 Y-18.719 I-6.151 J0.0
X36.556 Y-12.569 I0.0 J6.151
G01 Y12.569
G02 X42.706 Y18.719 I6.151 J0.0
G01 Y23.119
Z2.55
G00 Z2.6
G01 Z2.5
Z-.5 F520.
Y18.719
G02 X48.857 Y12.569 I0.0 J-6.151 F1300.
G01 Y-12.569
G02 X42.706 Y-18.719 I-6.151 J0.0
X36.556 Y-12.569 I0.0 J6.151
G01 Y12.569
G02 X42.706 Y18.719 I6.151 J0.0
G01 Y23.119
Z2.5
G00 Z15.
X25.613
G01 Z2.55
Z-.45 F520.
Y18.719
G02 X31.763 Y12.569 I0.0 J-6.151 F1300.
G01 Y-12.569
G02 X25.613 Y-18.719 I-6.151 J0.0
X19.462 Y-12.569 I0.0 J6.151
G01 Y12.569
G02 X25.613 Y18.719 I6.151 J0.0
G01 Y23.119
Z2.55
G00 Z2.6
G01 Z2.5
Z-.5 F520.
Y18.719
G02 X31.763 Y12.569 I0.0 J-6.151 F1300.
G01 Y-12.569
G02 X25.613 Y-18.719 I-6.151 J0.0
X19.462 Y-12.569 I0.0 J6.151
G01 Y12.569
G02 X25.613 Y18.719 I6.151 J0.0
G01 Y23.119
Z2.5
G00 Z15.
X8.519
G01 Z2.55
Z-.45 F520.
Y18.719
G02 X14.67 Y12.569 I0.0 J-6.151 F1300.
G01 Y-12.569
G02 X8.519 Y-18.719 I-6.151 J0.0
X2.369 Y-12.569 I0.0 J6.151
G01 Y12.569
G02 X8.519 Y18.719 I6.151 J0.0
G01 Y23.119
Z2.55
G00 Z2.6
G01 Z2.5
Z-.5 F520.
Y18.719
G02 X14.67 Y12.569 I0.0 J-6.151 F1300.
G01 Y-12.569
G02 X8.519 Y-18.719 I-6.151 J0.0
X2.369 Y-12.569 I0.0 J6.151
G01 Y12.569
G02 X8.519 Y18.719 I6.151 J0.0
G01 Y23.119
Z2.5
G00 Z15.
X-8.574
G01 Z2.55
Z-.45 F520.
Y18.719
G02 X-2.424 Y12.569 I0.0 J-6.151 F1300.
G01 Y-12.569
G02 X-8.574 Y-18.719 I-6.151 J0.0
X-14.725 Y-12.569 I0.0 J6.151
G01 Y12.569
G02 X-8.574 Y18.719 I6.151 J0.0
G01 Y23.119
Z2.55
G00 Z2.6
G01 Z2.5
Z-.5 F520.
Y18.719
G02 X-2.424 Y12.569 I0.0 J-6.151 F1300.
G01 Y-12.569
G02 X-8.574 Y-18.719 I-6.151 J0.0
X-14.725 Y-12.569 I0.0 J6.151
G01 Y12.569
G02 X-8.574 Y18.719 I6.151 J0.0
G01 Y23.119
Z2.5
G00 Z15.
X-25.668
G01 Z2.55
Z-.45 F520.
Y18.719
G02 X-19.517 Y12.569 I0.0 J-6.151 F1300.
G01 Y-12.569
G02 X-25.668 Y-18.719 I-6.151 J0.0
X-31.818 Y-12.569 I0.0 J6.151
G01 Y12.569
G02 X-25.668 Y18.719 I6.151 J0.0
G01 Y23.119
Z2.55
G00 Z2.6
G01 Z2.5
Z-.5 F520.
Y18.719
G02 X-19.517 Y12.569 I0.0 J-6.151 F1300.
G01 Y-12.569
G02 X-25.668 Y-18.719 I-6.151 J0.0
X-31.818 Y-12.569 I0.0 J6.151
G01 Y12.569
G02 X-25.668 Y18.719 I6.151 J0.0
G01 Y23.119
Z2.5
G00 Z15.
X-42.761
G01 Z2.55
Z-.45 F520.
Y18.719
G02 X-36.611 Y12.569 I0.0 J-6.151 F1300.
G01 Y-12.569
G02 X-42.761 Y-18.719 I-6.151 J0.0
X-48.912 Y-12.569 I0.0 J6.151
G01 Y12.569
G02 X-42.761 Y18.719 I6.151 J0.0
G01 Y23.119
Z2.55
G00 Z2.6
G01 Z2.5
Z-.5 F520.
Y18.719
G02 X-36.611 Y12.569 I0.0 J-6.151 F1300.
G01 Y-12.569
G02 X-42.761 Y-18.719 I-6.151 J0.0
X-48.912 Y-12.569 I0.0 J6.151
G01 Y12.569
G02 X-42.761 Y18.719 I6.151 J0.0
G01 Y23.119
Z2.5
G00 Z15.
X-59.855
G01 Z2.55
Z-.45 F520.
Y18.719
G02 X-53.704 Y12.569 I0.0 J-6.151 F1300.
G01 Y-12.569
G02 X-59.855 Y-18.719 I-6.151 J0.0
X-66.005 Y-12.569 I0.0 J6.151
G01 Y12.569
G02 X-59.855 Y18.719 I6.151 J0.0
G01 Y23.119
Z2.55
G00 Z2.6
G01 Z2.5
Z-.5 F520.
Y18.719
G02 X-53.704 Y12.569 I0.0 J-6.151 F1300.
G01 Y-12.569
G02 X-59.855 Y-18.719 I-6.151 J0.0
X-66.005 Y-12.569 I0.0 J6.151
G01 Y12.569
G02 X-59.855 Y18.719 I6.151 J0.0
G01 Y23.119
Z2.5
G00 Z15.
X-76.948
G01 Z2.55
Z-.45 F520.
Y18.719
G02 X-70.798 Y12.569 I0.0 J-6.151 F1300.
G01 Y-12.569
G02 X-76.948 Y-18.719 I-6.151 J0.0
X-83.099 Y-12.569 I0.0 J6.151
G01 Y12.569
G02 X-76.948 Y18.719 I6.151 J0.0
G01 Y23.119
Z2.55
G00 Z2.6
G01 Z2.5
Z-.5 F520.
Y18.719
G02 X-70.798 Y12.569 I0.0 J-6.151 F1300.
G01 Y-12.569
G02 X-76.948 Y-18.719 I-6.151 J0.0
X-83.099 Y-12.569 I0.0 J6.151
G01 Y12.569
G02 X-76.948 Y18.719 I6.151 J0.0
G01 Y23.119
Z2.5
G00 Z15.
X-94.042
G01 Z2.55
Z-.45 F520.
Y18.719
G02 X-87.891 Y12.569 I0.0 J-6.151 F1300.
G01 Y-12.569
G02 X-94.042 Y-18.719 I-6.151 J0.0
X-100.192 Y-12.569 I0.0 J6.151
G01 Y12.569
G02 X-94.042 Y18.719 I6.151 J0.0
G01 Y23.119
Z2.55
G00 Z2.6
G01 Z2.5
Z-.5 F520.
Y18.719
G02 X-87.891 Y12.569 I0.0 J-6.151 F1300.
G01 Y-12.569
G02 X-94.042 Y-18.719 I-6.151 J0.0
X-100.192 Y-12.569 I0.0 J6.151
G01 Y12.569
G02 X-94.042 Y18.719 I6.151 J0.0
G01 Y23.119
Z2.5
G00 Z15.
X-111.135
G01 Z2.55
Z-.45 F520.
Y18.719
G02 X-104.985 Y12.569 I0.0 J-6.151 F1300.
G01 Y-12.569
G02 X-111.135 Y-18.719 I-6.151 J0.0
X-117.286 Y-12.569 I0.0 J6.151
G01 Y12.569
G02 X-111.135 Y18.719 I6.151 J0.0
G01 Y23.119
Z2.55
G00 Z2.6
G01 Z2.5
Z-.5 F520.
Y18.719
G02 X-104.985 Y12.569 I0.0 J-6.151 F1300.
G01 Y-12.569
G02 X-111.135 Y-18.719 I-6.151 J0.0
X-117.286 Y-12.569 I0.0 J6.151
G01 Y12.569
G02 X-111.135 Y18.719 I6.151 J0.0
G01 Y23.119
Z2.5
G00 Z15.
X-128.229
G01 Z2.55
Z-.45 F520.
Y18.719
G02 X-122.078 Y12.569 I0.0 J-6.151 F1300.
G01 Y-12.569
G02 X-128.229 Y-18.719 I-6.151 J0.0
X-134.379 Y-12.569 I0.0 J6.151
G01 Y12.569
G02 X-128.229 Y18.719 I6.151 J0.0
G01 Y23.119
Z2.55
G00 Z2.6
G01 Z2.5
Z-.5 F520.
Y18.719
G02 X-122.078 Y12.569 I0.0 J-6.151 F1300.
G01 Y-12.569
G02 X-128.229 Y-18.719 I-6.151 J0.0
X-134.379 Y-12.569 I0.0 J6.151
G01 Y12.569
G02 X-128.229 Y18.719 I6.151 J0.0
G01 Y23.119
Z2.5
G00 Z15.
( D4R0.5 ---> D=4.00 R=0.50 )
S10000 M03
G00 X130.562 Y5.727
Z15.
G01 Z-1.8 F900.
Y0.0 Z-2. F360.
Y-12.569 F540.
G02 X128.174 Y-14.957 I-2.388 J0.0
X125.785 Y-12.569 I0.0 J2.388
G01 Y12.569
G02 X128.174 Y14.957 I2.388 J0.0
X130.562 Y12.569 I0.0 J-2.388
G01 Y0.0
X129.362 F900.
Y-12.569
G02 X128.174 Y-13.757 I-1.188 J0.0
X126.985 Y-12.569 I0.0 J1.188
G01 Y12.569
G02 X128.174 Y13.757 I1.188 J0.0
X129.362 Y12.569 I0.0 J-1.188
G01 Y0.0
Z1.
G00 Z15.
X113.469 Y5.727
G01 Z-1.8
Y0.0 Z-2. F360.
Y-12.569 F540.
G02 X111.08 Y-14.957 I-2.388 J0.0
X108.692 Y-12.569 I0.0 J2.388
G01 Y12.569
G02 X111.08 Y14.957 I2.388 J0.0
X113.469 Y12.569 I0.0 J-2.388
G01 Y0.0
X112.269 F900.
Y-12.569
G02 X111.08 Y-13.757 I-1.188 J0.0
X109.892 Y-12.569 I0.0 J1.188
G01 Y12.569
G02 X111.08 Y13.757 I1.188 J0.0
X112.269 Y12.569 I0.0 J-1.188
G01 Y0.0
X112.53 Y-2.989
Z1.
G00 Z15.
X62.188 Y5.727
G01 Z-1.8
Y0.0 Z-2. F360.
Y-12.569 F540.
G02 X59.8 Y-14.957 I-2.388 J0.0
X57.411 Y-12.569 I0.0 J2.388
G01 Y12.569
G02 X59.8 Y14.957 I2.388 J0.0
X62.188 Y12.569 I0.0 J-2.388
G01 Y0.0
X60.988 F900.
Y-12.569
G02 X59.8 Y-13.757 I-1.188 J0.0
X58.611 Y-12.569 I0.0 J1.188
G01 Y12.569
G02 X59.8 Y13.757 I1.188 J0.0
X60.988 Y12.569 I0.0 J-1.188
G01 Y0.0
Z1.
G00 Z15.
X45.095 Y5.727
G01 Z-1.8
Y0.0 Z-2. F360.
Y-12.569 F540.
G02 X42.706 Y-14.957 I-2.388 J0.0
X40.318 Y-12.569 I0.0 J2.388
G01 Y12.569
G02 X42.706 Y14.957 I2.388 J0.0
X45.095 Y12.569 I0.0 J-2.388
G01 Y0.0
X43.895 F900.
Y-12.569
G02 X42.706 Y-13.757 I-1.188 J0.0
X41.518 Y-12.569 I0.0 J1.188
G01 Y12.569
G02 X42.706 Y13.757 I1.188 J0.0
X43.895 Y12.569 I0.0 J-1.188
G01 Y0.0
X44.156 Y-2.989
Z1.
G00 Z15.
X28.001 Y5.727
G01 Z-1.8
Y0.0 Z-2. F360.
Y-12.569 F540.
G02 X25.613 Y-14.957 I-2.388 J0.0
X23.224 Y-12.569 I0.0 J2.388
G01 Y12.569
G02 X25.613 Y14.957 I2.388 J0.0
X28.001 Y12.569 I0.0 J-2.388
G01 Y0.0
X26.801 F900.
Y-12.569
G02 X25.613 Y-13.757 I-1.188 J0.0
X24.424 Y-12.569 I0.0 J1.188
G01 Y12.569
G02 X25.613 Y13.757 I1.188 J0.0
X26.801 Y12.569 I0.0 J-1.188
G01 Y0.0
X27.063 Y-2.989
Z1.
G00 Z15.
X10.908 Y5.727
G01 Z-1.8
Y0.0 Z-2. F360.
Y-12.569 F540.
G02 X8.519 Y-14.957 I-2.388 J0.0
X6.131 Y-12.569 I0.0 J2.388
G01 Y12.569
G02 X8.519 Y14.957 I2.388 J0.0
X10.908 Y12.569 I0.0 J-2.388
G01 Y0.0
X9.708 F900.
Y-12.569
G02 X8.519 Y-13.757 I-1.188 J0.0
X7.331 Y-12.569 I0.0 J1.188
G01 Y12.569
G02 X8.519 Y13.757 I1.188 J0.0
X9.708 Y12.569 I0.0 J-1.188
G01 Y0.0
X9.969 Y-2.989
Z1.
G00 Z15.
X-6.186 Y5.727
G01 Z-1.8
Y0.0 Z-2. F360.
Y-12.569 F540.
G02 X-8.574 Y-14.957 I-2.388 J0.0
X-10.963 Y-12.569 I0.0 J2.388
G01 Y12.569
G02 X-8.574 Y14.957 I2.388 J0.0
X-6.186 Y12.569 I0.0 J-2.388
G01 Y0.0
X-7.386 F900.
Y-12.569
G02 X-8.574 Y-13.757 I-1.188 J0.0
X-9.763 Y-12.569 I0.0 J1.188
G01 Y12.569
G02 X-8.574 Y13.757 I1.188 J0.0
X-7.386 Y12.569 I0.0 J-1.188
G01 Y0.0
X-7.124 Y-2.989
Z1.
G00 Z15.
X-23.279 Y5.727
G01 Z-1.8
Y0.0 Z-2. F360.
Y-12.569 F540.
G02 X-25.668 Y-14.957 I-2.388 J0.0
X-28.056 Y-12.569 I0.0 J2.388
G01 Y12.569
G02 X-25.668 Y14.957 I2.388 J0.0
X-23.279 Y12.569 I0.0 J-2.388
G01 Y0.0
X-24.479 F900.
Y-12.569
G02 X-25.668 Y-13.757 I-1.188 J0.0
X-26.856 Y-12.569 I0.0 J1.188
G01 Y12.569
G02 X-25.668 Y13.757 I1.188 J0.0
X-24.479 Y12.569 I0.0 J-1.188
G01 Y0.0
X-24.218 Y-2.989
Z1.
G00 Z15.
X-40.373 Y5.727
G01 Z-1.8
Y0.0 Z-2. F360.
Y-12.569 F540.
G02 X-42.761 Y-14.957 I-2.388 J0.0
X-45.15 Y-12.569 I0.0 J2.388
G01 Y12.569
G02 X-42.761 Y14.957 I2.388 J0.0
X-40.373 Y12.569 I0.0 J-2.388
G01 Y0.0
X-41.573 F900.
Y-12.569
G02 X-42.761 Y-13.757 I-1.188 J0.0
X-43.95 Y-12.569 I0.0 J1.188
G01 Y12.569
G02 X-42.761 Y13.757 I1.188 J0.0
X-41.573 Y12.569 I0.0 J-1.188
G01 Y0.0
X-41.311 Y-2.989
Z1.
G00 Z15.
X-57.466 Y5.727
G01 Z-1.8
Y0.0 Z-2. F360.
Y-12.569 F540.
G02 X-59.855 Y-14.957 I-2.388 J0.0
X-62.243 Y-12.569 I0.0 J2.388
G01 Y12.569
G02 X-59.855 Y14.957 I2.388 J0.0
X-57.466 Y12.569 I0.0 J-2.388
G01 Y0.0
X-58.666 F900.
Y-12.569
G02 X-59.855 Y-13.757 I-1.188 J0.0
X-61.043 Y-12.569 I0.0 J1.188
G01 Y12.569
G02 X-59.855 Y13.757 I1.188 J0.0
X-58.666 Y12.569 I0.0 J-1.188
G01 Y0.0
X-58.405 Y-2.989
Z1.
G00 Z15.
X-74.56 Y5.727
G01 Z-1.8
Y0.0 Z-2. F360.
Y-12.569 F540.
G02 X-76.948 Y-14.957 I-2.388 J0.0
X-79.337 Y-12.569 I0.0 J2.388
G01 Y12.569
G02 X-76.948 Y14.957 I2.388 J0.0
X-74.56 Y12.569 I0.0 J-2.388
G01 Y0.0
X-75.76 F900.
Y-12.569
G02 X-76.948 Y-13.757 I-1.188 J0.0
X-78.137 Y-12.569 I0.0 J1.188
G01 Y12.569
G02 X-76.948 Y13.757 I1.188 J0.0
X-75.76 Y12.569 I0.0 J-1.188
G01 Y0.0
X-75.498 Y-2.989
Z1.
G00 Z15.
X-91.653 Y5.727
G01 Z-1.8
Y0.0 Z-2. F360.
Y-12.569 F540.
G02 X-94.042 Y-14.957 I-2.388 J0.0
X-96.43 Y-12.569 I0.0 J2.388
G01 Y12.569
G02 X-94.042 Y14.957 I2.388 J0.0
X-91.653 Y12.569 I0.0 J-2.388
G01 Y0.0
X-92.853 F900.
Y-12.569
G02 X-94.042 Y-13.757 I-1.188 J0.0
X-95.23 Y-12.569 I0.0 J1.188
G01 Y12.569
G02 X-94.042 Y13.757 I1.188 J0.0
X-92.853 Y12.569 I0.0 J-1.188
G01 Y0.0
X-92.592 Y-2.989
Z1.
G00 Z15.
X-108.747 Y5.727
G01 Z-1.8
Y0.0 Z-2. F360.
Y-12.569 F540.
G02 X-111.135 Y-14.957 I-2.388 J0.0
X-113.524 Y-12.569 I0.0 J2.388
G01 Y12.569
G02 X-111.135 Y14.957 I2.388 J0.0
X-108.747 Y12.569 I0.0 J-2.388
G01 Y0.0
X-109.947 F900.
Y-12.569
G02 X-111.135 Y-13.757 I-1.188 J0.0
X-112.324 Y-12.569 I0.0 J1.188
G01 Y12.569
G02 X-111.135 Y13.757 I1.188 J0.0
X-109.947 Y12.569 I0.0 J-1.188
G01 Y0.0
X-109.685 Y-2.989
Z1.
G00 Z15.
X-130.617 Y-5.727
G01 Z-1.8
Y0.0 Z-2. F360.
Y12.569 F540.
G02 X-128.229 Y14.957 I2.388 J0.0
X-125.84 Y12.569 I0.0 J-2.388
G01 Y-12.569
G02 X-128.229 Y-14.957 I-2.388 J0.0
X-130.617 Y-12.569 I0.0 J2.388
G01 Y0.0
X-129.417 F900.
Y12.569
G02 X-128.229 Y13.757 I1.188 J0.0
X-127.04 Y12.569 I0.0 J-1.188
G01 Y-12.569
G02 X-128.229 Y-13.757 I-1.188 J0.0
X-129.417 Y-12.569 I0.0 J1.188
G01 Y0.0
Z1.
G00 Z15.
( D4R0.5 ---> D=4.00 R=0.50 )
S10000 M03
G00 X129.158 Y-2.
Z15.
G01 Z2.43 F2000.
Z-.57 F800.
G03 X131.158 Y0.0 I0.0 J2. F400.
G01 Y12.55 F2000.
Y12.569 F1197.
G03 X129.24 Y15.356 I-2.984 J0.0
X128.174 Y15.553 I-1.066 J-2.787
X125.189 Y12.569 I0.0 J-2.984
G01 Y12.559
Y-12.559 F2000.
Y-12.569 F1197.
G03 X128.174 Y-15.553 I2.984 J0.0
X130.251 Y-14.711 I0.0 J2.984
X131.158 Y-12.569 I-2.078 J2.143 F1198.
G01 Y-12.55
Y0.0 F2000.
X131.135 Y.222 Z-.582
X131.114 Y.445 Z-.593
X131.094 Y.667 Z-.605
X131.076 Y.89 Z-.617
X131.059 Y1.112 Z-.628
X131.043 Y1.334 Z-.64
Y12.569
G03 X128.174 Y15.438 I-2.869 J0.0 F1179.
X125.304 Y12.569 I0.0 J-2.869
G01 Y-12.569 F2000.
G03 X128.174 Y-15.438 I2.869 J0.0 F1179.
X131.043 Y-12.569 I0.0 J2.869
G01 Y0.0 F2000.
X131.028 Y.222 Z-.652
X131.014 Y.445 Z-.663
X131. Y.667 Z-.675
X130.987 Y.89 Z-.686
X130.975 Y1.112 Z-.698
X130.963 Y1.334 Z-.71
Y12.569
G03 X128.279 Y15.356 I-2.789 J0.0 F1165.
X128.174 Y15.358 I-.105 J-2.787
X125.385 Y12.569 I0.0 J-2.789
G01 Y-12.569 F2000.
G03 X128.174 Y-15.358 I2.789 J0.0 F1165.
X130.963 Y-12.569 I0.0 J2.789
G01 Y0.0 F2000.
X130.952 Y.222 Z-.721
X130.941 Y.445 Z-.733
X130.931 Y.667 Z-.745
X130.921 Y.89 Z-.756
X130.912 Y1.112 Z-.768
X130.903 Y1.334 Z-.78
Y12.569
G03 X128.174 Y15.298 I-2.729 J0.0 F1154.
X125.445 Y12.569 I0.0 J-2.729
G01 Y-12.569 F2000.
G03 X128.174 Y-15.298 I2.729 J0.0 F1154.
X130.903 Y-12.569 I0.0 J2.729
G01 Y0.0 F2000.
X130.894 Y.222 Z-.791
X130.886 Y.445 Z-.803
X130.878 Y.667 Z-.815
X130.871 Y.89 Z-.826
X130.863 Y1.112 Z-.838
X130.856 Y1.334 Z-.85
Y12.569
G03 X128.174 Y15.251 I-2.683 J0.0 F1146.
X125.491 Y12.569 I0.0 J-2.683
G01 Y-12.569 F2000.
G03 X128.174 Y-15.251 I2.683 J0.0 F1146.
X130.856 Y-12.569 I0.0 J2.683
G01 Y0.0 F2000.
X130.85 Y.222 Z-.861
X130.843 Y.445 Z-.873
X130.837 Y.667 Z-.885
X130.832 Y.89 Z-.896
X130.826 Y1.112 Z-.908
X130.821 Y1.334 Z-.92
Y12.569
G03 X128.174 Y15.216 I-2.647 J0.0 F1139.
X125.527 Y12.569 I0.0 J-2.647
G01 Y-12.569 F2000.
G03 X128.174 Y-15.216 I2.647 J0.0 F1139.
X130.821 Y-12.569 I0.0 J2.647
G01 Y0.0 F2000.
X130.816 Y.222 Z-.931
X130.811 Y.445 Z-.943
X130.807 Y.667 Z-.955
X130.802 Y.89 Z-.966
X130.798 Y1.112 Z-.978
X130.795 Y1.334 Z-.99
Y12.569
G03 X128.174 Y15.19 I-2.621 J0.0 F1134.
X125.553 Y12.569 I0.0 J-2.621
G01 Y-12.569 F2000.
G03 X128.174 Y-15.19 I2.621 J0.0 F1134.
X130.795 Y-12.569 I0.0 J2.621
G01 Y0.0 F2000.
X130.791 Y.222 Z-1.001
X130.788 Y.445 Z-1.013
X130.784 Y.667 Z-1.024
X130.782 Y.89 Z-1.036
X130.779 Y1.112 Z-1.048
X130.776 Y1.334 Z-1.059
Y12.569
G03 X128.174 Y15.171 I-2.603 J0.0 F1131.
X125.571 Y12.569 I0.0 J-2.603
G01 Y-12.569 F2000.
G03 X128.174 Y-15.171 I2.603 J0.0 F1131.
X130.776 Y-12.569 I0.0 J2.603
G01 Y0.0 F2000.
X130.774 Y.222 Z-1.071
X130.772 Y.445 Z-1.083
X130.77 Y.667 Z-1.094
X130.768 Y.89 Z-1.106
X130.767 Y1.112 Z-1.118
X130.765 Y1.334 Z-1.129
Y12.569
G03 X128.174 Y15.16 I-2.592 J0.0 F1129.
X125.582 Y12.569 I0.0 J-2.592
G01 Y-12.569 F2000.
G03 X128.174 Y-15.16 I2.592 J0.0 F1129.
X130.765 Y-12.569 I0.0 J2.592
G01 Y0.0 F2000.
X130.764 Y.222 Z-1.141
X130.763 Y.445 Z-1.153
Y.667 Z-1.164
X130.762 Y.89 Z-1.176
Y1.112 Z-1.188
Y1.334 Z-1.199
X130.763 Y12.569
G03 X128.174 Y15.158 I-2.589 J0.0 F1128.
X125.585 Y12.569 I0.0 J-2.589
G01 X125.586 Y-12.569 F2000.
G03 X126.748 Y-14.728 I2.588 J0.0 F1128.
G01 X126.915 Y-14.83 F2000.
G03 X128.174 Y-15.157 I1.259 J2.261 F1128.
X130.762 Y-12.569 I0.0 J2.588
G01 Y0.0 F2000.
Y.222 Z-1.211
Y.445 Z-1.223
Y1.334 Z-1.269
Y12.569
G03 X128.174 Y15.157 I-2.588 J0.0 F1128.
X125.585 Y12.569 I0.0 J-2.588
G01 Y-12.569 F2000.
G03 X128.174 Y-15.157 I2.588 J0.0 F1128.
X130.762 Y-12.569 I0.0 J2.588
G01 Y0.0 F2000.
Y1.334 Z-1.339
Y12.569
G03 X128.174 Y15.157 I-2.588 J0.0 F1128.
X125.585 Y12.569 I0.0 J-2.588
G01 Y-12.569 F2000.
G03 X128.174 Y-15.157 I2.588 J0.0 F1128.
X130.762 Y-12.569 I0.0 J2.588
G01 Y0.0 F2000.
Y1.334 Z-1.409
Y12.569
G03 X128.174 Y15.157 I-2.588 J0.0 F1128.
X125.585 Y12.569 I0.0 J-2.588
G01 Y-12.569 F2000.
G03 X128.174 Y-15.157 I2.588 J0.0 F1128.
X130.762 Y-12.569 I0.0 J2.588
G01 Y0.0 F2000.
Y1.334 Z-1.479
Y12.569
G03 X128.174 Y15.157 I-2.588 J0.0 F1128.
X125.585 Y12.569 I0.0 J-2.588
G01 Y-12.569 F2000.
G03 X128.174 Y-15.157 I2.588 J0.0 F1128.
X130.762 Y-12.569 I0.0 J2.588
G01 Y0.0 F2000.
Y1.334 Z-1.549
Y12.569
G03 X128.174 Y15.157 I-2.588 J0.0 F1128.
X125.585 Y12.569 I0.0 J-2.588
G01 Y-12.569 F2000.
G03 X128.174 Y-15.157 I2.588 J0.0 F1128.
X130.762 Y-12.569 I0.0 J2.588
G01 Y0.0 F2000.
Y1.334 Z-1.619
Y12.569
G03 X128.174 Y15.157 I-2.588 J0.0 F1128.
X125.585 Y12.569 I0.0 J-2.588
G01 Y-12.569 F2000.
G03 X128.174 Y-15.157 I2.588 J0.0 F1128.
X130.762 Y-12.569 I0.0 J2.588
G01 Y0.0 F2000.
Y1.334 Z-1.689
Y12.569
G03 X128.174 Y15.157 I-2.588 J0.0 F1128.
X125.585 Y12.569 I0.0 J-2.588
G01 Y-12.569 F2000.
G03 X128.174 Y-15.157 I2.588 J0.0 F1128.
X130.762 Y-12.569 I0.0 J2.588
G01 Y0.0 F2000.
Y1.334 Z-1.759
Y12.569
G03 X128.174 Y15.157 I-2.588 J0.0 F1128.
X125.585 Y12.569 I0.0 J-2.588
G01 Y-12.569 F2000.
G03 X128.174 Y-15.157 I2.588 J0.0 F1128.
X130.762 Y-12.569 I0.0 J2.588
G01 Y0.0 F2000.
Y1.334 Z-1.829
Y12.569
G03 X128.174 Y15.157 I-2.588 J0.0 F1128.
X125.585 Y12.569 I0.0 J-2.588
G01 Y-12.569 F2000.
G03 X128.174 Y-15.157 I2.588 J0.0 F1128.
X130.762 Y-12.569 I0.0 J2.588
G01 Y0.0 F2000.
Y1.334 Z-1.899
Y12.569
G03 X128.174 Y15.157 I-2.588 J0.0 F1128.
X125.585 Y12.569 I0.0 J-2.588
G01 Y-12.569 F2000.
G03 X128.174 Y-15.157 I2.588 J0.0 F1128.
X130.762 Y-12.569 I0.0 J2.588
G01 Y0.0 F2000.
Y1.334 Z-1.969
Y12.569
G03 X128.174 Y15.157 I-2.588 J0.0 F1128.
X125.585 Y12.569 I0.0 J-2.588
G01 Y-12.569 F2000.
G03 X128.174 Y-15.157 I2.588 J0.0 F1128.
X130.762 Y-12.569 I0.0 J2.588
G01 Y1.334 F2000.
X128.762
Z.031
G00 Z2.5
X112.065 Y-2.
G01 Z2.43
Z-.57 F800.
G03 X114.065 Y0.0 I0.0 J2. F400.
G01 Y12.53 F2000.
Y12.569 F1197.
G03 X112.147 Y15.356 I-2.984 J0.0
X111.08 Y15.553 I-1.066 J-2.787
X108.096 Y12.575 I0.0 J-2.984
G01 Y-12.575 F2000.
G03 X111.08 Y-15.553 I2.984 J.006 F1197.
X113.179 Y-14.69 I0.0 J2.984
X114.065 Y-12.568 I-2.1 J2.122 F1198.
G01 Y-12.53
Y0.0 F2000.
X114.041 Y.222 Z-.582
X114.02 Y.445 Z-.593
X114.001 Y.667 Z-.605
X113.983 Y.89 Z-.617
X113.966 Y1.112 Z-.628
X113.95 Y1.334 Z-.64
Y12.569
G03 X111.08 Y15.438 I-2.869 J0.0 F1179.
X108.211 Y12.569 I0.0 J-2.869
G01 Y-12.569 F2000.
G03 X111.08 Y-15.438 I2.869 J0.0 F1179.
X113.95 Y-12.569 I0.0 J2.869
G01 Y0.0 F2000.
X113.934 Y.222 Z-.652
X113.92 Y.445 Z-.663
X113.906 Y.667 Z-.675
X113.894 Y.89 Z-.686
X113.881 Y1.112 Z-.698
X113.869 Y1.334 Z-.71
Y12.569
G03 X111.185 Y15.356 I-2.789 J0.0 F1165.
X111.08 Y15.358 I-.105 J-2.787
X108.291 Y12.569 I0.0 J-2.789
G01 Y-12.569 F2000.
G03 X111.08 Y-15.358 I2.789 J0.0 F1165.
X113.869 Y-12.569 I0.0 J2.789
G01 Y0.0 F2000.
X113.858 Y.222 Z-.721
X113.848 Y.445 Z-.733
X113.837 Y.667 Z-.745
X113.828 Y.89 Z-.756
X113.818 Y1.112 Z-.768
X113.809 Y1.334 Z-.78
Y12.569
G03 X111.08 Y15.298 I-2.729 J0.0 F1154.
X108.351 Y12.569 I0.0 J-2.729
G01 Y-12.569 F2000.
G03 X111.08 Y-15.298 I2.729 J0.0 F1154.
X113.809 Y-12.569 I0.0 J2.729
G01 Y0.0 F2000.
X113.801 Y.222 Z-.791
X113.792 Y.445 Z-.803
X113.785 Y.667 Z-.815
X113.777 Y.89 Z-.826
X113.77 Y1.112 Z-.838
X113.763 Y1.334 Z-.85
Y12.569
G03 X111.08 Y15.251 I-2.683 J0.0 F1146.
X108.398 Y12.569 I0.0 J-2.683
G01 Y-12.569 F2000.
G03 X111.08 Y-15.251 I2.683 J0.0 F1146.
X113.763 Y-12.569 I0.0 J2.683
G01 Y0.0 F2000.
X113.756 Y.222 Z-.861
X113.75 Y.445 Z-.873
X113.744 Y.667 Z-.885
X113.738 Y.89 Z-.896
X113.733 Y1.112 Z-.908
X113.727 Y1.334 Z-.92
Y12.569
G03 X111.08 Y15.216 I-2.647 J0.0 F1139.
X108.433 Y12.569 I0.0 J-2.647
G01 Y-12.569 F2000.
G03 X111.08 Y-15.216 I2.647 J0.0 F1139.
X113.727 Y-12.569 I0.0 J2.647
G01 Y0.0 F2000.
X113.722 Y.222 Z-.931
X113.718 Y.445 Z-.943
X113.713 Y.667 Z-.955
X113.709 Y.89 Z-.966
X113.705 Y1.112 Z-.978
X113.701 Y1.334 Z-.99
Y12.569
G03 X111.08 Y15.19 I-2.621 J0.0 F1134.
X108.459 Y12.569 I0.0 J-2.621
G01 Y-12.569 F2000.
G03 X111.08 Y-15.19 I2.621 J0.0 F1134.
X113.701 Y-12.569 I0.0 J2.621
G01 Y0.0 F2000.
X113.697 Y.222 Z-1.001
X113.694 Y.445 Z-1.013
X113.691 Y.667 Z-1.024
X113.688 Y.89 Z-1.036
X113.685 Y1.112 Z-1.048
X113.683 Y1.334 Z-1.059
Y12.569
G03 X111.08 Y15.171 I-2.603 J0.0 F1131.
X108.478 Y12.569 I0.0 J-2.603
G01 Y-12.569 F2000.
G03 X111.08 Y-15.171 I2.603 J0.0 F1131.
X113.683 Y-12.569 I0.0 J2.603
G01 Y0.0 F2000.
X113.68 Y.222 Z-1.071
X113.678 Y.445 Z-1.083
X113.676 Y.667 Z-1.094
X113.675 Y.89 Z-1.106
X113.673 Y1.112 Z-1.118
X113.672 Y1.334 Z-1.129
Y12.569
G03 X111.08 Y15.16 I-2.592 J0.0 F1129.
X108.489 Y12.569 I0.0 J-2.592
G01 Y-12.569 F2000.
G03 X111.08 Y-15.16 I2.592 J0.0 F1129.
X113.672 Y-12.569 I0.0 J2.592
G01 Y0.0 F2000.
X113.671 Y.222 Z-1.141
X113.67 Y.445 Z-1.153
X113.669 Y.667 Z-1.164
Y.89 Z-1.176
X113.668 Y1.112 Z-1.188
X113.669 Y1.334 Z-1.199
Y12.569
G03 X111.08 Y15.158 I-2.589 J0.0 F1128.
X108.491 Y12.569 I0.0 J-2.589
G01 X108.492 Y-12.569 F2000.
G03 X111.08 Y-15.157 I2.588 J0.0 F1128.
X113.668 Y-12.569 I0.0 J2.588
G01 X113.669 Y0.0 F2000.
X113.668 Y.222 Z-1.211
X113.669 Y.445 Z-1.223
Y1.334 Z-1.269
Y12.569
G03 X111.08 Y15.157 I-2.588 J0.0 F1128.
X108.492 Y12.569 I0.0 J-2.588
G01 Y-12.569 F2000.
G03 X111.08 Y-15.157 I2.588 J0.0 F1128.
X113.669 Y-12.569 I0.0 J2.588
G01 Y0.0 F2000.
Y1.334 Z-1.339
Y12.569
G03 X111.08 Y15.157 I-2.588 J0.0 F1128.
X108.492 Y12.569 I0.0 J-2.588
G01 Y-12.569 F2000.
G03 X111.08 Y-15.157 I2.588 J0.0 F1128.
X113.669 Y-12.569 I0.0 J2.588
G01 Y0.0 F2000.
Y1.334 Z-1.409
Y12.569
G03 X111.08 Y15.157 I-2.588 J0.0 F1128.
X108.492 Y12.569 I0.0 J-2.588
G01 Y-12.569 F2000.
G03 X111.08 Y-15.157 I2.588 J0.0 F1128.
X113.669 Y-12.569 I0.0 J2.588
G01 Y0.0 F2000.
Y1.334 Z-1.479
Y12.569
G03 X111.08 Y15.157 I-2.588 J0.0 F1128.
X108.492 Y12.569 I0.0 J-2.588
G01 Y-12.569 F2000.
G03 X111.08 Y-15.157 I2.588 J0.0 F1128.
X113.669 Y-12.569 I0.0 J2.588
G01 Y0.0 F2000.
Y1.334 Z-1.549
Y12.569
G03 X111.08 Y15.157 I-2.588 J0.0 F1128.
X108.492 Y12.569 I0.0 J-2.588
G01 Y-12.569 F2000.
G03 X111.08 Y-15.157 I2.588 J0.0 F1128.
X113.669 Y-12.569 I0.0 J2.588
G01 Y0.0 F2000.
Y1.334 Z-1.619
Y12.569
G03 X111.08 Y15.157 I-2.588 J0.0 F1128.
X108.492 Y12.569 I0.0 J-2.588
G01 Y-12.569 F2000.
G03 X111.08 Y-15.157 I2.588 J0.0 F1128.
X113.669 Y-12.569 I0.0 J2.588
G01 Y0.0 F2000.
Y1.334 Z-1.689
Y12.569
G03 X111.08 Y15.157 I-2.588 J0.0 F1128.
X108.492 Y12.569 I0.0 J-2.588
G01 Y-12.569 F2000.
G03 X111.08 Y-15.157 I2.588 J0.0 F1128.
X113.669 Y-12.569 I0.0 J2.588
G01 Y0.0 F2000.
Y1.334 Z-1.759
Y12.569
G03 X111.08 Y15.157 I-2.588 J0.0 F1128.
X108.492 Y12.569 I0.0 J-2.588
G01 Y-12.569 F2000.
G03 X111.08 Y-15.157 I2.588 J0.0 F1128.
X113.669 Y-12.569 I0.0 J2.588
G01 Y0.0 F2000.
Y1.334 Z-1.829
Y12.569
G03 X111.08 Y15.157 I-2.588 J0.0 F1128.
X108.492 Y12.569 I0.0 J-2.588
G01 Y-12.569 F2000.
G03 X111.08 Y-15.157 I2.588 J0.0 F1128.
X113.669 Y-12.569 I0.0 J2.588
G01 Y0.0 F2000.
Y1.334 Z-1.899
Y12.569
G03 X111.08 Y15.157 I-2.588 J0.0 F1128.
X108.492 Y12.569 I0.0 J-2.588
G01 Y-12.569 F2000.
G03 X111.08 Y-15.157 I2.588 J0.0 F1128.
X113.669 Y-12.569 I0.0 J2.588
G01 Y0.0 F2000.
Y1.334 Z-1.969
Y12.569
G03 X111.08 Y15.157 I-2.588 J0.0 F1128.
X108.492 Y12.569 I0.0 J-2.588
G01 Y-12.569 F2000.
G03 X111.08 Y-15.157 I2.588 J0.0 F1128.
X113.669 Y-12.569 I0.0 J2.588
G01 Y1.334 F2000.
X111.669
Z.031
G00 Z2.5
X60.784 Y-2.
G01 Z2.43
Z-.57 F800.
G03 X62.784 Y0.0 I0.0 J2. F400.
G01 Y12.569 F2000.
G03 X59.8 Y15.553 I-2.984 J0.0 F1197.
X56.815 Y12.569 I0.0 J-2.984
G01 Y-12.569 F2000.
G03 X59.8 Y-15.553 I2.984 J0.0 F1197.
X62.784 Y-12.569 I0.0 J2.984
G01 Y0.0 F2000.
X62.761 Y.222 Z-.582
X62.74 Y.445 Z-.593
X62.72 Y.667 Z-.605
X62.702 Y.89 Z-.617
X62.685 Y1.112 Z-.628
X62.669 Y1.334 Z-.64
Y12.569
G03 X59.8 Y15.438 I-2.869 J0.0 F1179.
X56.93 Y12.569 I0.0 J-2.869
G01 Y-12.569 F2000.
G03 X59.8 Y-15.438 I2.869 J0.0 F1179.
X62.669 Y-12.569 I0.0 J2.869
G01 Y0.0 F2000.
X62.654 Y.222 Z-.652
X62.64 Y.445 Z-.663
X62.626 Y.667 Z-.675
X62.613 Y.89 Z-.686
X62.601 Y1.112 Z-.698
X62.589 Y1.334 Z-.71
Y12.569
G03 X59.8 Y15.358 I-2.789 J0.0 F1165.
X57.011 Y12.569 I0.0 J-2.789
G01 Y-12.569 F2000.
G03 X59.8 Y-15.358 I2.789 J0.0 F1165.
X62.589 Y-12.569 I0.0 J2.789
G01 Y0.0 F2000.
X62.578 Y.222 Z-.721
X62.567 Y.445 Z-.733
X62.557 Y.667 Z-.745
X62.547 Y.89 Z-.756
X62.538 Y1.112 Z-.768
X62.529 Y1.334 Z-.78
Y12.569
G03 X59.8 Y15.298 I-2.729 J0.0 F1154.
X57.071 Y12.569 I0.0 J-2.729
G01 Y-12.569 F2000.
G03 X59.8 Y-15.298 I2.729 J0.0 F1154.
X62.529 Y-12.569 I0.0 J2.729
G01 Y0.0 F2000.
X62.52 Y.222 Z-.791
X62.512 Y.445 Z-.803
X62.504 Y.667 Z-.815
X62.497 Y.89 Z-.826
X62.489 Y1.112 Z-.838
X62.482 Y1.334 Z-.85
Y12.569
G03 X59.8 Y15.251 I-2.683 J0.0 F1146.
X57.117 Y12.569 I0.0 J-2.683
G01 Y-12.569 F2000.
G03 X59.8 Y-15.251 I2.683 J0.0 F1146.
X62.482 Y-12.569 I0.0 J2.683
G01 Y0.0 F2000.
X62.476 Y.222 Z-.861
X62.469 Y.445 Z-.873
X62.463 Y.667 Z-.885
X62.458 Y.89 Z-.896
X62.452 Y1.112 Z-.908
X62.447 Y1.334 Z-.92
Y12.569
G03 X59.8 Y15.216 I-2.647 J0.0 F1139.
X57.153 Y12.569 I0.0 J-2.647
G01 Y-12.569 F2000.
G03 X59.8 Y-15.216 I2.647 J0.0 F1139.
X62.447 Y-12.569 I0.0 J2.647
G01 Y0.0 F2000.
X62.442 Y.222 Z-.931
X62.437 Y.445 Z-.943
X62.433 Y.667 Z-.955
X62.428 Y.89 Z-.966
X62.424 Y1.112 Z-.978
X62.421 Y1.334 Z-.99
Y12.569
G03 X59.8 Y15.19 I-2.621 J0.0 F1134.
X57.179 Y12.569 I0.0 J-2.621
G01 Y-12.569 F2000.
G03 X59.8 Y-15.19 I2.621 J0.0 F1134.
X62.421 Y-12.569 I0.0 J2.621
G01 Y0.0 F2000.
X62.417 Y.222 Z-1.001
X62.414 Y.445 Z-1.013
X62.41 Y.667 Z-1.024
X62.408 Y.89 Z-1.036
X62.405 Y1.112 Z-1.048
X62.402 Y1.334 Z-1.059
Y12.569
G03 X59.8 Y15.171 I-2.603 J0.0 F1131.
X57.197 Y12.569 I0.0 J-2.603
G01 Y-12.569 F2000.
G03 X59.8 Y-15.171 I2.603 J0.0 F1131.
X62.402 Y-12.569 I0.0 J2.603
G01 Y0.0 F2000.
X62.4 Y.222 Z-1.071
X62.398 Y.445 Z-1.083
X62.396 Y.667 Z-1.094
X62.394 Y.89 Z-1.106
X62.393 Y1.112 Z-1.118
X62.391 Y1.334 Z-1.129
Y12.569
G03 X59.8 Y15.16 I-2.592 J0.0 F1129.
X57.208 Y12.569 I0.0 J-2.592
G01 Y-12.569 F2000.
G03 X59.8 Y-15.16 I2.592 J0.0 F1129.
X62.391 Y-12.569 I0.0 J2.592
G01 Y0.0 F2000.
X62.39 Y.222 Z-1.141
X62.389 Y.445 Z-1.153
Y.667 Z-1.164
X62.388 Y.89 Z-1.176
Y1.112 Z-1.188
X62.389 Y1.334 Z-1.199
Y12.569
G03 X59.8 Y15.158 I-2.589 J0.0 F1128.
X57.211 Y12.569 I0.0 J-2.589
G01 Y-12.569 F2000.
G03 X59.8 Y-15.158 I2.589 J0.0 F1128.
X62.389 Y-12.569 I0.0 J2.589
G01 Y0.0 F2000.
X62.388 Y.222 Z-1.211
Y.445 Z-1.223
Y1.334 Z-1.269
Y12.569
G03 X59.8 Y15.157 I-2.588 J0.0 F1128.
X57.211 Y12.569 I0.0 J-2.588
G01 Y-12.569 F2000.
G03 X59.8 Y-15.157 I2.588 J0.0 F1128.
X62.388 Y-12.569 I0.0 J2.588
G01 Y0.0 F2000.
Y1.334 Z-1.339
Y12.569
G03 X59.8 Y15.157 I-2.588 J0.0 F1128.
X57.211 Y12.569 I0.0 J-2.588
G01 Y-12.569 F2000.
G03 X59.8 Y-15.157 I2.588 J0.0 F1128.
X62.388 Y-12.569 I0.0 J2.588
G01 Y0.0 F2000.
Y1.334 Z-1.409
Y12.569
G03 X59.8 Y15.157 I-2.588 J0.0 F1128.
X57.211 Y12.569 I0.0 J-2.588
G01 Y-12.569 F2000.
G03 X59.8 Y-15.157 I2.588 J0.0 F1128.
X62.388 Y-12.569 I0.0 J2.588
G01 Y0.0 F2000.
Y1.334 Z-1.479
Y12.569
G03 X59.8 Y15.157 I-2.588 J0.0 F1128.
X57.211 Y12.569 I0.0 J-2.588
G01 Y-12.569 F2000.
G03 X59.8 Y-15.157 I2.588 J0.0 F1128.
X62.388 Y-12.569 I0.0 J2.588
G01 Y0.0 F2000.
Y1.334 Z-1.549
Y12.569
G03 X59.8 Y15.157 I-2.588 J0.0 F1128.
X57.211 Y12.569 I0.0 J-2.588
G01 Y-12.569 F2000.
G03 X59.8 Y-15.157 I2.588 J0.0 F1128.
X62.388 Y-12.569 I0.0 J2.588
G01 Y0.0 F2000.
Y1.334 Z-1.619
Y12.569
G03 X59.8 Y15.157 I-2.588 J0.0 F1128.
X57.211 Y12.569 I0.0 J-2.588
G01 Y-12.569 F2000.
G03 X59.8 Y-15.157 I2.588 J0.0 F1128.
X62.388 Y-12.569 I0.0 J2.588
G01 Y0.0 F2000.
Y1.334 Z-1.689
Y12.569
G03 X59.8 Y15.157 I-2.588 J0.0 F1128.
X57.211 Y12.569 I0.0 J-2.588
G01 Y-12.569 F2000.
G03 X59.8 Y-15.157 I2.588 J0.0 F1128.
X62.388 Y-12.569 I0.0 J2.588
G01 Y0.0 F2000.
Y1.334 Z-1.759
Y12.569
G03 X59.8 Y15.157 I-2.588 J0.0 F1128.
X57.211 Y12.569 I0.0 J-2.588
G01 Y-12.569 F2000.
G03 X59.8 Y-15.157 I2.588 J0.0 F1128.
X62.388 Y-12.569 I0.0 J2.588
G01 Y0.0 F2000.
Y1.334 Z-1.829
Y12.569
G03 X59.8 Y15.157 I-2.588 J0.0 F1128.
X57.211 Y12.569 I0.0 J-2.588
G01 Y-12.569 F2000.
G03 X59.8 Y-15.157 I2.588 J0.0 F1128.
X62.388 Y-12.569 I0.0 J2.588
G01 Y0.0 F2000.
Y1.334 Z-1.899
Y12.569
G03 X59.8 Y15.157 I-2.588 J0.0 F1128.
X57.211 Y12.569 I0.0 J-2.588
G01 Y-12.569 F2000.
G03 X59.8 Y-15.157 I2.588 J0.0 F1128.
X62.388 Y-12.569 I0.0 J2.588
G01 Y0.0 F2000.
Y1.334 Z-1.969
Y12.569
G03 X59.8 Y15.157 I-2.588 J0.0 F1128.
X57.211 Y12.569 I0.0 J-2.588
G01 Y-12.569 F2000.
G03 X59.8 Y-15.157 I2.588 J0.0 F1128.
X62.388 Y-12.569 I0.0 J2.588
G01 Y1.334 F2000.
X60.388
Z.031
G00 Z2.5
X43.691 Y-2.
G01 Z2.43
Z-.57 F800.
G03 X45.691 Y0.0 I0.0 J2. F400.
G01 Y12.569 F2000.
G03 X42.706 Y15.553 I-2.984 J0.0 F1197.
X39.722 Y12.569 I0.0 J-2.984
G01 Y-12.569 F2000.
G03 X42.706 Y-15.553 I2.984 J0.0 F1197.
X45.691 Y-12.569 I0.0 J2.984
G01 Y0.0 F2000.
X45.667 Y.222 Z-.582
X45.646 Y.445 Z-.593
X45.627 Y.667 Z-.605
X45.609 Y.89 Z-.617
X45.592 Y1.112 Z-.628
X45.576 Y1.334 Z-.64
Y12.569
G03 X42.706 Y15.438 I-2.869 J0.0 F1179.
X39.837 Y12.569 I0.0 J-2.869
G01 Y-12.569 F2000.
G03 X42.706 Y-15.438 I2.869 J0.0 F1179.
X45.576 Y-12.569 I0.0 J2.869
G01 Y0.0 F2000.
X45.56 Y.222 Z-.652
X45.546 Y.445 Z-.663
X45.532 Y.667 Z-.675
X45.52 Y.89 Z-.686
X45.507 Y1.112 Z-.698
X45.495 Y1.334 Z-.71
Y12.569
G03 X42.706 Y15.358 I-2.789 J0.0 F1165.
X39.917 Y12.569 I0.0 J-2.789
G01 Y-12.569 F2000.
G03 X42.706 Y-15.358 I2.789 J0.0 F1165.
X45.495 Y-12.569 I0.0 J2.789
G01 Y0.0 F2000.
X45.484 Y.222 Z-.721
X45.474 Y.445 Z-.733
X45.463 Y.667 Z-.745
X45.454 Y.89 Z-.756
X45.444 Y1.112 Z-.768
X45.435 Y1.334 Z-.78
Y12.569
G03 X42.706 Y15.298 I-2.729 J0.0 F1154.
X39.977 Y12.569 I0.0 J-2.729
G01 Y-12.569 F2000.
G03 X42.706 Y-15.298 I2.729 J0.0 F1154.
X45.435 Y-12.569 I0.0 J2.729
G01 Y0.0 F2000.
X45.427 Y.222 Z-.791
X45.418 Y.445 Z-.803
X45.411 Y.667 Z-.815
X45.403 Y.89 Z-.826
X45.396 Y1.112 Z-.838
X45.389 Y1.334 Z-.85
Y12.569
G03 X42.706 Y15.251 I-2.683 J0.0 F1146.
X40.024 Y12.569 I0.0 J-2.683
G01 Y-12.569 F2000.
G03 X42.706 Y-15.251 I2.683 J0.0 F1146.
X45.389 Y-12.569 I0.0 J2.683
G01 Y0.0 F2000.
X45.382 Y.222 Z-.861
X45.376 Y.445 Z-.873
X45.37 Y.667 Z-.885
X45.364 Y.89 Z-.896
X45.359 Y1.112 Z-.908
X45.353 Y1.334 Z-.92
Y12.569
G03 X42.706 Y15.216 I-2.647 J0.0 F1139.
X40.059 Y12.569 I0.0 J-2.647
G01 Y-12.569 F2000.
G03 X42.706 Y-15.216 I2.647 J0.0 F1139.
X45.353 Y-12.569 I0.0 J2.647
G01 Y0.0 F2000.
X45.348 Y.222 Z-.931
X45.344 Y.445 Z-.943
X45.339 Y.667 Z-.955
X45.335 Y.89 Z-.966
X45.331 Y1.112 Z-.978
X45.327 Y1.334 Z-.99
Y12.569
G03 X42.706 Y15.19 I-2.621 J0.0 F1134.
X40.085 Y12.569 I0.0 J-2.621
G01 Y-12.569 F2000.
G03 X42.706 Y-15.19 I2.621 J0.0 F1134.
X45.327 Y-12.569 I0.0 J2.621
G01 Y0.0 F2000.
X45.323 Y.222 Z-1.001
X45.32 Y.445 Z-1.013
X45.317 Y.667 Z-1.024
X45.314 Y.89 Z-1.036
X45.311 Y1.112 Z-1.048
X45.309 Y1.334 Z-1.059
Y12.569
G03 X42.706 Y15.171 I-2.603 J0.0 F1131.
X40.104 Y12.569 I0.0 J-2.603
G01 Y-12.569 F2000.
G03 X42.706 Y-15.171 I2.603 J0.0 F1131.
X45.309 Y-12.569 I0.0 J2.603
G01 Y0.0 F2000.
X45.306 Y.222 Z-1.071
X45.304 Y.445 Z-1.083
X45.302 Y.667 Z-1.094
X45.301 Y.89 Z-1.106
X45.299 Y1.112 Z-1.118
X45.298 Y1.334 Z-1.129
Y12.569
G03 X42.706 Y15.16 I-2.592 J0.0 F1129.
X40.115 Y12.569 I0.0 J-2.592
G01 Y-12.569 F2000.
G03 X42.706 Y-15.16 I2.592 J0.0 F1129.
X45.298 Y-12.569 I0.0 J2.592
G01 Y0.0 F2000.
X45.297 Y.222 Z-1.141
X45.296 Y.445 Z-1.153
X45.295 Y.667 Z-1.164
Y.89 Z-1.176
X45.294 Y1.112 Z-1.188
X45.295 Y1.334 Z-1.199
Y12.569
G03 X42.706 Y15.158 I-2.589 J0.0 F1128.
X40.117 Y12.569 I0.0 J-2.589
G01 Y-12.569 F2000.
G03 X42.706 Y-15.158 I2.589 J0.0 F1128.
X45.295 Y-12.569 I0.0 J2.589
G01 Y0.0 F2000.
X45.294 Y.222 Z-1.211
X45.295 Y.445 Z-1.223
Y1.334 Z-1.269
Y12.569
G03 X42.706 Y15.157 I-2.588 J0.0 F1128.
X40.118 Y12.569 I0.0 J-2.588
G01 Y-12.569 F2000.
G03 X42.706 Y-15.157 I2.588 J0.0 F1128.
X45.295 Y-12.569 I0.0 J2.588
G01 Y0.0 F2000.
Y1.334 Z-1.339
Y12.569
G03 X42.706 Y15.157 I-2.588 J0.0 F1128.
X40.118 Y12.569 I0.0 J-2.588
G01 Y-12.569 F2000.
G03 X42.706 Y-15.157 I2.588 J0.0 F1128.
X45.295 Y-12.569 I0.0 J2.588
G01 Y0.0 F2000.
Y1.334 Z-1.409
Y12.569
G03 X42.706 Y15.157 I-2.588 J0.0 F1128.
X40.118 Y12.569 I0.0 J-2.588
G01 Y-12.569 F2000.
G03 X42.706 Y-15.157 I2.588 J0.0 F1128.
X45.295 Y-12.569 I0.0 J2.588
G01 Y0.0 F2000.
Y1.334 Z-1.479
Y12.569
G03 X42.706 Y15.157 I-2.588 J0.0 F1128.
X40.118 Y12.569 I0.0 J-2.588
G01 Y-12.569 F2000.
G03 X42.706 Y-15.157 I2.588 J0.0 F1128.
X45.295 Y-12.569 I0.0 J2.588
G01 Y0.0 F2000.
Y1.334 Z-1.549
Y12.569
G03 X42.706 Y15.157 I-2.588 J0.0 F1128.
X40.118 Y12.569 I0.0 J-2.588
G01 Y-12.569 F2000.
G03 X42.706 Y-15.157 I2.588 J0.0 F1128.
X45.295 Y-12.569 I0.0 J2.588
G01 Y0.0 F2000.
Y1.334 Z-1.619
Y12.569
G03 X42.706 Y15.157 I-2.588 J0.0 F1128.
X40.118 Y12.569 I0.0 J-2.588
G01 Y-12.569 F2000.
G03 X42.706 Y-15.157 I2.588 J0.0 F1128.
X45.295 Y-12.569 I0.0 J2.588
G01 Y0.0 F2000.
Y1.334 Z-1.689
Y12.569
G03 X42.706 Y15.157 I-2.588 J0.0 F1128.
X40.118 Y12.569 I0.0 J-2.588
G01 Y-12.569 F2000.
G03 X42.706 Y-15.157 I2.588 J0.0 F1128.
X45.295 Y-12.569 I0.0 J2.588
G01 Y0.0 F2000.
Y1.334 Z-1.759
Y12.569
G03 X42.706 Y15.157 I-2.588 J0.0 F1128.
X40.118 Y12.569 I0.0 J-2.588
G01 Y-12.569 F2000.
G03 X42.706 Y-15.157 I2.588 J0.0 F1128.
X45.295 Y-12.569 I0.0 J2.588
G01 Y0.0 F2000.
Y1.334 Z-1.829
Y12.569
G03 X42.706 Y15.157 I-2.588 J0.0 F1128.
X40.118 Y12.569 I0.0 J-2.588
G01 Y-12.569 F2000.
G03 X42.706 Y-15.157 I2.588 J0.0 F1128.
X45.295 Y-12.569 I0.0 J2.588
G01 Y0.0 F2000.
Y1.334 Z-1.899
Y12.569
G03 X42.706 Y15.157 I-2.588 J0.0 F1128.
X40.118 Y12.569 I0.0 J-2.588
G01 Y-12.569 F2000.
G03 X42.706 Y-15.157 I2.588 J0.0 F1128.
X45.295 Y-12.569 I0.0 J2.588
G01 Y0.0 F2000.
Y1.334 Z-1.969
Y12.569
G03 X42.706 Y15.157 I-2.588 J0.0 F1128.
X40.118 Y12.569 I0.0 J-2.588
G01 Y-12.569 F2000.
G03 X42.706 Y-15.157 I2.588 J0.0 F1128.
X45.295 Y-12.569 I0.0 J2.588
G01 Y1.334 F2000.
X43.295
Z.031
G00 Z2.5
X26.597 Y-2.
G01 Z2.43
Z-.57 F800.
G03 X28.597 Y0.0 I0.0 J2. F400.
G01 Y12.569 F2000.
G03 X25.613 Y15.553 I-2.984 J0.0 F1197.
X22.628 Y12.569 I0.0 J-2.984
G01 Y-12.569 F2000.
G03 X25.613 Y-15.553 I2.984 J0.0 F1197.
X28.597 Y-12.569 I0.0 J2.984
G01 Y0.0 F2000.
X28.574 Y.222 Z-.582
X28.553 Y.445 Z-.593
X28.533 Y.667 Z-.605
X28.515 Y.89 Z-.617
X28.498 Y1.112 Z-.628
X28.482 Y1.334 Z-.64
Y12.569
G03 X25.613 Y15.438 I-2.869 J0.0 F1179.
X22.743 Y12.569 I0.0 J-2.869
G01 Y-12.569 F2000.
G03 X25.613 Y-15.438 I2.869 J0.0 F1179.
X28.482 Y-12.569 I0.0 J2.869
G01 Y0.0 F2000.
X28.467 Y.222 Z-.652
X28.453 Y.445 Z-.663
X28.439 Y.667 Z-.675
X28.426 Y.89 Z-.686
X28.414 Y1.112 Z-.698
X28.402 Y1.334 Z-.71
Y12.569
G03 X25.613 Y15.358 I-2.789 J0.0 F1165.
X22.824 Y12.569 I0.0 J-2.789
G01 Y-12.569 F2000.
G03 X25.613 Y-15.358 I2.789 J0.0 F1165.
X28.402 Y-12.569 I0.0 J2.789
G01 Y0.0 F2000.
X28.391 Y.222 Z-.721
X28.38 Y.445 Z-.733
X28.37 Y.667 Z-.745
X28.36 Y.89 Z-.756
X28.351 Y1.112 Z-.768
X28.342 Y1.334 Z-.78
Y12.569
G03 X25.613 Y15.298 I-2.729 J0.0 F1154.
X22.884 Y12.569 I0.0 J-2.729
G01 Y-12.569 F2000.
G03 X25.613 Y-15.298 I2.729 J0.0 F1154.
X28.342 Y-12.569 I0.0 J2.729
G01 Y0.0 F2000.
X28.333 Y.222 Z-.791
X28.325 Y.445 Z-.803
X28.317 Y.667 Z-.815
X28.31 Y.89 Z-.826
X28.302 Y1.112 Z-.838
X28.295 Y1.334 Z-.85
Y12.569
G03 X25.613 Y15.251 I-2.683 J0.0 F1146.
X22.93 Y12.569 I0.0 J-2.683
G01 Y-12.569 F2000.
G03 X25.613 Y-15.251 I2.683 J0.0 F1146.
X28.295 Y-12.569 I0.0 J2.683
G01 Y0.0 F2000.
X28.289 Y.222 Z-.861
X28.282 Y.445 Z-.873
X28.276 Y.667 Z-.885
X28.271 Y.89 Z-.896
X28.265 Y1.112 Z-.908
X28.26 Y1.334 Z-.92
Y12.569
G03 X25.613 Y15.216 I-2.647 J0.0 F1139.
X22.966 Y12.569 I0.0 J-2.647
G01 Y-12.569 F2000.
G03 X25.613 Y-15.216 I2.647 J0.0 F1139.
X28.26 Y-12.569 I0.0 J2.647
G01 Y0.0 F2000.
X28.255 Y.222 Z-.931
X28.25 Y.445 Z-.943
X28.246 Y.667 Z-.955
X28.241 Y.89 Z-.966
X28.237 Y1.112 Z-.978
X28.234 Y1.334 Z-.99
Y12.569
G03 X25.613 Y15.19 I-2.621 J0.0 F1134.
X22.992 Y12.569 I0.0 J-2.621
G01 Y-12.569 F2000.
G03 X25.613 Y-15.19 I2.621 J0.0 F1134.
X28.234 Y-12.569 I0.0 J2.621
G01 Y0.0 F2000.
X28.23 Y.222 Z-1.001
X28.227 Y.445 Z-1.013
X28.223 Y.667 Z-1.024
X28.221 Y.89 Z-1.036
X28.218 Y1.112 Z-1.048
X28.215 Y1.334 Z-1.059
Y12.569
G03 X25.613 Y15.171 I-2.603 J0.0 F1131.
X23.01 Y12.569 I0.0 J-2.603
G01 Y-12.569 F2000.
G03 X25.613 Y-15.171 I2.603 J0.0 F1131.
X28.215 Y-12.569 I0.0 J2.603
G01 Y0.0 F2000.
X28.213 Y.222 Z-1.071
X28.211 Y.445 Z-1.083
X28.209 Y.667 Z-1.094
X28.207 Y.89 Z-1.106
X28.206 Y1.112 Z-1.118
X28.204 Y1.334 Z-1.129
Y12.569
G03 X25.613 Y15.16 I-2.592 J0.0 F1129.
X23.021 Y12.569 I0.0 J-2.592
G01 Y-12.569 F2000.
G03 X25.613 Y-15.16 I2.592 J0.0 F1129.
X28.204 Y-12.569 I0.0 J2.592
G01 Y0.0 F2000.
X28.203 Y.222 Z-1.141
X28.202 Y.445 Z-1.153
Y.667 Z-1.164
X28.201 Y.89 Z-1.176
Y1.112 Z-1.188
X28.202 Y1.334 Z-1.199
Y12.569
G03 X25.613 Y15.158 I-2.589 J0.0 F1128.
X23.024 Y12.569 I0.0 J-2.589
G01 Y-12.569 F2000.
G03 X25.613 Y-15.158 I2.589 J0.0 F1128.
X28.202 Y-12.569 I0.0 J2.589
G01 Y0.0 F2000.
X28.201 Y.222 Z-1.211
Y.445 Z-1.223
Y1.334 Z-1.269
Y12.569
G03 X25.613 Y15.157 I-2.588 J0.0 F1128.
X23.024 Y12.569 I0.0 J-2.588
G01 Y-12.569 F2000.
G03 X25.613 Y-15.157 I2.588 J0.0 F1128.
X28.201 Y-12.569 I0.0 J2.588
G01 Y0.0 F2000.
Y1.334 Z-1.339
Y12.569
G03 X25.613 Y15.157 I-2.588 J0.0 F1128.
X23.024 Y12.569 I0.0 J-2.588
G01 Y-12.569 F2000.
G03 X25.613 Y-15.157 I2.588 J0.0 F1128.
X28.201 Y-12.569 I0.0 J2.588
G01 Y0.0 F2000.
Y1.334 Z-1.409
Y12.569
G03 X25.613 Y15.157 I-2.588 J0.0 F1128.
X23.024 Y12.569 I0.0 J-2.588
G01 Y-12.569 F2000.
G03 X25.613 Y-15.157 I2.588 J0.0 F1128.
X28.201 Y-12.569 I0.0 J2.588
G01 Y0.0 F2000.
Y1.334 Z-1.479
Y12.569
G03 X25.613 Y15.157 I-2.588 J0.0 F1128.
X23.024 Y12.569 I0.0 J-2.588
G01 Y-12.569 F2000.
G03 X25.613 Y-15.157 I2.588 J0.0 F1128.
X28.201 Y-12.569 I0.0 J2.588
G01 Y0.0 F2000.
Y1.334 Z-1.549
Y12.569
G03 X25.613 Y15.157 I-2.588 J0.0 F1128.
X23.024 Y12.569 I0.0 J-2.588
G01 Y-12.569 F2000.
G03 X25.613 Y-15.157 I2.588 J0.0 F1128.
X28.201 Y-12.569 I0.0 J2.588
G01 Y0.0 F2000.
Y1.334 Z-1.619
Y12.569
G03 X25.613 Y15.157 I-2.588 J0.0 F1128.
X23.024 Y12.569 I0.0 J-2.588
G01 Y-12.569 F2000.
G03 X25.613 Y-15.157 I2.588 J0.0 F1128.
X28.201 Y-12.569 I0.0 J2.588
G01 Y0.0 F2000.
Y1.334 Z-1.689
Y12.569
G03 X25.613 Y15.157 I-2.588 J0.0 F1128.
X23.024 Y12.569 I0.0 J-2.588
G01 Y-12.569 F2000.
G03 X25.613 Y-15.157 I2.588 J0.0 F1128.
X28.201 Y-12.569 I0.0 J2.588
G01 Y0.0 F2000.
Y1.334 Z-1.759
Y12.569
G03 X25.613 Y15.157 I-2.588 J0.0 F1128.
X23.024 Y12.569 I0.0 J-2.588
G01 Y-12.569 F2000.
G03 X25.613 Y-15.157 I2.588 J0.0 F1128.
X28.201 Y-12.569 I0.0 J2.588
G01 Y0.0 F2000.
Y1.334 Z-1.829
Y12.569
G03 X25.613 Y15.157 I-2.588 J0.0 F1128.
X23.024 Y12.569 I0.0 J-2.588
G01 Y-12.569 F2000.
G03 X25.613 Y-15.157 I2.588 J0.0 F1128.
X28.201 Y-12.569 I0.0 J2.588
G01 Y0.0 F2000.
Y1.334 Z-1.899
Y12.569
G03 X25.613 Y15.157 I-2.588 J0.0 F1128.
X23.024 Y12.569 I0.0 J-2.588
G01 Y-12.569 F2000.
G03 X25.613 Y-15.157 I2.588 J0.0 F1128.
X28.201 Y-12.569 I0.0 J2.588
G01 Y0.0 F2000.
Y1.334 Z-1.969
Y12.569
G03 X25.613 Y15.157 I-2.588 J0.0 F1128.
X23.024 Y12.569 I0.0 J-2.588
G01 Y-12.569 F2000.
G03 X25.613 Y-15.157 I2.588 J0.0 F1128.
X28.201 Y-12.569 I0.0 J2.588
G01 Y1.334 F2000.
X26.201
Z.031
G00 Z2.5
X9.504 Y-2.
G01 Z2.43
Z-.57 F800.
G03 X11.504 Y0.0 I0.0 J2. F400.
G01 Y12.569 F2000.
G03 X8.519 Y15.553 I-2.984 J0.0 F1197.
X5.535 Y12.569 I0.0 J-2.984
G01 Y-12.569 F2000.
G03 X8.519 Y-15.553 I2.984 J0.0 F1197.
X11.504 Y-12.569 I0.0 J2.984
G01 Y0.0 F2000.
X11.48 Y.222 Z-.582
X11.459 Y.445 Z-.593
X11.44 Y.667 Z-.605
X11.422 Y.89 Z-.617
X11.405 Y1.112 Z-.628
X11.389 Y1.334 Z-.64
Y12.569
G03 X8.519 Y15.438 I-2.869 J0.0 F1179.
X5.65 Y12.569 I0.0 J-2.869
G01 Y-12.569 F2000.
G03 X8.519 Y-15.438 I2.869 J0.0 F1179.
X11.389 Y-12.569 I0.0 J2.869
G01 Y0.0 F2000.
X11.373 Y.222 Z-.652
X11.359 Y.445 Z-.663
X11.345 Y.667 Z-.675
X11.333 Y.89 Z-.686
X11.32 Y1.112 Z-.698
X11.308 Y1.334 Z-.71
Y12.569
G03 X8.519 Y15.358 I-2.789 J0.0 F1165.
X5.73 Y12.569 I0.0 J-2.789
G01 Y-12.569 F2000.
G03 X8.519 Y-15.358 I2.789 J0.0 F1165.
X11.308 Y-12.569 I0.0 J2.789
G01 Y0.0 F2000.
X11.297 Y.222 Z-.721
X11.287 Y.445 Z-.733
X11.276 Y.667 Z-.745
X11.267 Y.89 Z-.756
X11.257 Y1.112 Z-.768
X11.248 Y1.334 Z-.78
Y12.569
G03 X8.519 Y15.298 I-2.729 J0.0 F1154.
X5.79 Y12.569 I0.0 J-2.729
G01 Y-12.569 F2000.
G03 X8.519 Y-15.298 I2.729 J0.0 F1154.
X11.248 Y-12.569 I0.0 J2.729
G01 Y0.0 F2000.
X11.24 Y.222 Z-.791
X11.231 Y.445 Z-.803
X11.224 Y.667 Z-.815
X11.216 Y.89 Z-.826
X11.209 Y1.112 Z-.838
X11.202 Y1.334 Z-.85
Y12.569
G03 X8.519 Y15.251 I-2.683 J0.0 F1146.
X5.837 Y12.569 I0.0 J-2.683
G01 Y-12.569 F2000.
G03 X8.519 Y-15.251 I2.683 J0.0 F1146.
X11.202 Y-12.569 I0.0 J2.683
G01 Y0.0 F2000.
X11.195 Y.222 Z-.861
X11.189 Y.445 Z-.873
X11.183 Y.667 Z-.885
X11.177 Y.89 Z-.896
X11.172 Y1.112 Z-.908
X11.166 Y1.334 Z-.92
Y12.569
G03 X8.519 Y15.216 I-2.647 J0.0 F1139.
X5.872 Y12.569 I0.0 J-2.647
G01 Y-12.569 F2000.
G03 X8.519 Y-15.216 I2.647 J0.0 F1139.
X11.166 Y-12.569 I0.0 J2.647
G01 Y0.0 F2000.
X11.161 Y.222 Z-.931
X11.157 Y.445 Z-.943
X11.152 Y.667 Z-.955
X11.148 Y.89 Z-.966
X11.144 Y1.112 Z-.978
X11.14 Y1.334 Z-.99
Y12.569
G03 X8.519 Y15.19 I-2.621 J0.0 F1134.
X5.898 Y12.569 I0.0 J-2.621
G01 Y-12.569 F2000.
G03 X8.519 Y-15.19 I2.621 J0.0 F1134.
X11.14 Y-12.569 I0.0 J2.621
G01 Y0.0 F2000.
X11.136 Y.222 Z-1.001
X11.133 Y.445 Z-1.013
X11.13 Y.667 Z-1.024
X11.127 Y.89 Z-1.036
X11.124 Y1.112 Z-1.048
X11.122 Y1.334 Z-1.059
Y12.569
G03 X8.519 Y15.171 I-2.603 J0.0 F1131.
X5.917 Y12.569 I0.0 J-2.603
G01 Y-12.569 F2000.
G03 X8.519 Y-15.171 I2.603 J0.0 F1131.
X11.122 Y-12.569 I0.0 J2.603
G01 Y0.0 F2000.
X11.119 Y.222 Z-1.071
X11.117 Y.445 Z-1.083
X11.115 Y.667 Z-1.094
X11.114 Y.89 Z-1.106
X11.112 Y1.112 Z-1.118
X11.111 Y1.334 Z-1.129
Y12.569
G03 X8.519 Y15.16 I-2.592 J0.0 F1129.
X5.928 Y12.569 I0.0 J-2.592
G01 Y-12.569 F2000.
G03 X8.519 Y-15.16 I2.592 J0.0 F1129.
X11.111 Y-12.569 I0.0 J2.592
G01 Y0.0 F2000.
X11.11 Y.222 Z-1.141
X11.109 Y.445 Z-1.153
X11.108 Y.667 Z-1.164
Y.89 Z-1.176
X11.107 Y1.112 Z-1.188
X11.108 Y1.334 Z-1.199
Y12.569
G03 X8.519 Y15.158 I-2.589 J0.0 F1128.
X5.93 Y12.569 I0.0 J-2.589
G01 Y-12.569 F2000.
G03 X8.519 Y-15.158 I2.589 J0.0 F1128.
X11.108 Y-12.569 I0.0 J2.589
G01 Y0.0 F2000.
X11.107 Y.222 Z-1.211
X11.108 Y.445 Z-1.223
Y1.334 Z-1.269
Y12.569
G03 X8.519 Y15.157 I-2.588 J0.0 F1128.
X5.931 Y12.569 I0.0 J-2.588
G01 Y-12.569 F2000.
G03 X8.519 Y-15.157 I2.588 J0.0 F1128.
X11.108 Y-12.569 I0.0 J2.588
G01 Y0.0 F2000.
Y1.334 Z-1.339
Y12.569
G03 X8.519 Y15.157 I-2.588 J0.0 F1128.
X5.931 Y12.569 I0.0 J-2.588
G01 Y-12.569 F2000.
G03 X8.519 Y-15.157 I2.588 J0.0 F1128.
X11.108 Y-12.569 I0.0 J2.588
G01 Y0.0 F2000.
Y1.334 Z-1.409
Y12.569
G03 X8.519 Y15.157 I-2.588 J0.0 F1128.
X5.931 Y12.569 I0.0 J-2.588
G01 Y-12.569 F2000.
G03 X8.519 Y-15.157 I2.588 J0.0 F1128.
X11.108 Y-12.569 I0.0 J2.588
G01 Y0.0 F2000.
Y1.334 Z-1.479
Y12.569
G03 X8.519 Y15.157 I-2.588 J0.0 F1128.
X5.931 Y12.569 I0.0 J-2.588
G01 Y-12.569 F2000.
G03 X8.519 Y-15.157 I2.588 J0.0 F1128.
X11.108 Y-12.569 I0.0 J2.588
G01 Y0.0 F2000.
Y1.334 Z-1.549
Y12.569
G03 X8.519 Y15.157 I-2.588 J0.0 F1128.
X5.931 Y12.569 I0.0 J-2.588
G01 Y-12.569 F2000.
G03 X8.519 Y-15.157 I2.588 J0.0 F1128.
X11.108 Y-12.569 I0.0 J2.588
G01 Y0.0 F2000.
Y1.334 Z-1.619
Y12.569
G03 X8.519 Y15.157 I-2.588 J0.0 F1128.
X5.931 Y12.569 I0.0 J-2.588
G01 Y-12.569 F2000.
G03 X8.519 Y-15.157 I2.588 J0.0 F1128.
X11.108 Y-12.569 I0.0 J2.588
G01 Y0.0 F2000.
Y1.334 Z-1.689
Y12.569
G03 X8.519 Y15.157 I-2.588 J0.0 F1128.
X5.931 Y12.569 I0.0 J-2.588
G01 Y-12.569 F2000.
G03 X8.519 Y-15.157 I2.588 J0.0 F1128.
X11.108 Y-12.569 I0.0 J2.588
G01 Y0.0 F2000.
Y1.334 Z-1.759
Y12.569
G03 X8.519 Y15.157 I-2.588 J0.0 F1128.
X5.931 Y12.569 I0.0 J-2.588
G01 Y-12.569 F2000.
G03 X8.519 Y-15.157 I2.588 J0.0 F1128.
X11.108 Y-12.569 I0.0 J2.588
G01 Y0.0 F2000.
Y1.334 Z-1.829
Y12.569
G03 X8.519 Y15.157 I-2.588 J0.0 F1128.
X5.931 Y12.569 I0.0 J-2.588
G01 Y-12.569 F2000.
G03 X8.519 Y-15.157 I2.588 J0.0 F1128.
X11.108 Y-12.569 I0.0 J2.588
G01 Y0.0 F2000.
Y1.334 Z-1.899
Y12.569
G03 X8.519 Y15.157 I-2.588 J0.0 F1128.
X5.931 Y12.569 I0.0 J-2.588
G01 Y-12.569 F2000.
G03 X8.519 Y-15.157 I2.588 J0.0 F1128.
X11.108 Y-12.569 I0.0 J2.588
G01 Y0.0 F2000.
Y1.334 Z-1.969
Y12.569
G03 X8.519 Y15.157 I-2.588 J0.0 F1128.
X5.931 Y12.569 I0.0 J-2.588
G01 Y-12.569 F2000.
G03 X8.519 Y-15.157 I2.588 J0.0 F1128.
X11.108 Y-12.569 I0.0 J2.588
G01 Y1.334 F2000.
X9.108
Z.031
G00 Z2.5
X-7.59 Y-2.
G01 Z2.43
Z-.57 F800.
G03 X-5.59 Y0.0 I0.0 J2. F400.
G01 Y12.569 F2000.
G03 X-8.574 Y15.553 I-2.984 J0.0 F1197.
X-11.559 Y12.569 I0.0 J-2.984
G01 Y-12.569 F2000.
G03 X-8.574 Y-15.553 I2.984 J0.0 F1197.
X-5.59 Y-12.569 I0.0 J2.984
G01 Y0.0 F2000.
X-5.613 Y.222 Z-.582
X-5.634 Y.445 Z-.593
X-5.654 Y.667 Z-.605
X-5.672 Y.89 Z-.617
X-5.689 Y1.112 Z-.628
X-5.705 Y1.334 Z-.64
Y12.569
G03 X-8.574 Y15.438 I-2.869 J0.0 F1179.
X-11.444 Y12.569 I0.0 J-2.869
G01 Y-12.569 F2000.
G03 X-8.574 Y-15.438 I2.869 J0.0 F1179.
X-5.705 Y-12.569 I0.0 J2.869
G01 Y0.0 F2000.
X-5.72 Y.222 Z-.652
X-5.734 Y.445 Z-.663
X-5.748 Y.667 Z-.675
X-5.761 Y.89 Z-.686
X-5.773 Y1.112 Z-.698
X-5.785 Y1.334 Z-.71
Y12.569
G03 X-8.574 Y15.358 I-2.789 J0.0 F1165.
X-11.363 Y12.569 I0.0 J-2.789
G01 Y-12.569 F2000.
G03 X-8.574 Y-15.358 I2.789 J0.0 F1165.
X-5.785 Y-12.569 I0.0 J2.789
G01 Y0.0 F2000.
X-5.796 Y.222 Z-.721
X-5.807 Y.445 Z-.733
X-5.817 Y.667 Z-.745
X-5.827 Y.89 Z-.756
X-5.836 Y1.112 Z-.768
X-5.845 Y1.334 Z-.78
Y12.569
G03 X-8.574 Y15.298 I-2.729 J0.0 F1154.
X-11.303 Y12.569 I0.0 J-2.729
G01 Y-12.569 F2000.
G03 X-8.574 Y-15.298 I2.729 J0.0 F1154.
X-5.845 Y-12.569 I0.0 J2.729
G01 Y0.0 F2000.
X-5.854 Y.222 Z-.791
X-5.862 Y.445 Z-.803
X-5.87 Y.667 Z-.815
X-5.877 Y.89 Z-.826
X-5.885 Y1.112 Z-.838
X-5.892 Y1.334 Z-.85
Y12.569
G03 X-8.574 Y15.251 I-2.683 J0.0 F1146.
X-11.257 Y12.569 I0.0 J-2.683
G01 Y-12.569 F2000.
G03 X-8.574 Y-15.251 I2.683 J0.0 F1146.
X-5.892 Y-12.569 I0.0 J2.683
G01 Y0.0 F2000.
X-5.898 Y.222 Z-.861
X-5.905 Y.445 Z-.873
X-5.911 Y.667 Z-.885
X-5.916 Y.89 Z-.896
X-5.922 Y1.112 Z-.908
X-5.927 Y1.334 Z-.92
Y12.569
G03 X-8.574 Y15.216 I-2.647 J0.0 F1139.
X-11.221 Y12.569 I0.0 J-2.647
G01 Y-12.569 F2000.
G03 X-8.574 Y-15.216 I2.647 J0.0 F1139.
X-5.927 Y-12.569 I0.0 J2.647
G01 Y0.0 F2000.
X-5.932 Y.222 Z-.931
X-5.937 Y.445 Z-.943
X-5.941 Y.667 Z-.955
X-5.946 Y.89 Z-.966
X-5.95 Y1.112 Z-.978
X-5.953 Y1.334 Z-.99
Y12.569
G03 X-8.574 Y15.19 I-2.621 J0.0 F1134.
X-11.195 Y12.569 I0.0 J-2.621
G01 Y-12.569 F2000.
G03 X-8.574 Y-15.19 I2.621 J0.0 F1134.
X-5.953 Y-12.569 I0.0 J2.621
G01 Y0.0 F2000.
X-5.957 Y.222 Z-1.001
X-5.96 Y.445 Z-1.013
X-5.964 Y.667 Z-1.024
X-5.966 Y.89 Z-1.036
X-5.969 Y1.112 Z-1.048
X-5.972 Y1.334 Z-1.059
Y12.569
G03 X-8.574 Y15.171 I-2.603 J0.0 F1131.
X-11.177 Y12.569 I0.0 J-2.603
G01 Y-12.569 F2000.
G03 X-8.574 Y-15.171 I2.603 J0.0 F1131.
X-5.972 Y-12.569 I0.0 J2.603
G01 Y0.0 F2000.
X-5.974 Y.222 Z-1.071
X-5.976 Y.445 Z-1.083
X-5.978 Y.667 Z-1.094
X-5.98 Y.89 Z-1.106
X-5.981 Y1.112 Z-1.118
X-5.983 Y1.334 Z-1.129
Y12.569
G03 X-8.574 Y15.16 I-2.592 J0.0 F1129.
X-11.166 Y12.569 I0.0 J-2.592
G01 Y-12.569 F2000.
G03 X-8.574 Y-15.16 I2.592 J0.0 F1129.
X-5.983 Y-12.569 I0.0 J2.592
G01 Y0.0 F2000.
X-5.984 Y.222 Z-1.141
X-5.985 Y.445 Z-1.153
Y.667 Z-1.164
X-5.986 Y.89 Z-1.176
Y1.112 Z-1.188
X-5.985 Y1.334 Z-1.199
Y12.569
G03 X-8.574 Y15.158 I-2.589 J0.0 F1128.
X-11.163 Y12.569 I0.0 J-2.589
G01 Y-12.569 F2000.
G03 X-8.574 Y-15.158 I2.589 J0.0 F1128.
X-5.985 Y-12.569 I0.0 J2.589
G01 Y0.0 F2000.
X-5.986 Y.222 Z-1.211
Y.445 Z-1.223
Y1.334 Z-1.269
Y12.569
G03 X-8.574 Y15.157 I-2.588 J0.0 F1128.
X-11.163 Y12.569 I0.0 J-2.588
G01 Y-12.569 F2000.
G03 X-8.574 Y-15.157 I2.588 J0.0 F1128.
X-5.986 Y-12.569 I0.0 J2.588
G01 Y0.0 F2000.
Y1.334 Z-1.339
Y12.569
G03 X-8.574 Y15.157 I-2.588 J0.0 F1128.
X-11.163 Y12.569 I0.0 J-2.588
G01 Y-12.569 F2000.
G03 X-8.574 Y-15.157 I2.588 J0.0 F1128.
X-5.986 Y-12.569 I0.0 J2.588
G01 Y0.0 F2000.
Y1.334 Z-1.409
Y12.569
G03 X-8.574 Y15.157 I-2.588 J0.0 F1128.
X-11.163 Y12.569 I0.0 J-2.588
G01 Y-12.569 F2000.
G03 X-8.574 Y-15.157 I2.588 J0.0 F1128.
X-5.986 Y-12.569 I0.0 J2.588
G01 Y0.0 F2000.
Y1.334 Z-1.479
Y12.569
G03 X-8.574 Y15.157 I-2.588 J0.0 F1128.
X-11.163 Y12.569 I0.0 J-2.588
G01 Y-12.569 F2000.
G03 X-8.574 Y-15.157 I2.588 J0.0 F1128.
X-5.986 Y-12.569 I0.0 J2.588
G01 Y0.0 F2000.
Y1.334 Z-1.549
Y12.569
G03 X-8.574 Y15.157 I-2.588 J0.0 F1128.
X-11.163 Y12.569 I0.0 J-2.588
G01 Y-12.569 F2000.
G03 X-8.574 Y-15.157 I2.588 J0.0 F1128.
X-5.986 Y-12.569 I0.0 J2.588
G01 Y0.0 F2000.
Y1.334 Z-1.619
Y12.569
G03 X-8.574 Y15.157 I-2.588 J0.0 F1128.
X-11.163 Y12.569 I0.0 J-2.588
G01 Y-12.569 F2000.
G03 X-8.574 Y-15.157 I2.588 J0.0 F1128.
X-5.986 Y-12.569 I0.0 J2.588
G01 Y0.0 F2000.
Y1.334 Z-1.689
Y12.569
G03 X-8.574 Y15.157 I-2.588 J0.0 F1128.
X-11.163 Y12.569 I0.0 J-2.588
G01 Y-12.569 F2000.
G03 X-8.574 Y-15.157 I2.588 J0.0 F1128.
X-5.986 Y-12.569 I0.0 J2.588
G01 Y0.0 F2000.
Y1.334 Z-1.759
Y12.569
G03 X-8.574 Y15.157 I-2.588 J0.0 F1128.
X-11.163 Y12.569 I0.0 J-2.588
G01 Y-12.569 F2000.
G03 X-8.574 Y-15.157 I2.588 J0.0 F1128.
X-5.986 Y-12.569 I0.0 J2.588
G01 Y0.0 F2000.
Y1.334 Z-1.829
Y12.569
G03 X-8.574 Y15.157 I-2.588 J0.0 F1128.
X-11.163 Y12.569 I0.0 J-2.588
G01 Y-12.569 F2000.
G03 X-8.574 Y-15.157 I2.588 J0.0 F1128.
X-5.986 Y-12.569 I0.0 J2.588
G01 Y0.0 F2000.
Y1.334 Z-1.899
Y12.569
G03 X-8.574 Y15.157 I-2.588 J0.0 F1128.
X-11.163 Y12.569 I0.0 J-2.588
G01 Y-12.569 F2000.
G03 X-8.574 Y-15.157 I2.588 J0.0 F1128.
X-5.986 Y-12.569 I0.0 J2.588
G01 Y0.0 F2000.
Y1.334 Z-1.969
Y12.569
G03 X-8.574 Y15.157 I-2.588 J0.0 F1128.
X-11.163 Y12.569 I0.0 J-2.588
G01 Y-12.569 F2000.
G03 X-8.574 Y-15.157 I2.588 J0.0 F1128.
X-5.986 Y-12.569 I0.0 J2.588
G01 Y1.334 F2000.
X-7.986
Z.031
G00 Z2.5
X-24.683 Y-2.
G01 Z2.43
Z-.57 F800.
G03 X-22.683 Y0.0 I0.0 J2. F400.
G01 Y12.569 F2000.
G03 X-25.668 Y15.553 I-2.984 J0.0 F1197.
X-28.652 Y12.569 I0.0 J-2.984
G01 Y-12.569 F2000.
G03 X-25.668 Y-15.553 I2.984 J0.0 F1197.
X-22.683 Y-12.569 I0.0 J2.984
G01 Y0.0 F2000.
X-22.707 Y.222 Z-.582
X-22.728 Y.445 Z-.593
X-22.747 Y.667 Z-.605
X-22.765 Y.89 Z-.617
X-22.782 Y1.112 Z-.628
X-22.798 Y1.334 Z-.64
Y12.569
G03 X-25.668 Y15.438 I-2.869 J0.0 F1179.
X-28.537 Y12.569 I0.0 J-2.869
G01 Y-12.569 F2000.
G03 X-25.668 Y-15.438 I2.869 J0.0 F1179.
X-22.798 Y-12.569 I0.0 J2.869
G01 Y0.0 F2000.
X-22.814 Y.222 Z-.652
X-22.828 Y.445 Z-.663
X-22.842 Y.667 Z-.675
X-22.854 Y.89 Z-.686
X-22.867 Y1.112 Z-.698
X-22.879 Y1.334 Z-.71
Y12.569
G03 X-25.668 Y15.358 I-2.789 J0.0 F1165.
X-28.457 Y12.569 I0.0 J-2.789
G01 Y-12.569 F2000.
G03 X-25.668 Y-15.358 I2.789 J0.0 F1165.
X-22.879 Y-12.569 I0.0 J2.789
G01 Y0.0 F2000.
X-22.89 Y.222 Z-.721
X-22.9 Y.445 Z-.733
X-22.911 Y.667 Z-.745
X-22.92 Y.89 Z-.756
X-22.93 Y1.112 Z-.768
X-22.939 Y1.334 Z-.78
Y12.569
G03 X-25.668 Y15.298 I-2.729 J0.0 F1154.
X-28.397 Y12.569 I0.0 J-2.729
G01 Y-12.569 F2000.
G03 X-25.668 Y-15.298 I2.729 J0.0 F1154.
X-22.939 Y-12.569 I0.0 J2.729
G01 Y0.0 F2000.
X-22.947 Y.222 Z-.791
X-22.956 Y.445 Z-.803
X-22.963 Y.667 Z-.815
X-22.971 Y.89 Z-.826
X-22.978 Y1.112 Z-.838
X-22.985 Y1.334 Z-.85
Y12.569
G03 X-25.668 Y15.251 I-2.683 J0.0 F1146.
X-28.35 Y12.569 I0.0 J-2.683
G01 Y-12.569 F2000.
G03 X-25.668 Y-15.251 I2.683 J0.0 F1146.
X-22.985 Y-12.569 I0.0 J2.683
G01 Y0.0 F2000.
X-22.992 Y.222 Z-.861
X-22.998 Y.445 Z-.873
X-23.004 Y.667 Z-.885
X-23.01 Y.89 Z-.896
X-23.015 Y1.112 Z-.908
X-23.021 Y1.334 Z-.92
Y12.569
G03 X-25.668 Y15.216 I-2.647 J0.0 F1139.
X-28.315 Y12.569 I0.0 J-2.647
G01 Y-12.569 F2000.
G03 X-25.668 Y-15.216 I2.647 J0.0 F1139.
X-23.021 Y-12.569 I0.0 J2.647
G01 Y0.0 F2000.
X-23.026 Y.222 Z-.931
X-23.03 Y.445 Z-.943
X-23.035 Y.667 Z-.955
X-23.039 Y.89 Z-.966
X-23.043 Y1.112 Z-.978
X-23.047 Y1.334 Z-.99
Y12.569
G03 X-25.668 Y15.19 I-2.621 J0.0 F1134.
X-28.289 Y12.569 I0.0 J-2.621
G01 Y-12.569 F2000.
G03 X-25.668 Y-15.19 I2.621 J0.0 F1134.
X-23.047 Y-12.569 I0.0 J2.621
G01 Y0.0 F2000.
X-23.051 Y.222 Z-1.001
X-23.054 Y.445 Z-1.013
X-23.057 Y.667 Z-1.024
X-23.06 Y.89 Z-1.036
X-23.063 Y1.112 Z-1.048
X-23.065 Y1.334 Z-1.059
Y12.569
G03 X-25.668 Y15.171 I-2.603 J0.0 F1131.
X-28.27 Y12.569 I0.0 J-2.603
G01 Y-12.569 F2000.
G03 X-25.668 Y-15.171 I2.603 J0.0 F1131.
X-23.065 Y-12.569 I0.0 J2.603
G01 Y0.0 F2000.
X-23.068 Y.222 Z-1.071
X-23.07 Y.445 Z-1.083
X-23.072 Y.667 Z-1.094
X-23.073 Y.89 Z-1.106
X-23.075 Y1.112 Z-1.118
X-23.076 Y1.334 Z-1.129
Y12.569
G03 X-25.668 Y15.16 I-2.592 J0.0 F1129.
X-28.259 Y12.569 I0.0 J-2.592
G01 Y-12.569 F2000.
G03 X-25.668 Y-15.16 I2.592 J0.0 F1129.
X-23.076 Y-12.569 I0.0 J2.592
G01 Y0.0 F2000.
X-23.077 Y.222 Z-1.141
X-23.078 Y.445 Z-1.153
X-23.079 Y.667 Z-1.164
Y.89 Z-1.176
X-23.08 Y1.112 Z-1.188
X-23.079 Y1.334 Z-1.199
Y12.569
G03 X-25.668 Y15.158 I-2.589 J0.0 F1128.
X-28.257 Y12.569 I0.0 J-2.589
G01 Y-12.569 F2000.
G03 X-25.668 Y-15.158 I2.589 J0.0 F1128.
X-23.079 Y-12.569 I0.0 J2.589
G01 Y0.0 F2000.
X-23.08 Y.222 Z-1.211
X-23.079 Y.445 Z-1.223
Y1.334 Z-1.269
Y12.569
G03 X-25.668 Y15.157 I-2.588 J0.0 F1128.
X-28.256 Y12.569 I0.0 J-2.588
G01 Y-12.569 F2000.
G03 X-25.668 Y-15.157 I2.588 J0.0 F1128.
X-23.079 Y-12.569 I0.0 J2.588
G01 Y0.0 F2000.
Y1.334 Z-1.339
Y12.569
G03 X-25.668 Y15.157 I-2.588 J0.0 F1128.
X-28.256 Y12.569 I0.0 J-2.588
G01 Y-12.569 F2000.
G03 X-25.668 Y-15.157 I2.588 J0.0 F1128.
X-23.079 Y-12.569 I0.0 J2.588
G01 Y0.0 F2000.
Y1.334 Z-1.409
Y12.569
G03 X-25.668 Y15.157 I-2.588 J0.0 F1128.
X-28.256 Y12.569 I0.0 J-2.588
G01 Y-12.569 F2000.
G03 X-25.668 Y-15.157 I2.588 J0.0 F1128.
X-23.079 Y-12.569 I0.0 J2.588
G01 Y0.0 F2000.
Y1.334 Z-1.479
Y12.569
G03 X-25.668 Y15.157 I-2.588 J0.0 F1128.
X-28.256 Y12.569 I0.0 J-2.588
G01 Y-12.569 F2000.
G03 X-25.668 Y-15.157 I2.588 J0.0 F1128.
X-23.079 Y-12.569 I0.0 J2.588
G01 Y0.0 F2000.
Y1.334 Z-1.549
Y12.569
G03 X-25.668 Y15.157 I-2.588 J0.0 F1128.
X-28.256 Y12.569 I0.0 J-2.588
G01 Y-12.569 F2000.
G03 X-25.668 Y-15.157 I2.588 J0.0 F1128.
X-23.079 Y-12.569 I0.0 J2.588
G01 Y0.0 F2000.
Y1.334 Z-1.619
Y12.569
G03 X-25.668 Y15.157 I-2.588 J0.0 F1128.
X-28.256 Y12.569 I0.0 J-2.588
G01 Y-12.569 F2000.
G03 X-25.668 Y-15.157 I2.588 J0.0 F1128.
X-23.079 Y-12.569 I0.0 J2.588
G01 Y0.0 F2000.
Y1.334 Z-1.689
Y12.569
G03 X-25.668 Y15.157 I-2.588 J0.0 F1128.
X-28.256 Y12.569 I0.0 J-2.588
G01 Y-12.569 F2000.
G03 X-25.668 Y-15.157 I2.588 J0.0 F1128.
X-23.079 Y-12.569 I0.0 J2.588
G01 Y0.0 F2000.
Y1.334 Z-1.759
Y12.569
G03 X-25.668 Y15.157 I-2.588 J0.0 F1128.
X-28.256 Y12.569 I0.0 J-2.588
G01 Y-12.569 F2000.
G03 X-25.668 Y-15.157 I2.588 J0.0 F1128.
X-23.079 Y-12.569 I0.0 J2.588
G01 Y0.0 F2000.
Y1.334 Z-1.829
Y12.569
G03 X-25.668 Y15.157 I-2.588 J0.0 F1128.
X-28.256 Y12.569 I0.0 J-2.588
G01 Y-12.569 F2000.
G03 X-25.668 Y-15.157 I2.588 J0.0 F1128.
X-23.079 Y-12.569 I0.0 J2.588
G01 Y0.0 F2000.
Y1.334 Z-1.899
Y12.569
G03 X-25.668 Y15.157 I-2.588 J0.0 F1128.
X-28.256 Y12.569 I0.0 J-2.588
G01 Y-12.569 F2000.
G03 X-25.668 Y-15.157 I2.588 J0.0 F1128.
X-23.079 Y-12.569 I0.0 J2.588
G01 Y0.0 F2000.
Y1.334 Z-1.969
Y12.569
G03 X-25.668 Y15.157 I-2.588 J0.0 F1128.
X-28.256 Y12.569 I0.0 J-2.588
G01 Y-12.569 F2000.
G03 X-25.668 Y-15.157 I2.588 J0.0 F1128.
X-23.079 Y-12.569 I0.0 J2.588
G01 Y1.334 F2000.
X-25.079
Z.031
G00 Z2.5
X-41.777 Y-2.
G01 Z2.43
Z-.57 F800.
G03 X-39.777 Y0.0 I0.0 J2. F400.
G01 Y12.569 F2000.
G03 X-42.761 Y15.553 I-2.984 J0.0 F1197.
X-45.746 Y12.569 I0.0 J-2.984
G01 Y-12.569 F2000.
G03 X-42.761 Y-15.553 I2.984 J0.0 F1197.
X-39.777 Y-12.569 I0.0 J2.984
G01 Y0.0 F2000.
X-39.8 Y.222 Z-.582
X-39.821 Y.445 Z-.593
X-39.841 Y.667 Z-.605
X-39.859 Y.89 Z-.617
X-39.876 Y1.112 Z-.628
X-39.892 Y1.334 Z-.64
Y12.569
G03 X-42.761 Y15.438 I-2.869 J0.0 F1179.
X-45.631 Y12.569 I0.0 J-2.869
G01 Y-12.569 F2000.
G03 X-42.761 Y-15.438 I2.869 J0.0 F1179.
X-39.892 Y-12.569 I0.0 J2.869
G01 Y0.0 F2000.
X-39.907 Y.222 Z-.652
X-39.921 Y.445 Z-.663
X-39.935 Y.667 Z-.675
X-39.948 Y.89 Z-.686
X-39.96 Y1.112 Z-.698
X-39.972 Y1.334 Z-.71
Y12.569
G03 X-42.761 Y15.358 I-2.789 J0.0 F1165.
X-45.55 Y12.569 I0.0 J-2.789
G01 Y-12.569 F2000.
G03 X-42.761 Y-15.358 I2.789 J0.0 F1165.
X-39.972 Y-12.569 I0.0 J2.789
G01 Y0.0 F2000.
X-39.983 Y.222 Z-.721
X-39.994 Y.445 Z-.733
X-40.004 Y.667 Z-.745
X-40.014 Y.89 Z-.756
X-40.023 Y1.112 Z-.768
X-40.032 Y1.334 Z-.78
Y12.569
G03 X-42.761 Y15.298 I-2.729 J0.0 F1154.
X-45.49 Y12.569 I0.0 J-2.729
G01 Y-12.569 F2000.
G03 X-42.761 Y-15.298 I2.729 J0.0 F1154.
X-40.032 Y-12.569 I0.0 J2.729
G01 Y0.0 F2000.
X-40.041 Y.222 Z-.791
X-40.049 Y.445 Z-.803
X-40.057 Y.667 Z-.815
X-40.064 Y.89 Z-.826
X-40.072 Y1.112 Z-.838
X-40.079 Y1.334 Z-.85
Y12.569
G03 X-42.761 Y15.251 I-2.683 J0.0 F1146.
X-45.444 Y12.569 I0.0 J-2.683
G01 Y-12.569 F2000.
G03 X-42.761 Y-15.251 I2.683 J0.0 F1146.
X-40.079 Y-12.569 I0.0 J2.683
G01 Y0.0 F2000.
X-40.085 Y.222 Z-.861
X-40.092 Y.445 Z-.873
X-40.098 Y.667 Z-.885
X-40.103 Y.89 Z-.896
X-40.109 Y1.112 Z-.908
X-40.114 Y1.334 Z-.92
Y12.569
G03 X-42.761 Y15.216 I-2.647 J0.0 F1139.
X-45.408 Y12.569 I0.0 J-2.647
G01 Y-12.569 F2000.
G03 X-42.761 Y-15.216 I2.647 J0.0 F1139.
X-40.114 Y-12.569 I0.0 J2.647
G01 Y0.0 F2000.
X-40.119 Y.222 Z-.931
X-40.124 Y.445 Z-.943
X-40.128 Y.667 Z-.955
X-40.133 Y.89 Z-.966
X-40.137 Y1.112 Z-.978
X-40.14 Y1.334 Z-.99
Y12.569
G03 X-42.761 Y15.19 I-2.621 J0.0 F1134.
X-45.382 Y12.569 I0.0 J-2.621
G01 Y-12.569 F2000.
G03 X-42.761 Y-15.19 I2.621 J0.0 F1134.
X-40.14 Y-12.569 I0.0 J2.621
G01 Y0.0 F2000.
X-40.144 Y.222 Z-1.001
X-40.147 Y.445 Z-1.013
X-40.151 Y.667 Z-1.024
X-40.153 Y.89 Z-1.036
X-40.156 Y1.112 Z-1.048
X-40.159 Y1.334 Z-1.059
Y12.569
G03 X-42.761 Y15.171 I-2.603 J0.0 F1131.
X-45.364 Y12.569 I0.0 J-2.603
G01 Y-12.569 F2000.
G03 X-42.761 Y-15.171 I2.603 J0.0 F1131.
X-40.159 Y-12.569 I0.0 J2.603
G01 Y0.0 F2000.
X-40.161 Y.222 Z-1.071
X-40.163 Y.445 Z-1.083
X-40.165 Y.667 Z-1.094
X-40.167 Y.89 Z-1.106
X-40.168 Y1.112 Z-1.118
X-40.17 Y1.334 Z-1.129
Y12.569
G03 X-42.761 Y15.16 I-2.592 J0.0 F1129.
X-45.353 Y12.569 I0.0 J-2.592
G01 Y-12.569 F2000.
G03 X-42.761 Y-15.16 I2.592 J0.0 F1129.
X-40.17 Y-12.569 I0.0 J2.592
G01 Y0.0 F2000.
X-40.171 Y.222 Z-1.141
X-40.172 Y.445 Z-1.153
Y.667 Z-1.164
X-40.173 Y.89 Z-1.176
Y1.112 Z-1.188
X-40.172 Y1.334 Z-1.199
Y12.569
G03 X-42.761 Y15.158 I-2.589 J0.0 F1128.
X-45.35 Y12.569 I0.0 J-2.589
G01 Y-12.569 F2000.
G03 X-42.761 Y-15.158 I2.589 J0.0 F1128.
X-40.172 Y-12.569 I0.0 J2.589
G01 Y0.0 F2000.
X-40.173 Y.222 Z-1.211
Y.445 Z-1.223
Y1.334 Z-1.269
Y12.569
G03 X-42.761 Y15.157 I-2.588 J0.0 F1128.
X-45.35 Y12.569 I0.0 J-2.588
G01 Y-12.569 F2000.
G03 X-42.761 Y-15.157 I2.588 J0.0 F1128.
X-40.173 Y-12.569 I0.0 J2.588
G01 Y0.0 F2000.
Y1.334 Z-1.339
Y12.569
G03 X-42.761 Y15.157 I-2.588 J0.0 F1128.
X-45.35 Y12.569 I0.0 J-2.588
G01 Y-12.569 F2000.
G03 X-42.761 Y-15.157 I2.588 J0.0 F1128.
X-40.173 Y-12.569 I0.0 J2.588
G01 Y0.0 F2000.
Y1.334 Z-1.409
Y12.569
G03 X-42.761 Y15.157 I-2.588 J0.0 F1128.
X-45.35 Y12.569 I0.0 J-2.588
G01 Y-12.569 F2000.
G03 X-42.761 Y-15.157 I2.588 J0.0 F1128.
X-40.173 Y-12.569 I0.0 J2.588
G01 Y0.0 F2000.
Y1.334 Z-1.479
Y12.569
G03 X-42.761 Y15.157 I-2.588 J0.0 F1128.
X-45.35 Y12.569 I0.0 J-2.588
G01 Y-12.569 F2000.
G03 X-42.761 Y-15.157 I2.588 J0.0 F1128.
X-40.173 Y-12.569 I0.0 J2.588
G01 Y0.0 F2000.
Y1.334 Z-1.549
Y12.569
G03 X-42.761 Y15.157 I-2.588 J0.0 F1128.
X-45.35 Y12.569 I0.0 J-2.588
G01 Y-12.569 F2000.
G03 X-42.761 Y-15.157 I2.588 J0.0 F1128.
X-40.173 Y-12.569 I0.0 J2.588
G01 Y0.0 F2000.
Y1.334 Z-1.619
Y12.569
G03 X-42.761 Y15.157 I-2.588 J0.0 F1128.
X-45.35 Y12.569 I0.0 J-2.588
G01 Y-12.569 F2000.
G03 X-42.761 Y-15.157 I2.588 J0.0 F1128.
X-40.173 Y-12.569 I0.0 J2.588
G01 Y0.0 F2000.
Y1.334 Z-1.689
Y12.569
G03 X-42.761 Y15.157 I-2.588 J0.0 F1128.
X-45.35 Y12.569 I0.0 J-2.588
G01 Y-12.569 F2000.
G03 X-42.761 Y-15.157 I2.588 J0.0 F1128.
X-40.173 Y-12.569 I0.0 J2.588
G01 Y0.0 F2000.
Y1.334 Z-1.759
Y12.569
G03 X-42.761 Y15.157 I-2.588 J0.0 F1128.
X-45.35 Y12.569 I0.0 J-2.588
G01 Y-12.569 F2000.
G03 X-42.761 Y-15.157 I2.588 J0.0 F1128.
X-40.173 Y-12.569 I0.0 J2.588
G01 Y0.0 F2000.
Y1.334 Z-1.829
Y12.569
G03 X-42.761 Y15.157 I-2.588 J0.0 F1128.
X-45.35 Y12.569 I0.0 J-2.588
G01 Y-12.569 F2000.
G03 X-42.761 Y-15.157 I2.588 J0.0 F1128.
X-40.173 Y-12.569 I0.0 J2.588
G01 Y0.0 F2000.
Y1.334 Z-1.899
Y12.569
G03 X-42.761 Y15.157 I-2.588 J0.0 F1128.
X-45.35 Y12.569 I0.0 J-2.588
G01 Y-12.569 F2000.
G03 X-42.761 Y-15.157 I2.588 J0.0 F1128.
X-40.173 Y-12.569 I0.0 J2.588
G01 Y0.0 F2000.
Y1.334 Z-1.969
Y12.569
G03 X-42.761 Y15.157 I-2.588 J0.0 F1128.
X-45.35 Y12.569 I0.0 J-2.588
G01 Y-12.569 F2000.
G03 X-42.761 Y-15.157 I2.588 J0.0 F1128.
X-40.173 Y-12.569 I0.0 J2.588
G01 Y1.334 F2000.
X-42.173
Z.031
G00 Z2.5
X-58.87 Y-2.
G01 Z2.43
Z-.57 F800.
G03 X-56.87 Y0.0 I0.0 J2. F400.
G01 Y12.569 F2000.
G03 X-59.855 Y15.553 I-2.984 J0.0 F1197.
X-62.839 Y12.569 I0.0 J-2.984
G01 Y-12.569 F2000.
G03 X-59.855 Y-15.553 I2.984 J0.0 F1197.
X-56.87 Y-12.569 I0.0 J2.984
G01 Y0.0 F2000.
X-56.894 Y.222 Z-.582
X-56.915 Y.445 Z-.593
X-56.934 Y.667 Z-.605
X-56.952 Y.89 Z-.617
X-56.969 Y1.112 Z-.628
X-56.985 Y1.334 Z-.64
Y12.569
G03 X-59.855 Y15.438 I-2.869 J0.0 F1179.
X-62.724 Y12.569 I0.0 J-2.869
G01 Y-12.569 F2000.
G03 X-59.855 Y-15.438 I2.869 J0.0 F1179.
X-56.985 Y-12.569 I0.0 J2.869
G01 Y0.0 F2000.
X-57.001 Y.222 Z-.652
X-57.015 Y.445 Z-.663
X-57.029 Y.667 Z-.675
X-57.041 Y.89 Z-.686
X-57.054 Y1.112 Z-.698
X-57.066 Y1.334 Z-.71
Y12.569
G03 X-59.855 Y15.358 I-2.789 J0.0 F1165.
X-62.644 Y12.569 I0.0 J-2.789
G01 Y-12.569 F2000.
G03 X-59.855 Y-15.358 I2.789 J0.0 F1165.
X-57.066 Y-12.569 I0.0 J2.789
G01 Y0.0 F2000.
X-57.077 Y.222 Z-.721
X-57.087 Y.445 Z-.733
X-57.098 Y.667 Z-.745
X-57.107 Y.89 Z-.756
X-57.117 Y1.112 Z-.768
X-57.126 Y1.334 Z-.78
Y12.569
G03 X-59.855 Y15.298 I-2.729 J0.0 F1154.
X-62.584 Y12.569 I0.0 J-2.729
G01 Y-12.569 F2000.
G03 X-59.855 Y-15.298 I2.729 J0.0 F1154.
X-57.126 Y-12.569 I0.0 J2.729
G01 Y0.0 F2000.
X-57.134 Y.222 Z-.791
X-57.143 Y.445 Z-.803
X-57.15 Y.667 Z-.815
X-57.158 Y.89 Z-.826
X-57.165 Y1.112 Z-.838
X-57.172 Y1.334 Z-.85
Y12.569
G03 X-59.855 Y15.251 I-2.683 J0.0 F1146.
X-62.537 Y12.569 I0.0 J-2.683
G01 Y-12.569 F2000.
G03 X-59.855 Y-15.251 I2.683 J0.0 F1146.
X-57.172 Y-12.569 I0.0 J2.683
G01 Y0.0 F2000.
X-57.179 Y.222 Z-.861
X-57.185 Y.445 Z-.873
X-57.191 Y.667 Z-.885
X-57.197 Y.89 Z-.896
X-57.202 Y1.112 Z-.908
X-57.208 Y1.334 Z-.92
Y12.569
G03 X-59.855 Y15.216 I-2.647 J0.0 F1139.
X-62.502 Y12.569 I0.0 J-2.647
G01 Y-12.569 F2000.
G03 X-59.855 Y-15.216 I2.647 J0.0 F1139.
X-57.208 Y-12.569 I0.0 J2.647
G01 Y0.0 F2000.
X-57.213 Y.222 Z-.931
X-57.217 Y.445 Z-.943
X-57.222 Y.667 Z-.955
X-57.226 Y.89 Z-.966
X-57.23 Y1.112 Z-.978
X-57.234 Y1.334 Z-.99
Y12.569
G03 X-59.855 Y15.19 I-2.621 J0.0 F1134.
X-62.476 Y12.569 I0.0 J-2.621
G01 Y-12.569 F2000.
G03 X-59.855 Y-15.19 I2.621 J0.0 F1134.
X-57.234 Y-12.569 I0.0 J2.621
G01 Y0.0 F2000.
X-57.238 Y.222 Z-1.001
X-57.241 Y.445 Z-1.013
X-57.244 Y.667 Z-1.024
X-57.247 Y.89 Z-1.036
X-57.25 Y1.112 Z-1.048
X-57.252 Y1.334 Z-1.059
Y12.569
G03 X-59.855 Y15.171 I-2.603 J0.0 F1131.
X-62.457 Y12.569 I0.0 J-2.603
G01 Y-12.569 F2000.
G03 X-59.855 Y-15.171 I2.603 J0.0 F1131.
X-57.252 Y-12.569 I0.0 J2.603
G01 Y0.0 F2000.
X-57.255 Y.222 Z-1.071
X-57.257 Y.445 Z-1.083
X-57.259 Y.667 Z-1.094
X-57.26 Y.89 Z-1.106
X-57.262 Y1.112 Z-1.118
X-57.263 Y1.334 Z-1.129
Y12.569
G03 X-59.855 Y15.16 I-2.592 J0.0 F1129.
X-62.446 Y12.569 I0.0 J-2.592
G01 Y-12.569 F2000.
G03 X-59.855 Y-15.16 I2.592 J0.0 F1129.
X-57.263 Y-12.569 I0.0 J2.592
G01 Y0.0 F2000.
X-57.264 Y.222 Z-1.141
X-57.265 Y.445 Z-1.153
X-57.266 Y.667 Z-1.164
Y.89 Z-1.176
X-57.267 Y1.112 Z-1.188
X-57.266 Y1.334 Z-1.199
Y12.569
G03 X-59.855 Y15.158 I-2.589 J0.0 F1128.
X-62.444 Y12.569 I0.0 J-2.589
G01 Y-12.569 F2000.
G03 X-59.855 Y-15.158 I2.589 J0.0 F1128.
X-57.266 Y-12.569 I0.0 J2.589
G01 Y0.0 F2000.
X-57.267 Y.222 Z-1.211
X-57.266 Y.445 Z-1.223
Y1.334 Z-1.269
Y12.569
G03 X-59.855 Y15.157 I-2.588 J0.0 F1128.
X-62.443 Y12.569 I0.0 J-2.588
G01 Y-12.569 F2000.
G03 X-59.855 Y-15.157 I2.588 J0.0 F1128.
X-57.266 Y-12.569 I0.0 J2.588
G01 Y0.0 F2000.
Y1.334 Z-1.339
Y12.569
G03 X-59.855 Y15.157 I-2.588 J0.0 F1128.
X-62.443 Y12.569 I0.0 J-2.588
G01 Y-12.569 F2000.
G03 X-59.855 Y-15.157 I2.588 J0.0 F1128.
X-57.266 Y-12.569 I0.0 J2.588
G01 Y0.0 F2000.
Y1.334 Z-1.409
Y12.569
G03 X-59.855 Y15.157 I-2.588 J0.0 F1128.
X-62.443 Y12.569 I0.0 J-2.588
G01 Y-12.569 F2000.
G03 X-59.855 Y-15.157 I2.588 J0.0 F1128.
X-57.266 Y-12.569 I0.0 J2.588
G01 Y0.0 F2000.
Y1.334 Z-1.479
Y12.569
G03 X-59.855 Y15.157 I-2.588 J0.0 F1128.
X-62.443 Y12.569 I0.0 J-2.588
G01 Y-12.569 F2000.
G03 X-59.855 Y-15.157 I2.588 J0.0 F1128.
X-57.266 Y-12.569 I0.0 J2.588
G01 Y0.0 F2000.
Y1.334 Z-1.549
Y12.569
G03 X-59.855 Y15.157 I-2.588 J0.0 F1128.
X-62.443 Y12.569 I0.0 J-2.588
G01 Y-12.569 F2000.
G03 X-59.855 Y-15.157 I2.588 J0.0 F1128.
X-57.266 Y-12.569 I0.0 J2.588
G01 Y0.0 F2000.
Y1.334 Z-1.619
Y12.569
G03 X-59.855 Y15.157 I-2.588 J0.0 F1128.
X-62.443 Y12.569 I0.0 J-2.588
G01 Y-12.569 F2000.
G03 X-59.855 Y-15.157 I2.588 J0.0 F1128.
X-57.266 Y-12.569 I0.0 J2.588
G01 Y0.0 F2000.
Y1.334 Z-1.689
Y12.569
G03 X-59.855 Y15.157 I-2.588 J0.0 F1128.
X-62.443 Y12.569 I0.0 J-2.588
G01 Y-12.569 F2000.
G03 X-59.855 Y-15.157 I2.588 J0.0 F1128.
X-57.266 Y-12.569 I0.0 J2.588
G01 Y0.0 F2000.
Y1.334 Z-1.759
Y12.569
G03 X-59.855 Y15.157 I-2.588 J0.0 F1128.
X-62.443 Y12.569 I0.0 J-2.588
G01 Y-12.569 F2000.
G03 X-59.855 Y-15.157 I2.588 J0.0 F1128.
X-57.266 Y-12.569 I0.0 J2.588
G01 Y0.0 F2000.
Y1.334 Z-1.829
Y12.569
G03 X-59.855 Y15.157 I-2.588 J0.0 F1128.
X-62.443 Y12.569 I0.0 J-2.588
G01 Y-12.569 F2000.
G03 X-59.855 Y-15.157 I2.588 J0.0 F1128.
X-57.266 Y-12.569 I0.0 J2.588
G01 Y0.0 F2000.
Y1.334 Z-1.899
Y12.569
G03 X-59.855 Y15.157 I-2.588 J0.0 F1128.
X-62.443 Y12.569 I0.0 J-2.588
G01 Y-12.569 F2000.
G03 X-59.855 Y-15.157 I2.588 J0.0 F1128.
X-57.266 Y-12.569 I0.0 J2.588
G01 Y0.0 F2000.
Y1.334 Z-1.969
Y12.569
G03 X-59.855 Y15.157 I-2.588 J0.0 F1128.
X-62.443 Y12.569 I0.0 J-2.588
G01 Y-12.569 F2000.
G03 X-59.855 Y-15.157 I2.588 J0.0 F1128.
X-57.266 Y-12.569 I0.0 J2.588
G01 Y1.334 F2000.
X-59.266
Z.031
G00 Z2.5
X-75.964 Y-2.
G01 Z2.43
Z-.57 F800.
G03 X-73.964 Y0.0 I0.0 J2. F400.
G01 Y12.569 F2000.
G03 X-76.948 Y15.553 I-2.984 J0.0 F1197.
X-79.933 Y12.569 I0.0 J-2.984
G01 Y-12.569 F2000.
G03 X-76.948 Y-15.553 I2.984 J0.0 F1197.
X-73.964 Y-12.569 I0.0 J2.984
G01 Y0.0 F2000.
X-73.987 Y.222 Z-.582
X-74.008 Y.445 Z-.593
X-74.028 Y.667 Z-.605
X-74.046 Y.89 Z-.617
X-74.063 Y1.112 Z-.628
X-74.079 Y1.334 Z-.64
Y12.569
G03 X-76.948 Y15.438 I-2.869 J0.0 F1179.
X-79.818 Y12.569 I0.0 J-2.869
G01 Y-12.569 F2000.
G03 X-76.948 Y-15.438 I2.869 J0.0 F1179.
X-74.079 Y-12.569 I0.0 J2.869
G01 Y0.0 F2000.
X-74.094 Y.222 Z-.652
X-74.108 Y.445 Z-.663
X-74.122 Y.667 Z-.675
X-74.135 Y.89 Z-.686
X-74.147 Y1.112 Z-.698
X-74.159 Y1.334 Z-.71
Y12.569
G03 X-76.948 Y15.358 I-2.789 J0.0 F1165.
X-79.737 Y12.569 I0.0 J-2.789
G01 Y-12.569 F2000.
G03 X-76.948 Y-15.358 I2.789 J0.0 F1165.
X-74.159 Y-12.569 I0.0 J2.789
G01 Y0.0 F2000.
X-74.17 Y.222 Z-.721
X-74.181 Y.445 Z-.733
X-74.191 Y.667 Z-.745
X-74.201 Y.89 Z-.756
X-74.21 Y1.112 Z-.768
X-74.219 Y1.334 Z-.78
Y12.569
G03 X-76.948 Y15.298 I-2.729 J0.0 F1154.
X-79.677 Y12.569 I0.0 J-2.729
G01 Y-12.569 F2000.
G03 X-76.948 Y-15.298 I2.729 J0.0 F1154.
X-74.219 Y-12.569 I0.0 J2.729
G01 Y0.0 F2000.
X-74.228 Y.222 Z-.791
X-74.236 Y.445 Z-.803
X-74.244 Y.667 Z-.815
X-74.251 Y.89 Z-.826
X-74.259 Y1.112 Z-.838
X-74.266 Y1.334 Z-.85
Y12.569
G03 X-76.948 Y15.251 I-2.683 J0.0 F1146.
X-79.631 Y12.569 I0.0 J-2.683
G01 Y-12.569 F2000.
G03 X-76.948 Y-15.251 I2.683 J0.0 F1146.
X-74.266 Y-12.569 I0.0 J2.683
G01 Y0.0 F2000.
X-74.272 Y.222 Z-.861
X-74.279 Y.445 Z-.873
X-74.285 Y.667 Z-.885
X-74.29 Y.89 Z-.896
X-74.296 Y1.112 Z-.908
X-74.301 Y1.334 Z-.92
Y12.569
G03 X-76.948 Y15.216 I-2.647 J0.0 F1139.
X-79.595 Y12.569 I0.0 J-2.647
G01 Y-12.569 F2000.
G03 X-76.948 Y-15.216 I2.647 J0.0 F1139.
X-74.301 Y-12.569 I0.0 J2.647
G01 Y0.0 F2000.
X-74.306 Y.222 Z-.931
X-74.311 Y.445 Z-.943
X-74.315 Y.667 Z-.955
X-74.32 Y.89 Z-.966
X-74.324 Y1.112 Z-.978
X-74.327 Y1.334 Z-.99
Y12.569
G03 X-76.948 Y15.19 I-2.621 J0.0 F1134.
X-79.569 Y12.569 I0.0 J-2.621
G01 Y-12.569 F2000.
G03 X-76.948 Y-15.19 I2.621 J0.0 F1134.
X-74.327 Y-12.569 I0.0 J2.621
G01 Y0.0 F2000.
X-74.331 Y.222 Z-1.001
X-74.334 Y.445 Z-1.013
X-74.338 Y.667 Z-1.024
X-74.34 Y.89 Z-1.036
X-74.343 Y1.112 Z-1.048
X-74.346 Y1.334 Z-1.059
Y12.569
G03 X-76.948 Y15.171 I-2.603 J0.0 F1131.
X-79.551 Y12.569 I0.0 J-2.603
G01 Y-12.569 F2000.
G03 X-76.948 Y-15.171 I2.603 J0.0 F1131.
X-74.346 Y-12.569 I0.0 J2.603
G01 Y0.0 F2000.
X-74.348 Y.222 Z-1.071
X-74.35 Y.445 Z-1.083
X-74.352 Y.667 Z-1.094
X-74.354 Y.89 Z-1.106
X-74.355 Y1.112 Z-1.118
X-74.357 Y1.334 Z-1.129
Y12.569
G03 X-76.948 Y15.16 I-2.592 J0.0 F1129.
X-79.54 Y12.569 I0.0 J-2.592
G01 Y-12.569 F2000.
G03 X-76.948 Y-15.16 I2.592 J0.0 F1129.
X-74.357 Y-12.569 I0.0 J2.592
G01 Y0.0 F2000.
X-74.358 Y.222 Z-1.141
X-74.359 Y.445 Z-1.153
Y.667 Z-1.164
X-74.36 Y.89 Z-1.176
Y1.112 Z-1.188
X-74.359 Y1.334 Z-1.199
Y12.569
G03 X-76.948 Y15.158 I-2.589 J0.0 F1128.
X-79.537 Y12.569 I0.0 J-2.589
G01 Y-12.569 F2000.
G03 X-76.948 Y-15.158 I2.589 J0.0 F1128.
X-74.359 Y-12.569 I0.0 J2.589
G01 Y0.0 F2000.
X-74.36 Y.222 Z-1.211
Y.445 Z-1.223
Y1.334 Z-1.269
Y12.569
G03 X-76.948 Y15.157 I-2.588 J0.0 F1128.
X-79.537 Y12.569 I0.0 J-2.588
G01 Y-12.569 F2000.
G03 X-76.948 Y-15.157 I2.588 J0.0 F1128.
X-74.36 Y-12.569 I0.0 J2.588
G01 Y0.0 F2000.
Y1.334 Z-1.339
Y12.569
G03 X-76.948 Y15.157 I-2.588 J0.0 F1128.
X-79.537 Y12.569 I0.0 J-2.588
G01 Y-12.569 F2000.
G03 X-76.948 Y-15.157 I2.588 J0.0 F1128.
X-74.36 Y-12.569 I0.0 J2.588
G01 Y0.0 F2000.
Y1.334 Z-1.409
Y12.569
G03 X-76.948 Y15.157 I-2.588 J0.0 F1128.
X-79.537 Y12.569 I0.0 J-2.588
G01 Y-12.569 F2000.
G03 X-76.948 Y-15.157 I2.588 J0.0 F1128.
X-74.36 Y-12.569 I0.0 J2.588
G01 Y0.0 F2000.
Y1.334 Z-1.479
Y12.569
G03 X-76.948 Y15.157 I-2.588 J0.0 F1128.
X-79.537 Y12.569 I0.0 J-2.588
G01 Y-12.569 F2000.
G03 X-76.948 Y-15.157 I2.588 J0.0 F1128.
X-74.36 Y-12.569 I0.0 J2.588
G01 Y0.0 F2000.
Y1.334 Z-1.549
Y12.569
G03 X-76.948 Y15.157 I-2.588 J0.0 F1128.
X-79.537 Y12.569 I0.0 J-2.588
G01 Y-12.569 F2000.
G03 X-76.948 Y-15.157 I2.588 J0.0 F1128.
X-74.36 Y-12.569 I0.0 J2.588
G01 Y0.0 F2000.
Y1.334 Z-1.619
Y12.569
G03 X-76.948 Y15.157 I-2.588 J0.0 F1128.
X-79.537 Y12.569 I0.0 J-2.588
G01 Y-12.569 F2000.
G03 X-76.948 Y-15.157 I2.588 J0.0 F1128.
X-74.36 Y-12.569 I0.0 J2.588
G01 Y0.0 F2000.
Y1.334 Z-1.689
Y12.569
G03 X-76.948 Y15.157 I-2.588 J0.0 F1128.
X-79.537 Y12.569 I0.0 J-2.588
G01 Y-12.569 F2000.
G03 X-76.948 Y-15.157 I2.588 J0.0 F1128.
X-74.36 Y-12.569 I0.0 J2.588
G01 Y0.0 F2000.
Y1.334 Z-1.759
Y12.569
G03 X-76.948 Y15.157 I-2.588 J0.0 F1128.
X-79.537 Y12.569 I0.0 J-2.588
G01 Y-12.569 F2000.
G03 X-76.948 Y-15.157 I2.588 J0.0 F1128.
X-74.36 Y-12.569 I0.0 J2.588
G01 Y0.0 F2000.
Y1.334 Z-1.829
Y12.569
G03 X-76.948 Y15.157 I-2.588 J0.0 F1128.
X-79.537 Y12.569 I0.0 J-2.588
G01 Y-12.569 F2000.
G03 X-76.948 Y-15.157 I2.588 J0.0 F1128.
X-74.36 Y-12.569 I0.0 J2.588
G01 Y0.0 F2000.
Y1.334 Z-1.899
Y12.569
G03 X-76.948 Y15.157 I-2.588 J0.0 F1128.
X-79.537 Y12.569 I0.0 J-2.588
G01 Y-12.569 F2000.
G03 X-76.948 Y-15.157 I2.588 J0.0 F1128.
X-74.36 Y-12.569 I0.0 J2.588
G01 Y0.0 F2000.
Y1.334 Z-1.969
Y12.569
G03 X-76.948 Y15.157 I-2.588 J0.0 F1128.
X-79.537 Y12.569 I0.0 J-2.588
G01 Y-12.569 F2000.
G03 X-76.948 Y-15.157 I2.588 J0.0 F1128.
X-74.36 Y-12.569 I0.0 J2.588
G01 Y1.334 F2000.
X-76.36
Z.031
G00 Z2.5
X-93.057 Y-2.
G01 Z2.43
Z-.57 F800.
G03 X-91.057 Y0.0 I0.0 J2. F400.
G01 Y12.569 F2000.
G03 X-92.975 Y15.356 I-2.984 J0.0 F1197.
X-94.042 Y15.553 I-1.066 J-2.787
X-97.026 Y12.569 I0.0 J-2.984
G01 Y12.55
Y-12.55 F2000.
Y-12.569 F1197.
G03 X-96.602 Y-14.102 I2.984 J0.0
X-94.042 Y-15.553 I2.56 J1.534
X-91.057 Y-12.569 I0.0 J2.984
G01 Y0.0 F2000.
X-91.081 Y.222 Z-.582
X-91.102 Y.445 Z-.593
X-91.121 Y.667 Z-.605
X-91.139 Y.89 Z-.617
X-91.156 Y1.112 Z-.628
X-91.172 Y1.334 Z-.64
Y12.569
G03 X-94.042 Y15.438 I-2.869 J0.0 F1179.
X-96.911 Y12.569 I0.0 J-2.869
G01 Y-12.569 F2000.
G03 X-94.042 Y-15.438 I2.869 J0.0 F1179.
X-91.172 Y-12.569 I0.0 J2.869
G01 Y0.0 F2000.
X-91.188 Y.222 Z-.652
X-91.202 Y.445 Z-.663
X-91.216 Y.667 Z-.675
X-91.228 Y.89 Z-.686
X-91.241 Y1.112 Z-.698
X-91.253 Y1.334 Z-.71
Y12.569
G03 X-93.937 Y15.356 I-2.789 J0.0 F1165.
X-94.042 Y15.358 I-.105 J-2.787
X-96.831 Y12.569 I0.0 J-2.789
G01 Y-12.569 F2000.
G03 X-94.042 Y-15.358 I2.789 J0.0 F1165.
X-91.253 Y-12.569 I0.0 J2.789
G01 Y0.0 F2000.
X-91.264 Y.222 Z-.721
X-91.274 Y.445 Z-.733
X-91.285 Y.667 Z-.745
X-91.294 Y.89 Z-.756
X-91.304 Y1.112 Z-.768
X-91.313 Y1.334 Z-.78
Y12.569
G03 X-94.042 Y15.298 I-2.729 J0.0 F1154.
X-96.771 Y12.569 I0.0 J-2.729
G01 Y-12.569 F2000.
G03 X-94.042 Y-15.298 I2.729 J0.0 F1154.
X-91.313 Y-12.569 I0.0 J2.729
G01 Y0.0 F2000.
X-91.321 Y.222 Z-.791
X-91.33 Y.445 Z-.803
X-91.337 Y.667 Z-.815
X-91.345 Y.89 Z-.826
X-91.352 Y1.112 Z-.838
X-91.359 Y1.334 Z-.85
Y12.569
G03 X-94.042 Y15.251 I-2.683 J0.0 F1146.
X-96.724 Y12.569 I0.0 J-2.683
G01 Y-12.569 F2000.
G03 X-94.042 Y-15.251 I2.683 J0.0 F1146.
X-91.359 Y-12.569 I0.0 J2.683
G01 Y0.0 F2000.
X-91.366 Y.222 Z-.861
X-91.372 Y.445 Z-.873
X-91.378 Y.667 Z-.885
X-91.384 Y.89 Z-.896
X-91.389 Y1.112 Z-.908
X-91.395 Y1.334 Z-.92
Y12.569
G03 X-94.042 Y15.216 I-2.647 J0.0 F1139.
X-96.689 Y12.569 I0.0 J-2.647
G01 Y-12.569 F2000.
G03 X-94.042 Y-15.216 I2.647 J0.0 F1139.
X-91.395 Y-12.569 I0.0 J2.647
G01 Y0.0 F2000.
X-91.4 Y.222 Z-.931
X-91.404 Y.445 Z-.943
X-91.409 Y.667 Z-.955
X-91.413 Y.89 Z-.966
X-91.417 Y1.112 Z-.978
X-91.421 Y1.334 Z-.99
Y12.569
G03 X-94.042 Y15.19 I-2.621 J0.0 F1134.
X-96.663 Y12.569 I0.0 J-2.621
G01 Y-12.569 F2000.
G03 X-94.042 Y-15.19 I2.621 J0.0 F1134.
X-91.421 Y-12.569 I0.0 J2.621
G01 Y0.0 F2000.
X-91.425 Y.222 Z-1.001
X-91.428 Y.445 Z-1.013
X-91.431 Y.667 Z-1.024
X-91.434 Y.89 Z-1.036
X-91.437 Y1.112 Z-1.048
X-91.439 Y1.334 Z-1.059
Y12.569
G03 X-94.042 Y15.171 I-2.603 J0.0 F1131.
X-96.644 Y12.569 I0.0 J-2.603
G01 Y-12.569 F2000.
G03 X-94.042 Y-15.171 I2.603 J0.0 F1131.
X-91.439 Y-12.569 I0.0 J2.603
G01 Y0.0 F2000.
X-91.442 Y.222 Z-1.071
X-91.444 Y.445 Z-1.083
X-91.446 Y.667 Z-1.094
X-91.447 Y.89 Z-1.106
X-91.449 Y1.112 Z-1.118
X-91.45 Y1.334 Z-1.129
Y12.569
G03 X-94.042 Y15.16 I-2.592 J0.0 F1129.
X-96.633 Y12.569 I0.0 J-2.592
G01 Y-12.569 F2000.
G03 X-94.042 Y-15.16 I2.592 J0.0 F1129.
X-91.45 Y-12.569 I0.0 J2.592
G01 Y0.0 F2000.
X-91.451 Y.222 Z-1.141
X-91.452 Y.445 Z-1.153
X-91.453 Y.667 Z-1.164
Y.89 Z-1.176
X-91.454 Y1.112 Z-1.188
X-91.453 Y1.334 Z-1.199
Y12.569
G03 X-94.042 Y15.158 I-2.589 J0.0 F1128.
X-96.631 Y12.569 I0.0 J-2.589
G01 Y-12.569 F2000.
G03 X-94.042 Y-15.158 I2.589 J0.0 F1128.
X-91.453 Y-12.569 I0.0 J2.589
G01 Y0.0 F2000.
X-91.454 Y.222 Z-1.211
X-91.453 Y.445 Z-1.223
Y1.334 Z-1.269
Y12.569
G03 X-94.042 Y15.157 I-2.588 J0.0 F1128.
X-96.63 Y12.569 I0.0 J-2.588
G01 Y-12.569 F2000.
G03 X-94.042 Y-15.157 I2.588 J0.0 F1128.
X-91.453 Y-12.569 I0.0 J2.588
G01 Y0.0 F2000.
Y1.334 Z-1.339
Y12.569
G03 X-94.042 Y15.157 I-2.588 J0.0 F1128.
X-96.63 Y12.569 I0.0 J-2.588
G01 Y-12.569 F2000.
G03 X-94.042 Y-15.157 I2.588 J0.0 F1128.
X-91.453 Y-12.569 I0.0 J2.588
G01 Y0.0 F2000.
Y1.334 Z-1.409
Y12.569
G03 X-94.042 Y15.157 I-2.588 J0.0 F1128.
X-96.63 Y12.569 I0.0 J-2.588
G01 Y-12.569 F2000.
G03 X-94.042 Y-15.157 I2.588 J0.0 F1128.
X-91.453 Y-12.569 I0.0 J2.588
G01 Y0.0 F2000.
Y1.334 Z-1.479
Y12.569
G03 X-94.042 Y15.157 I-2.588 J0.0 F1128.
X-96.63 Y12.569 I0.0 J-2.588
G01 Y-12.569 F2000.
G03 X-94.042 Y-15.157 I2.588 J0.0 F1128.
X-91.453 Y-12.569 I0.0 J2.588
G01 Y0.0 F2000.
Y1.334 Z-1.549
Y12.569
G03 X-94.042 Y15.157 I-2.588 J0.0 F1128.
X-96.63 Y12.569 I0.0 J-2.588
G01 Y-12.569 F2000.
G03 X-94.042 Y-15.157 I2.588 J0.0 F1128.
X-91.453 Y-12.569 I0.0 J2.588
G01 Y0.0 F2000.
Y1.334 Z-1.619
Y12.569
G03 X-94.042 Y15.157 I-2.588 J0.0 F1128.
X-96.63 Y12.569 I0.0 J-2.588
G01 Y-12.569 F2000.
G03 X-94.042 Y-15.157 I2.588 J0.0 F1128.
X-91.453 Y-12.569 I0.0 J2.588
G01 Y0.0 F2000.
Y1.334 Z-1.689
Y12.569
G03 X-94.042 Y15.157 I-2.588 J0.0 F1128.
X-96.63 Y12.569 I0.0 J-2.588
G01 Y-12.569 F2000.
G03 X-94.042 Y-15.157 I2.588 J0.0 F1128.
X-91.453 Y-12.569 I0.0 J2.588
G01 Y0.0 F2000.
Y1.334 Z-1.759
Y12.569
G03 X-94.042 Y15.157 I-2.588 J0.0 F1128.
X-96.63 Y12.569 I0.0 J-2.588
G01 Y-12.569 F2000.
G03 X-94.042 Y-15.157 I2.588 J0.0 F1128.
X-91.453 Y-12.569 I0.0 J2.588
G01 Y0.0 F2000.
Y1.334 Z-1.829
Y12.569
G03 X-94.042 Y15.157 I-2.588 J0.0 F1128.
X-96.63 Y12.569 I0.0 J-2.588
G01 Y-12.569 F2000.
G03 X-94.042 Y-15.157 I2.588 J0.0 F1128.
X-91.453 Y-12.569 I0.0 J2.588
G01 Y0.0 F2000.
Y1.334 Z-1.899
Y12.569
G03 X-94.042 Y15.157 I-2.588 J0.0 F1128.
X-96.63 Y12.569 I0.0 J-2.588
G01 Y-12.569 F2000.
G03 X-94.042 Y-15.157 I2.588 J0.0 F1128.
X-91.453 Y-12.569 I0.0 J2.588
G01 Y0.0 F2000.
Y1.334 Z-1.969
Y12.569
G03 X-94.042 Y15.157 I-2.588 J0.0 F1128.
X-96.63 Y12.569 I0.0 J-2.588
G01 Y-12.569 F2000.
G03 X-94.042 Y-15.157 I2.588 J0.0 F1128.
X-91.453 Y-12.569 I0.0 J2.588
G01 Y1.334 F2000.
X-93.453
Z.031
G00 Z2.5
X-110.151 Y-2.
G01 Z2.43
Z-.57 F800.
G03 X-108.151 Y0.0 I0.0 J2. F400.
G01 Y12.554 F2000.
Y12.569 F1197.
G03 X-110.069 Y15.356 I-2.984 J0.0
X-111.135 Y15.553 I-1.066 J-2.787
X-114.12 Y12.569 I0.0 J-2.984
G01 Y12.55
Y-12.549 F2000.
Y-12.569 F1197.
G03 X-113.695 Y-14.102 I2.984 J0.0
X-111.135 Y-15.553 I2.56 J1.534
X-108.753 Y-14.367 I0.0 J2.984
X-108.151 Y-12.569 I-2.382 J1.798 F1198.
G01 Y-12.554
Y0.0 F2000.
X-108.174 Y.222 Z-.582
X-108.195 Y.445 Z-.593
X-108.215 Y.667 Z-.605
X-108.233 Y.89 Z-.617
X-108.25 Y1.112 Z-.628
X-108.266 Y1.334 Z-.64
Y12.569
G03 X-111.135 Y15.438 I-2.869 J0.0 F1179.
X-114.005 Y12.569 I0.0 J-2.869
G01 Y-12.569 F2000.
G03 X-111.135 Y-15.438 I2.869 J0.0 F1179.
X-108.266 Y-12.569 I0.0 J2.869
G01 Y0.0 F2000.
X-108.281 Y.222 Z-.652
X-108.295 Y.445 Z-.663
X-108.309 Y.667 Z-.675
X-108.322 Y.89 Z-.686
X-108.334 Y1.112 Z-.698
X-108.346 Y1.334 Z-.71
Y12.569
G03 X-111.03 Y15.356 I-2.789 J0.0 F1165.
X-111.135 Y15.358 I-.105 J-2.787
X-113.924 Y12.569 I0.0 J-2.789
G01 Y-12.569 F2000.
G03 X-111.135 Y-15.358 I2.789 J0.0 F1165.
X-108.346 Y-12.569 I0.0 J2.789
G01 Y0.0 F2000.
X-108.357 Y.222 Z-.721
X-108.368 Y.445 Z-.733
X-108.378 Y.667 Z-.745
X-108.388 Y.89 Z-.756
X-108.397 Y1.112 Z-.768
X-108.406 Y1.334 Z-.78
Y12.569
G03 X-111.135 Y15.298 I-2.729 J0.0 F1154.
X-113.864 Y12.569 I0.0 J-2.729
G01 Y-12.569 F2000.
G03 X-111.135 Y-15.298 I2.729 J0.0 F1154.
X-108.406 Y-12.569 I0.0 J2.729
G01 Y0.0 F2000.
X-108.415 Y.222 Z-.791
X-108.423 Y.445 Z-.803
X-108.431 Y.667 Z-.815
X-108.438 Y.89 Z-.826
X-108.446 Y1.112 Z-.838
X-108.453 Y1.334 Z-.85
Y12.569
G03 X-111.135 Y15.251 I-2.683 J0.0 F1146.
X-113.818 Y12.569 I0.0 J-2.683
G01 Y-12.569 F2000.
G03 X-111.135 Y-15.251 I2.683 J0.0 F1146.
X-108.453 Y-12.569 I0.0 J2.683
G01 Y0.0 F2000.
X-108.459 Y.222 Z-.861
X-108.466 Y.445 Z-.873
X-108.472 Y.667 Z-.885
X-108.477 Y.89 Z-.896
X-108.483 Y1.112 Z-.908
X-108.488 Y1.334 Z-.92
Y12.569
G03 X-111.135 Y15.216 I-2.647 J0.0 F1139.
X-113.782 Y12.569 I0.0 J-2.647
G01 Y-12.569 F2000.
G03 X-111.135 Y-15.216 I2.647 J0.0 F1139.
X-108.488 Y-12.569 I0.0 J2.647
G01 Y0.0 F2000.
X-108.493 Y.222 Z-.931
X-108.498 Y.445 Z-.943
X-108.502 Y.667 Z-.955
X-108.507 Y.89 Z-.966
X-108.511 Y1.112 Z-.978
X-108.514 Y1.334 Z-.99
Y12.569
G03 X-111.135 Y15.19 I-2.621 J0.0 F1134.
X-113.756 Y12.569 I0.0 J-2.621
G01 Y-12.569 F2000.
G03 X-111.135 Y-15.19 I2.621 J0.0 F1134.
X-108.514 Y-12.569 I0.0 J2.621
G01 Y0.0 F2000.
X-108.518 Y.222 Z-1.001
X-108.521 Y.445 Z-1.013
X-108.525 Y.667 Z-1.024
X-108.527 Y.89 Z-1.036
X-108.53 Y1.112 Z-1.048
X-108.533 Y1.334 Z-1.059
Y12.569
G03 X-111.135 Y15.171 I-2.603 J0.0 F1131.
X-113.738 Y12.569 I0.0 J-2.603
G01 Y-12.569 F2000.
G03 X-111.135 Y-15.171 I2.603 J0.0 F1131.
X-108.533 Y-12.569 I0.0 J2.603
G01 Y0.0 F2000.
X-108.535 Y.222 Z-1.071
X-108.537 Y.445 Z-1.083
X-108.539 Y.667 Z-1.094
X-108.541 Y.89 Z-1.106
X-108.542 Y1.112 Z-1.118
X-108.544 Y1.334 Z-1.129
Y12.569
G03 X-111.135 Y15.16 I-2.592 J0.0 F1129.
X-113.727 Y12.569 I0.0 J-2.592
G01 Y-12.569 F2000.
G03 X-111.135 Y-15.16 I2.592 J0.0 F1129.
X-108.544 Y-12.569 I0.0 J2.592
G01 Y0.0 F2000.
X-108.545 Y.222 Z-1.141
X-108.546 Y.445 Z-1.153
Y.667 Z-1.164
X-108.547 Y.89 Z-1.176
Y1.112 Z-1.188
X-108.546 Y1.334 Z-1.199
Y12.569
G03 X-111.135 Y15.158 I-2.589 J0.0 F1128.
X-113.724 Y12.569 I0.0 J-2.589
G01 Y-12.569 F2000.
G03 X-111.135 Y-15.158 I2.589 J0.0 F1128.
X-108.546 Y-12.569 I0.0 J2.589
G01 Y0.0 F2000.
X-108.547 Y.222 Z-1.211
Y.445 Z-1.223
Y1.334 Z-1.269
Y12.569
G03 X-111.135 Y15.157 I-2.588 J0.0 F1128.
X-113.724 Y12.569 I0.0 J-2.588
G01 Y-12.569 F2000.
G03 X-111.135 Y-15.157 I2.588 J0.0 F1128.
X-108.547 Y-12.569 I0.0 J2.588
G01 Y0.0 F2000.
Y1.334 Z-1.339
Y12.569
G03 X-111.135 Y15.157 I-2.588 J0.0 F1128.
X-113.724 Y12.569 I0.0 J-2.588
G01 Y-12.569 F2000.
G03 X-111.135 Y-15.157 I2.588 J0.0 F1128.
X-108.547 Y-12.569 I0.0 J2.588
G01 Y0.0 F2000.
Y1.334 Z-1.409
Y12.569
G03 X-111.135 Y15.157 I-2.588 J0.0 F1128.
X-113.724 Y12.569 I0.0 J-2.588
G01 Y-12.569 F2000.
G03 X-111.135 Y-15.157 I2.588 J0.0 F1128.
X-108.547 Y-12.569 I0.0 J2.588
G01 Y0.0 F2000.
Y1.334 Z-1.479
Y12.569
G03 X-111.135 Y15.157 I-2.588 J0.0 F1128.
X-113.724 Y12.569 I0.0 J-2.588
G01 Y-12.569 F2000.
G03 X-111.135 Y-15.157 I2.588 J0.0 F1128.
X-108.547 Y-12.569 I0.0 J2.588
G01 Y0.0 F2000.
Y1.334 Z-1.549
Y12.569
G03 X-111.135 Y15.157 I-2.588 J0.0 F1128.
X-113.724 Y12.569 I0.0 J-2.588
G01 Y-12.569 F2000.
G03 X-111.135 Y-15.157 I2.588 J0.0 F1128.
X-108.547 Y-12.569 I0.0 J2.588
G01 Y0.0 F2000.
Y1.334 Z-1.619
Y12.569
G03 X-111.135 Y15.157 I-2.588 J0.0 F1128.
X-113.724 Y12.569 I0.0 J-2.588
G01 Y-12.569 F2000.
G03 X-111.135 Y-15.157 I2.588 J0.0 F1128.
X-108.547 Y-12.569 I0.0 J2.588
G01 Y0.0 F2000.
Y1.334 Z-1.689
Y12.569
G03 X-111.135 Y15.157 I-2.588 J0.0 F1128.
X-113.724 Y12.569 I0.0 J-2.588
G01 Y-12.569 F2000.
G03 X-111.135 Y-15.157 I2.588 J0.0 F1128.
X-108.547 Y-12.569 I0.0 J2.588
G01 Y0.0 F2000.
Y1.334 Z-1.759
Y12.569
G03 X-111.135 Y15.157 I-2.588 J0.0 F1128.
X-113.724 Y12.569 I0.0 J-2.588
G01 Y-12.569 F2000.
G03 X-111.135 Y-15.157 I2.588 J0.0 F1128.
X-108.547 Y-12.569 I0.0 J2.588
G01 Y0.0 F2000.
Y1.334 Z-1.829
Y12.569
G03 X-111.135 Y15.157 I-2.588 J0.0 F1128.
X-113.724 Y12.569 I0.0 J-2.588
G01 Y-12.569 F2000.
G03 X-111.135 Y-15.157 I2.588 J0.0 F1128.
X-108.547 Y-12.569 I0.0 J2.588
G01 Y0.0 F2000.
Y1.334 Z-1.899
Y12.569
G03 X-111.135 Y15.157 I-2.588 J0.0 F1128.
X-113.724 Y12.569 I0.0 J-2.588
G01 Y-12.569 F2000.
G03 X-111.135 Y-15.157 I2.588 J0.0 F1128.
X-108.547 Y-12.569 I0.0 J2.588
G01 Y0.0 F2000.
Y1.334 Z-1.969
Y12.569
G03 X-111.135 Y15.157 I-2.588 J0.0 F1128.
X-113.724 Y12.569 I0.0 J-2.588
G01 Y-12.569 F2000.
G03 X-111.135 Y-15.157 I2.588 J0.0 F1128.
X-108.547 Y-12.569 I0.0 J2.588
G01 Y1.334 F2000.
X-110.547
Z.031
G00 Z2.5
X-129.213 Y2.
G01 Z2.43
Z-.57 F800.
G03 X-131.213 Y0.0 I0.0 J-2. F400.
G01 Y-12.552 F2000.
Y-12.569 F1197.
G03 X-130.789 Y-14.102 I2.984 J0.0
X-128.229 Y-15.553 I2.56 J1.534
X-125.825 Y-14.338 I0.0 J2.984
X-125.244 Y-12.569 I-2.404 J1.769 F1198.
G01 Y-12.554
Y12.554 F2000.
Y12.569 F1197.
G03 X-127.162 Y15.356 I-2.984 J0.0
X-128.229 Y15.553 I-1.066 J-2.787
X-131.213 Y12.569 I0.0 J-2.984
G01 Y12.552
Y0.0 F2000.
X-131.19 Y-.222 Z-.582
X-131.169 Y-.445 Z-.593
X-131.149 Y-.667 Z-.605
X-131.131 Y-.89 Z-.617
X-131.114 Y-1.112 Z-.628
X-131.098 Y-1.334 Z-.64
Y-12.569
G03 X-128.229 Y-15.438 I2.869 J0.0 F1179.
X-125.359 Y-12.569 I0.0 J2.869
G01 Y12.569 F2000.
G03 X-128.229 Y15.438 I-2.869 J0.0 F1179.
X-131.098 Y12.569 I0.0 J-2.869
G01 Y0.0 F2000.
X-131.083 Y-.222 Z-.652
X-131.069 Y-.445 Z-.663
X-131.055 Y-.667 Z-.675
X-131.042 Y-.89 Z-.686
X-131.03 Y-1.112 Z-.698
X-131.018 Y-1.334 Z-.71
Y-12.569
G03 X-128.229 Y-15.358 I2.789 J0.0 F1165.
X-125.44 Y-12.569 I0.0 J2.789
G01 Y12.569 F2000.
G03 X-128.124 Y15.356 I-2.789 J0.0 F1165.
X-128.229 Y15.358 I-.105 J-2.787
X-131.018 Y12.569 I0.0 J-2.789
G01 Y0.0 F2000.
X-131.007 Y-.222 Z-.721
X-130.996 Y-.445 Z-.733
X-130.986 Y-.667 Z-.745
X-130.976 Y-.89 Z-.756
X-130.967 Y-1.112 Z-.768
X-130.958 Y-1.334 Z-.78
Y-12.569
G03 X-128.229 Y-15.298 I2.729 J0.0 F1154.
X-125.5 Y-12.569 I0.0 J2.729
G01 Y12.569 F2000.
G03 X-128.229 Y15.298 I-2.729 J0.0 F1154.
X-130.958 Y12.569 I0.0 J-2.729
G01 Y0.0 F2000.
X-130.949 Y-.222 Z-.791
X-130.941 Y-.445 Z-.803
X-130.933 Y-.667 Z-.815
X-130.926 Y-.89 Z-.826
X-130.918 Y-1.112 Z-.838
X-130.911 Y-1.334 Z-.85
Y-12.569
G03 X-128.229 Y-15.251 I2.683 J0.0 F1146.
X-125.546 Y-12.569 I0.0 J2.683
G01 Y12.569 F2000.
G03 X-128.229 Y15.251 I-2.683 J0.0 F1146.
X-130.911 Y12.569 I0.0 J-2.683
G01 Y0.0 F2000.
X-130.905 Y-.222 Z-.861
X-130.898 Y-.445 Z-.873
X-130.892 Y-.667 Z-.885
X-130.887 Y-.89 Z-.896
X-130.881 Y-1.112 Z-.908
X-130.876 Y-1.334 Z-.92
Y-12.569
G03 X-128.229 Y-15.216 I2.647 J0.0 F1139.
X-125.582 Y-12.569 I0.0 J2.647
G01 Y12.569 F2000.
G03 X-128.229 Y15.216 I-2.647 J0.0 F1139.
X-130.876 Y12.569 I0.0 J-2.647
G01 Y0.0 F2000.
X-130.871 Y-.222 Z-.931
X-130.866 Y-.445 Z-.943
X-130.862 Y-.667 Z-.955
X-130.857 Y-.89 Z-.966
X-130.853 Y-1.112 Z-.978
X-130.85 Y-1.334 Z-.99
Y-12.569
G03 X-128.229 Y-15.19 I2.621 J0.0 F1134.
X-125.608 Y-12.569 I0.0 J2.621
G01 Y12.569 F2000.
G03 X-128.229 Y15.19 I-2.621 J0.0 F1134.
X-130.85 Y12.569 I0.0 J-2.621
G01 Y0.0 F2000.
X-130.846 Y-.222 Z-1.001
X-130.843 Y-.445 Z-1.013
X-130.839 Y-.667 Z-1.024
X-130.837 Y-.89 Z-1.036
X-130.834 Y-1.112 Z-1.048
X-130.831 Y-1.334 Z-1.059
Y-12.569
G03 X-128.229 Y-15.171 I2.603 J0.0 F1131.
X-125.626 Y-12.569 I0.0 J2.603
G01 Y12.569 F2000.
G03 X-128.229 Y15.171 I-2.603 J0.0 F1131.
X-130.831 Y12.569 I0.0 J-2.603
G01 Y0.0 F2000.
X-130.829 Y-.222 Z-1.071
X-130.827 Y-.445 Z-1.083
X-130.825 Y-.667 Z-1.094
X-130.823 Y-.89 Z-1.106
X-130.822 Y-1.112 Z-1.118
X-130.82 Y-1.334 Z-1.129
Y-12.569
G03 X-128.229 Y-15.16 I2.592 J0.0 F1129.
X-125.637 Y-12.569 I0.0 J2.592
G01 Y12.569 F2000.
G03 X-128.229 Y15.16 I-2.592 J0.0 F1129.
X-130.82 Y12.569 I0.0 J-2.592
G01 Y0.0 F2000.
X-130.819 Y-.222 Z-1.141
X-130.818 Y-.445 Z-1.153
Y-.667 Z-1.164
X-130.817 Y-.89 Z-1.176
Y-1.112 Z-1.188
X-130.818 Y-1.334 Z-1.199
Y-12.569
G03 X-128.229 Y-15.158 I2.589 J0.0 F1128.
X-125.64 Y-12.569 I0.0 J2.589
G01 Y12.569 F2000.
G03 X-128.229 Y15.158 I-2.589 J0.0 F1128.
X-130.818 Y12.569 I0.0 J-2.589
G01 Y0.0 F2000.
X-130.817 Y-.222 Z-1.211
Y-.445 Z-1.223
Y-1.334 Z-1.269
Y-12.569
G03 X-128.229 Y-15.157 I2.588 J0.0 F1128.
X-125.64 Y-12.569 I0.0 J2.588
G01 Y12.569 F2000.
G03 X-128.229 Y15.157 I-2.588 J0.0 F1128.
X-130.817 Y12.569 I0.0 J-2.588
G01 Y0.0 F2000.
Y-1.334 Z-1.339
Y-12.569
G03 X-128.229 Y-15.157 I2.588 J0.0 F1128.
X-125.64 Y-12.569 I0.0 J2.588
G01 Y12.569 F2000.
G03 X-128.229 Y15.157 I-2.588 J0.0 F1128.
X-130.817 Y12.569 I0.0 J-2.588
G01 Y0.0 F2000.
Y-1.334 Z-1.409
Y-12.569
G03 X-128.229 Y-15.157 I2.588 J0.0 F1128.
X-125.64 Y-12.569 I0.0 J2.588
G01 Y12.569 F2000.
G03 X-128.229 Y15.157 I-2.588 J0.0 F1128.
X-130.817 Y12.569 I0.0 J-2.588
G01 Y0.0 F2000.
Y-1.334 Z-1.479
Y-12.569
G03 X-128.229 Y-15.157 I2.588 J0.0 F1128.
X-125.64 Y-12.569 I0.0 J2.588
G01 Y12.569 F2000.
G03 X-128.229 Y15.157 I-2.588 J0.0 F1128.
X-130.817 Y12.569 I0.0 J-2.588
G01 Y0.0 F2000.
Y-1.334 Z-1.549
Y-12.569
G03 X-128.229 Y-15.157 I2.588 J0.0 F1128.
X-125.64 Y-12.569 I0.0 J2.588
G01 Y12.569 F2000.
G03 X-128.229 Y15.157 I-2.588 J0.0 F1128.
X-130.817 Y12.569 I0.0 J-2.588
G01 Y0.0 F2000.
Y-1.334 Z-1.619
Y-12.569
G03 X-128.229 Y-15.157 I2.588 J0.0 F1128.
X-125.64 Y-12.569 I0.0 J2.588
G01 Y12.569 F2000.
G03 X-128.229 Y15.157 I-2.588 J0.0 F1128.
X-130.817 Y12.569 I0.0 J-2.588
G01 Y0.0 F2000.
Y-1.334 Z-1.689
Y-12.569
G03 X-128.229 Y-15.157 I2.588 J0.0 F1128.
X-125.64 Y-12.569 I0.0 J2.588
G01 Y12.569 F2000.
G03 X-128.229 Y15.157 I-2.588 J0.0 F1128.
X-130.817 Y12.569 I0.0 J-2.588
G01 Y0.0 F2000.
Y-1.334 Z-1.759
Y-12.569
G03 X-128.229 Y-15.157 I2.588 J0.0 F1128.
X-125.64 Y-12.569 I0.0 J2.588
G01 Y12.569 F2000.
G03 X-128.229 Y15.157 I-2.588 J0.0 F1128.
X-130.817 Y12.569 I0.0 J-2.588
G01 Y0.0 F2000.
Y-1.334 Z-1.829
Y-12.569
G03 X-128.229 Y-15.157 I2.588 J0.0 F1128.
X-125.64 Y-12.569 I0.0 J2.588
G01 Y12.569 F2000.
G03 X-128.229 Y15.157 I-2.588 J0.0 F1128.
X-130.817 Y12.569 I0.0 J-2.588
G01 Y0.0 F2000.
Y-1.334 Z-1.899
Y-12.569
G03 X-128.229 Y-15.157 I2.588 J0.0 F1128.
X-125.64 Y-12.569 I0.0 J2.588
G01 Y12.569 F2000.
G03 X-128.229 Y15.157 I-2.588 J0.0 F1128.
X-130.817 Y12.569 I0.0 J-2.588
G01 Y0.0 F2000.
Y-1.334 Z-1.969
Y-12.569
G03 X-128.229 Y-15.157 I2.588 J0.0 F1128.
X-125.64 Y-12.569 I0.0 J2.588
G01 Y12.569 F2000.
G03 X-128.229 Y15.157 I-2.588 J0.0 F1128.
X-130.817 Y12.569 I0.0 J-2.588
G01 Y-1.334 F2000.
X-128.817
Z.031
G00 Z2.5
X-137.585 Y-2.
G01 Z2.43
Z-.57 F800.
G03 X-135.585 Y0.0 I0.0 J2. F400.
G01 Y12.572 F2000.
G02 X-128.229 Y19.925 I7.356 J-.003
X-120.873 Y12.575 I0.0 J-7.356
G01 Y-12.575
G02 X-128.229 Y-19.925 I-7.356 J.006
X-135.585 Y-12.572 I0.0 J7.356
G01 Y0.0
X-135.608 Y.222 Z-.582
X-135.629 Y.445 Z-.593
X-135.648 Y.667 Z-.605
X-135.667 Y.89 Z-.617
X-135.684 Y1.112 Z-.628
X-135.7 Y1.334 Z-.64
Y12.573
G02 X-128.229 Y20.04 I7.471 J-.004
X-120.758 Y12.573 I0.0 J-7.471
G01 Y-12.573
G02 X-128.229 Y-20.04 I-7.471 J.004
X-135.7 Y-12.573 I0.0 J7.471
G01 Y0.0
X-135.715 Y.222 Z-.652
X-135.729 Y.445 Z-.663
X-135.743 Y.667 Z-.675
X-135.756 Y.89 Z-.686
X-135.768 Y1.112 Z-.698
X-135.78 Y1.334 Z-.71
Y12.574
G02 X-128.229 Y20.12 I7.551 J-.005
X-120.678 Y12.574 I0.0 J-7.551
G01 Y-12.574
G02 X-128.229 Y-20.12 I-7.551 J.005
X-135.78 Y-12.574 I0.0 J7.551
G01 Y0.0
X-135.791 Y.222 Z-.721
X-135.802 Y.445 Z-.733
X-135.812 Y.667 Z-.745
X-135.822 Y.89 Z-.756
X-135.831 Y1.112 Z-.768
X-135.84 Y1.334 Z-.78
Y12.574
G02 X-128.229 Y20.18 I7.611 J-.005
X-120.618 Y12.574 I0.0 J-7.611
G01 Y-12.574
G02 X-128.229 Y-20.18 I-7.611 J.006
X-135.84 Y-12.574 I0.0 J7.611
G01 Y0.0
X-135.849 Y.222 Z-.791
X-135.857 Y.445 Z-.803
X-135.865 Y.667 Z-.815
X-135.872 Y.89 Z-.826
X-135.879 Y1.112 Z-.838
X-135.886 Y1.334 Z-.85
Y12.574
G02 X-128.229 Y20.226 I7.658 J-.006
X-120.571 Y12.575 I0.0 J-7.658
G01 Y-12.575
G02 X-128.229 Y-20.226 I-7.658 J.006
X-135.886 Y-12.574 I0.0 J7.658
G01 Y0.0
X-135.893 Y.222 Z-.861
X-135.899 Y.445 Z-.873
X-135.905 Y.667 Z-.885
X-135.911 Y.89 Z-.896
X-135.917 Y1.112 Z-.908
X-135.922 Y1.334 Z-.92
Y12.575
G02 X-128.229 Y20.262 I7.693 J-.006
X-125.453 Y19.743 I0.0 J-7.693
X-120.536 Y12.603 I-2.776 J-7.175
G01 Y-12.527
Y-12.569
G02 X-121.821 Y-16.826 I-7.693 J0.0
X-128.229 Y-20.262 I-6.408 J4.257
X-135.922 Y-12.575 I0.0 J7.693
G01 Y0.0
X-135.927 Y.222 Z-.931
X-135.932 Y.445 Z-.943
X-135.936 Y.667 Z-.955
X-135.94 Y.89 Z-.966
X-135.944 Y1.112 Z-.978
X-135.948 Y1.334 Z-.99
Y12.497
X-135.949 Y12.569
G02 X-128.229 Y20.288 I7.719 J0.0
X-125.38 Y19.743 I0.0 J-7.719
X-120.509 Y12.603 I-2.848 J-7.175
G01 Y-12.526
Y-12.569
G02 X-121.821 Y-16.873 I-7.719 J0.0
X-128.229 Y-20.288 I-6.408 J4.304
X-134.806 Y-16.61 I0.0 J7.719
X-135.948 Y-12.568 I6.579 J4.042
G01 Y-12.497
Y0.0
X-135.952 Y.222 Z-1.001
X-135.955 Y.445 Z-1.013
X-135.958 Y.667 Z-1.024
X-135.961 Y.89 Z-1.036
X-135.964 Y1.112 Z-1.048
X-135.966 Y1.334 Z-1.059
Y12.617
G02 X-128.229 Y20.307 I7.738 J-.048
X-125.331 Y19.743 I0.0 J-7.738
X-120.491 Y12.604 I-2.898 J-7.175
G01 Y-12.526
Y-12.569
G02 X-121.821 Y-16.906 I-7.738 J0.0
X-128.229 Y-20.306 I-6.408 J4.337
X-134.828 Y-16.61 I0.0 J7.738
X-135.966 Y-12.617 I6.6 J4.041
G01 Y0.0
X-135.969 Y.222 Z-1.071
X-135.971 Y.445 Z-1.083
X-135.973 Y.667 Z-1.094
X-135.974 Y.89 Z-1.106
X-135.976 Y1.112 Z-1.118
X-135.977 Y1.334 Z-1.129
Y12.569
G02 X-132.992 Y18.681 I7.749 J0.0
G01 X-132.904 Y18.748
G02 X-128.354 Y20.316 I4.676 J-6.179
G01 X-127.461 Y20.279
G02 X-125.303 Y19.744 I-.768 J-7.71
G01 X-125.193 Y19.697
X-124.087 Y19.117
X-123.868 Y18.974
X-123.786 Y18.917
G02 X-120.48 Y12.604 I-4.443 J-6.348
G01 Y-12.57
G02 X-125.193 Y-19.698 I-7.749 J.001
G01 X-125.303 Y-19.744
G02 X-128.229 Y-20.317 I-2.926 J7.175
X-135.977 Y-12.669 I0.0 J7.749
G01 Y-12.569
Y0.0
X-135.978 Y.222 Z-1.141
X-135.979 Y.445 Z-1.153
X-135.983 Y1.334 Z-1.199
Y12.569
G02 X-128.229 Y20.323 I7.754 J0.0
X-120.475 Y12.569 I0.0 J-7.754
G01 Y-12.569
G02 X-128.229 Y-20.323 I-7.754 J0.0
X-135.983 Y-12.569 I0.0 J7.754
G01 Y0.0
X-135.987 Y1.334 Z-1.269
Y12.569
G02 X-128.229 Y20.327 I7.759 J0.0
X-123.587 Y18.786 I0.0 J-7.759
G01 X-123.473 Y18.699
G02 X-120.47 Y12.569 I-4.756 J-6.13
G01 Y-12.569
G02 X-123.579 Y-18.78 I-7.759 J0.0
G01 X-123.928 Y-19.027
G02 X-124.561 Y-19.406 I-4.3 J6.458
G01 X-125.193 Y-19.709
G02 X-128.229 Y-20.327 I-3.036 J7.14
X-132.78 Y-18.852 I0.0 J7.759
G01 X-132.867 Y-18.788
G02 X-135.987 Y-12.569 I4.639 J6.219
G01 Y0.0
X-135.992 Y1.334 Z-1.339
Y12.569
G02 X-133.254 Y18.486 I7.764 J0.0
G01 X-132.78 Y18.86
G02 X-128.229 Y20.334 I4.552 J-6.291
X-123.583 Y18.791 I0.0 J-7.765
G01 X-123.086 Y18.385
G02 X-120.465 Y12.569 I-5.143 J-5.816
G01 Y-12.569
G02 X-123.203 Y-18.486 I-7.764 J0.0
G01 X-123.59 Y-18.796
G02 X-128.229 Y-20.334 I-4.639 J6.227
X-129.347 Y-20.253 I0.0 J7.765
X-131.451 Y-19.634 I1.119 J7.684 F1650.
X-132.874 Y-18.791 I3.222 J7.065 F1300.
G01 X-133.258 Y-18.49
X-133.296 Y-18.45
G02 X-134.739 Y-16.799 I5.068 J5.882
X-135.992 Y-12.569 I6.51 J4.23 F2000.
G01 Y0.0
X-135.997 Y1.334 Z-1.409
Y12.569
G02 X-133.778 Y18.005 I7.768 J0.0
X-132.908 Y18.836 I5.807 J-5.211
X-128.229 Y20.39 I4.679 J-6.267
X-127.613 Y20.366 I0.0 J-7.821
X-125.473 Y19.888 I-.616 J-7.797 F1650.
X-123.549 Y18.836 I-2.756 J-7.32 F1300.
G01 X-123.456 Y18.803
X-122.647 Y17.972
G02 X-122.035 Y17.258 I-5.582 J-5.403
X-120.46 Y12.569 I-6.194 J-4.689 F2000.
G01 Y-12.569
G02 X-120.969 Y-15.335 I-7.768 J0.0
X-122.032 Y-17.253 I-7.259 J2.766 F1650.
X-122.544 Y-17.863 I-6.197 J4.685 F1300.
G01 X-123.43 Y-18.763
X-123.55 Y-18.836
G02 X-125.473 Y-19.889 I-4.679 J6.267
X-128.229 Y-20.39 I-2.755 J7.32 F2000.
X-132.908 Y-18.836 I0.0 J7.821
G01 X-133.914 Y-17.863
G02 X-135.997 Y-12.569 I5.685 J5.294
G01 Y0.0
X-136.002 Y1.334 Z-1.479
Y12.569
G02 X-135.919 Y13.701 I7.773 J0.0
X-135.297 Y15.804 I7.69 J-1.132 F1650.
X-134.112 Y17.649 I7.068 J-3.235 F1300.
G01 X-134.086 Y17.706
X-133.202 Y18.838
X-133.014 Y19.002
G02 X-132.644 Y19.261 I4.785 J-6.433
X-128.229 Y20.586 I4.416 J-6.692 F2000.
X-123.458 Y19.012 I0.0 J-8.018
G01 X-123.338 Y18.908
X-122.33 Y17.631
G02 X-120.455 Y12.569 I-5.899 J-5.062
G01 Y-12.569
G02 X-122.268 Y-17.559 I-7.773 J0.0
G01 X-123.1 Y-18.685
X-123.222 Y-18.785
X-123.584 Y-19.104
G02 X-128.229 Y-20.586 I-4.645 J6.535
X-132.995 Y-19.016 I0.0 J8.018
G01 X-133.069 Y-18.947
X-134.298 Y-17.426
G02 X-136.002 Y-12.569 I6.069 J4.857
G01 Y0.0
X-136.007 Y1.334 Z-1.549
Y12.569
G02 X-135.973 Y13.299 I7.778 J0.0
X-135.461 Y15.431 I7.744 J-.73 F1650.
X-134.375 Y17.336 I7.233 J-2.862 F1300.
X-133.071 Y19.075 I4.07 J-1.693
X-128.229 Y20.679 I4.843 J-6.506 F2000.
X-125.317 Y20.138 I0.0 J-8.11
X-123.411 Y19.093 I-2.912 J-7.57 F1650.
X-122.084 Y17.338 I-3.062 J-3.695 F1300.
X-120.997 Y15.434 I-6.144 J-4.77
X-120.45 Y12.569 I-7.231 J-2.865 F2000.
G01 Y-12.569
G02 X-120.487 Y-13.322 I-7.778 J0.0
X-121.005 Y-15.453 I-7.742 J.754 F1650.
X-122.097 Y-17.354 I-7.224 J2.884 F1300.
X-123.15 Y-18.861 I-4.247 J1.847
G01 X-123.419 Y-19.085
X-123.546 Y-19.19 F2000.
G02 X-128.229 Y-20.679 I-4.683 J6.622
X-131.109 Y-20.15 I0.0 J8.11
X-133.056 Y-19.086 I2.88 J7.582 F1650.
X-134.35 Y-17.368 I2.71 J3.389 F1300.
X-135.446 Y-15.468 I6.122 J4.799
X-136.007 Y-12.569 I7.218 J2.9 F2000.
G01 Y0.0
X-136.012 Y1.334 Z-1.619
Y12.569
G02 X-136.002 Y12.965 I7.783 J0.0
X-135.583 Y15.117 I7.773 J-.396 F1650.
X-134.58 Y17.067 I7.354 J-2.549 F1300.
X-133.385 Y18.888 I4.239 J-1.48
X-133.117 Y19.117 I3.044 J-3.301 F2000.
X-128.229 Y20.74 I4.888 J-6.548
X-124.882 Y20.023 I0.0 J-8.171
X-123.39 Y19.153 I-3.347 J-7.454 F1650.
X-123.038 Y18.842 I-3.117 J-3.887
X-121.842 Y17.017 I-3.469 J-3.577 F1300.
X-120.855 Y15.059 I-6.387 J-4.448
X-120.446 Y12.569 I-7.374 J-2.49 F2000.
G01 Y-12.569
G02 X-120.453 Y-12.915 I-7.783 J0.0
X-120.859 Y-15.07 I-7.775 J.346 F1650.
X-121.849 Y-17.027 I-7.37 J2.501 F1300.
X-123.114 Y-18.9 I-4.19 J1.467
G01 X-123.51 Y-19.24 F2000.
G02 X-128.229 Y-20.74 I-4.718 J6.671
X-131.533 Y-20.042 I0.0 J8.171
X-133.112 Y-19.12 I3.304 J7.473 F1650.
X-133.39 Y-18.879 I2.917 J3.644
X-134.587 Y-17.058 I3.194 J3.403 F1300.
X-135.587 Y-15.106 I6.358 J4.489
X-136.012 Y-12.569 I7.358 J2.538 F2000.
G01 Y0.0
X-136.017 Y1.334 Z-1.689
Y12.569
G02 X-135.688 Y14.808 I7.788 J0.0 F1650.
X-134.768 Y16.799 I7.459 J-2.24 F1300.
X-133.66 Y18.678 I4.609 J-1.451
X-133.105 Y19.178 I3.502 J-3.33 F2000.
X-128.229 Y20.782 I4.876 J-6.609
X-124.589 Y19.931 I0.0 J-8.213
X-123.365 Y19.187 I-3.64 J-7.363 F1650.
X-122.809 Y18.661 I-4.049 J-4.839
X-122.032 Y17.64 I-4.605 J-4.313 F1300.
G01 X-121.686 Y16.793
G02 X-120.768 Y14.802 I-6.543 J-4.225
X-120.441 Y12.569 I-7.461 J-2.233 F2000.
G01 Y-12.569
G02 X-120.728 Y-14.665 I-7.788 J0.0 F1650.
X-121.61 Y-16.673 I-7.5 J2.097 F1300.
X-122.708 Y-18.558 I-4.651 J1.447
X-123.091 Y-18.924 I-3.553 J3.332 F2000.
G01 X-123.486 Y-19.274
G02 X-128.229 Y-20.782 I-4.743 J6.705
X-131.868 Y-19.932 I0.0 J8.213
X-133.137 Y-19.154 I3.639 J7.363 F1650.
X-133.654 Y-18.669 I3.28 J4.017
X-134.771 Y-16.793 I3.797 J3.532 F1300.
X-135.69 Y-14.802 I6.543 J4.225
X-136.017 Y-12.569 I7.461 J2.233 F2000.
G01 Y0.0
X-136.022 Y1.334 Z-1.759
Y12.277
Y12.569 F1650.
G02 X-135.789 Y14.458 I7.793 J0.0
X-134.963 Y16.49 I7.56 J-1.89 F1300.
X-133.928 Y18.414 I5.234 J-1.575
X-133.12 Y19.202 I4.199 J-3.5 F2000.
X-128.229 Y20.81 I4.892 J-6.633
X-124.239 Y19.78 I0.0 J-8.241
X-123.349 Y19.21 I-3.99 J-7.211 F1650.
X-122.543 Y18.402 I-5.249 J-6.04
X-122.162 Y17.926 I-6.055 J-5.232 F1300.
X-121.496 Y16.493 I-3.179 J-2.349
X-120.669 Y14.462 I-6.733 J-3.925
X-120.436 Y12.569 I-7.559 J-1.894 F2000.
G01 Y-12.295
Y-12.569 F1650.
G02 X-120.673 Y-14.475 I-7.793 J0.0
X-121.503 Y-16.505 I-7.556 J1.907 F1300.
X-122.535 Y-18.427 I-4.679 J1.274
X-123.068 Y-18.948 I-3.647 J3.195 F2000.
G01 X-123.47 Y-19.297
G02 X-128.229 Y-20.81 I-4.759 J6.728
X-132.228 Y-19.775 I0.0 J8.241
X-133.154 Y-19.176 I3.999 J7.206 F1650.
X-133.931 Y-18.405 I3.55 J4.348
X-134.969 Y-16.481 I4.326 J3.576 F1300.
X-135.792 Y-14.448 I6.74 J3.912
X-136.022 Y-12.569 I7.563 J1.88 F2000.
G01 Y0.0
X-136.027 Y1.334 Z-1.829
Y11.987
Y12.569 F1650.
G02 X-135.859 Y14.175 I7.798 J0.0
X-135.11 Y16.236 I7.631 J-1.607 F1300.
X-134.141 Y18.196 I5.46 J-1.482
X-133.13 Y19.216 I4.491 J-3.441 F2000.
X-128.229 Y20.827 I4.901 J-6.647
X-123.954 Y19.635 I0.0 J-8.258
X-123.293 Y19.19 I-4.275 J-7.066 F1650.
X-122.315 Y18.189 I-3.578 J-4.478
X-121.344 Y16.23 I-4.556 J-3.478 F1300.
X-120.597 Y14.169 I-6.885 J-3.661
X-120.431 Y12.569 I-7.632 J-1.6 F2000.
G01 Y-11.984
Y-12.569 F1650.
G02 X-120.598 Y-14.173 I-7.798 J0.0
X-121.346 Y-16.234 I-7.631 J1.604 F1300.
X-122.312 Y-18.194 I-5.26 J1.374
X-123.048 Y-18.97 I-4.294 J3.334 F2000.
G01 X-123.46 Y-19.311
G02 X-128.229 Y-20.827 I-4.769 J6.742
X-132.498 Y-19.638 I0.0 J8.258
X-133.164 Y-19.19 I4.269 J7.069 F1650.
X-134.138 Y-18.193 I3.595 J4.487
X-135.111 Y-16.235 I4.569 J3.491 F1300.
X-135.86 Y-14.174 I6.882 J3.666
X-136.027 Y-12.569 I7.631 J1.605 F2000.
G01 Y0.0
X-136.031 Y1.334 Z-1.899
Y11.767
Y12.569 F1650.
G02 X-135.906 Y13.96 I7.803 J0.0
X-135.216 Y16.041 I7.678 J-1.391 F1300.
X-134.603 Y17.56 I4.649 J-.994
X-134.291 Y18.017 I5.652 J-3.521
X-133.133 Y19.221 I5.341 J-3.978 F2000.
X-128.229 Y20.834 I4.905 J-6.652
X-123.7 Y19.482 I0.0 J-8.265
X-123.289 Y19.195 I-4.529 J-6.914 F1650.
X-122.12 Y17.971 I-3.584 J-4.594
X-121.212 Y15.982 I-4.753 J-3.371 F1300.
X-120.54 Y13.895 I-7.017 J-3.413
X-120.426 Y12.569 I-7.689 J-1.326 F2000.
G01 Y-11.709
Y-12.569 F1650.
G02 X-120.541 Y-13.902 I-7.803 J0.0
X-121.215 Y-15.989 I-7.688 J1.334 F1300.
X-122.126 Y-17.977 I-5.582 J1.354
X-123.04 Y-18.979 I-4.672 J3.342 F2000.
X-124.121 Y-19.74 I-4.475 J5.204
X-128.229 Y-20.834 I-4.108 J7.172
X-132.756 Y-19.484 I0.0 J8.265
X-133.168 Y-19.195 I4.527 J6.915 F1650.
X-134.333 Y-17.97 I3.654 J4.64
X-135.245 Y-15.982 I4.819 J3.415 F1300.
X-135.918 Y-13.895 I7.017 J3.413
X-136.031 Y-12.569 I7.689 J1.326 F2000.
G01 Y0.0
X-136.036 Y1.334 Z-1.969
Y11.437
Y12.569 F1650.
G02 X-135.963 Y13.633 I7.808 J0.0
X-135.362 Y15.742 I7.735 J-1.065 F1300.
X-134.506 Y17.755 I5.881 J-1.313
X-133.169 Y19.195 I5.025 J-3.326 F2000.
X-128.229 Y20.834 I4.94 J-6.626
X-123.453 Y19.315 I0.0 J-8.265
X-123.289 Y19.195 I-4.775 J-6.746 F1650.
X-123.074 Y19.01 I-1.195 J-1.604
X-121.937 Y17.737 I-3.803 J-4.544
X-121.086 Y15.722 I-4.941 J-3.272 F1300.
X-120.491 Y13.611 I-7.143 J-3.153
X-120.421 Y12.569 I-7.738 J-1.043 F2000.
G01 Y-11.427
Y-12.569 F1650.
G02 X-120.493 Y-13.624 I-7.808 J0.0
X-121.091 Y-15.733 I-7.736 J1.055 F1300.
X-121.945 Y-17.747 I-5.837 J1.286
X-123.125 Y-19.058 I-4.984 J3.3 F2000.
X-123.245 Y-19.158 I-2.623 J3.02
