%
G40 G17 G49 G54 G80
G91 G28 Z0.0
( NAME: Administrator )
( PART: H:\CNC-File\2019-1\ÓÀÊ¢½Ü\9ASA\9ASA-µç¼«-±à³Ì.prt )
( DATE: Tue Feb 26 13:36:10 2019 )
( D10 ---> D=10.00 R=0.00 )
S9000 M03
G00 G90 X.614 Y-17.139
Z14.6
G17 G01 Z-17.858 F800.
Z-18.858 F320.
X.99 Y-15.686
G40 G03 X1.149 Y-14.435 I-4.841 J1.252
X-2.599 Y-9.594 I-5. J0.0
G01 X-9.14 Y-7.902 F800.
G02 X-14.05 Y-1.561 I1.64 J6.341
G01 Y5.396
G02 X-8. Y11.446 I6.05 J0.0
G01 X5.
G02 X8.571 Y9.967 I0.0 J-5.05
G01 X12.571 Y5.967
G02 X14.05 Y2.396 I-3.571 J-3.571
G01 Y-6.096
G02 X8.7 Y-11.446 I-5.35 J0.0
G01 X5.206
G02 X3.942 Y-11.285 I0.0 J5.05
G01 X-2.599 Y-9.594
X-5.504 Y-8.843
G03 X-6.756 Y-8.683 I-1.252 J-4.841
X-11.596 Y-12.432 I0.0 J-5.
G01 X1.002 Y-15.638
G03 X1.161 Y-14.386 I-4.841 J1.252 F320.
X-2.587 Y-9.545 I-5. J0.0
G01 X-9.127 Y-7.854 F800.
G02 X-14. Y-1.561 I1.627 J6.293
G01 Y5.396
G02 X-8. Y11.396 I6. J0.0
G01 X5.
G02 X8.536 Y9.932 I0.0 J-5.
G01 X12.536 Y5.932
G02 X14. Y2.396 I-3.536 J-3.536
G01 Y-6.096
G02 X8.7 Y-11.396 I-5.3 J0.0
G01 X5.206
G02 X3.954 Y-11.237 I0.0 J5.
G01 X-2.587 Y-9.545
X-5.491 Y-8.794
G03 X-6.743 Y-8.635 I-1.252 J-4.841
X-11.584 Y-12.383 I0.0 J-5.
G01 X-11.957 Y-13.826
Z-17.858
G00 Z14.6
M09
M05
G91 G28 Z0.0
G28 Y0.0
M30
%
(TOTAL Machine Time: 0.6 min)
