%
G40 G17 G49 G54 G80
G91 G28 Z0.0
( NAME: Capful-PC )
( PART: H:\CNC-File\2018-9\²ÓÀ¤\2139-New\2139-U-µç¼«-±à³Ì.prt )
( DATE: Fri Sep 28 09:34:53 2018 )
( D10 ---> D=10.00 R=0.00 )
S7000 M03
G00 G90 X-11.486 Y-18.557
Z14.6
G17 G01 Z-22.899 F800.
Z-23.899 F320.
X-10.571 Y-17.642
G40 G03 X-9.106 Y-14.106 I-3.536 J3.536
X-10.571 Y-10.571 I-5. J0.0
G01 X-12.571 Y-8.571 F800.
G02 X-14.05 Y-5. I3.571 J3.571
G01 Y8.
G02 X-8. Y14.05 I6.05 J0.0
G01 X8.
G02 X14.05 Y8. I0.0 J-6.05
G01 Y-8.
G02 X8. Y-14.05 I-6.05 J0.0
G01 X-5.
G02 X-8.571 Y-12.571 I0.0 J5.05
G01 X-10.571 Y-10.571
X-12.571 Y-8.571
G02 X-12.69 Y-8.448 I3.571 J3.571
G03 X-16.344 Y-6.861 I-3.654 J-3.413
X-19.757 Y-8.207 I0.0 J-5.
G01 X-10.536 Y-17.607
G03 X-9.071 Y-14.071 I-3.536 J3.536 F320.
X-10.536 Y-10.536 I-5. J0.0
G01 X-12.536 Y-8.536 F800.
G02 X-14. Y-5. I3.536 J3.536
G01 Y8.
G02 X-8. Y14. I6. J0.0
G01 X8.
G02 X14. Y8. I0.0 J-6.
G01 Y-8.
G02 X8. Y-14. I-6. J0.0
G01 X-5.
G02 X-8.536 Y-12.536 I0.0 J5.
G01 X-10.536 Y-10.536
X-12.536 Y-8.536
G02 X-12.655 Y-8.412 I3.536 J3.536
G03 X-16.309 Y-6.824 I-3.655 J-3.412
X-19.722 Y-8.17 I0.0 J-5.
G01 X-20.023 Y-8.45
Z-22.899
G00 Z14.6
M09
M05
G91 G28 Z0.0
G28 Y0.0
M30
%
(TOTAL Machine Time: 0.6 min)
