%
G40 G17 G49 G54 G80
G91 G28 Z0.0
( NAME: Administrator )
( PART: H:\CNC-File\2018-7\ÐË¶¦½Ü\028\028-¶¥Õë°å.prt )
( DATE: Tue Jul 17 12:32:36 2018 )
( Z6 ---> D=6.00 R=0.00 )
S1000 M03
G00 G90 X-137. Y0.0
Z5.
G17 G01 Z-1.5 F120.
G00 Z5.
X-93.
G01 Z-1.5
G00 Z5.
X-44.5 Y51.
G01 Z-1.5
G00 Z5.
X-27.5 Y86.
G01 Z-1.5
G00 Z5.
X-10.5 Y51.
G01 Z-1.5
G00 Z5.
X-27.5 Y25.
G01 Z-1.5
G00 Z5.
X2. Y0.0
G01 Z-1.5
G00 Z5.
X-27.5 Y-25.
G01 Z-1.5
G00 Z5.
X-44.5 Y-51.
G01 Z-1.5
G00 Z5.
X-27.5 Y-86.
G01 Z-1.5
G00 Z5.
X-10.5 Y-51.
G01 Z-1.5
G00 Z5.
X40.5
G01 Z-1.5
G00 Z5.
X55. Y-86.
G01 Z-1.5
G00 Z5.
X74.5 Y-51.
G01 Z-1.5
G00 Z5.
X57.5 Y-25.
G01 Z-1.5
G00 Z5.
X92. Y0.0
G01 Z-1.5
G00 Z5.
X57.5 Y25.
G01 Z-1.5
G00 Z5.
X74.5 Y51.
G01 Z-1.5
G00 Z5.
X40.5
G01 Z-1.5
G00 Z5.
X55. Y86.
G01 Z-1.5
G00 Z5.
M09
M05
G91 G28 Z0.0
G28 Y0.0
M30
%
(TOTAL Machine Time: 1.3 min)
