%
G40 G17 G49 G54 G80
G91 G28 Z0.0
( NAME: Administrator )
( PART: H:\CNC-File\2018-7\ÐË¶¦½Ü\028\028-¶¥Õë°å.prt )
( DATE: Tue Jul 17 11:44:28 2018 )
( Z6 ---> D=6.00 R=0.00 )
S1000 M03
G00 G90 X-74.5 Y51.
Z3.95
G17 G01 Z-7.55 F120.
G00 Z3.95
X-40.5
G01 Z-7.55
G00 Z3.95
X10.5
G01 Z-7.55
G00 Z3.95
X44.5
G01 Z-7.55
G00 Z3.95
Y-51.
G01 Z-7.55
G00 Z3.95
X10.5
G01 Z-7.55
G00 Z3.95
X-40.5
G01 Z-7.55
G00 Z3.95
X-74.5
G01 Z-7.55
G00 Z3.95
( Z6 ---> D=6.00 R=0.00 )
S1000 M03
G00 X27.5 Y86.
Z3.95
G01 Z-9.55 F120.
G00 Z3.95
X-55.
G01 Z-9.55
G00 Z3.95
X-57.5 Y25.
G01 Z-9.55
G00 Z3.95
Y-25.
G01 Z-9.55
G00 Z3.95
X-55. Y-86.
G01 Z-9.55
G00 Z3.95
X27.5
G01 Z-9.55
G00 Z3.95
Y-25.
G01 Z-9.55
G00 Z3.95
X-2. Y0.0
G01 Z-9.55
G00 Z3.95
X27.5 Y25.
G01 Z-9.55
G00 Z3.95
X93. Y0.0
G01 Z-9.55
G00 Z3.95
M09
M05
G91 G28 Z0.0
G28 Y0.0
M30
%
(TOTAL Machine Time: 2.2 min)
