%
G40 G17 G49 G54 G80
G91 G28 Z0.0
( NAME: HZK-PC )
( PART: H:\CNC-File\2019-3\豪泰\花纹烤盘\HW-后模仁-改-电极-190403.prt )
( DATE: Wed Apr  3 10:05:01 2019 )
( D10 ---> D=10.00 R=0.00 )
S8000 M03
G00 G90 X-17.08 Y-3.
Z9.6
G17 G01 Z-15.965 F3000.
Z-16.965 F480.
G40 G03 X-14.08 Y0.0 I0.0 J3.
G01 Y8. F800.
G02 X-8. Y14.08 I6.08 J0.0
G01 X8.
G02 X14.08 Y8. I0.0 J-6.08
G01 Y-5.
G02 X12.592 Y-8.592 I-5.08 J0.0
G01 X8.592 Y-12.592
G02 X5. Y-14.08 I-3.592 J3.592
G01 X-8.
G02 X-14.08 Y-8. I0.0 J6.08
G01 Y0.0
Y3.
G03 X-17.08 Y6. I-3. J0.0
G01 X-17.04 Y-3.
G03 X-14.04 Y0.0 I0.0 J3. F480.
G01 Y8. F800.
G02 X-8. Y14.04 I6.04 J0.0
G01 X8.
G02 X14.04 Y8. I0.0 J-6.04
G01 Y-5.
G02 X12.564 Y-8.564 I-5.04 J0.0
G01 X8.564 Y-12.564
G02 X5. Y-14.04 I-3.564 J3.564
G01 X-8.
G02 X-14.04 Y-8. I0.0 J6.04
G01 Y0.0
Y3.
G03 X-17.04 Y6. I-3. J0.0
G01 X-17. Y-3.
G03 X-14. Y0.0 I0.0 J3. F480.
G01 Y8. F800.
G02 X-8. Y14. I6. J0.0
G01 X8.
G02 X14. Y8. I0.0 J-6.
G01 Y-5.
G02 X12.536 Y-8.536 I-5. J0.0
G01 X8.536 Y-12.536
G02 X5. Y-14. I-3.536 J3.536
G01 X-8.
G02 X-14. Y-8. I0.0 J6.
G01 Y0.0
Y3.
G03 X-17. Y6. I-3. J0.0
G01 Z-15.965
G00 Z9.6
M09
M05
G91 G28 Z0.0
G28 Y0.0
M30
%
(TOTAL Machine Time: 0.7 min)
