%
G40 G17 G49 G54 G80
G91 G28 Z0.0
( NAME: Administrator )
( PART: H:\CNC-File\2018-11\É½Èó·å\F110\F110-Ç°Ä£¿ò.prt )
( DATE: Tue Nov 20 10:49:46 2018 )
( R3 ---> D=6.00 R=3.00 )
S2000 M03
G00 G90 X-45. Y86.
Z25.
G17 G01 Z-1.5 F120.
G00 Z25.
X85.
G01 Z-1.5
G00 Z25.
Y-86.
G01 Z-1.5
G00 Z25.
X-45.
G01 Z-1.5
G00 Z25.
X19.432 Y20. Z14.
G01 Z-12.5
G00 Z14.
Y-20.
G01 Z-12.5
G00 Z14.
X115. Y86. Z12.
G01 Z-14.5
G00 Z12.
Y-86.
G01 Z-14.5
G00 Z12.
X-75.
G01 Z-14.5
G00 Z12.
Y86.
G01 Z-14.5
G00 Z12.
M09
M05
G91 G28 Z0.0
G28 Y0.0
M30
%
(TOTAL Machine Time: 2.5 min)
