%
G40 G17 G49 G54 G80
G91 G28 Z0.0
( NAME: Administrator )
( PART: H:\CNC-File\2018-11\É½Èó·å\F110\F110-Ç°Ä£¿ò.prt )
( DATE: Tue Nov 20 15:50:36 2018 )
( E50R5 ---> D=50.00 R=5.00 )
S2500 M03
G00 G90 X-12.362 Y13.
Z17.
G17 G01 Z-104.5 F600.
X-20. Z-104.7 F480.
X-48. F720.
Y-13.
X8.
Y13.
X-20.
Y33. F1200.
X-68.
Y-33.
X28.
Y33.
X-20.
Y53.
X-88.
Y-53.
X48.
Y53.
X-20.
Y73.
X-108.
Y-73.
X68.
Y73.
X-20.
Y70.
Z-101.7
G00 Z-101.6
X-12.362 Y13.
G01 Z-104.6 F600.
X-20. Z-104.8 F480.
X-48. F720.
Y-13.
X8.
Y13.
X-20.
Y33. F1200.
X-68.
Y-33.
X28.
Y33.
X-20.
Y53.
X-88.
Y-53.
X48.
Y53.
X-20.
Y73.
X-108.
Y-73.
X68.
Y73.
X-20.
Y70.
Z-101.8
G00 Z17.
M09
M05
G91 G28 Z0.0
G28 Y0.0
M30
%
(TOTAL Machine Time: 3.4 min)
