%
G40 G17 G49 G54 G80
G91 G28 Z0.0
( NAME: Capful-PC )
( PART: H:\CNC-File\2018-10\²ÓÀ¤\2737\2737-µç¼«-±à³Ì.prt )
( DATE: Fri Nov  2 10:12:36 2018 )
( D10 ---> D=10.00 R=0.00 )
S9000 M03
G00 G90 X6.5 Y-25.55
Z14.6
G17 G01 Z-35.747 F800.
Z-36.747 F320.
Y-24.05
G40 G03 X1.5 Y-19.05 I-5. J0.0
G01 X-15. F800.
G02 X-18.571 Y-17.571 I0.0 J5.05
G01 X-22.571 Y-13.571
G02 X-24.05 Y-10. I3.571 J3.571
G01 Y13.
G02 X-18. Y19.05 I6.05 J0.0
G01 X12.6
G02 X24.05 Y7.6 I0.0 J-11.45
G01 Y-13.
G02 X18. Y-19.05 I-6.05 J0.0
G01 X1.5
X-1.5
G03 X-6.5 Y-24.05 I0.0 J-5.
G01 X6.5 Y-24.
G03 X1.5 Y-19. I-5. J0.0 F320.
G01 X-15. F800.
G02 X-18.536 Y-17.536 I0.0 J5.
G01 X-22.536 Y-13.536
G02 X-24. Y-10. I3.536 J3.536
G01 Y13.
G02 X-18. Y19. I6. J0.0
G01 X12.6
G02 X24. Y7.6 I0.0 J-11.4
G01 Y-13.
G02 X18. Y-19. I-6. J0.0
G01 X1.5
X-1.5
G03 X-6.5 Y-24. I0.0 J-5.
G01 Y-25.55
Z-35.747
G00 Z14.6
M09
M05
G91 G28 Z0.0
G28 Y0.0
M30
%
(TOTAL Machine Time: 0.8 min)
