%
G40 G17 G49 G54 G80
G91 G28 Z0.0
( NAME: Administrator )
( PART: H:\CNC-File\2019-2\ÓÀÊ¢½Ü\PAR38\PAR38-µç¼«-±à³Ì.prt )
( DATE: Tue Feb 26 14:09:36 2019 )
( D10 ---> D=10.00 R=0.00 )
S8000 M03
G00 G90 X-20.55 Y-5.
Z14.6
G17 G01 Z-37.44 F800.
Z-38.44 F320.
X-19.05
G40 G03 X-14.05 Y0.0 I0.0 J5.
G01 Y8. F800.
G02 X-8. Y14.05 I6.05 J0.0
G01 X8.
G02 X14.05 Y8. I0.0 J-6.05
G01 Y-5.
G02 X12.571 Y-8.571 I-5.05 J0.0
G01 X8.571 Y-12.571
G02 X5. Y-14.05 I-3.571 J3.571
G01 X-8.
G02 X-14.05 Y-8. I0.0 J6.05
G01 Y0.0
Y3.
G03 X-19.05 Y8. I-5. J0.0
G01 X-19. Y-5.
G03 X-14. Y0.0 I0.0 J5. F320.
G01 Y8. F800.
G02 X-8. Y14. I6. J0.0
G01 X8.
G02 X14. Y8. I0.0 J-6.
G01 Y-5.
G02 X12.536 Y-8.536 I-5. J0.0
G01 X8.536 Y-12.536
G02 X5. Y-14. I-3.536 J3.536
G01 X-8.
G02 X-14. Y-8. I0.0 J6.
G01 Y0.0
Y3.
G03 X-19. Y8. I-5. J0.0
G01 X-20.55
Z-37.44
G00 Z14.6
M09
M05
G91 G28 Z0.0
G28 Y0.0
M30
%
(TOTAL Machine Time: 0.6 min)
