%
G40 G17 G49 G54 G80
G91 G28 Z0.0
( NAME: Administrator )
( PART: H:\CNC-File\2018-8\²ÓÀ¤\2126\2126-BWDOWN\2126-B-Ç°Ä£¿ò.prt )
( DATE: Sat Sep  1 16:58:25 2018 )
( Z6 ---> D=6.00 R=0.00 )
S1000 M03
G00 G90 X-137.97 Y-128.46
Z-71.995
G17 G01 Z-78.495 F120.
G00 Z-71.995
X-102.97
G01 Z-78.495
G00 Z-71.995
X-65.23 Y-75.401
G01 Z-78.495
G00 Z-71.995
X-66.235 Y-56.306
G01 Z-78.495
G00 Z-71.995
X-42.115 Y-61.331
G01 Z-78.495
G00 Z-71.995
X-37.03 Y-93.039
G01 Z-78.495
G00 Z-71.995
X-13.03
G01 Z-78.495
G00 Z-71.995
X15.17 Y-75.401
G01 Z-78.495
G00 Z-71.995
X62.97 Y-128.46
G01 Z-78.495
G00 Z-71.995
X98.03
G01 Z-78.495
G00 Z-71.995
X61.758 Y-53.008
G01 Z-78.495
G00 Z-71.995
Y52.992
G01 Z-78.495
G00 Z-71.995
X98.03 Y128.46
G01 Z-78.495
G00 Z-71.995
X62.97
G01 Z-78.495
G00 Z-71.995
X-25.03 Y105.499
G01 Z-78.495
G00 Z-71.995
X-102.97 Y128.46
G01 Z-78.495
G00 Z-71.995
X-137.97
G01 Z-78.495
G00 Z-71.995
M09
M05
G91 G28 Z0.0
G28 Y0.0
M30
%
(TOTAL Machine Time: 1.2 min)
