%
G40 G17 G49 G54 G80
G91 G28 Z0.0
( NAME: Administrator )
( PART: H:\CNC-File\2018-7\ÐË¶¦½Ü\028\028-ºóÄ£¿ò.prt )
( DATE: Mon Jul 16 08:33:29 2018 )
( D6 ---> D=6.00 R=0.00 )
S1000 M03
G00 G90 X-105. Y-15.
Z5.
G17 G01 Z-1.5 F120.
G00 Z5.
X0.0 Y137.
G01 Z-1.5
G00 Z5.
X105. Y-15.
G01 Z-1.5
G00 Z5.
X0.0 Y-92.
G01 Z-1.5
G00 Z5.
( D6 ---> D=6.00 R=0.00 )
S1000 M03
G00 X-85. Y80.
Z3.
G01 Z-14.5 F120.
G00 Z3.
X-25. Y120. Z5.
G01 Z-12.5
G00 Z5.
X25.
G01 Z-12.5
G00 Z5.
X85. Y80. Z3.
G01 Z-14.5
G00 Z3.
Y-110.
G01 Z-14.5
G00 Z3.
X-85.
G01 Z-14.5
G00 Z3.
M09
M05
G91 G28 Z0.0
G28 Y0.0
M30
%
(TOTAL Machine Time: 1.4 min)
