%
G40 G17 G49 G54 G80
G91 G28 Z0.0
( NAME: Administrator )
( PART: H:\CNC-File\2018-8\ÐË¶¦½Ü\F380-×ê¿×ÂÁ°å-18.8.31\F380-×ê¿×ÂÁ°å-18.8.31.prt )
( DATE: Sat Sep  1 11:43:32 2018 )
( Z6 ---> D=6.00 R=0.00 )
S1000 M03
G00 G90 X0.0 Y-180.
Z5.
G17 G01 Z-1.5 F120.
G00 Z5.
Y180.
G01 Z-1.5
G00 Z5.
( Z6 ---> D=6.00 R=0.00 )
S1000 M03
G00 X135. Y100.
Z5.7
G01 Z-20.8 F120.
G00 Z5.7
Y-100.
G01 Z-20.8
G00 Z5.7
X-135.
G01 Z-20.8
G00 Z5.7
Y100.
G01 Z-20.8
G00 Z5.7
M09
M05
G91 G28 Z0.0
G28 Y0.0
M30
%
(TOTAL Machine Time: 1.3 min)
