%
G40 G17 G49 G54 G80
G91 G28 Z0.0
( NAME: HZK-PC )
( PART: H:\CNC-File\2019-3\豪泰\花纹烤盘\HW-电极-编程.prt )
( DATE: Wed Mar 13 09:31:00 2019 )
( D10 ---> D=10.00 R=0.00 )
S9000 M03
G00 G90 X-.5 Y13.689
Z15.
G17 G01 Z2.64 F1300.
Z-.36 F520.
Y7.189
X6.016 F1300.
Y-1.674
X2.271
X1.092 Y-7.222
X-2.092
X-3.271 Y-1.674
X-7.016
Y7.189
X-.5
Y4.189
X3.016
Y1.326
X2.271
G40 G03 X-.5 Y-.525 I0.0 J-3.
X-3.271 Y1.326 I-2.771 J-1.149
G01 X-4.016
Y4.189
X-.5
Y13.689
Z2.64
G00 Z15.
X19.1 Y0.0
G01 Z-6.29
Z-9.29 F520.
X12.6
Y-8. F1300.
G02 X10.5 Y-10.1 I-2.1 J0.0
G01 X8.069
X8.515 Y-9.884 F780.
X9.67 Y-8.999
X10.621 Y-7.898
X11.331 Y-6.628
X11.769 Y-5.24
X11.89 Y-4.057
Y9.574
G02 X12.6 Y8. I-1.39 J-1.574 F1300.
G01 Y0.0
X19.1
Z-6.29
G00 Z15.
( D10 ---> D=10.00 R=0.00 )
S9000 M03
G00 X-5. Y20.55
Z14.6
G01 Z-18.33 F800.
Z-19.33 F320.
Y19.05
G03 X0.0 Y14.05 I5. J0.0
G01 X10.5 F800.
G02 X16.55 Y8. I0.0 J-6.05
G01 Y-8.
G02 X10.5 Y-14.05 I-6.05 J0.0
G01 X-7.5
G02 X-11.071 Y-12.571 I0.0 J5.05
G01 X-15.071 Y-8.571
G02 X-16.55 Y-5. I3.571 J3.571
G01 Y8.
G02 X-10.5 Y14.05 I6.05 J0.0
G01 X0.0
X3.
G03 X8. Y19.05 I0.0 J5.
G01 X-5. Y19.
G03 X0.0 Y14. I5. J0.0 F320.
G01 X10.5 F800.
G02 X16.5 Y8. I0.0 J-6.
G01 Y-8.
G02 X10.5 Y-14. I-6. J0.0
G01 X-7.5
G02 X-11.036 Y-12.536 I0.0 J5.
G01 X-15.036 Y-8.536
G02 X-16.5 Y-5. I3.536 J3.536
G01 Y8.
G02 X-10.5 Y14. I6. J0.0
G01 X0.0
X3.
G03 X8. Y19. I0.0 J5.
G01 Y20.55
Z-18.33
G00 Z14.6
M09
M05
G91 G28 Z0.0
G28 Y0.0
M30
%
(TOTAL Machine Time: 0.8 min)
