%
G40 G17 G49 G54 G80
G91 G28 Z0.0
( NAME: Capful-NB )
( PART: H:\CNC-File\2019-1\²ÓÀ¤\YD-ìÙ¶·\YD-A-ºóÄ£ÈÊ.prt )
( DATE: Mon Jan 28 15:01:38 2019 )
( Z6 ---> D=6.00 R=0.00 )
S1000 M03
G00 G90 X-103.427 Y0.0
Z5.
G17 G01 Z-1.5 F120.
G00 Z5.
X-87.633
G01 Z-1.5
G00 Z5.
X-52.978 Y-35.185
G01 Z-1.5
G00 Z5.
X3.389 Y-44.22
G01 Z-1.5
G00 Z5.
X46.906 Y-11.246
G01 Z-1.5
G00 Z5.
X50.624 Y-45.225
G01 Z-1.5
G00 Z5.
X63.403 Y-42.21
G01 Z-1.5
G00 Z5.
X72.448 Y-24.961
G01 Z-1.5
G00 Z5.
X74.574 Y-10.955
G01 Z-1.5
G00 Z5.
X71.686 Y0.0
G01 Z-1.5
G00 Z5.
X72.448 Y25.125
G01 Z-1.5
G00 Z5.
X63.403 Y42.21
G01 Z-1.5
G00 Z5.
X50.624 Y45.225
G01 Z-1.5
G00 Z5.
X3.389 Y44.22
G01 Z-1.5
G00 Z5.
X1.5 Y19.386
G01 Z-1.5
G00 Z5.
X-52.978 Y35.185
G01 Z-1.5
G00 Z5.
M09
M05
G91 G28 Z0.0
G28 Y0.0
M30
%
(TOTAL Machine Time: 1.1 min)
