%
G40 G17 G49 G54 G80
G91 G28 Z0.0
( NAME: Administrator )
( PART: H:\CNC-File\2018-8\²ÓÀ¤\2061\2061-µç¼«-±à³Ì.prt )
( DATE: Thu Aug 23 19:08:53 2018 )
( D10 ---> D=10.00 R=0.00 )
S9000 M03
G00 G90 X-23.08 Y-3.5
Z14.6
G17 G01 Z-42.328 F800.
Z-43.328 F320.
X-21.58
G40 G03 X-16.58 Y1.5 I0.0 J5.
G01 Y10.5 F800.
G02 X-10.5 Y16.58 I6.08 J0.0
G01 X10.5
G02 X16.58 Y10.5 I0.0 J-6.08
G01 Y-10.5
G02 X10.5 Y-16.58 I-6.08 J0.0
G01 X-7.5
G02 X-11.092 Y-15.092 I0.0 J5.08
G01 X-15.092 Y-11.092
G02 X-16.58 Y-7.5 I3.592 J3.592
G01 Y1.5
Y4.5
G03 X-21.58 Y9.5 I-5. J0.0
G01 X-21.54 Y-3.5
G03 X-16.54 Y1.5 I0.0 J5. F320.
G01 Y10.5 F800.
G02 X-10.5 Y16.54 I6.04 J0.0
G01 X10.5
G02 X16.54 Y10.5 I0.0 J-6.04
G01 Y-10.5
G02 X10.5 Y-16.54 I-6.04 J0.0
G01 X-7.5
G02 X-11.064 Y-15.064 I0.0 J5.04
G01 X-15.064 Y-11.064
G02 X-16.54 Y-7.5 I3.564 J3.564
G01 Y1.5
Y4.5
G03 X-21.54 Y9.5 I-5. J0.0
G01 X-21.5 Y-3.5
G03 X-16.5 Y1.5 I0.0 J5. F320.
G01 Y10.5 F800.
G02 X-10.5 Y16.5 I6. J0.0
G01 X10.5
G02 X16.5 Y10.5 I0.0 J-6.
G01 Y-10.5
G02 X10.5 Y-16.5 I-6. J0.0
G01 X-7.5
G02 X-11.036 Y-15.036 I0.0 J5.
G01 X-15.036 Y-11.036
G02 X-16.5 Y-7.5 I3.536 J3.536
G01 Y1.5
Y4.5
G03 X-21.5 Y9.5 I-5. J0.0
G01 X-23.04
Z-42.328
G00 Z14.6
M09
M05
G91 G28 Z0.0
G28 Y0.0
M30
%
(TOTAL Machine Time: 0.9 min)
