%
G40 G17 G49 G54 G80
G91 G28 Z0.0
( NAME: HZK-PC )
( PART: H:\CNC-File\2019-3\ºÀÌ©\HT-2019-06\HT-2019-06-Ç°Ä£ÈÊ.prt )
( DATE: Sun Mar 31 11:03:49 2019 )
( Z6 ---> D=6.00 R=0.00 )
S1000 M03
G00 G90 X-105.951 Y15.
Z-43.116
G17 G01 Z-51.116 F100.
G00 Z-43.116
Z-49.866
G01 Z-54.116
G00 Z-43.116
Z-52.866
G01 Z-57.116
G00 Z-43.116
Z-55.866
G01 Z-60.116
G00 Z-43.116
Z-58.866
G01 Z-63.116
G00 Z-43.116
Z-61.866
G01 Z-66.116
G00 Z-43.116
Z-64.866
G01 Z-68.116
G00 Z-43.116
Y-15.
G01 Z-51.116
G00 Z-43.116
Z-49.866
G01 Z-54.116
G00 Z-43.116
Z-52.866
G01 Z-57.116
G00 Z-43.116
Z-55.866
G01 Z-60.116
G00 Z-43.116
Z-58.866
G01 Z-63.116
G00 Z-43.116
Z-61.866
G01 Z-66.116
G00 Z-43.116
Z-64.866
G01 Z-68.116
G00 Z-43.116
M09
M05
G91 G28 Z0.0
G28 Y0.0
M30
%
(TOTAL Machine Time: 0.9 min)
