%
G40 G17 G49 G54 G80
G91 G28 Z0.0
( NAME: Administrator )
( PART: H:\CNC-File\2019-1\ÓÀÊ¢½Ü\9ASA\9ASA-µç¼«-±à³Ì.prt )
( DATE: Fri Feb 15 10:19:44 2019 )
( D10 ---> D=10.00 R=0.00 )
S9000 M03
G00 G90 X-28.05 Y-5.
Z14.6
G17 G01 Z-47.506 F800.
Z-48.506 F320.
X-26.55
G40 G03 X-21.55 Y0.0 I0.0 J5.
G01 Y15.5 F800.
G02 X-15.5 Y21.55 I6.05 J0.0
G01 X15.5
G02 X21.55 Y15.5 I0.0 J-6.05
G01 Y-12.5
G02 X20.071 Y-16.071 I-5.05 J0.0
G01 X16.071 Y-20.071
G02 X12.5 Y-21.55 I-3.571 J3.571
G01 X-15.5
G02 X-21.55 Y-15.5 I0.0 J6.05
G01 Y0.0
Y3.
G03 X-26.55 Y8. I-5. J0.0
G01 X-26.5 Y-5.
G03 X-21.5 Y0.0 I0.0 J5. F320.
G01 Y15.5 F800.
G02 X-15.5 Y21.5 I6. J0.0
G01 X15.5
G02 X21.5 Y15.5 I0.0 J-6.
G01 Y-12.5
G02 X20.036 Y-16.036 I-5. J0.0
G01 X16.036 Y-20.036
G02 X12.5 Y-21.5 I-3.536 J3.536
G01 X-15.5
G02 X-21.5 Y-15.5 I0.0 J6.
G01 Y0.0
Y3.
G03 X-26.5 Y8. I-5. J0.0
G01 X-28.05
Z-47.506
G00 Z14.6
M09
M05
G91 G28 Z0.0
G28 Y0.0
M30
%
(TOTAL Machine Time: 0.8 min)
