%
G40 G17 G49 G54 G80
G91 G28 Z0.0
( NAME: Capful )
( PART: H:\CNC-File\2018-9\²ÓÀ¤\2139-New\2139-U-ºóÄ£ÈÊ.prt )
( DATE: Sat Sep 22 16:23:37 2018 )
( D8 ---> D=8.00 R=0.00 )
S8000 M03
G00 G90 X-.094 Y82.939
Z15.347
G17 G01 Z1.5 F1000.
Z-1.5 F400.
X-.017 Y88.739
X-.483 Y88.745 F1000.
X-.967 Y88.748
G40 G03 X-7.379 Y88.432 I.968 J-84.784
G01 X-8.852 Y88.303
X-10.058 Y89.046 F600.
X-11.841 Y88.798
G03 X-18.633 Y87.569 I11.841 J-84.834
G01 X-19.123 Y87.46
X-20.08 Y87.033
X-20.244 Y89.635 F1000.
X21.523 F600.
X21.931 Y85.869 F1000.
X21.341 Y86.03
X21.167 Y86.275 F600.
X19.577 Y87.358
X18.642 Y87.567
G03 X11.842 Y88.798 I-18.641 J-83.603
G01 X9.931 Y89.064
X8.818 Y88.306
X7.38 Y88.432 F1000.
G03 X.942 Y88.748 I-7.379 J-84.468
G01 X.485 Y88.745
X-.017 Y88.739
X.059 Y82.939
Z1.5
G00 Z15.347
M09
M05
G91 G28 Z0.0
G28 Y0.0
M30
%
(TOTAL Machine Time: 0.4 min)
