%
G40 G17 G49 G54 G80
G91 G28 Z0.0
( NAME: Administrator )
( PART: H:\CNC-File\2019-1\灿坤\U型电热盘\U-后模仁.prt )
( DATE: Tue Feb 12 16:55:04 2019 )
( Z6 ---> D=6.00 R=0.00 )
S1000 M03
G00 G90 X70. Y-70.
Z5.
G17 G01 Z-1.5 F120.
G00 Z5.
X19.095 Y-24.17
G01 Z-1.5
G00 Z5.
X5.025 Y-7.588
G01 Z-1.5
G00 Z5.
X32.16 Y-8.492
G01 Z-1.5
G00 Z5.
Y28.492
G01 Z-1.5
G00 Z5.
X70. Y70.
G01 Z-1.5
G00 Z5.
X19.095 Y44.17
G01 Z-1.5
G00 Z5.
X5.025 Y27.588
G01 Z-1.5
G00 Z5.
X-25.125 Y43.165
G01 Z-1.5
G00 Z5.
X-70. Y70.
G01 Z-1.5
G00 Z5.
X-40.703 Y25.075
G01 Z-1.5
G00 Z5.
Y-5.075
G01 Z-1.5
G00 Z5.
X-25.125 Y-23.165
G01 Z-1.5
G00 Z5.
X-70. Y-70.
G01 Z-1.5
G00 Z5.
M09
M05
G91 G28 Z0.0
G28 Y0.0
M30
%
(TOTAL Machine Time: 1.0 min)
