%
G40 G17 G49 G54 G80
G91 G28 Z0.0
( NAME: Administrator )
( PART: H:\CNC-File\2018-10\²ÓÀ¤\C266\C266-D\C266-D-ºóÄ£¿ò.prt )
( DATE: Wed Oct 24 23:40:43 2018 )
( R3 ---> D=6.00 R=3.00 )
S1500 M03
G00 G90 X140. Y-170.
Z5.
G01 Z-1.5 F120.
G00 Z5.
X-90.
G01 Z-1.5
G00 Z5.
X-200. Y0.0
G01 Z-1.5
G00 Z5.
X-145.
G01 Z-1.5
G00 Z5.
X-90. Y170.
G01 Z-1.5
G00 Z5.
X140.
G01 Z-1.5
G00 Z5.
X124. Y138.
G01 Z-1.5
G00 Z5.
X133. Y68.
G01 Z-1.5
G00 Z5.
Y34.
G01 Z-1.5
G00 Z5.
Y0.0
G01 Z-1.5
G00 Z5.
X114.003
G01 Z-1.5
G00 Z5.
X133. Y-34.
G01 Z-1.5
G00 Z5.
Y-68.
G01 Z-1.5
G00 Z5.
X124. Y-138.
G01 Z-1.5
G00 Z5.
X79. Y-152.5
G01 Z-1.5
G00 Z5.
X35.
G01 Z-1.5
G00 Z5.
X-16.
G01 Z-1.5
G00 Z5.
X-51. Y-137.5
G01 Z-1.5
G00 Z5.
X-64. Y-75.
G01 Z-1.5
G00 Z5.
Y-27.
G01 Z-1.5
G00 Z5.
X35. Y0.0
G01 Z-1.5
G00 Z5.
X-64. Y27.
G01 Z-1.5
G00 Z5.
Y75.
G01 Z-1.5
G00 Z5.
X-51. Y137.5
G01 Z-1.5
G00 Z5.
X-16. Y152.5
G01 Z-1.5
G00 Z5.
X35.
G01 Z-1.5
G00 Z5.
X79.
G01 Z-1.5
G00 Z5.
( R3 ---> D=6.00 R=3.00 )
S1500 M03
G00 X175. Y-170.
Z8.
G01 Z-18.5 F120.
G00 Z8.
X-125.
G01 Z-18.5
G00 Z8.
X175. Y170.
G01 Z-18.5
G00 Z8.
X-125.
G01 Z-18.5
G00 Z8.
X-180. Y35. Z14.
G01 Z-12.5
G00 Z14.
Y-35.
G01 Z-12.5
G00 Z14.
M09
M05
G91 G28 Z0.0
G28 Y0.0
M30
%
(TOTAL Machine Time: 0.6 min)
