%
G40 G17 G49 G54 G80
G91 G28 Z0.0
( NAME: HZK-PC )
( PART: H:\CNC-File\2019-3\ºÀÌ©\HT-2019-05\HT-2019-05-Ç°Ä£ÈÊ.prt )
( DATE: Sat Mar 30 14:22:00 2019 )
( Z10 ---> D=10.00 R=0.00 )
S1000 M03
G00 G90 X-97.951 Y-39.
Z-40.177
G17 G01 Z-48.177 F100.
G00 Z-40.177
Z-46.927
G01 Z-51.177
G00 Z-40.177
Z-49.927
G01 Z-54.177
G00 Z-40.177
Z-52.927
G01 Z-57.177
G00 Z-40.177
Z-55.927
G01 Z-60.177
G00 Z-40.177
Z-58.927
G01 Z-63.177
G00 Z-40.177
Z-61.927
G01 Z-66.177
G00 Z-40.177
Z-64.927
G01 Z-67.177
G00 Z-40.177
X-105.951 Y5.
G01 Z-48.177
G00 Z-40.177
Z-46.927
G01 Z-51.177
G00 Z-40.177
Z-49.927
G01 Z-54.177
G00 Z-40.177
Z-52.927
G01 Z-57.177
G00 Z-40.177
Z-55.927
G01 Z-60.177
G00 Z-40.177
Z-58.927
G01 Z-63.177
G00 Z-40.177
Z-61.927
G01 Z-66.177
G00 Z-40.177
Z-64.927
G01 Z-67.177
G00 Z-40.177
M09
M05
G91 G28 Z0.0
G28 Y0.0
M30
%
(TOTAL Machine Time: 1.0 min)
