%
G40 G17 G49 G54 G80
G91 G28 Z0.0
( NAME: Administrator )
( PART: H:\CNC-File\2018-8\²ÓÀ¤\2061\2061-µç¼«-±à³Ì.prt )
( DATE: Thu Aug 23 19:12:22 2018 )
( D10 ---> D=10.00 R=0.00 )
S9000 M03
G00 G90 X-5. Y28.08
Z14.6
G17 G01 Z-43.563 F800.
Z-44.563 F320.
Y26.58
G40 G03 X0.0 Y21.58 I5. J0.0
G01 X80.5 F800.
G02 X86.58 Y15.5 I0.0 J-6.08
G01 Y-15.5
G02 X80.5 Y-21.58 I-6.08 J0.0
G01 X-77.5
G02 X-81.092 Y-20.092 I0.0 J5.08
G01 X-85.092 Y-16.092
G02 X-86.58 Y-12.5 I3.592 J3.592
G01 Y15.5
G02 X-80.5 Y21.58 I6.08 J0.0
G01 X0.0
X3.
G03 X8. Y26.58 I0.0 J5.
G01 X-5. Y26.54
G03 X0.0 Y21.54 I5. J0.0 F320.
G01 X80.5 F800.
G02 X86.54 Y15.5 I0.0 J-6.04
G01 Y-15.5
G02 X80.5 Y-21.54 I-6.04 J0.0
G01 X-77.5
G02 X-81.064 Y-20.064 I0.0 J5.04
G01 X-85.064 Y-16.064
G02 X-86.54 Y-12.5 I3.564 J3.564
G01 Y15.5
G02 X-80.5 Y21.54 I6.04 J0.0
G01 X0.0
X3.
G03 X8. Y26.54 I0.0 J5.
G01 X-5. Y26.5
G03 X0.0 Y21.5 I5. J0.0 F320.
G01 X80.5 F800.
G02 X86.5 Y15.5 I0.0 J-6.
G01 Y-15.5
G02 X80.5 Y-21.5 I-6. J0.0
G01 X-77.5
G02 X-81.036 Y-20.036 I0.0 J5.
G01 X-85.036 Y-16.036
G02 X-86.5 Y-12.5 I3.536 J3.536
G01 Y15.5
G02 X-80.5 Y21.5 I6. J0.0
G01 X0.0
X3.
G03 X8. Y26.5 I0.0 J5.
G01 Y28.04
Z-43.563
G00 Z14.6
M09
M05
G91 G28 Z0.0
G28 Y0.0
M30
%
(TOTAL Machine Time: 2.0 min)
