%
G40 G17 G49 G54 G80
G91 G28 Z0.0
( NAME: Administrator )
( PART: H:\CNC-File\2019-1\²ÓÀ¤\YD-ìÙ¶·\YD-B-ºóÄ£¿ò.prt )
( DATE: Thu Feb 14 11:56:07 2019 )
( Z6 ---> D=6.00 R=0.00 )
S1000 M03
G00 G90 X5. Y-45.
Z5.
G17 G01 Z-1.5 F120.
G00 Z5.
X50. Y-27.
G01 Z-1.5
G00 Z5.
X84. Y-18.
G01 Z-1.5
G00 Z5.
X140. Y0.0
G01 Z-1.5
G00 Z5.
X84. Y18.
G01 Z-1.5
G00 Z5.
X50. Y27.
G01 Z-1.5
G00 Z5.
X5. Y45.
G01 Z-1.5
G00 Z5.
X-8. Y14.
G01 Z-1.5
G00 Z5.
X-78. Y-8.
G01 Z-1.5
G00 Z5.
X-111. Y-46.
G01 Z-1.5
G00 Z5.
X-145. Y-25.
G01 Z-1.5
G00 Z5.
X-127. Y0.0
G01 Z-1.5
G00 Z5.
X-145. Y25.
G01 Z-1.5
G00 Z5.
X-111. Y46.
G01 Z-1.5
G00 Z5.
( Z6 ---> D=6.00 R=0.00 )
S1000 M03
G00 X-165. Y-70.
Z5.
G01 Z-14.5 F120.
G00 Z5.
Y70.
G01 Z-14.5
G00 Z5.
X115.
G01 Z-14.5
G00 Z5.
X170. Y32.5
G01 Z-14.5
G00 Z5.
Y-32.5
G01 Z-14.5
G00 Z5.
X115. Y-70.
G01 Z-14.5
G00 Z5.
M09
M05
G91 G28 Z0.0
G28 Y0.0
M30
%
(TOTAL Machine Time: 2.0 min)
