%
G40 G17 G49 G54 G80
G91 G28 Z0.0
( NAME: Administrator )
( PART: H:\CNC-File\2018-10\²ÓÀ¤\C266\C266-U\C266-ºóÄ£¿ò-U.prt )
( DATE: Thu Oct 25 20:30:48 2018 )
( R3 ---> D=6.00 R=3.00 )
S2000 M03
G00 G90 X-200. Y0.0
Z5.
G17 G01 Z-1.5 F120.
G00 Z5.
X-145.
G01 Z-1.5
G00 Z5.
X-90. Y170.
G01 Z-1.5
G00 Z5.
X140.
G01 Z-1.5
G00 Z5.
Y-170.
G01 Z-1.5
G00 Z5.
X-90.
G01 Z-1.5
G00 Z5.
X-52. Y-140.
G01 Z-1.5
G00 Z5.
X-64. Y-70.
G01 Z-1.5
G00 Z5.
Y-22.
G01 Z-1.5
G00 Z5.
Y22.
G01 Z-1.5
G00 Z5.
Y70.
G01 Z-1.5
G00 Z5.
X-52. Y140.
G01 Z-1.5
G00 Z5.
X-16. Y152.5
G01 Z-1.5
G00 Z5.
X33.
G01 Z-1.5
G00 Z5.
X81.
G01 Z-1.5
G00 Z5.
X123. Y135.
G01 Z-1.5
G00 Z5.
X133. Y64.
G01 Z-1.5
G00 Z5.
Y32.
G01 Z-1.5
G00 Z5.
Y0.0
G01 Z-1.5
G00 Z5.
Y-32.
G01 Z-1.5
G00 Z5.
Y-64.
G01 Z-1.5
G00 Z5.
X123. Y-135.
G01 Z-1.5
G00 Z5.
X81. Y-152.5
G01 Z-1.5
G00 Z5.
X33.
G01 Z-1.5
G00 Z5.
X-16.
G01 Z-1.5
G00 Z5.
X35. Y0.0
G01 Z-1.5
G00 Z5.
( R3 ---> D=6.00 R=3.00 )
S2000 M03
G00 X-180. Y-35.
Z14.
G01 Z-12.5 F120.
G00 Z14.
Y35.
G01 Z-12.5
G00 Z14.
X-125. Y170. Z8.
G01 Z-18.5
G00 Z8.
X175.
G01 Z-18.5
G00 Z8.
Y-170.
G01 Z-18.5
G00 Z8.
X-125.
G01 Z-18.5
G00 Z8.
M09
M05
G91 G28 Z0.0
G28 Y0.0
M30
%
(TOTAL Machine Time: 3.2 min)
