%
G40 G17 G49 G54 G80
G91 G28 Z0.0
( NAME: Administrator )
( PART: H:\CNC-File\2019-1\灿坤\YD-熨斗\YD-凸点-电极-编程.prt )
( DATE: Wed Feb 27 11:57:49 2019 )
( D10 ---> D=10.00 R=0.00 )
S9000 M03
G00 G90 X-20.55 Y-3.5
Z14.6
G17 G01 Z-17.799 F800.
Z-18.799 F320.
X-19.05
G40 G03 X-14.05 Y1.5 I0.0 J5.
G01 Y8. F800.
G02 X-8. Y14.05 I6.05 J0.0
G01 X8.
G02 X14.05 Y8. I0.0 J-6.05
G01 Y-8.
G02 X8. Y-14.05 I-6.05 J0.0
G01 X-5.
G02 X-8.571 Y-12.571 I0.0 J5.05
G01 X-12.571 Y-8.571
G02 X-14.05 Y-5. I3.571 J3.571
G01 Y1.5
Y4.5
G03 X-19.05 Y9.5 I-5. J0.0
G01 X-19. Y-3.5
G03 X-14. Y1.5 I0.0 J5. F320.
G01 Y8. F800.
G02 X-8. Y14. I6. J0.0
G01 X8.
G02 X14. Y8. I0.0 J-6.
G01 Y-8.
G02 X8. Y-14. I-6. J0.0
G01 X-5.
G02 X-8.536 Y-12.536 I0.0 J5.
G01 X-12.536 Y-8.536
G02 X-14. Y-5. I3.536 J3.536
G01 Y1.5
Y4.5
G03 X-19. Y9.5 I-5. J0.0
G01 X-20.46
Z-17.799
G00 Z14.6
( D10 ---> D=10.00 R=0.00 )
S9000 M03
G00 X0.0 Y16.7
Z15.
G01 Z-5.759 F1300.
Z-8.759 F520.
Y10.2
X8. F1300.
G02 X10.163 Y8.402 I0.0 J-2.2
G01 X-10.163 F780.
G02 X-8. Y10.2 I2.163 J-.401 F1300.
G01 X0.0
Y16.7
Z-5.759
G00 Z15.
X1.251 Y-16.7
G01 Z-5.759
Z-8.759 F520.
Y-10.2
X-5.497 F1300.
X-7.509 Y-8.188
X10.192 F780.
G02 X8. Y-10.2 I-2.192 J.188 F1300.
G01 X1.251
Y-16.7
Z-5.759
G00 Z15.
M09
M05
G91 G28 Z0.0
G28 Y0.0
M30
%
(TOTAL Machine Time: 0.8 min)
