%
G40 G17 G49 G54 G80
G91 G28 Z0.0
( NAME: Capful-PC )
( PART: H:\CNC-File\2018-9\ºêöÎÑó\11407\11407-µç¼«-±à³Ì.prt )
( DATE: Fri Sep 21 10:05:24 2018 )
( KZ ---> D=0.50 R=0.25 )
S15000 M03
G00 G90 X-2.536 Y12.66
Z2.6
Z-8.4
G17 G01 Z-11.42 F500.
Y13.817 F800.
Z-8.4
G00 Z2.6
Y13.239
Z-8.4
G01 Z-11.42 F500.
X-1.799 F800.
Z-8.4
G00 Z2.6
Y12.66
Z-8.4
G01 Z-11.42 F500.
Y13.817 F800.
Z-8.4
G00 Z2.6
X-1.261
Z-8.4
G01 Z-11.42 F500.
Y12.66 F800.
X-.524
Z-8.4
G00 Z2.6
X.817 Y13.239
Z-8.4
G01 Z-11.42 F500.
X-.08 F800.
Z-8.4
G00 Z2.6
X1.629 Y12.66
Z-8.4
G01 Z-11.42 F500.
X1.733 Y12.672 F800.
X1.828 Y12.731
X1.856 Y12.766
X1.96 Y12.908
X2.017 Y13.12
Y13.345
X1.96 Y13.569
X1.847 Y13.723
X1.78 Y13.782
X1.686 Y13.817
X1.582 Y13.805
X1.487 Y13.746
X1.45 Y13.711
X1.355 Y13.569
X1.298 Y13.345
Y13.12
X1.355 Y12.908
X1.459 Y12.754
X1.525 Y12.695
X1.629 Y12.66
Z-8.4
G00 Z2.6
X2.933
Z-8.4
G01 Z-11.42 F500.
Y13.817 F800.
X2.838 Y13.64
Z-8.4
G00 Z2.6
X3.074 Y12.66
Z-8.4
G01 Z-11.42 F500.
X2.791 F800.
Z-8.4
G00 Z2.6
M09
M05
G91 G28 Z0.0
G28 Y0.0
M30
%
(TOTAL Machine Time: 0.3 min)
