%
G40 G17 G49 G54 G80
G91 G28 Z0.0
( NAME: Capful-PC )
( PART: H:\CNC-File\2018-12\²ÓÀ¤\2978\2978-D-ºóÄ£ÈÊ-2.prt )
( DATE: Tue Dec 18 19:36:46 2018 )
( D4R0.5 ---> D=4.00 R=0.50 )
S9000 M03
G00 G90 X-143.888 Y93.15
Z15.2
G17 G01 Z-3.204 F500.
Z-6.204 F400.
Y97.55
X-149.888 F1000.
G40 G03 X-154.288 Y93.15 I0.0 J-4.4
G01 X-154.888
X-156.02 Y101.205
X-133.247 F600.
X-132.888 Y93.157 F1000.
X-133.488 Y93.156
G03 X-137.888 Y97.55 I-4.4 J-.006
G01 X-143.888
Y99.05
X-149.888
G03 X-153.972 Y97.408 I0.0 J-5.9
G01 X-154.295 Y99.705
X-134.682
X-134.608 Y98.054
G03 X-137.888 Y99.05 I-3.28 J-4.904
G01 X-143.888
Y93.15
Z-3.204
G00 Z-3.174
G01 Z-3.234 F500.
Z-6.234 F400.
Y97.55
X-149.888 F1000.
G03 X-154.288 Y93.15 I0.0 J-4.4
G01 X-154.888
X-156.02 Y101.205
X-133.247 F600.
X-132.888 Y93.157 F1000.
X-133.488 Y93.156
G03 X-137.888 Y97.55 I-4.4 J-.006
G01 X-143.888
Y99.05
X-149.888
G03 X-153.972 Y97.408 I0.0 J-5.9
G01 X-154.295 Y99.705
X-134.682
X-134.608 Y98.054
G03 X-137.888 Y99.05 I-3.28 J-4.904
G01 X-143.888
Y93.15
Z-3.234
G00 Z15.2
M09
M05
G91 G28 Z0.0
G28 Y0.0
M30
%
(TOTAL Machine Time: 0.6 min)
