%
G40 G17 G49 G54 G80
G91 G28 Z0.0
( NAME: Capful-PC )
( PART: H:\CNC-File\2018-10\其它\模框降面\模框降面.prt )
( DATE: Wed Oct 31 11:59:06 2018 )
( E21R0.8 ---> D=21.00 R=0.80 )
S2500 M03
G00 G90 X7.638 Y-230.
Z17.01
G17 G01 Z.2 F1000.
X0.0 Z0.0 F800.
X-204.5 F2000.
Y-33. F1200.
G40 G02 X-182. Y-10.5 I22.5 J0.0
G01 X182.
G02 X204.5 Y-33. I0.0 J-22.5
G01 Y-230.
X0.0 F2000.
Y-220.3
X-194.8
Y-33.
G02 X-182. Y-20.2 I12.8 J0.0
G01 X182.
G02 X194.8 Y-33. I0.0 J-12.8
G01 Y-220.3
X0.0
Y-210.6
X-185.1
Y-33.
G02 X-182. Y-29.9 I3.1 J0.0
G01 X182.
G02 X185.1 Y-33. I0.0 J-3.1
G01 Y-210.6
X0.0
Y-200.9
X-175.4
Y-39.6
X175.4
Y-200.9
X0.0
Y-191.2
X-165.7
Y-49.3
X165.7
Y-191.2
X0.0
Y-181.5
X-156.
Y-59.
X156.
Y-181.5
X0.0
Y-171.8
X-146.3
Y-68.7
X146.3
Y-171.8
X0.0
Y-162.1
X-136.6
Y-78.4
X136.6
Y-162.1
X0.0
Y-152.4
X-126.9
Y-88.1
X126.9
Y-152.4
X0.0
Y-142.7
X-117.2
Y-97.8
X117.2
Y-142.7
X0.0
Y-133.
X-107.5
Y-107.5
X107.5
Y-133.
X0.0
Y-123.3
X-97.8
Y-117.2
X97.8
Y-123.3
X0.0
Y-126.3
Z3.
G00 Z17.01
M09
M05
G91 G28 Z0.0
G28 Y0.0
M30
%
(TOTAL Machine Time: 5.5 min)
