%
G40 G17 G49 G54 G80
G91 G28 Z0.0
( NAME: HZK-PC )
( PART: H:\CNC-File\2018-8\宏鑫洋\338\338,338A-后模仁-流道改-190324.prt )
( DATE: Sun Mar 24 17:54:48 2019 )
( D6R0.5 ---> D=6.00 R=0.50 )
S9000 M03
G00 G90 X-72.15 Y-91.184
Z44.595
G17 G01 Z2.987 F1000.
Z-.013 F800.
Y-92.106
G40 G03 X-70.35 Y-93.906 I1.8 J0.0 F300.
G01 X65.364 F2000.
X70.359
X70.358 Y-93.87 Z-.022
Y-93.842 Z-.032
X65.364
X-70.35
Y-93.785 Z-.058
X65.364
X70.357
X70.356 Y-93.732 Z-.09
X65.364
X-70.35
Y-93.684 Z-.128
X70.35
Y-93.641 Z-.171
X-70.35
Y-93.604 Z-.219
X70.35
Y-93.573 Z-.271
X-70.35
Y-93.549 Z-.326
X70.35
Y-93.531 Z-.383
X-70.35
Y-93.521 Z-.443
X70.35
Y-93.518 Z-.502
X-70.35
Z-.562
X70.35
Y-93.516 Z-.622
X-70.35
Y-93.51 Z-.682
X70.35
Y-93.501 Z-.741
X-70.35
Y-93.488 Z-.8
X70.35
Y-93.471 Z-.857
X-70.35
Y-93.452 Z-.914
X70.35
Y-93.428 Z-.969
X-70.35
Y-93.402 Z-1.023
X70.35
Y-93.373 Z-1.075
X-70.35
Y-93.34 Z-1.125
X70.35
Y-93.305 Z-1.173
X-70.35
Y-93.267 Z-1.219
X70.35
Y-93.226 Z-1.263
X-70.35
Y-93.183 Z-1.304
X70.35
Y-93.137 Z-1.342
X-70.35
Y-93.09 Z-1.377
X70.35
Y-93.04 Z-1.41
X-70.35
Y-92.989 Z-1.439
X70.35
Y-92.937 Z-1.466
X-70.35
Y-92.883 Z-1.489
X70.35
Y-92.829 Z-1.508
X-70.35
Y-92.776 Z-1.525
X70.35
Y-92.723 Z-1.538
X-70.35
Y-92.675 Z-1.547
X70.35
Y-92.627 Z-1.553
Y-92.582 Z-1.56
X-70.35
G02 X-70.986 Y-92.318 I0.0 J.9 F462.
G01 Z1.44 F2000.
G00 Z44.595
M09
M05
G91 G28 Z0.0
G28 Y0.0
M30
%
(TOTAL Machine Time: 2.9 min)
