%
G40 G17 G49 G54 G80
G91 G28 Z0.0
( NAME: HZK-PC )
( PART: H:\CNC-File\2019-3\ºÀÌ©\»¨ÎÆ¿¾ÅÌ\HW-ºóÄ£¿ò.prt )
( DATE: Mon Mar 11 19:16:23 2019 )
( Z6 ---> D=6.00 R=0.00 )
S1000 M03
G00 G90 X-180. Y0.0
Z5.
G17 G01 Z-1.5 F120.
G00 Z5.
X-125. Y-7.
G01 Z-1.5
G00 Z5.
X-105. Y95.
G01 Z-1.5
G00 Z5.
X-62. Y43.
G01 Z-1.5
G00 Z5.
Y8.
G01 Z-1.5
G00 Z5.
Y-28.
G01 Z-1.5
G00 Z5.
Y-63.
G01 Z-1.5
G00 Z5.
X-105. Y-95.
G01 Z-1.5
G00 Z5.
X-17. Y-124.
G01 Z-1.5
G00 Z5.
X35. Y-61.255
G01 Z-1.5
G00 Z5.
X70. Y0.0
G01 Z-1.5
G00 Z5.
X35. Y41.255
G01 Z-1.5
G00 Z5.
X35.31 Y124.619
G01 Z-1.5
G00 Z5.
X155. Y95.
G01 Z-1.5
G00 Z5.
X132.271 Y68.004
G01 Z-1.5
G00 Z5.
Y41.
G01 Z-1.5
G00 Z5.
Y7.
G01 Z-1.5
G00 Z5.
Y-27.
G01 Z-1.5
G00 Z5.
Y-61.
G01 Z-1.5
G00 Z5.
X155. Y-95.
G01 Z-1.5
G00 Z5.
X132.271 Y-88.004
G01 Z-1.5
G00 Z5.
X77.001 Y-124.
G01 Z-1.5
G00 Z5.
( Z6 ---> D=6.00 R=0.00 )
S1000 M03
G00 X-160. Y35.
Z5.
G01 Z-14.5 F120.
G00 Z5.
Y-35.
G01 Z-14.5
G00 Z5.
X-105. Y-120.
G01 Z-14.5
G00 Z5.
X155.
G01 Z-14.5
G00 Z5.
Y120.
G01 Z-14.5
G00 Z5.
X-105.
G01 Z-14.5
G00 Z5.
M09
M05
G91 G28 Z0.0
G28 Y0.0
M30
%
(TOTAL Machine Time: 2.5 min)
