%
G40 G17 G49 G54 G80
G91 G28 Z0.0
( NAME: Administrator )
( PART: H:\CNC-File\2019-1\²ÓÀ¤\YD-ìÙ¶·\YD-B-Ç°Ä£¿ò.prt )
( DATE: Wed Feb 13 20:02:23 2019 )
( Z6 ---> D=6.00 R=0.00 )
S1000 M03
G00 G90 X-165. Y-70.
Z5.
G17 G01 Z-14.5 F120.
G00 Z5.
Y70.
G01 Z-14.5
G00 Z5.
X115.
G01 Z-14.5
G00 Z5.
Y-70.
G01 Z-14.5
G00 Z5.
M09
M05
G91 G28 Z0.0
G28 Y0.0
M30
%
(TOTAL Machine Time: 0.9 min)
