%
G40 G17 G49 G54 G80
G91 G28 Z0.0
( NAME: Administrator )
( PART: H:\CNC-File\2018-12\ÓÀÊ¢½Ü\»¬¿é»¬¿é\f1000-ºóÄ£¿ò.prt )
( DATE: Fri Dec 14 18:02:08 2018 )
( E50R5 ---> D=50.00 R=5.00 )
S2000 M03
G00 G90 X7.638 Y10.
Z64.8
G17 G01 Z-2.7 F600.
X0.0 Z-2.9 F480.
X-65. F720.
Y-10.
X65.
Y10.
X0.0
Y30. F1200.
X-85.
Y-30.
X85.
Y30.
X0.0
Y50.
X-105.
Y-50.
X105.
Y50.
X0.0
Y70.
X-125.
Y-70.
X125.
Y70.
X0.0
Y90.
X-142.5
G40 G03 X-145. Y87.5 I0.0 J-2.5
G01 Y-87.5
G03 X-142.5 Y-90. I2.5 J0.0
G01 X142.5
G03 X145. Y-87.5 I0.0 J2.5
G01 Y87.5
G03 X142.5 Y90. I-2.5 J0.0
G01 X0.0
Y87.
Z.1
G00 Z.2
X7.638 Y10.
G01 Z-2.8 F600.
X0.0 Z-3. F480.
X-65. F720.
Y-10.
X65.
Y10.
X0.0
Y30. F1200.
X-85.
Y-30.
X85.
Y30.
X0.0
Y50.
X-105.
Y-50.
X105.
Y50.
X0.0
Y70.
X-125.
Y-70.
X125.
Y70.
X0.0
Y90.
X-142.5
G03 X-145. Y87.5 I0.0 J-2.5
G01 Y-87.5
G03 X-142.5 Y-90. I2.5 J0.0
G01 X142.5
G03 X145. Y-87.5 I0.0 J2.5
G01 Y87.5
G03 X142.5 Y90. I-2.5 J0.0
G01 X0.0
Y87.
Z0.0
G00 Z64.8
M09
M05
G91 G28 Z0.0
G28 Y0.0
M30
%
(TOTAL Machine Time: 6.0 min)
