%
G40 G17 G49 G54 G80
G91 G28 Z0.0
( NAME: HZK-PC )
( PART: H:\CNC-File\2019-3\ºÀÌ©\»¨ÎÆ¿¾ÅÌ\HW-Ç°Ä£ÈÊ-Ïâ¼þ.prt )
( DATE: Fri Mar  8 09:56:51 2019 )
( E50R5 ---> D=50.00 R=5.00 )
S1500 M03
G00 G90 X-112.007 Y0.0
Z16.22
G17 G01 Z1.96 F1000.
Z.96 F800.
X-62.007
Y8.213 F2000.
Y35.713 F1500.
Y63.213 F1000.
X-34.507
X7.007 F2000.
X34.507 F1500.
X62.007 F1000.
Y35.713
Y-8.213 F2000.
Y-35.713 F1500.
Y-63.213 F1000.
X34.507
X-7.007 F2000.
X-34.507 F1500.
X-62.007 F1000.
Y-35.713
Y0.0 F2000.
X-32.007
Y33.213
X32.007
Y-33.213
X-32.007
Y0.0
X-2.007
Y3.213
X2.007
Y-3.213
X-2.007
Y0.0
X-112.007
Z1.96
G00 Z2.22
X-112.636
G01 Z1.7 F1000.
Z.7 F800.
X-62.636
Y8.842 F2000.
Y36.342 F1500.
Y63.842 F1000.
X-35.136
X7.636 F2000.
X35.136 F1500.
X62.636 F1000.
Y36.342
Y-8.842 F2000.
Y-36.342 F1500.
Y-63.842 F1000.
X35.136
X-7.636 F2000.
X-35.136 F1500.
X-62.636 F1000.
Y-36.342
Y0.0 F2000.
X-32.636
Y33.842
X32.636
Y-33.842
X-32.636
Y0.0
X-2.636
Y3.842
X2.636
Y-3.842
X-2.636
Y0.0
X-112.636
Z1.7
G00 Z16.22
M09
M05
G91 G28 Z0.0
G28 Y0.0
M30
%
(TOTAL Machine Time: 1.6 min)
