%
G40 G17 G49 G54 G80
G91 G28 Z0.0
( NAME: Capful-PC )
( PART: H:\CNC-File\2018-11\É½Èó·å\F110\F110-Ç°Ä£ÈÊ.prt )
( DATE: Tue Nov  6 10:59:08 2018 )
( Z6 ---> D=6.00 R=0.00 )
S1000 M03
G00 G90 X41.253 Y0.0
Z4.
G17 G01 Z-9.5 F120.
G00 Z4.
X-10.002 Y51.255
G01 Z-9.5
G00 Z4.
X-61.257 Y0.0
G01 Z-9.5
G00 Z4.
X-10.002 Y-51.255
G01 Z-9.5
G00 Z4.
M09
M05
G91 G28 Z0.0
G28 Y0.0
M30
%
(TOTAL Machine Time: 0.7 min)
