%
G40 G17 G49 G54 G80
G91 G28 Z0.0
( NAME: Administrator )
( PART: H:\CNC-File\2018-7\¹àÐÇ\95004\95004-ºóÄ£¿ò.prt )
( DATE: Fri Jul 20 08:28:28 2018 )
( D10 ---> D=10.00 R=0.00 )
S3000 M03
G00 G90 X-173. Y-41.776
Z15.
G17 G01 Z2.9 F2000.
Z-.1 F800.
X-166.5
Y-41.766 F2000.
X-118.5 F1200.
Y-41.786 F2000.
X-166.5 F1200.
Y-41.776 F2000.
X-173.
Z2.9
G00 Z2.95
G01 Z2.85
Z-.15 F800.
X-166.5
Y-41.766 F2000.
X-118.5 F1200.
Y-41.786 F2000.
X-166.5 F1200.
Y-41.776 F2000.
X-173.
Z2.85
G00 Z15.
X-71.29 Y133.
G01 Z2.9
Z-.1 F800.
Y126.5
Y78.5 F1200.
Y126.5
Y133. F2000.
Z2.9
G00 Z2.95
G01 Z2.85
Z-.15 F800.
Y126.5
Y78.5 F1200.
Y126.5
Y133. F2000.
Z2.85
G00 Z15.
X13.29
G01 Z2.9
Z-.1 F800.
Y126.5
Y78.5 F1200.
Y126.5
Y133. F2000.
Z2.9
G00 Z2.95
G01 Z2.85
Z-.15 F800.
Y126.5
Y78.5 F1200.
Y126.5
Y133. F2000.
Z2.85
G00 Z15.
M09
M05
G91 G28 Z0.0
G28 Y0.0
M30
%
(TOTAL Machine Time: 0.8 min)
