%
G40 G17 G49 G54 G80
G91 G28 Z0.0
( NAME: Capful-PC )
( PART: H:\CNC-File\2018-8\灿坤\2488-NEW\2488-NEW-前模仁-降分型面.prt )
( DATE: Thu Jan  3 15:59:50 2019 )
( D10 ---> D=10.00 R=0.00 )
S2800 M03
G00 G90 X-84.517 Y-150.259
Z43.682
G17 G01 Z2.95 F750.
Z-.05 F600.
X-78.238 Y-148.577
X-78.664 Y-146.988 F1500.
G40 G03 X-66.454 Y-147.428 I78.664 J2012.163 F900.
G01 X-67.187 Y-150.166 F1500.
G02 X-72.5 Y-154.242 I-5.313 J1.424
X-77.813 Y-150.166 I0.0 J5.5
G01 X-78.238 Y-148.577
X-84.517 Y-150.259
Z2.95
G00 Z3.
G01 Z2.9 F750.
Z-.1 F600.
X-78.238 Y-148.577
X-78.664 Y-146.988 F1500.
G03 X-66.454 Y-147.428 I78.664 J2012.163 F900.
G01 X-67.187 Y-150.166 F1500.
G02 X-72.5 Y-154.242 I-5.313 J1.424
X-77.813 Y-150.166 I0.0 J5.5
G01 X-78.238 Y-148.577
X-84.517 Y-150.259
Z2.9
G00 Z2.95
G01 Z2.85 F750.
Z-.15 F600.
X-78.238 Y-148.577
X-78.664 Y-146.988 F1500.
G03 X-66.454 Y-147.428 I78.664 J2012.163 F900.
G01 X-67.187 Y-150.166 F1500.
G02 X-72.5 Y-154.242 I-5.313 J1.424
X-77.813 Y-150.166 I0.0 J5.5
G01 X-78.238 Y-148.577
X-84.517 Y-150.259
Z2.85
G00 Z43.682
( D10 ---> D=10.00 R=0.00 )
S2800 M03
G00 X237.882 Y12.638
Z43.682
G01 Z-12.48 F750.
Y5. Z-12.68 F600.
Y-9.058 F900.
X231.942
Y19.058
X237.882
Y5.
Z-9.68 F1500.
G00 Z-9.63
Y12.638
G01 Z-12.53 F750.
Y5. Z-12.73 F600.
Y-9.058 F900.
X231.942
Y19.058
X237.882
Y5.
Z-9.73 F1500.
G00 Z43.682
M09
M05
G91 G28 Z0.0
G28 Y0.0
M30
%
(TOTAL Machine Time: 0.7 min)
