%
G40 G17 G49 G54 G80
G91 G28 Z0.0
( NAME: Capful-NB )
( PART: H:\CNC-File\2019-1\²ÓÀ¤\YD-ìÙ¶·\YD-B-ºóÄ£ÈÊ.prt )
( DATE: Tue Jan 29 14:50:46 2019 )
( Z6 ---> D=6.00 R=0.00 )
S1000 M03
G00 G90 X63.606 Y-33.668
Z5.
G17 G01 Z-6.5 F120.
G00 Z5.
X80.691 Y0.0
G01 Z-6.5
G00 Z5.
X63.606 Y33.668
G01 Z-6.5
G00 Z5.
X-94.179 Y8.04
G01 Z-6.5
G00 Z5.
Y-8.04
G01 Z-6.5
G00 Z5.
M09
M05
G91 G28 Z0.0
G28 Y0.0
M30
%
(TOTAL Machine Time: 0.7 min)
