%
G40 G17 G49 G54 G80
G91 G28 Z0.0
( NAME: Administrator )
( PART: H:\CNC-File\2018-12\²ÓÀ¤\2978\2978-ÉÏ¿¾ÅÌµæ°å.prt )
( DATE: Fri Dec 21 17:41:46 2018 )
( E50R5 ---> D=50.00 R=5.00 )
S2000 M03
G00 G90 X228. Y180.791
Z15.4
G17 G01 Z.4 F500.
Y173.154 Z.2 F400.
X200.
X-200. F1000.
Y143.807
X200.
Y114.461
X-200.
Y85.115
X200.
Y55.769
X-200.
Y26.423
X200.
Y-2.923
X-200.
Y-32.269
X200.
Y-61.615
X-200.
Y-90.961
X200.
Y-120.307
X-200.
Y-149.654
X200.
Y-179.
X-200.
X-203.
Z3.2
G00 Z3.4
X228. Y180.791
G01 Z.2 F500.
Y173.154 Z0.0 F400.
X200.
X-200. F1000.
Y143.807
X200.
Y114.461
X-200.
Y85.115
X200.
Y55.769
X-200.
Y26.423
X200.
Y-2.923
X-200.
Y-32.269
X200.
Y-61.615
X-200.
Y-90.961
X200.
Y-120.307
X-200.
Y-149.654
X200.
Y-179.
X-200.
X-203.
Z3.
G00 Z15.4
M09
M05
G91 G28 Z0.0
G28 Y0.0
M30
%
(TOTAL Machine Time: 11.6 min)
