%
G40 G17 G49 G54 G80
G91 G28 Z0.0
( NAME: Administrator )
( PART: H:\CNC-File\2019-2\ÓÀÊ¢½Ü\W1D\W1D-ºóÄ£ÈÊ.prt )
( DATE: Thu Feb 21 13:54:15 2019 )
( Z6 ---> D=6.00 R=0.00 )
S1000 M03
G00 G90 X42. Y-46.5
Z5.
G17 G01 Z-1.5 F120.
G00 Z5.
X0.0 Y-80.
G01 Z-1.5
G00 Z5.
X-42. Y-46.5
G01 Z-1.5
G00 Z5.
X-180. Y-95.
G01 Z-1.5
G00 Z5.
X-149. Y-36.
G01 Z-1.5
G00 Z5.
X-164.5 Y16.
G01 Z-1.5
G00 Z5.
X-142. Y55.5
G01 Z-1.5
G00 Z5.
X-180. Y95.
G01 Z-1.5
G00 Z5.
X-89. Y82.5
G01 Z-1.5
G00 Z5.
X-37.5 Y55.5
G01 Z-1.5
G00 Z5.
X0.0 Y80.
G01 Z-1.5
G00 Z5.
X37.5 Y55.5
G01 Z-1.5
G00 Z5.
X89. Y82.5
G01 Z-1.5
G00 Z5.
X180. Y95.
G01 Z-1.5
G00 Z5.
X142. Y55.5
G01 Z-1.5
G00 Z5.
X164.5 Y16.
G01 Z-1.5
G00 Z5.
X149. Y-36.
G01 Z-1.5
G00 Z5.
X180. Y-95.
G01 Z-1.5
G00 Z5.
M09
M05
G91 G28 Z0.0
G28 Y0.0
M30
%
(TOTAL Machine Time: 1.2 min)
