%
G40 G17 G49 G54 G80
G91 G28 Z0.0
( NAME: Capful-PC )
( PART: H:\CNC-File\2018-9\ºêöÎÑó\11407\11407-µç¼«-±à³Ì.prt )
( DATE: Fri Sep 21 10:06:14 2018 )
( KZ ---> D=0.50 R=0.25 )
S15000 M03
G00 G90 X-3.036 Y21.36
Z2.6
Z-7.9
G17 G01 Z-10.923 F500.
Y22.517 F800.
Z-7.9
G00 Z2.6
Y21.939
Z-7.9
G01 Z-10.923 F500.
X-2.299 F800.
Z-7.9
G00 Z2.6
Y21.36
Z-7.9
G01 Z-10.923 F500.
Y22.517 F800.
Z-7.9
G00 Z2.6
X-1.761 Y21.36
Z-7.9
G01 Z-10.923 F500.
Y22.517 F800.
X-1.251
X-1.175 Y22.494
X-1.109 Y22.446
X-1.052 Y22.364
X-1.024 Y22.281
Y22.175
X-1.052 Y22.08
X-1.109 Y22.009
X-1.175 Y21.95
X-1.251 Y21.939
X-1.761
Z-7.9
G00 Z2.6
X-1.251
Z-7.9
G01 Z-10.923 F500.
X-1.024 Y21.36 F800.
Z-7.9
G00 Z2.6
X.317 Y21.939
Z-7.9
G01 Z-10.923 F500.
X-.58 F800.
Z-7.9
G00 Z2.6
X1.129 Y21.36
Z-7.9
G01 Z-10.923 F500.
X1.233 Y21.372 F800.
X1.328 Y21.431
X1.356 Y21.466
X1.46 Y21.608
X1.517 Y21.82
Y22.045
X1.46 Y22.269
X1.347 Y22.423
X1.28 Y22.482
X1.186 Y22.517
X1.082 Y22.505
X.987 Y22.446
X.95 Y22.411
X.855 Y22.269
X.798 Y22.045
Y21.82
X.855 Y21.608
X.959 Y21.454
X1.025 Y21.395
X1.129 Y21.36
Z-7.9
G00 Z2.6
X2.433
Z-7.9
G01 Z-10.923 F500.
Y22.517 F800.
X2.338 Y22.34
Z-7.9
G00 Z2.6
X2.574 Y21.36
Z-7.9
G01 Z-10.923 F500.
X2.291 F800.
Z-7.9
G00 Z2.6
M09
M05
G91 G28 Z0.0
G28 Y0.0
M30
%
(TOTAL Machine Time: 0.3 min)
