%
G40 G17 G49 G54 G80
G91 G28 Z0.0
( NAME: Capful )
( PART: D:\Program Files\Siemens\NX 12.0\UGII\HM-µç¼«±à³Ì.prt )
( DATE: Sun May 27 04:56:05 2018 )
( D10 ---> D=10.00 R=0.00 )
S6000 M03
G00 G90 X0.0 Y30.5
Z15.
G17 G01 Z.804 F2500.
Z-.196 F1000.
Y25.
X146.5 F2500.
X152. F2188.
X157.5 F1875.
Y19.5
Y-14. F2500.
Y-19.5 F2188.
Y-25. F1875.
X152.
X-146.5 F2500.
X-152. F2188.
X-157.5 F1875.
Y-19.5
Y14. F2500.
Y19.5 F2188.
Y25. F1875.
X-152.
X0.0 F2500.
Y17.5
X150.
Y-17.5
X-150.
Y17.5
X0.0
Y10.
X142.5
Y-10.
X-142.5
Y10.
X0.0
Y2.5
X135.
Y-2.5
X-135.
Y2.5
X0.0
Y7.5
Z.804
G00 Z1.
Y30.5
G01 Z.607
Z-.393 F1000.
Y25.
X146.5 F2500.
X152. F2188.
X157.5 F1875.
Y19.5
Y-14. F2500.
Y-19.5 F2188.
Y-25. F1875.
X152.
X-146.5 F2500.
X-152. F2188.
X-157.5 F1875.
Y-19.5
Y14. F2500.
Y19.5 F2188.
Y25. F1875.
X-152.
X0.0 F2500.
Y17.5
X150.
Y-17.5
X-150.
Y17.5
X0.0
Y10.
X142.5
Y-10.
X-142.5
Y10.
X0.0
Y2.5
X135.
Y-2.5
X-135.
Y2.5
X0.0
Y7.5
Z.607
G00 Z.804
Y30.5
G01 Z.411
Z-.589 F1000.
Y25.
X146.5 F2500.
X152. F2188.
X157.5 F1875.
Y19.5
Y-14. F2500.
Y-19.5 F2188.
Y-25. F1875.
X152.
X136.13 F2500.
Y-17.5
G40 G03 X137.281 Y-16.383 I-7.995 J9.388 F1500.
X138.836 Y-17.5 I7.948 J9.427
G01 X143.166 Y-20. F2500.
X147.833 F1313.
X152.5 F1125.
Y-16.915
G02 X145.229 Y-19.287 I-7.271 J9.958 F1500.
X143.548 Y-19.172 I0.0 J12.33
X143.166 Y-20. I-4.712 J1.672
G01 X138.836 Y-17.5 F2500.
X136.13
X131.653 Y-19.968 F1500.
X136.13 Y-17.5 F2500.
Y-25.
X-104.16
Y-17.5
G03 X-104.101 Y-17.459 I-7.013 J10.142 F1500.
X-104.072 Y-17.5 I10.021 J7.184
G01 X-104.16 F2500.
X-111.174 Y-19.8 F1500.
X-104.16 Y-17.5 F2500.
Y-25.
X-123.689
Y-17.5
G03 X-120.396 Y-15.543 I-4.579 J11.449 F1500.
X-118.187 Y-17.5 I9.223 J8.184
G01 X-123.689 F2500.
X-128.267 Y-19.84 F1500.
X-123.689 Y-17.5 F2500.
Y-25.
X-146.5
X-152. F2188.
X-157.5 F1875.
Y-19.5
Y-13.051 F2500.
X-150.
G03 X-145.361 Y-13.957 I4.639 J11.424 F1500.
X-138.971 Y-12.173 I0.0 J12.33
X-132.846 Y-17.5 I10.704 J6.121
G01 X-132.289 Y-16.107 F2500.
G02 X-138.386 Y-9.913 I4.022 J10.056
X-145.361 Y-12.457 I-6.975 J8.286
X-156.191 Y-1.627 I0.0 J10.83
G01 Y12.953
G02 X-145.361 Y23.783 I10.83 J0.0
X-136.814 Y19.605 I0.0 J-10.83
X-128.267 Y23.783 I8.547 J-6.652
X-119.721 Y19.605 I0.0 J-10.83
X-111.174 Y23.783 I8.547 J-6.652
X-102.627 Y19.605 I0.0 J-10.83
X-94.08 Y23.783 I8.547 J-6.652
X-85.534 Y19.605 I0.0 J-10.83
X-76.987 Y23.783 I8.547 J-6.652
X-68.44 Y19.605 I0.0 J-10.83
X-59.893 Y23.783 I8.547 J-6.652
X-51.347 Y19.605 I0.0 J-10.83
X-42.8 Y23.783 I8.547 J-6.652
X-34.253 Y19.605 I0.0 J-10.83
X-25.706 Y23.783 I8.547 J-6.652
X-17.16 Y19.605 I0.0 J-10.83
X-8.613 Y23.783 I8.547 J-6.652
X-.066 Y19.605 I0.0 J-10.83
X8.481 Y23.783 I8.547 J-6.652
X17.028 Y19.605 I0.0 J-10.83
X25.574 Y23.783 I8.547 J-6.652
X34.121 Y19.605 I0.0 J-10.83
X42.668 Y23.783 I8.547 J-6.652
X51.215 Y19.605 I0.0 J-10.83
X59.761 Y23.783 I8.547 J-6.652
X68.308 Y19.605 I0.0 J-10.83
X76.855 Y23.783 I8.547 J-6.652
X85.402 Y19.605 I0.0 J-10.83
X93.948 Y23.783 I8.547 J-6.652
X102.495 Y19.605 I0.0 J-10.83
X111.042 Y23.783 I8.547 J-6.652
X119.589 Y19.605 I0.0 J-10.83
X128.135 Y23.783 I8.547 J-6.652
X136.682 Y19.605 I0.0 J-10.83
X145.229 Y23.783 I8.547 J-6.652
X156.059 Y12.953 I0.0 J-10.83
G01 Y-6.956
G02 X145.229 Y-17.787 I-10.83 J0.0
X137.129 Y-14.146 I0.0 J10.83
X128.135 Y-18.943 I-8.994 J6.034
X120.093 Y-15.367 I0.0 J10.83
X111.042 Y-20.25 I-9.052 J5.947
X102.827 Y-16.477 I0.0 J10.83
X93.948 Y-21.105 I-8.878 J6.203
X85.675 Y-17.263 I0.0 J10.83
X76.855 Y-21.809 I-8.82 J6.285
X68.523 Y-17.898 I0.0 J10.83
X59.761 Y-22.362 I-8.762 J6.366
X51.371 Y-18.38 I0.0 J10.83
X42.668 Y-22.764 I-8.703 J6.446
X34.219 Y-18.709 I0.0 J10.83
X25.574 Y-23.015 I-8.645 J6.525
X17.086 Y-18.912 I0.0 J10.83
X8.481 Y-23.166 I-8.605 J6.576
X-.086 Y-18.963 I0.0 J10.83
X-8.613 Y-23.116 I-8.527 J6.677
X-17.238 Y-18.836 I0.0 J10.83
X-25.706 Y-22.915 I-8.469 J6.752
X-34.37 Y-18.583 I0.0 J10.83
X-42.8 Y-22.613 I-8.429 J6.8
X-51.542 Y-18.176 I0.0 J10.83
X-59.893 Y-22.11 I-8.351 J6.896
X-68.83 Y-17.399 I0.0 J10.83
X-76.987 Y-21.105 I-8.157 J7.124
X-85.533 Y-16.927 I0.0 J10.83
X-94.08 Y-21.105 I-8.547 J6.652
X-103.718 Y-15.214 I0.0 J10.83
X-111.174 Y-18.189 I-7.455 J7.856
X-120.225 Y-13.306 I0.0 J10.83
X-128.267 Y-16.882 I-8.042 J7.254
X-132.289 Y-16.107 I0.0 J10.83
G01 X-132.846 Y-17.5
X-150.
Y-13.051
X-157.5
Y14.
Y19.5 F2188.
Y25. F1875.
X-152.
X0.0 F2500.
Y30.5
Z.411
G00 Z.607
G01 Z.215
Z-.785 F1000.
Y25.
X146.5 F2500.
X152. F2188.
X157.5 F1875.
Y19.5
Y-14. F2500.
Y-19.5 F2188.
Y-25. F1875.
X152.
X136.174 F2500.
Y-17.5
G03 X137.283 Y-16.423 I-8.039 J9.387 F1500.
X138.781 Y-17.5 I7.945 J9.466
G01 X143.112 Y-20. F2500.
X147.806 F1313.
X152.5 F1125.
Y-16.95
G02 X145.229 Y-19.315 I-7.271 J9.993 F1500.
X143.487 Y-19.192 I0.0 J12.359
X143.112 Y-20. I-4.705 J1.692
G01 X138.781 Y-17.5 F2500.
X136.174
X131.72 Y-19.972 F1500.
X136.174 Y-17.5 F2500.
Y-25.
X-104.111
Y-17.5
X-104.108 Y-17.498 F1500.
X-104.107 Y-17.5
X-104.111 F2500.
X-111.174 Y-19.811 F1500.
X-104.111 Y-17.5 F2500.
Y-25.
X-123.613
Y-17.5
G03 X-120.399 Y-15.582 I-4.655 J11.449 F1500.
X-118.237 Y-17.5 I9.226 J8.224
G01 X-123.613 F2500.
X-128.267 Y-19.783 F1500.
X-123.613 Y-17.5 F2500.
Y-25.
X-146.5
X-152. F2188.
X-157.5 F1875.
Y-19.5
Y-13.082 F2500.
X-150.
G03 X-145.361 Y-13.986 I4.639 J11.455 F1500.
X-138.981 Y-12.212 I0.0 J12.359
X-132.922 Y-17.5 I10.714 J6.161
G01 X-132.357 Y-16.11 F2500.
G02 X-138.398 Y-9.96 I4.09 J10.059
X-145.361 Y-12.486 I-6.963 J8.333
X-156.22 Y-1.627 I0.0 J10.859
G01 Y12.953
G02 X-145.361 Y23.812 I10.859 J0.0
X-136.814 Y19.651 I0.0 J-10.859
X-128.267 Y23.812 I8.547 J-6.698
X-119.721 Y19.651 I0.0 J-10.859
X-111.174 Y23.812 I8.547 J-6.698
X-102.627 Y19.651 I0.0 J-10.859
X-94.08 Y23.812 I8.547 J-6.698
X-85.534 Y19.651 I0.0 J-10.859
X-76.987 Y23.812 I8.547 J-6.698
X-68.44 Y19.651 I0.0 J-10.859
X-59.893 Y23.812 I8.547 J-6.698
X-51.347 Y19.651 I0.0 J-10.859
X-42.8 Y23.812 I8.547 J-6.698
X-34.253 Y19.651 I0.0 J-10.859
X-25.706 Y23.812 I8.547 J-6.698
X-17.16 Y19.651 I0.0 J-10.859
X-8.613 Y23.812 I8.547 J-6.698
X-.066 Y19.651 I0.0 J-10.859
X8.481 Y23.812 I8.547 J-6.698
X17.028 Y19.651 I0.0 J-10.859
X25.574 Y23.812 I8.547 J-6.698
X34.121 Y19.651 I0.0 J-10.859
X42.668 Y23.812 I8.547 J-6.698
X51.215 Y19.651 I0.0 J-10.859
X59.761 Y23.812 I8.547 J-6.698
X68.308 Y19.651 I0.0 J-10.859
X76.855 Y23.812 I8.547 J-6.698
X85.402 Y19.651 I0.0 J-10.859
X93.948 Y23.812 I8.547 J-6.698
X102.495 Y19.651 I0.0 J-10.859
X111.042 Y23.812 I8.547 J-6.698
X119.589 Y19.651 I0.0 J-10.859
X128.135 Y23.812 I8.547 J-6.698
X136.682 Y19.651 I0.0 J-10.859
X145.229 Y23.812 I8.547 J-6.698
X156.088 Y12.953 I0.0 J-10.859
G01 Y-6.956
G02 X145.229 Y-17.815 I-10.859 J0.0
X137.133 Y-14.193 I0.0 J10.859
X128.135 Y-18.971 I-8.997 J6.08
X120.097 Y-15.413 I0.0 J10.859
X111.042 Y-20.278 I-9.055 J5.993
X102.829 Y-16.523 I0.0 J10.859
X93.948 Y-21.133 I-8.881 J6.249
X85.677 Y-17.31 I0.0 J10.859
X76.855 Y-21.837 I-8.822 J6.331
X68.524 Y-17.944 I0.0 J10.859
X59.761 Y-22.39 I-8.763 J6.413
X51.372 Y-18.426 I0.0 J10.859
X42.668 Y-22.792 I-8.704 J6.492
X34.219 Y-18.755 I0.0 J10.859
X25.574 Y-23.044 I-8.645 J6.571
X17.087 Y-18.958 I0.0 J10.859
X8.481 Y-23.194 I-8.606 J6.622
X-.086 Y-19.009 I0.0 J10.859
X-8.613 Y-23.144 I-8.527 J6.723
X-17.238 Y-18.882 I0.0 J10.859
X-25.706 Y-22.943 I-8.468 J6.798
X-34.371 Y-18.629 I0.0 J10.859
X-42.8 Y-22.641 I-8.429 J6.846
X-51.543 Y-18.222 I0.0 J10.859
X-59.893 Y-22.139 I-8.35 J6.942
X-68.832 Y-17.445 I0.0 J10.859
X-76.987 Y-21.133 I-8.155 J7.171
X-85.533 Y-16.973 I0.0 J10.859
X-94.08 Y-21.133 I-8.547 J6.698
X-103.726 Y-15.261 I0.0 J10.859
X-111.174 Y-18.217 I-7.447 J7.903
X-120.229 Y-13.352 I0.0 J10.859
X-128.267 Y-16.91 I-8.038 J7.301
X-132.357 Y-16.11 I0.0 J10.859
G01 X-132.922 Y-17.5
X-150.
Y-13.082
X-157.5
Y14.
Y19.5 F2188.
Y25. F1875.
X-152.
X0.0 F2500.
Y30.5
Z.215
G00 Z.411
G01 Z.018
Z-.982 F1000.
Y25.
X146.5 F2500.
X152. F2188.
X157.5 F1875.
Y19.5
Y-14. F2500.
Y-19.5 F2188.
Y-25. F1875.
X152.
X136.216 F2500.
Y-17.5
G03 X137.274 Y-16.453 I-7.781 J8.925 F1500.
X137.814 Y-16.883 I7.545 J8.926
X138.721 Y-17.5 I7.414 J9.927
G01 X143.052 Y-20. F2500.
X147.776 F1313.
X152.5 F1125.
Y-16.988
G02 X145.229 Y-19.346 I-7.271 J10.032 F1500.
X143.419 Y-19.213 I0.0 J12.39
X143.052 Y-20. I-4.697 J1.713
G01 X138.721 Y-17.5 F2500.
X136.216
X131.788 Y-19.978 F1500.
X136.216 Y-17.5 F2500.
Y-25.
X-123.53
Y-17.5
G03 X-120.82 Y-15.954 I-4.737 J11.449 F1500.
X-120.394 Y-15.616 I-7.011 J9.294
X-119.119 Y-16.865 I8.679 J7.576
X-118.292 Y-17.5 I7.946 J9.507
G01 X-113.962 Y-20. F2500.
X-101.757 F1500.
G02 X-103.331 Y-18.517 I7.677 J9.726
X-104.108 Y-17.536 I8.699 J7.691
X-111.174 Y-19.749 I-7.066 J10.178
X-113.704 Y-19.488 I0.0 J12.39
X-113.962 Y-20. I-4.588 J1.988
G01 X-118.292 Y-17.5 F2500.
X-123.53
X-128.267 Y-19.714 F1500.
X-123.53 Y-17.5 F2500.
Y-25.
X-146.5
X-152. F2188.
X-157.5 F1875.
Y-19.5
Y-13.116 F2500.
X-150.
G03 X-145.361 Y-14.017 I4.639 J11.489 F1500.
X-138.977 Y-12.246 I0.0 J12.39
X-137.593 Y-14.182 I10.71 J6.195
X-136.075 Y-15.672 I9.007 J7.659
X-133.005 Y-17.5 I7.807 J9.621
G01 X-132.431 Y-16.114 F2500.
G02 X-135.125 Y-14.511 I4.164 J10.063
X-136.456 Y-13.204 I6.539 J7.989
X-138.398 Y-9.999 I8.189 J7.152
X-138.767 Y-10.294 I-6.394 J7.624
X-145.361 Y-12.517 I-6.593 J8.667
X-156.251 Y-1.627 I0.0 J10.89
G01 Y12.953
G02 X-145.361 Y23.843 I10.89 J0.0
X-138.843 Y21.677 I0.0 J-10.89
X-137.686 Y20.663 I-5.687 J-7.651
X-137.237 Y20.179 I-7.342 J-7.267
X-136.814 Y19.673 I-8.123 J-7.227
X-136.372 Y20.2 I8.547 J-6.721
X-135.216 Y21.337 I8.227 J-7.208
X-134.928 Y21.572 I6.337 J-7.48
G01 X-134.785 Y21.678
G02 X-128.267 Y23.843 I6.517 J-8.725
X-121.749 Y21.677 I0.0 J-10.89
X-120.154 Y20.191 I-6.174 J-8.226
X-119.721 Y19.673 I-8.113 J-7.238
X-119.279 Y20.2 I8.547 J-6.721
X-117.692 Y21.677 I7.771 J-6.758
X-111.174 Y23.843 I6.518 J-8.724
X-104.656 Y21.677 I0.0 J-10.89
X-103.04 Y20.167 I-6.067 J-8.115
X-102.627 Y19.673 I-8.134 J-7.215
X-102.185 Y20.2 I8.547 J-6.721
X-100.598 Y21.677 I7.655 J-6.634
X-94.08 Y23.843 I6.518 J-8.725
X-87.565 Y21.679 I0.0 J-10.89
X-85.967 Y20.19 I-6.105 J-8.157
X-85.534 Y19.673 I-8.113 J-7.238
X-85.092 Y20.2 I8.547 J-6.721
X-84.403 Y20.919 I10.061 J-8.947
X-83.541 Y21.651 I5.986 J-6.174
G01 X-83.502 Y21.679
G02 X-76.987 Y23.843 I6.515 J-8.726
X-70.471 Y21.679 I0.0 J-10.89
X-68.842 Y20.155 I-6.214 J-8.278
X-68.44 Y19.673 I-8.145 J-7.203
X-67.998 Y20.2 I8.547 J-6.721
X-66.944 Y21.249 I8.244 J-7.225
X-66.65 Y21.494 I5.446 J-6.267
X-59.893 Y23.843 I6.756 J-8.541
X-53.378 Y21.679 I0.0 J-10.89
X-51.632 Y20.021 I-6.364 J-8.451
X-51.347 Y19.673 I-8.262 J-7.068
X-50.905 Y20.2 I8.547 J-6.721
X-50.174 Y20.957 I8.811 J-7.774
X-49.415 Y21.604 I6.506 J-6.868
X-42.8 Y23.843 I6.615 J-8.651
X-36.284 Y21.679 I0.0 J-10.89
X-34.645 Y20.143 I-6.182 J-8.245
X-34.253 Y19.673 I-8.155 J-7.191
X-33.811 Y20.2 I8.547 J-6.721
X-32.95 Y21.079 I8.431 J-7.406
X-32.362 Y21.573 I6.258 J-6.849
X-25.706 Y23.843 I6.655 J-8.62
X-19.191 Y21.679 I0.0 J-10.89
X-17.881 Y20.508 I-5.908 J-7.925
X-17.434 Y20.009 I-11.082 J-10.371
X-17.16 Y19.673 I-8.272 J-7.056
X-16.718 Y20.2 I8.547 J-6.721
X-15.128 Y21.679 I7.731 J-6.715
X-8.613 Y23.843 I6.515 J-8.726
X-2.097 Y21.679 I0.0 J-10.89
X-.499 Y20.19 I-6.104 J-8.155
X-.066 Y19.673 I-8.113 J-7.238
X.376 Y20.2 I8.547 J-6.721
X1.49 Y21.302 I8.177 J-7.158
X1.681 Y21.459 I4.859 J-5.683
X8.481 Y23.843 I6.8 J-8.506
X14.996 Y21.679 I0.0 J-10.89
X16.764 Y19.996 I-6.408 J-8.499
X17.028 Y19.673 I-8.283 J-7.043
X17.292 Y19.996 I8.547 J-6.721
X18.252 Y21.005 I9.317 J-7.903
X18.868 Y21.533 I6.182 J-6.593
X25.574 Y23.843 I6.706 J-8.581
X32.09 Y21.679 I0.0 J-10.89
X33.688 Y20.19 I-6.124 J-8.177
X34.121 Y19.673 I-8.113 J-7.238
X34.563 Y20.2 I8.547 J-6.721
X35.402 Y21.059 I8.361 J-7.331
X35.981 Y21.548 I6.276 J-6.834
X42.668 Y23.843 I6.687 J-8.595
X49.183 Y21.679 I0.0 J-10.89
X50.781 Y20.19 I-6.169 J-8.225
X51.215 Y19.673 I-8.113 J-7.238
X51.542 Y20.07 I8.547 J-6.721
X52.432 Y20.999 I8.98 J-7.711
X53.1 Y21.568 I6.354 J-6.785
X59.761 Y23.843 I6.661 J-8.615
X66.277 Y21.679 I0.0 J-10.89
X67.875 Y20.19 I-6.2 J-8.258
X68.308 Y19.673 I-8.113 J-7.238
X68.75 Y20.2 I8.547 J-6.721
X69.313 Y20.797 I9.549 J-8.455
X70.172 Y21.551 I6.658 J-6.707
X76.855 Y23.843 I6.683 J-8.598
X83.37 Y21.679 I0.0 J-10.89
X84.968 Y20.19 I-6.161 J-8.216
X85.402 Y19.673 I-8.113 J-7.238
X85.666 Y19.996 I8.547 J-6.721
X86.759 Y21.127 I9.006 J-7.612
X87.201 Y21.501 I5.766 J-6.371
X93.948 Y23.843 I6.747 J-8.548
X95.473 Y23.736 I0.0 J-10.89
X100.464 Y21.679 I-1.525 J-10.783 F2188.
G01 X100.5 Y21.652
G02 X102.062 Y20.19 I-6.233 J-8.228 F1875.
X102.495 Y19.673 I-8.113 J-7.238
X102.937 Y20.2 I8.547 J-6.721
X104.381 Y21.572 I8.138 J-7.119
G01 X104.4 Y21.584
X104.526 Y21.679
G02 X109.383 Y23.716 I6.515 J-8.726
X111.042 Y23.843 I1.659 J-10.763 F2500.
X117.557 Y21.679 I0.0 J-10.89
X119.229 Y20.107 I-6.243 J-8.314
X119.589 Y19.673 I-8.187 J-7.155
X119.997 Y20.163 I8.547 J-6.721
X121.62 Y21.679 I7.734 J-6.651
X128.135 Y23.843 I6.515 J-8.726
X134.651 Y21.679 I0.0 J-10.89
X136.249 Y20.19 I-6.152 J-8.207
X136.682 Y19.673 I-8.113 J-7.238
X137.124 Y20.2 I8.547 J-6.721
X138.713 Y21.679 I7.863 J-6.856
X145.229 Y23.843 I6.515 J-8.726
X151.744 Y21.679 I0.0 J-10.89
X153.342 Y20.19 I-6.165 J-8.221
X156.101 Y12.953 I-8.113 J-7.238
G01 Y-6.956
G02 X153.33 Y-14.207 I-10.873 J0.0
X152.816 Y-14.753 I-10.337 J9.218
X151.847 Y-15.605 I-6.771 J6.731
X145.229 Y-17.846 I-6.618 J8.649
X138.713 Y-15.682 I0.0 J10.89
X137.134 Y-14.215 I6.106 J8.155
X136.182 Y-15.425 I-8.999 J6.102
X134.689 Y-16.81 I-7.746 J6.85
X128.135 Y-19.003 I-6.553 J8.698
X121.62 Y-16.839 I0.0 J10.89
X120.098 Y-15.436 I6.06 J8.104
X119.133 Y-16.683 I-9.056 J6.017
X117.647 Y-18.078 I-7.779 J6.793
X111.042 Y-20.31 I-6.605 J8.659
X104.526 Y-18.146 I0.0 J10.89
X102.928 Y-16.657 I6.138 J8.192
X102.83 Y-16.546 I8.113 J7.238
X102.033 Y-17.545 I-8.882 J6.271
X100.553 Y-18.933 I-7.756 J6.782
X93.948 Y-21.165 I-6.605 J8.659
X87.432 Y-19. I0.0 J10.89
X86.003 Y-17.7 I6.01 J8.046
G01 X85.963 Y-17.657
X85.676 Y-17.334
G02 X84.939 Y-18.248 I-8.821 J6.356
X83.459 Y-19.638 I-7.731 J6.755
X76.855 Y-21.868 I-6.604 J8.659
X70.407 Y-19.754 I0.0 J10.89
X68.744 Y-18.219 I6.042 J8.211
X68.525 Y-17.966 I8.111 J7.241
X67.846 Y-18.801 I-8.764 J6.435
X66.366 Y-20.19 I-7.662 J6.681
X59.761 Y-22.421 I-6.605 J8.659
X53.222 Y-20.24 I0.0 J10.89
X51.632 Y-18.751 I6.323 J8.349
X51.373 Y-18.448 I8.13 J7.22
X50.752 Y-19.204 I-8.705 J6.515
X49.272 Y-20.593 I-7.754 J6.78
X42.668 Y-22.824 I-6.604 J8.659
X36.107 Y-20.626 I0.0 J10.89
X34.555 Y-19.172 I6.282 J8.262
X34.22 Y-18.778 I8.113 J7.239
X33.659 Y-19.455 I-8.646 J6.593
X32.179 Y-20.844 I-7.807 J6.836
X25.574 Y-23.075 I-6.605 J8.659
X18.993 Y-20.861 I0.0 J10.89
X17.545 Y-19.516 I6.127 J8.045
X17.087 Y-18.98 I8.029 J7.331
X16.565 Y-19.606 I-8.606 J6.644
X15.084 Y-20.995 I-7.727 J6.751
X8.481 Y-23.226 I-6.603 J8.66
X1.761 Y-20.905 I0.0 J10.89
X.799 Y-20.038 I5.815 J7.416
G01 X.671 Y-19.905
G02 X.224 Y-19.409 I8.284 J7.912
X-.086 Y-19.031 I8.257 J7.073
X-.447 Y-19.464 I-8.527 J6.746
X-.994 Y-20.053 I-9.926 J8.668
X-1.896 Y-20.858 I-6.761 J6.673
X-8.613 Y-23.176 I-6.717 J8.572
X-15.448 Y-20.763 I0.0 J10.89
X-16.091 Y-20.192 I5.641 J6.997
X-16.895 Y-19.33 I8.883 J9.083
X-17.239 Y-18.904 I8.282 J7.044
X-17.6 Y-19.33 I-8.468 J6.82
X-19.1 Y-20.742 I-7.753 J6.734
X-25.706 Y-22.974 I-6.606 J8.658
X-32.414 Y-20.664 I0.0 J10.89
X-33.826 Y-19.315 I6.327 J8.038
X-34.372 Y-18.651 I8.12 J7.231
X-34.716 Y-19.053 I-8.428 J6.869
X-36.194 Y-20.441 I-7.667 J6.687
X-42.8 Y-22.673 I-6.606 J8.658
X-49.576 Y-20.308 I0.0 J10.89
X-50.943 Y-18.987 I6.353 J7.942
X-51.544 Y-18.244 I8.143 J7.204
X-51.809 Y-18.55 I-8.349 J6.964
X-53.288 Y-19.938 I-7.605 J6.621
X-59.893 Y-22.17 I-6.606 J8.658
X-66.878 Y-19.635 I0.0 J10.89
X-68.136 Y-18.37 I6.425 J7.647
X-68.833 Y-17.468 I8.242 J7.091
X-70.381 Y-18.932 I-7.919 J6.817
X-76.987 Y-21.165 I-6.606 J8.658
X-83.926 Y-18.667 I0.0 J10.89
X-85.204 Y-17.394 I6.401 J7.701
X-85.533 Y-16.995 I8.218 J7.119
X-85.808 Y-17.33 I-8.546 J6.721
X-87.155 Y-18.679 I-7.852 J6.494
X-94.08 Y-21.165 I-6.925 J8.405
X-102.211 Y-17.519 I0.0 J10.89
X-103.224 Y-16.156 I7.579 J6.693
X-103.725 Y-15.293 I9.144 J5.882
X-104.491 Y-15.957 I-6.294 J6.489
X-111.174 Y-18.249 I-6.683 J8.599
X-118.155 Y-15.716 I0.0 J10.89
X-119.457 Y-14.401 I6.44 J7.676
X-120.23 Y-13.374 I8.284 J7.042
X-121.722 Y-14.755 I-7.6 J6.714
X-128.267 Y-16.941 I-6.546 J8.704
X-132.431 Y-16.114 I0.0 J10.89
G01 X-133.005 Y-17.5
X-150.
Y-13.116
X-157.5
Y14.
Y19.5 F2188.
Y25. F1875.
X-152.
X0.0 F2500.
Y30.5
Z.018
G00 Z.215
G01 Z-.178
Z-1.178 F1000.
Y25.
X146.5 F2500.
X152. F2188.
X157.5 F1875.
Y19.5
Y-14. F2500.
Y-19.5 F2188.
Y-25. F1875.
X152.
X136.398 F2500.
Y-17.5
G03 X137.119 Y-16.752 I-6.166 J6.665 F1500.
X137.253 Y-16.594 I-12.939 J11.037
X137.736 Y-16.982 I6.424 J7.509
X138.485 Y-17.5 I7.492 J10.026
G01 X142.815 Y-20. F2500.
X147.658 F1313.
X152.5 F1125.
Y-17.143
G02 X145.229 Y-19.472 I-7.271 J10.187 F1500.
X143.15 Y-19.298 I0.0 J12.516
X142.815 Y-20. I-4.665 J1.798
G01 X138.485 Y-17.5 F2500.
X136.398
Y-25.
X-123.21
Y-17.5
G03 X-120.74 Y-16.051 I-5.057 J11.449 F1500.
X-120.384 Y-15.768 I-5.892 J7.787
X-119.204 Y-16.958 I6.973 J5.735
X-118.508 Y-17.5 I8.031 J9.6
G01 X-114.178 Y-20. F2500.
X-101.958 F1500.
G02 X-103.424 Y-18.601 I7.878 J9.726
X-104.128 Y-17.703 I6.627 J5.916
X-111.174 Y-19.874 I-7.046 J10.344
X-113.953 Y-19.562 I0.0 J12.516
X-114.178 Y-20. I-4.555 J2.062
G01 X-118.508 Y-17.5 F2500.
X-123.21
X-128.267 Y-19.445 F1500.
X-123.21 Y-17.5 F2500.
Y-25.
X-146.5
X-152. F2188.
X-157.5 F1875.
Y-19.5
Y-13.251 F2500.
X-150.
G03 X-145.361 Y-14.143 I4.639 J11.624 F1500.
X-138.925 Y-12.362 I0.0 J12.516
X-138.524 Y-12.995 I10.658 J6.311
X-137.708 Y-14.153 I17.733 J11.628
X-136.151 Y-15.772 I7.431 J5.589
X-133.324 Y-17.5 I7.884 J9.721
G01 X-132.718 Y-16.128 F2500.
G02 X-135.203 Y-14.609 I4.451 J10.077
X-136.51 Y-13.25 I4.926 J6.045
X-137.276 Y-12.163 I15.719 J11.884
X-138.362 Y-10.127 I9.009 J6.112
G01 X-138.429 Y-10.188
X-138.767 Y-10.452
G02 X-145.361 Y-12.643 I-6.594 J8.825
X-156.377 Y-1.627 I0.0 J11.016
G01 Y12.953
G02 X-145.361 Y23.969 I11.016 J0.0
X-138.802 Y21.803 I0.0 J-11.016
X-137.557 Y20.663 I-4.768 J-6.453
G01 X-137.461 Y20.551
G02 X-136.814 Y19.729 I-8.776 J-7.572
X-135.226 Y21.488 I7.878 J-5.518
G01 X-134.928 Y21.73
X-134.86 Y21.778
G02 X-128.267 Y23.969 I6.593 J-8.826
X-121.674 Y21.778 I0.0 J-11.016
X-120.25 Y20.417 I-4.907 J-6.558
X-119.721 Y19.729 I-10.489 J-8.628
X-118.686 Y20.974 I8.929 J-6.369
X-117.767 Y21.778 I5.398 J-5.246
X-111.174 Y23.969 I6.593 J-8.825
X-104.578 Y21.776 I0.0 J-11.016
X-103.472 Y20.773 I-4.737 J-6.337
X-102.627 Y19.729 I-8.334 J-7.608
X-101.458 Y21.107 I8.344 J-5.897
X-100.673 Y21.778 I5.153 J-5.232
X-94.08 Y23.969 I6.593 J-8.825
X-87.486 Y21.777 I0.0 J-11.016
X-86.572 Y20.975 I-4.633 J-6.199
X-85.534 Y19.729 I-7.543 J-7.34
X-84.27 Y21.199 I8.374 J-5.922
X-83.775 Y21.629 I4.455 J-4.631
X-76.987 Y23.969 I6.788 J-8.676
X-70.394 Y21.778 I0.0 J-11.016
X-69.274 Y20.763 I-4.794 J-6.417
X-68.44 Y19.729 I-7.904 J-7.22
X-67.278 Y21.1 I8.183 J-5.761
X-66.484 Y21.78 I5.095 J-5.147
X-59.893 Y23.969 I6.591 J-8.827
X-53.303 Y21.78 I0.0 J-11.016
X-51.855 Y20.388 I-4.882 J-6.527
G01 X-51.718 Y20.218
G02 X-51.347 Y19.729 I-8.331 J-6.697
X-50.291 Y20.997 I8.729 J-6.198
X-49.39 Y21.78 I5.287 J-5.17
X-42.8 Y23.969 I6.591 J-8.827
X-36.213 Y21.783 I0.0 J-11.016
X-34.589 Y20.175 I-5.109 J-6.784
G01 X-34.309 Y19.811
X-34.253 Y19.729
G02 X-33.304 Y20.885 I8.425 J-5.953
X-32.297 Y21.78 I5.693 J-5.394
X-25.706 Y23.969 I6.591 J-8.827
X-19.116 Y21.78 I0.0 J-11.016
X-17.53 Y20.218 I-5.077 J-6.74
X-17.16 Y19.729 I-6.504 J-5.307
X-15.874 Y21.219 I8.313 J-5.871
X-15.399 Y21.63 I4.408 J-4.618
X-8.613 Y23.969 I6.786 J-8.678
X-2.022 Y21.78 I0.0 J-11.016
X-.894 Y20.756 I-4.557 J-6.156
X-.066 Y19.729 I-8.207 J-7.458
X1.118 Y21.123 I8.41 J-5.945
X1.89 Y21.78 I5.137 J-5.256
X8.481 Y23.969 I6.591 J-8.827
X15.074 Y21.778 I0.0 J-11.016
X16.292 Y20.655 I-4.816 J-6.446
X17.027 Y19.729 I-8.524 J-7.52
X18.095 Y21.007 I8.604 J-6.101
X18.862 Y21.687 I5.213 J-5.104
X25.574 Y23.969 I6.712 J-8.735
X32.165 Y21.78 I0.0 J-11.016
X33.825 Y20.124 I-5.162 J-6.836
G01 X34.088 Y19.774
X34.121 Y19.729
G02 X35.263 Y21.083 I8.477 J-5.994
X35.9 Y21.645 I4.886 J-4.895
X42.668 Y23.969 I6.767 J-8.692
X49.261 Y21.778 I0.0 J-11.016
X50.525 Y20.602 I-4.825 J-6.459
X51.214 Y19.729 I-8.935 J-7.752
X52.079 Y20.795 I9.332 J-6.688
X53.171 Y21.78 I5.635 J-5.148
X59.761 Y23.969 I6.591 J-8.827
X66.353 Y21.779 I0.0 J-11.016
X67.473 Y20.762 I-4.753 J-6.365
X68.308 Y19.729 I-8.256 J-7.516
X69.068 Y20.681 I9.6 J-6.882
X70.23 Y21.754 I5.919 J-5.246
X76.855 Y23.969 I6.624 J-8.802
X83.373 Y21.834 I0.0 J-11.016
X84.739 Y20.57 I-4.887 J-6.659
X85.401 Y19.729 I-8.993 J-7.758
X86.577 Y21.113 I8.397 J-5.944
X87.252 Y21.7 I5.037 J-5.11
X93.948 Y23.969 I6.696 J-8.747
X100.539 Y21.78 I0.0 J-11.016
X101.922 Y20.463 I-4.856 J-6.488
X102.494 Y19.729 I-7.072 J-6.101
X103.564 Y21.01 I8.781 J-6.243
X104.256 Y21.631 I4.965 J-4.844
X111.042 Y23.969 I6.786 J-8.678
X117.632 Y21.78 I0.0 J-11.016
X119.307 Y20.107 I-5.255 J-6.938
G01 X119.349 Y20.052
X119.394 Y19.996
X119.588 Y19.729
G02 X120.753 Y21.107 I8.743 J-6.207
X121.244 Y21.547 I4.276 J-4.28
X128.135 Y23.969 I6.891 J-8.595
X134.726 Y21.779 I0.0 J-11.016
X135.82 Y20.792 I-4.758 J-6.372
X136.682 Y19.729 I-8.017 J-7.377
X137.908 Y21.168 I8.716 J-6.184
X138.638 Y21.78 I5.625 J-5.973
X145.229 Y23.969 I6.591 J-8.827
X151.819 Y21.78 I0.0 J-11.016
X153.33 Y20.313 I-5.079 J-6.743
X154.24 Y19.06 I-13.146 J-10.508
X156.115 Y12.953 I-9.012 J-6.107
G01 Y-6.956
G02 X154.238 Y-13.067 I-10.886 J0.0
X153.107 Y-14.581 I-12.839 J8.416
X151.858 Y-15.754 I-5.752 J4.87
X145.229 Y-17.972 I-6.629 J8.798
X138.638 Y-15.783 I0.0 J11.016
X137.103 Y-14.285 I5.039 J6.699
X135.981 Y-15.775 I-12.924 J8.569
X134.764 Y-16.911 I-5.749 J4.94
X128.135 Y-19.128 I-6.629 J8.798
X121.545 Y-16.94 I0.0 J11.016
X120.065 Y-15.51 I5.014 J6.672
G01 X120.056 Y-15.524
G02 X119.133 Y-16.793 I-14.089 J9.276
X117.719 Y-18.182 I-6.291 J4.992
X111.042 Y-20.436 I-6.677 J8.762
X104.451 Y-18.247 I0.0 J11.016
X102.891 Y-16.717 I5.062 J6.724
G01 X102.816 Y-16.622
X102.803 Y-16.613
G02 X101.922 Y-17.789 I-12.222 J8.239
X100.624 Y-19.037 I-5.862 J4.797
X93.948 Y-21.29 I-6.676 J8.762
X87.357 Y-19.1 I0.0 J11.016
X85.658 Y-17.395 I5.182 J6.858
X84.935 Y-18.366 I-14.387 J9.947
X83.536 Y-19.737 I-6.35 J5.083
X76.855 Y-21.994 I-6.681 J8.758
X70.255 Y-19.799 I0.0 J11.016
X68.506 Y-18.029 I5.367 J7.053
X67.501 Y-19.316 I-10.854 J7.439
X66.443 Y-20.29 I-5.681 J5.114
X59.761 Y-22.547 I-6.681 J8.758
X53.147 Y-20.34 I0.0 J11.016
X51.654 Y-18.885 I4.957 J6.58
G01 X51.376 Y-18.53
X51.359 Y-18.507
G02 X50.335 Y-19.796 I-9.992 J6.885
X49.496 Y-20.577 I-5.201 J4.741
X42.668 Y-22.949 I-6.829 J8.644
X36.031 Y-20.726 I0.0 J11.016
X34.645 Y-19.385 I4.759 J6.31
X34.212 Y-18.834 I6.61 J5.625
X33.527 Y-19.725 I-11.613 J8.219
X32.25 Y-20.947 I-5.979 J4.968
X25.574 Y-23.201 I-6.676 J8.762
X18.917 Y-20.962 I0.0 J11.016
X17.809 Y-19.939 I4.742 J6.251
X17.083 Y-19.037 I8.326 J7.441
X16.284 Y-20.049 I-11.072 J7.913
X15.306 Y-20.982 I-5.457 J4.741
X8.481 Y-23.352 I-6.825 J8.647
X1.768 Y-21.07 I0.0 J11.016
X.224 Y-19.5 I5.123 J6.584
G01 X-.084 Y-19.089
G02 X-.894 Y-20.094 I-10.327 J7.499
X-1.93 Y-21.043 I-5.621 J5.095
X-8.613 Y-23.301 I-6.683 J8.757
X-15.367 Y-20.988 I0.0 J11.016
X-16.764 Y-19.591 I4.841 J6.237
X-17.232 Y-18.961 I11.68 J9.17
X-18.287 Y-20.204 I-8.475 J6.118
X-18.786 Y-20.655 I-4.34 J4.306
X-25.706 Y-23.1 I-6.92 J8.571
X-32.491 Y-20.763 I0.0 J11.016
X-33.727 Y-19.552 I4.678 J6.01
X-34.362 Y-18.707 I10.732 J8.737
X-35.186 Y-19.705 I-8.733 J6.369
X-35.923 Y-20.388 I-5.016 J4.672
X-42.8 Y-22.799 I-6.877 J8.606
X-49.654 Y-20.406 I0.0 J11.016
X-50.982 Y-19.052 I4.784 J6.019
G01 X-51.185 Y-18.787
X-51.53 Y-18.304
G02 X-53.216 Y-20.041 I-7.091 J5.196
X-59.893 Y-22.296 I-6.678 J8.761
X-66.907 Y-19.774 I0.0 J11.016
X-68.172 Y-18.448 I4.874 J5.911
X-68.807 Y-17.536 I13.222 J9.884
X-70.313 Y-19.039 I-6.441 J4.948
X-76.987 Y-21.29 I-6.674 J8.764
X-84.006 Y-18.764 I0.0 J11.016
X-85.534 Y-17.07 I5.326 J6.338
X-87.075 Y-18.776 I-6.926 J4.707
X-94.08 Y-21.29 I-7.005 J8.502
X-102.305 Y-17.603 I0.0 J11.016
X-103.28 Y-16.219 I5.508 J4.917
X-103.686 Y-15.408 I14.734 J7.875
X-104.292 Y-15.96 I-4.582 J4.417
X-111.174 Y-18.374 I-6.882 J8.602
X-118.242 Y-15.808 I0.0 J11.016
X-119.472 Y-14.5 I4.831 J5.775
G01 X-119.678 Y-14.22
X-120.139 Y-13.54
X-120.197 Y-13.45
G02 X-121.642 Y-14.852 I-6.435 J5.187
X-128.267 Y-17.067 I-6.625 J8.801
X-132.718 Y-16.128 I0.0 J11.016
G01 X-133.324 Y-17.5
X-150.
Y-13.251
X-157.5
Y14.
Y19.5 F2188.
Y25. F1875.
X-152.
X0.0 F2500.
Y30.5
Z-.178
G00 Z.018
G01 Z-.374
Z-1.374 F1000.
Y25.
X146.5 F2500.
X152. F2188.
X157.5 F1875.
Y19.5
Y-14. F2500.
Y-19.5 F2188.
Y-25. F1875.
X152.
X136.853 F2500.
Y-17.5
X136.998 Y-17.347 F1500.
G03 X137.272 Y-17.044 I-5.826 J5.539
X137.592 Y-17.298 I6.192 J7.48
G01 X137.612 Y-17.313
X137.698 Y-17.376
G03 X137.762 Y-17.424 I.935 J1.173
X137.869 Y-17.5 I7.466 J10.468
G01 X142.199 Y-20. F2500.
X147.35 F1313.
X152.5 F1125.
Y-17.561
G02 X145.229 Y-19.814 I-7.271 J10.605 F1500.
X142.448 Y-19.51 I0.0 J12.858
X142.199 Y-20. I-4.578 J2.01
G01 X137.869 Y-17.5 F2500.
X136.853
Y-25.
X-122.414
Y-17.5
G03 X-120.544 Y-16.332 I-5.853 J11.449 F1500.
X-120.41 Y-16.229 I-4.336 J5.772
X-119.432 Y-17.214 I7.201 J6.175
G01 X-119.409 Y-17.233
G03 X-119.078 Y-17.5 I8.235 J9.875
G01 X-114.308 Y-19.919
X-119.078 Y-17.5 F2500.
X-122.414
X-128.267 Y-19.482 F1500.
X-122.414 Y-17.5 F2500.
Y-25.
X-146.5
X-152. F2188.
X-157.5 F1875.
Y-19.5
Y-13.619 F2500.
X-150.
G03 X-145.361 Y-14.485 I4.639 J11.992 F1500.
X-138.823 Y-12.699 I0.0 J12.858
G01 X-138.809 Y-12.736
X-138.798 Y-12.766
G03 X-137.871 Y-14.445 I6.787 J2.653
X-136.37 Y-16.035 I7.388 J5.468
X-134.12 Y-17.5 I8.103 J9.984
G01 X-133.438 Y-16.164 F2500.
G02 X-135.409 Y-14.883 I5.17 J10.113
X-136.664 Y-13.553 I4.926 J5.906
X-137.4 Y-12.22 I4.654 J3.44
G01 X-137.501 Y-11.945
G03 X-137.572 Y-11.785 I-1.293 J-.474
G01 X-137.884 Y-11.183
G02 X-138.236 Y-10.459 I9.616 J5.132
X-138.647 Y-10.788 I-4.556 J5.255
X-145.361 Y-12.985 I-6.714 J9.161
X-156.719 Y-1.627 I0.0 J11.358
G01 Y12.953
G02 X-145.361 Y24.311 I11.358 J0.0
X-138.764 Y22.199 I0.0 J-11.358
X-136.814 Y20.174 I-4.672 J-6.45
X-134.933 Y22.149 I6.554 J-4.357
X-128.267 Y24.311 I6.666 J-9.197
X-121.477 Y22.058 I0.0 J-11.358
G01 X-121.473 Y22.05
X-121.396 Y21.996
G02 X-120.447 Y21.107 I-6.031 J-7.394
X-119.72 Y20.174 I-5.203 J-4.802
X-117.968 Y22.053 I6.649 J-4.445
G01 X-117.965 Y22.057
G02 X-111.174 Y24.311 I6.791 J-9.105
X-104.381 Y22.056 I0.0 J-11.358
G01 X-104.376 Y22.048
X-104.303 Y21.996
G02 X-103.04 Y20.742 I-5.499 J-6.802
X-102.627 Y20.174 I-4.637 J-3.805
X-100.871 Y22.058 I6.621 J-4.413
X-97.738 Y23.706 I6.79 J-9.105
X-94.08 Y24.311 I3.658 J-10.753 F2188.
X-92.312 Y24.172 I0.0 J-11.358
X-87.292 Y22.059 I-1.768 J-11.22 F1875.
G01 X-87.282 Y22.047
X-87.209 Y21.996
G02 X-86.053 Y20.871 I-5.589 J-6.905
X-85.533 Y20.174 I-4.851 J-4.157
X-83.857 Y21.996 I6.681 J-4.465
G01 X-83.773 Y22.056
X-83.768 Y22.064
G02 X-83.516 Y22.247 I6.782 J-9.111
X-76.987 Y24.311 I6.529 J-9.294 F2500.
X-70.205 Y22.064 I0.0 J-11.358
X-68.44 Y20.174 I-4.873 J-6.321
X-67.054 Y21.75 I6.431 J-4.261
X-66.653 Y22.081 I3.322 J-3.614
X-63.114 Y23.845 I6.759 J-9.128
X-59.893 Y24.311 I3.221 J-10.892 F2188.
X-57.673 Y24.092 I0.0 J-11.358
X-53.105 Y22.059 I-2.22 J-11.139 F1875.
X-52.75 Y21.769 I-5.033 J-6.511
G01 X-52.724 Y21.742 F2500.
X-52.526 Y21.562
G02 X-51.346 Y20.174 I-5.076 J-5.507
X-50.291 Y21.443 I6.04 J-3.953
X-49.671 Y21.996 I5.567 J-5.613
G01 X-49.66 Y22.001 F1875.
X-49.593 Y22.05
X-49.588 Y22.059
G02 X-44.672 Y24.156 I6.789 J-9.106
X-42.8 Y24.311 I1.872 J-11.203 F2500.
X-36.122 Y22.141 I0.0 J-11.358
X-34.601 Y20.663 I-4.952 J-6.616
G01 X-34.253 Y20.174
G02 X-33.084 Y21.552 I6.179 J-4.058
X-32.491 Y22.062 I4.716 J-4.883
X-25.706 Y24.311 I6.785 J-9.109
X-18.918 Y22.059 I0.0 J-11.358
X-18.44 Y21.653 I-3.127 J-4.158
X-17.159 Y20.174 I-4.943 J-5.576
X-15.296 Y22.137 I6.588 J-4.389
X-8.613 Y24.311 I6.683 J-9.184
X-1.832 Y22.065 I0.0 J-11.358
G01 X-1.827 Y22.056
X-1.788 Y22.031
G02 X-.066 Y20.174 I-4.899 J-6.272
X1.697 Y22.063 I6.654 J-4.444
X8.481 Y24.311 I6.783 J-9.11
X15.264 Y22.063 I0.0 J-11.358
X17.028 Y20.174 I-4.935 J-6.375
X17.658 Y21. I5.718 J-3.709
X18.706 Y21.996 I6.345 J-5.628
G01 X18.788 Y22.056
X18.793 Y22.064
G02 X25.574 Y24.311 I6.781 J-9.112
X32.355 Y22.065 I0.0 J-11.358
X33.771 Y20.663 I-5.143 J-6.609
X34.121 Y20.174 I-4.612 J-3.674
X35.886 Y22.064 I6.696 J-4.484
X42.668 Y24.311 I6.782 J-9.111
X49.456 Y22.059 I0.0 J-11.358
G01 X49.459 Y22.053
X49.538 Y21.996
G02 X50.514 Y21.078 I-5.632 J-6.972
X51.215 Y20.174 I-5.198 J-4.751
X52.969 Y22.055 I6.62 J-4.416
G01 X52.973 Y22.059
G02 X59.761 Y24.311 I6.789 J-9.106
X66.549 Y22.059 I0.0 J-11.358
G01 X66.555 Y22.053
X66.607 Y22.014
G02 X67.278 Y21.417 I-4.903 J-6.185
X68.308 Y20.174 I-4.973 J-5.172
X69.997 Y22.002 I6.484 J-4.295
G01 X70.06 Y22.052
X70.066 Y22.059
G02 X76.855 Y24.311 I6.789 J-9.106
X83.643 Y22.059 I0.0 J-11.358
G01 X83.647 Y22.054
G02 X85.402 Y20.174 I-4.869 J-6.302
X87.298 Y22.161 I6.548 J-4.352
X93.948 Y24.311 I6.65 J-9.208
X100.736 Y22.059 I0.0 J-11.358
X101.922 Y20.934 I-5.334 J-6.81
X102.495 Y20.174 I-5. J-4.364
X104.26 Y22.064 I6.635 J-4.427
X111.042 Y24.311 I6.782 J-9.111
X117.83 Y22.059 I0.0 J-11.358
G01 X117.835 Y22.054
G02 X119.589 Y20.174 I-4.852 J-6.285
X121.265 Y21.996 I6.599 J-4.39
G01 X121.349 Y22.056
X121.354 Y22.064
G02 X128.135 Y24.311 I6.781 J-9.112
X134.923 Y22.059 I0.0 J-11.358
G01 X134.926 Y22.053
X135.002 Y21.998
G02 X135.956 Y21.107 I-5.849 J-7.216
X136.682 Y20.174 I-4.946 J-4.598
X138.447 Y22.064 I6.677 J-4.466
X145.229 Y24.311 I6.782 J-9.111
X152.017 Y22.059 I0.0 J-11.358
X153.425 Y20.663 I-5.132 J-6.585
X154.224 Y19.339 I-4.726 J-3.755
G01 X154.324 Y19.108
G03 X154.856 Y18.065 I26.608 J12.912
G02 X156.129 Y12.953 I-9.627 J-5.112
G01 Y-6.956
G02 X154.86 Y-12.06 I-10.9 J0.0
G03 X154.322 Y-13.109 I40.98 J-21.674
G02 X153.05 Y-15.11 I-6.005 J2.412
G01 X152.883 Y-15.289
G02 X151.993 Y-16.08 I-5.555 J5.354
X145.229 Y-18.314 I-6.765 J9.124
X138.633 Y-16.203 I0.0 J11.358
G01 X138.629 Y-16.199
X138.499 Y-16.103
G02 X137.045 Y-14.683 I4.965 J6.539
X135.911 Y-16.314 I-5.873 J2.875
G01 X135.673 Y-16.564
G02 X134.838 Y-17.28 I-5.533 J5.606
G01 X134.808 Y-17.301
X134.805 Y-17.306
G02 X128.135 Y-19.471 I-6.669 J9.194
X121.348 Y-17.22 I0.0 J11.358
X120.71 Y-16.664 I4.064 J5.308
X119.998 Y-15.899 I5.155 J5.517
X118.954 Y-17.482 I-5.945 J2.785
X117.941 Y-18.442 I-6.162 J5.489
G01 X117.871 Y-18.491
X117.868 Y-18.498
G02 X111.042 Y-20.778 I-6.826 J9.078
X109.612 Y-20.687 I0.0 J11.358
X104.531 Y-18.726 I1.43 J11.268 F2188.
X104.254 Y-18.526 I6.511 J9.307 F1875.
G01 X104.248 Y-18.518
X104.143 Y-18.441
G02 X103.487 Y-17.846 I5.754 J7.006
G01 X103.295 Y-17.649
G02 X102.769 Y-17.031 I4.532 J4.397
X101.759 Y-18.449 I-6.122 J3.292
X100.805 Y-19.329 I-5.889 J5.424
G01 X100.78 Y-19.336 F2500.
X100.767 Y-19.358
G02 X95.754 Y-21.488 I-6.819 J9.084 F1875.
X93.948 Y-21.633 I-1.806 J11.214 F2500.
X87.157 Y-19.379 I0.0 J11.358
G01 X87.155 Y-19.373
X87.094 Y-19.33
G02 X85.627 Y-17.821 I5.293 J6.614
X84.746 Y-19.063 I-6.034 J3.347
X83.719 Y-20.026 I-5.82 J5.183
G01 X83.685 Y-20.052
X83.681 Y-20.056
G02 X76.855 Y-22.336 I-6.826 J9.078
X70.06 Y-20.079 I0.0 J11.358
X68.488 Y-18.461 I5.022 J6.45
X67.278 Y-20.008 I-5.962 J3.417
X66.648 Y-20.564 I-5.271 J5.34
X63.397 Y-22.292 I-6.887 J9.032
X59.761 Y-22.889 I-3.635 J10.761 F2188.
X57.969 Y-22.747 I0.0 J11.358
X52.954 Y-20.623 I1.792 J11.216 F1875.
G01 X52.944 Y-20.605 F2500.
X52.923 Y-20.599
G02 X51.348 Y-18.946 I4.855 J6.203 F1875.
X49.494 Y-21.012 I-6.43 J3.907
X49.157 Y-21.256 I-6.826 J9.078
X46.271 Y-22.705 I-6.489 J9.322 F2500.
X42.668 Y-23.292 I-3.603 J10.771 F2188.
X40.842 Y-23.144 I0.0 J11.358
X35.833 Y-21.005 I1.825 J11.211 F1875.
G01 X35.818 Y-20.989
X35.784 Y-20.963
G02 X34.204 Y-19.282 I4.787 J6.082
X32.393 Y-21.268 I-6.376 J3.996
X32.055 Y-21.513 I-6.819 J9.084
X25.574 Y-23.543 I-6.481 J9.328 F2500.
X18.72 Y-21.242 I0.0 J11.358
X17.078 Y-19.486 I4.775 J6.112
X15.307 Y-21.414 I-6.394 J4.099
X8.481 Y-23.694 I-6.826 J9.078
X1.562 Y-21.343 I0.0 J11.358
X-.083 Y-19.542 I4.746 J5.987
X-1.565 Y-21.188 I-6.505 J4.366
G01 X-1.781 Y-21.358
X-1.785 Y-21.362
G02 X-8.613 Y-23.644 I-6.828 J9.077
X-15.573 Y-21.261 I0.0 J11.358
X-17.228 Y-19.419 I4.661 J5.854
X-18.839 Y-21.129 I-6.297 J4.318
G01 X-18.881 Y-21.159
X-18.887 Y-21.167
G02 X-25.706 Y-23.442 I-6.82 J9.083
X-32.688 Y-21.043 I0.0 J11.358
X-34.357 Y-19.169 I4.652 J5.822
X-35.972 Y-20.86 I-6.316 J4.419
X-39.467 Y-22.641 I-6.827 J9.077
X-42.8 Y-23.141 I-3.333 J10.858 F2188.
X-44.905 Y-22.944 I0.0 J11.358
X-49.859 Y-20.681 I2.105 J11.161 F1875.
G01 X-49.867 Y-20.67
G02 X-51.522 Y-18.765 I4.455 J5.544
X-53.061 Y-20.352 I-6.125 J4.401
G01 X-53.074 Y-20.363
G02 X-53.658 Y-20.773 I-6.82 J9.083
X-59.893 Y-22.638 I-6.235 J9.494 F2500.
X-67.17 Y-20.001 I0.0 J11.358
G01 X-67.175 Y-19.992
G02 X-68.801 Y-18.01 I4.52 J5.363
X-70.049 Y-19.266 I-6.216 J4.929
G01 X-70.161 Y-19.349
X-70.167 Y-19.358
G02 X-76.987 Y-21.633 I-6.819 J9.083
X-77.826 Y-21.601 I0.0 J11.358
X-83.002 Y-19.909 I.839 J11.327 F2188.
X-84.218 Y-19.033 I6.016 J9.634 F1875.
G01 X-84.222 Y-19.026
X-84.265 Y-18.993
G02 X-85.535 Y-17.587 I4.589 J5.425
X-86.9 Y-19.074 I-6.119 J4.251
G01 X-86.91 Y-19.084
G02 X-91.836 Y-21.409 I-7.17 J8.809
X-94.08 Y-21.633 I-2.245 J11.134 F2500.
X-102.399 Y-18.008 I0.0 J11.358
G01 X-102.401 Y-18.002
X-102.556 Y-17.832
G02 X-103.752 Y-15.932 I5.406 J4.729
X-104.295 Y-16.397 I-4.926 J5.205
X-111.174 Y-18.717 I-6.878 J9.039
X-118.448 Y-16.081 I0.0 J11.358
X-119.58 Y-14.87 I5.239 J6.028
X-120.179 Y-13.896 I4.597 J3.501
X-120.894 Y-14.661 I-8.256 J6.994
X-121.445 Y-15.132 I-3.986 J4.101
X-128.267 Y-17.409 I-6.822 J9.081
X-133.438 Y-16.164 I0.0 J11.358
G01 X-134.12 Y-17.5
X-150.
Y-13.619
X-157.5
Y14.
Y19.5 F2188.
Y25. F1875.
X-152.
X0.0 F2500.
Y30.5
Z-.374
G00 Z-.178
G01 Z-.571
Z-1.571 F1000.
Y25.
X146.5 F2500.
X152. F2188.
X157.5 F1875.
Y19.5
Y-14. F2500.
Y-19.5 F2188.
Y-25. F1875.
X152.
X136.872 F2500.
Y-17.5
G03 X137.262 Y-17.086 I-8.435 J8.356 F1500.
G01 X137.282 Y-17.064
G03 X137.758 Y-17.43 I5.47 J6.636
X137.858 Y-17.5 I7.47 J10.474
G01 X142.188 Y-20. F2500.
X147.344 F1313.
X152.5 F1125.
Y-17.569
G02 X145.229 Y-19.821 I-7.271 J10.613 F1500.
X142.434 Y-19.514 I0.0 J12.865
X142.188 Y-20. I-4.576 J2.014
G01 X137.858 Y-17.5 F2500.
X136.872
Y-25.
X-122.399
Y-17.5
G03 X-120.55 Y-16.344 I-5.868 J11.449 F1500.
X-120.419 Y-16.244 I-3.959 J5.281
X-120.231 Y-16.447 I8.155 J7.385
X-119.413 Y-17.239 I6.644 J6.043
X-119.089 Y-17.5 I8.239 J9.88
G01 X-114.327 Y-19.92
X-119.089 Y-17.5 F2500.
X-122.399
X-128.267 Y-19.484 F1500.
X-122.399 Y-17.5 F2500.
Y-25.
X-146.5
X-152. F2188.
X-157.5 F1875.
Y-19.5
Y-13.626 F2500.
X-150.
G03 X-145.361 Y-14.492 I4.639 J11.999 F1500.
X-138.996 Y-12.807 I0.0 J12.865
X-138.537 Y-13.595 I6.929 J3.515
X-136.526 Y-15.914 I9.906 J6.555
X-136.488 Y-15.947 I.997 J1.121
X-134.135 Y-17.5 I8.22 J9.896
G01 X-133.451 Y-16.165 F2500.
G02 X-135.529 Y-14.793 I5.184 J10.114
X-137.287 Y-12.765 I6.899 J7.754
X-138.13 Y-10.887 I5.219 J3.473
G01 X-138.182 Y-10.665
G02 X-138.25 Y-10.481 I17.938 J6.728
X-138.383 Y-10.592 I-3.998 J4.607
G01 X-138.384 Y-10.591
X-138.452 Y-10.647
G02 X-138.643 Y-10.794 I-3.205 J3.967
X-145.361 Y-12.992 I-6.718 J9.167
X-156.726 Y-1.627 I0.0 J11.365
G01 Y12.953
G02 X-145.361 Y24.318 I11.365 J0.0
X-138.76 Y22.204 I0.0 J-11.365
X-138.146 Y21.713 I-4.124 J-5.78
X-136.814 Y20.291 I-7.422 J-8.285
X-135.341 Y21.839 I8.812 J-6.912
X-135.063 Y22.062 I3.172 J-3.657
X-128.267 Y24.318 I6.796 J-9.109
X-121.473 Y22.063 I0.0 J-11.365
X-120.474 Y21.157 I-5.967 J-7.58
X-119.721 Y20.291 I-8.048 J-7.756
X-118.17 Y21.902 I8.697 J-6.815
X-117.969 Y22.063 I2.666 J-3.144
X-111.174 Y24.318 I6.795 J-9.11
X-104.375 Y22.06 I0.0 J-11.365
X-104.137 Y21.869 I-2.65 J-3.549
X-102.626 Y20.292 I-7.367 J-8.569
X-101.103 Y21.883 I8.837 J-6.938
G01 X-100.875 Y22.063
G02 X-94.08 Y24.318 I6.795 J-9.11
X-87.288 Y22.065 I0.0 J-11.365
X-86.906 Y21.75 I-3.048 J-4.089
X-85.534 Y20.291 I-7.401 J-8.332
X-84.07 Y21.831 I8.97 J-7.065
G01 X-83.818 Y22.036
X-83.772 Y22.07
G02 X-76.987 Y24.318 I6.786 J-9.117
X-70.194 Y22.065 I0.0 J-11.365
X-69.812 Y21.749 I-3.048 J-4.089
X-68.44 Y20.291 I-7.456 J-8.385
X-67.06 Y21.757 I8.882 J-6.978
X-66.686 Y22.064 I3.45 J-3.815
X-59.893 Y24.318 I6.793 J-9.112
X-53.101 Y22.065 I0.0 J-11.365
X-52.718 Y21.749 I-3.048 J-4.089
X-51.347 Y20.29 I-7.391 J-8.322
X-49.819 Y21.883 I8.715 J-6.827
X-49.593 Y22.064 I2.851 J-3.34
X-42.8 Y24.318 I6.793 J-9.111
X-36.001 Y22.06 I0.0 J-11.365
X-35.781 Y21.884 I-2.543 J-3.407
X-34.252 Y20.291 I-7.299 J-8.535
X-32.857 Y21.772 I8.866 J-6.961
X-32.495 Y22.067 I3.419 J-3.812
X-25.706 Y24.318 I6.789 J-9.115
X-18.914 Y22.065 I0.0 J-11.365
X-18.529 Y21.748 I-3.048 J-4.089
X-17.161 Y20.291 I-7.403 J-8.329
X-15.648 Y21.87 I8.879 J-6.993
X-15.407 Y22.063 I2.91 J-3.386
X-8.613 Y24.318 I6.795 J-9.11
X-1.82 Y22.065 I0.0 J-11.365
X-1.44 Y21.751 I-3.048 J-4.089
X-.066 Y20.291 I-7.461 J-8.394
X1.118 Y21.577 I8.735 J-6.848
G01 X1.332 Y21.773
G02 X1.693 Y22.068 I3.427 J-3.825
X8.481 Y24.318 I6.787 J-9.116
X15.273 Y22.065 I0.0 J-11.365
X15.656 Y21.749 I-3.048 J-4.089
X17.027 Y20.291 I-7.425 J-8.354
X18.565 Y21.891 I8.709 J-6.825
X18.788 Y22.069 I2.837 J-3.333
X25.574 Y24.318 I6.786 J-9.116
X32.367 Y22.065 I0.0 J-11.365
X32.747 Y21.752 I-3.048 J-4.089
X34.121 Y20.291 I-7.579 J-8.511
X35.539 Y21.791 I8.876 J-6.97
G01 X35.837 Y22.035
X35.875 Y22.064
G02 X42.668 Y24.318 I6.793 J-9.112
X49.46 Y22.065 I0.0 J-11.365
X49.845 Y21.747 I-3.048 J-4.089
X51.212 Y20.294 I-7.392 J-8.317
G01 X51.217 Y20.293
G02 X52.723 Y21.868 I8.74 J-6.852
X52.965 Y22.062 I2.962 J-3.45
X59.761 Y24.318 I6.796 J-9.109
X66.554 Y22.065 I0.0 J-11.365
X66.937 Y21.749 I-3.048 J-4.089
X68.309 Y20.292 I-7.609 J-8.538
X69.727 Y21.792 I8.877 J-6.972
X70.062 Y22.064 I3.389 J-3.822
X76.855 Y24.318 I6.793 J-9.112
X83.649 Y22.063 I0.0 J-11.365
X83.858 Y21.897 I-2.532 J-3.395
X85.401 Y20.291 I-7.098 J-8.363
X86.947 Y21.9 I8.835 J-6.938
G01 X87.155 Y22.064
G02 X93.948 Y24.318 I6.793 J-9.112
X100.741 Y22.065 I0.0 J-11.365
X101.123 Y21.749 I-3.048 J-4.089
X102.495 Y20.291 I-7.51 J-8.44
X103.934 Y21.809 I8.872 J-6.966
X104.256 Y22.07 I3.353 J-3.819
X111.042 Y24.318 I6.786 J-9.117
X117.834 Y22.065 I0.0 J-11.365
X118.215 Y21.751 I-3.048 J-4.089
X119.585 Y20.294 I-7.395 J-8.328
G01 X119.59 Y20.292
G02 X121.074 Y21.849 I8.79 J-6.896
X121.347 Y22.068 I3.155 J-3.651
X128.135 Y24.318 I6.788 J-9.115
X134.928 Y22.065 I0.0 J-11.365
X135.311 Y21.749 I-3.048 J-4.089
X136.682 Y20.29 I-7.415 J-8.344
X138.192 Y21.869 I8.746 J-6.856
X138.441 Y22.068 I3.012 J-3.511
X145.229 Y24.318 I6.787 J-9.116
X152.021 Y22.065 I0.0 J-11.365
X152.41 Y21.744 I-3.048 J-4.089
X154.224 Y19.679 I-7.525 J-8.443
X155.147 Y17.552 I-5.084 J-3.469
G01 X155.342 Y17.056
G02 X156.143 Y12.953 I-10.113 J-4.103
G01 Y-6.956
G02 X155.335 Y-11.076 I-10.914 J0.0
G03 X155.149 Y-11.553 I11.525 J-4.77
G02 X154.224 Y-13.666 I-6.043 J1.385
X153.242 Y-14.925 I-10.903 J7.496
X152.411 Y-15.75 I-7.712 J6.937
X152.229 Y-15.905 I-4.046 J4.565
G01 X152.228 Y-15.904
G02 X151.997 Y-16.086 I-3.268 J3.916
X145.229 Y-18.321 I-6.769 J9.129
X138.629 Y-16.209 I0.0 J11.365
X137.947 Y-15.655 I4.123 J5.78
X137.128 Y-14.827 I7.353 J8.096
X136.147 Y-16.083 I-10.984 J7.566
X135.419 Y-16.815 I-7.71 J6.938
X134.809 Y-17.312 I-4.779 J5.251
X128.135 Y-19.477 I-6.674 J9.199
X121.343 Y-17.224 I0.0 J11.365
G01 X121.193 Y-17.108
G02 X120.098 Y-16.055 I7.075 J8.45
X119.525 Y-16.839 I-10.357 J6.977
X118.27 Y-18.177 I-8.182 J6.416
X118.073 Y-18.346 I-4.064 J4.549
G01 X118.072 Y-18.345
G02 X117.872 Y-18.503 I-3.265 J3.918
X111.042 Y-20.785 I-6.83 J9.084
X104.249 Y-18.532 I0.0 J11.365
X103.684 Y-18.041 I3.048 J4.089
G01 X103.676 Y-18.04
G02 X102.83 Y-17.164 I7.242 J7.838
X102.434 Y-17.69 I-13.692 J9.887
X101.178 Y-19.03 I-8.193 J6.42
X100.983 Y-19.197 I-4.065 J4.548
G01 X100.975 Y-19.202
G02 X100.779 Y-19.358 I-3.262 J3.92
X93.948 Y-21.639 I-6.83 J9.083
X87.149 Y-19.381 I0.0 J11.365
X86.851 Y-19.141 I3.054 J4.085
X86.696 Y-19.002 I6.911 J7.929
X86.496 Y-18.81 I3.43 J3.774
X85.677 Y-17.95 I6.662 J7.162
G01 X85.643 Y-17.997
X85.358 Y-18.372
X85.343 Y-18.391
G02 X84.083 Y-19.735 I-8.187 J6.41
X83.685 Y-20.062 I-4.064 J4.549
X76.855 Y-22.343 I-6.83 J9.084
X69.902 Y-19.968 I0.0 J11.365
X69.122 Y-19.243 I6.745 J8.037
X68.523 Y-18.585 I9.906 J9.626
G01 X68.26 Y-18.93
G02 X66.927 Y-20.344 I-8.198 J6.396
X66.652 Y-20.569 I-3.367 J3.83
X59.761 Y-22.896 I-6.891 J9.038
X52.803 Y-20.517 I0.0 J11.365
X51.928 Y-19.693 I6.696 J7.987
G01 X51.855 Y-19.614
X51.41 Y-19.108
X51.373 Y-19.063
X51.162 Y-19.338
G02 X49.896 Y-20.69 I-8.194 J6.401
X49.701 Y-20.858 I-4.064 J4.549
G01 X49.7 Y-20.857
G02 X49.498 Y-21.017 I-3.267 J3.916
X42.668 Y-23.298 I-6.83 J9.084
X35.829 Y-21.011 I0.0 J11.365
X35.547 Y-20.782 I3.069 J4.073
X34.569 Y-19.807 I6.805 J7.806
G01 X34.54 Y-19.774
X34.226 Y-19.395
X34.221 Y-19.392
X34.073 Y-19.584
G02 X32.803 Y-20.942 I-8.198 J6.396
X32.607 Y-21.109 I-4.064 J4.549
G01 Y-21.108
G02 X32.404 Y-21.268 I-3.267 J3.916
X25.574 Y-23.55 I-6.83 J9.084
X18.576 Y-21.139 I0.0 J11.365
X17.338 Y-19.901 I6.666 J7.903
G01 X17.093 Y-19.6
X17.087 Y-19.595
X16.979 Y-19.735
G02 X15.71 Y-21.092 I-8.2 J6.398
X15.311 Y-21.419 I-4.065 J4.549
X8.481 Y-23.701 I-6.83 J9.083
X1.559 Y-21.349 I0.0 J11.365
X1.279 Y-21.118 I3.106 J4.045
X-.085 Y-19.648 I6.904 J7.777
G01 X-.119 Y-19.691
G02 X-1.382 Y-21.04 I-8.196 J6.404
X-1.781 Y-21.368 I-4.066 J4.548
X-8.613 Y-23.65 I-6.832 J9.082
X-15.734 Y-21.142 I0.0 J11.365
X-17.225 Y-19.545 I6.873 J7.907
G01 X-17.24 Y-19.524
G02 X-18.476 Y-20.839 I-8.168 J6.439
X-18.673 Y-21.008 I-4.066 J4.548
G01 Y-21.007
G02 X-18.875 Y-21.167 I-3.267 J3.916
X-25.706 Y-23.449 I-6.831 J9.083
X-32.693 Y-21.048 I0.0 J11.365
X-33.304 Y-20.504 I4.796 J5.995
X-34.373 Y-19.273 I7.238 J7.372
X-35.569 Y-20.538 I-8.128 J6.489
X-35.766 Y-20.706 I-4.066 J4.548
G01 X-35.767
G02 X-35.968 Y-20.865 I-3.267 J3.916
X-42.8 Y-23.148 I-6.831 J9.083
X-49.867 Y-20.683 I0.0 J11.365
X-51.548 Y-18.871 I6.158 J7.402
X-52.663 Y-20.035 I-8.047 J6.591
X-52.861 Y-20.204 I-4.065 J4.548
G01
G02 X-53.062 Y-20.362 I-3.266 J3.917
X-59.893 Y-22.645 I-6.831 J9.083
X-67.178 Y-20.003 I0.0 J11.365
X-68.848 Y-18.11 I6.469 J7.388
X-69.757 Y-19.03 I-7.841 J6.834
X-69.954 Y-19.199 I-4.065 J4.548
G01 X-69.955 Y-19.198
G02 X-70.156 Y-19.357 I-3.266 J3.917
X-76.987 Y-21.639 I-6.831 J9.083
X-84.228 Y-19.033 I0.0 J11.365
X-85.533 Y-17.657 I5.673 J6.685
G01 X-85.801 Y-17.986
G02 X-86.598 Y-18.82 I-7.563 J6.426
X-86.906 Y-19.089 I-4.159 J4.463
X-93.616 Y-21.63 I-7.174 J8.814
X-94.08 Y-21.639 I-.464 J11.355 F2188.
X-98.953 Y-20.542 I0.0 J11.365
X-102.408 Y-18.008 I4.872 J10.268 F1875.
X-102.926 Y-17.382 I5.203 J4.832
X-103.13 Y-17.082 I4.109 J3.021
G01 X-103.144 Y-17.08
G02 X-103.814 Y-16.006 I7.872 J5.653
G01 X-103.822 Y-16.007
G02 X-103.899 Y-16.077 I-3.491 J3.718
X-104.286 Y-16.398 I-4.084 J4.531
X-107.46 Y-18.1 I-6.888 J9.04
X-111.174 Y-18.723 I-3.713 J10.741 F2500.
X-118.453 Y-16.087 I0.0 J11.365
X-119.133 Y-15.425 I4.866 J5.682
X-120.251 Y-14.006 I6.868 J6.566
X-121.036 Y-14.806 I-9.35 J8.383
G01 X-121.046 Y-14.808
G02 X-121.45 Y-15.144 I-3.463 J3.744
X-128.267 Y-17.416 I-6.818 J9.093
X-133.451 Y-16.165 I0.0 J11.365
G01 X-134.135 Y-17.5
X-150.
Y-13.626
X-157.5
Y14.
Y19.5 F2188.
Y25. F1875.
X-152.
X0.0 F2500.
Y30.5
Z-.571
G00 Z-.374
G01 Z-.767
Z-1.767 F1000.
Y25.
X146.5 F2500.
X152. F2188.
X157.5 F1875.
Y19.5
Y-14. F2500.
Y-19.5 F2188.
Y-25. F1875.
X152.
X136.872 F2500.
Y-17.5
G03 X137.262 Y-17.086 I-8.435 J8.356 F1500.
G01 X137.282 Y-17.064
G03 X137.758 Y-17.43 I5.47 J6.636
X137.858 Y-17.5 I7.47 J10.474
G01 X142.188 Y-20. F2500.
X147.344 F1313.
X152.5 F1125.
Y-17.569
G02 X145.229 Y-19.821 I-7.271 J10.613 F1500.
X142.434 Y-19.514 I0.0 J12.865
X142.188 Y-20. I-4.576 J2.014
G01 X137.858 Y-17.5 F2500.
X136.872
Y-25.
X-122.399
Y-17.5
G03 X-120.55 Y-16.344 I-5.868 J11.449 F1500.
X-120.419 Y-16.244 I-3.959 J5.281
X-120.231 Y-16.447 I8.164 J7.393
X-119.413 Y-17.239 I6.641 J6.04
X-119.089 Y-17.5 I8.239 J9.88
G01 X-114.327 Y-19.92
X-119.089 Y-17.5 F2500.
X-122.399
X-128.267 Y-19.484 F1500.
X-122.399 Y-17.5 F2500.
Y-25.
X-146.5
X-152. F2188.
X-157.5 F1875.
Y-19.5
Y-13.626 F2500.
X-150.
G03 X-145.361 Y-14.492 I4.639 J11.999 F1500.
X-139.011 Y-12.816 I0.0 J12.865
G01 X-138.97 Y-12.886
G03 X-136.526 Y-15.914 I10.34 J5.847
X-136.488 Y-15.947 I.997 J1.121
X-134.135 Y-17.5 I8.22 J9.896
G01 X-133.451 Y-16.165 F2500.
G02 X-135.529 Y-14.793 I5.184 J10.114 F2188.
X-136.475 Y-13.836 I6.899 J7.754
X-137.671 Y-12.138 I7.844 J6.796 F1875.
X-138.101 Y-11.331 I9.66 J5.678
X-138.393 Y-10.602 I5.39 J2.574
G01 X-138.44 Y-10.64
X-138.452 Y-10.647
G02 X-138.643 Y-10.794 I-3.205 J3.967
X-143.428 Y-12.826 I-6.718 J9.167
X-145.361 Y-12.992 I-1.933 J11.199 F2500.
X-156.726 Y-1.627 I0.0 J11.365
G01 Y12.953
G02 X-145.361 Y24.318 I11.365 J0.0
X-138.76 Y22.204 I0.0 J-11.365
X-138.087 Y21.659 I-4.124 J-5.78
X-136.814 Y20.291 I-7.425 J-8.18
X-135.34 Y21.839 I8.812 J-6.912
X-135.063 Y22.062 I3.171 J-3.656
X-128.267 Y24.318 I6.796 J-9.109
X-121.473 Y22.063 I0.0 J-11.365
X-120.474 Y21.157 I-5.967 J-7.58
X-119.721 Y20.291 I-8.032 J-7.743
X-118.17 Y21.902 I8.696 J-6.814
X-117.969 Y22.062 I2.665 J-3.143
X-111.174 Y24.318 I6.795 J-9.11
X-104.375 Y22.06 I0.0 J-11.365
X-104.137 Y21.869 I-2.646 J-3.545
X-102.626 Y20.292 I-7.366 J-8.569
X-101.103 Y21.883 I8.837 J-6.939
G01 X-100.875 Y22.063
G02 X-94.08 Y24.318 I6.795 J-9.11
X-87.288 Y22.065 I0.0 J-11.365
X-86.906 Y21.75 I-3.048 J-4.089
X-85.534 Y20.291 I-7.4 J-8.331
X-84.07 Y21.831 I8.969 J-7.064
G01 X-83.818 Y22.036
X-83.772 Y22.07
G02 X-76.987 Y24.318 I6.786 J-9.117
X-70.194 Y22.065 I0.0 J-11.365
X-69.812 Y21.749 I-3.048 J-4.089
X-68.44 Y20.291 I-7.455 J-8.384
X-67.06 Y21.757 I8.881 J-6.977
X-66.686 Y22.064 I3.449 J-3.814
X-59.893 Y24.318 I6.793 J-9.112
X-53.101 Y22.065 I0.0 J-11.365
X-52.718 Y21.749 I-3.048 J-4.089
X-51.347 Y20.29 I-7.391 J-8.321
X-49.82 Y21.883 I8.716 J-6.828
X-49.593 Y22.064 I2.853 J-3.341
X-42.8 Y24.318 I6.794 J-9.111
X-36. Y22.059 I0.0 J-11.365
X-35.782 Y21.885 I-2.535 J-3.396
X-34.252 Y20.291 I-7.298 J-8.536
X-32.857 Y21.772 I8.865 J-6.961
X-32.495 Y22.067 I3.419 J-3.812
X-25.706 Y24.318 I6.789 J-9.115
X-18.914 Y22.065 I0.0 J-11.365
X-18.529 Y21.748 I-3.048 J-4.089
X-17.161 Y20.291 I-7.401 J-8.327
X-15.649 Y21.87 I8.879 J-6.993
X-15.408 Y22.063 I2.913 J-3.389
X-8.613 Y24.318 I6.795 J-9.11
X-1.82 Y22.065 I0.0 J-11.365
X-1.44 Y21.751 I-3.048 J-4.089
X-.066 Y20.291 I-7.46 J-8.393
X1.118 Y21.577 I8.736 J-6.85
G01 X1.332 Y21.773
G02 X1.693 Y22.068 I3.425 J-3.823
X8.481 Y24.318 I6.787 J-9.116
X15.273 Y22.065 I0.0 J-11.365
X15.656 Y21.749 I-3.048 J-4.089
X17.027 Y20.291 I-7.424 J-8.354
X18.564 Y21.891 I8.71 J-6.826
X18.788 Y22.069 I2.84 J-3.336
X25.574 Y24.318 I6.787 J-9.116
X32.367 Y22.065 I0.0 J-11.365
X32.747 Y21.752 I-3.048 J-4.089
X34.121 Y20.291 I-7.577 J-8.509
X35.539 Y21.791 I8.876 J-6.97
G01 X35.837 Y22.035
X35.875 Y22.064
G02 X42.668 Y24.318 I6.793 J-9.112
X49.46 Y22.065 I0.0 J-11.365
X49.845 Y21.747 I-3.048 J-4.089
X51.212 Y20.294 I-7.391 J-8.317
G01 X51.217 Y20.293
G02 X52.72 Y21.865 I8.739 J-6.851
X52.968 Y22.064 I3.007 J-3.5
X59.761 Y24.318 I6.793 J-9.112
X66.554 Y22.065 I0.0 J-11.365
X66.937 Y21.749 I-3.048 J-4.089
X68.309 Y20.292 I-7.608 J-8.537
X69.727 Y21.792 I8.877 J-6.971
X70.062 Y22.064 I3.382 J-3.814
X76.855 Y24.318 I6.793 J-9.112
X83.65 Y22.063 I0.0 J-11.365
X83.859 Y21.896 I-2.53 J-3.392
X85.401 Y20.291 I-7.102 J-8.365
X86.947 Y21.9 I8.835 J-6.937
G01 X87.155 Y22.064
G02 X93.948 Y24.318 I6.793 J-9.112
X100.741 Y22.065 I0.0 J-11.365
X101.123 Y21.749 I-3.048 J-4.089
X102.495 Y20.291 I-7.508 J-8.438
X103.934 Y21.809 I8.872 J-6.966
X104.256 Y22.07 I3.352 J-3.818
X111.042 Y24.318 I6.786 J-9.117
X117.834 Y22.065 I0.0 J-11.365
X118.215 Y21.751 I-3.048 J-4.089
X119.585 Y20.294 I-7.395 J-8.328
G01 X119.59 Y20.292
G02 X121.074 Y21.848 I8.79 J-6.897
X121.347 Y22.068 I3.157 J-3.653
X128.135 Y24.318 I6.788 J-9.115
X134.928 Y22.065 I0.0 J-11.365
X135.311 Y21.749 I-3.048 J-4.089
X136.682 Y20.29 I-7.414 J-8.343
X138.191 Y21.868 I8.747 J-6.857
X138.441 Y22.068 I3.017 J-3.515
X145.229 Y24.318 I6.787 J-9.116
X152.021 Y22.065 I0.0 J-11.365
X152.406 Y21.747 I-3.048 J-4.089
X154.895 Y18.573 I-7.629 J-8.546
G01 X154.965 Y18.441
G02 X155.556 Y16.664 I-5.358 J-2.77
G01 X155.573 Y16.555
G03 X155.593 Y16.461 I.78 J.12
G01 X155.726 Y15.989
G02 X156.156 Y12.953 I-10.497 J-3.036
G01 Y-6.956
G02 X155.725 Y-9.995 I-10.927 J0.0
G01 X155.597 Y-10.444
G02 X155.468 Y-11.109 I-14.896 J2.552
X154.846 Y-12.664 I-5.967 J1.483
X153.242 Y-14.925 I-11.307 J6.325
X152.411 Y-15.75 I-7.712 J6.937
X152.229 Y-15.905 I-4.046 J4.565
G01 X152.228 Y-15.904
G02 X151.997 Y-16.086 I-3.268 J3.916
X145.229 Y-18.321 I-6.769 J9.129
X138.629 Y-16.209 I0.0 J11.365
X137.947 Y-15.655 I4.123 J5.78
X137.128 Y-14.827 I7.348 J8.091
X136.147 Y-16.083 I-10.98 J7.563
X135.419 Y-16.815 I-7.71 J6.939
X134.809 Y-17.312 I-4.779 J5.251
X128.135 Y-19.477 I-6.674 J9.199
X121.342 Y-17.224 I0.0 J11.365
X121.051 Y-16.988 I2.874 J3.855
X120.098 Y-16.058 I7.974 J9.118
X119.525 Y-16.839 I-11.015 J7.48
X118.27 Y-18.177 I-8.182 J6.416
X118.073 Y-18.346 I-4.064 J4.549
G01 X118.072 Y-18.345
G02 X117.872 Y-18.503 I-3.265 J3.918
X111.042 Y-20.785 I-6.83 J9.084
X104.249 Y-18.532 I0.0 J11.365
X103.684 Y-18.041 I3.048 J4.089
G01 X103.676 Y-18.04
G02 X102.83 Y-17.164 I7.24 J7.836
X102.434 Y-17.69 I-13.642 J9.85
X101.178 Y-19.03 I-8.193 J6.42
X100.983 Y-19.197 I-4.065 J4.548
G01 X100.975 Y-19.202
G02 X100.778 Y-19.358 I-3.262 J3.92
X93.948 Y-21.639 I-6.83 J9.084
X87.149 Y-19.381 I0.0 J11.365
X86.851 Y-19.141 I3.054 J4.085
X86.696 Y-19.002 I6.911 J7.929
X86.496 Y-18.81 I3.43 J3.774
X85.677 Y-17.95 I6.66 J7.16
G01 X85.643 Y-17.997
X85.358 Y-18.372
X85.343 Y-18.391
G02 X84.083 Y-19.735 I-8.187 J6.41
X83.685 Y-20.062 I-4.064 J4.549
X76.855 Y-22.343 I-6.83 J9.084
X69.902 Y-19.968 I0.0 J11.365
X69.123 Y-19.244 I6.745 J8.037
X68.523 Y-18.585 I9.904 J9.626
G01 X68.26 Y-18.93
G02 X66.927 Y-20.344 I-8.198 J6.396
X66.652 Y-20.569 I-3.367 J3.83
X59.761 Y-22.896 I-6.891 J9.038
X52.803 Y-20.517 I0.0 J11.365
X51.928 Y-19.693 I6.696 J7.987
G01 X51.855 Y-19.614
X51.41 Y-19.108
X51.373 Y-19.063
X51.162 Y-19.338
G02 X49.896 Y-20.69 I-8.194 J6.401
X49.701 Y-20.858 I-4.064 J4.549
G01 X49.7 Y-20.857
G02 X49.498 Y-21.017 I-3.267 J3.916
X42.668 Y-23.298 I-6.83 J9.084
X35.829 Y-21.011 I0.0 J11.365
X35.547 Y-20.782 I3.069 J4.073
X34.569 Y-19.807 I6.805 J7.806
G01 X34.54 Y-19.774
X34.226 Y-19.395
X34.221 Y-19.392
X34.073 Y-19.584
G02 X32.803 Y-20.942 I-8.198 J6.396
X32.607 Y-21.109 I-4.064 J4.549
G01 Y-21.108
G02 X32.404 Y-21.269 I-3.267 J3.916
X25.574 Y-23.55 I-6.83 J9.084
X18.576 Y-21.139 I0.0 J11.365
X17.338 Y-19.901 I6.666 J7.903
G01 X17.093 Y-19.6
X17.087 Y-19.595
X16.979 Y-19.735
G02 X15.71 Y-21.092 I-8.2 J6.398
X15.311 Y-21.419 I-4.065 J4.549
X8.481 Y-23.701 I-6.83 J9.083
X1.559 Y-21.349 I0.0 J11.365
X1.279 Y-21.118 I3.106 J4.045
X-.085 Y-19.648 I6.904 J7.777
G01 X-.119 Y-19.691
G02 X-1.382 Y-21.04 I-8.196 J6.404
X-1.781 Y-21.368 I-4.066 J4.548
X-8.613 Y-23.65 I-6.832 J9.082
X-15.734 Y-21.142 I0.0 J11.365
X-17.225 Y-19.545 I6.873 J7.907
G01 X-17.24 Y-19.524
G02 X-18.476 Y-20.839 I-8.168 J6.439
X-18.673 Y-21.008 I-4.066 J4.548
G01 Y-21.007
G02 X-18.875 Y-21.167 I-3.267 J3.916
X-25.706 Y-23.449 I-6.831 J9.083
X-32.693 Y-21.048 I0.0 J11.365
X-33.304 Y-20.504 I4.795 J5.994
X-34.373 Y-19.273 I7.239 J7.373
X-35.569 Y-20.538 I-8.128 J6.489
X-35.766 Y-20.706 I-4.066 J4.548
G01 X-35.767
G02 X-35.969 Y-20.865 I-3.267 J3.916
X-42.8 Y-23.148 I-6.831 J9.083
X-49.867 Y-20.683 I0.0 J11.365
X-51.548 Y-18.871 I6.155 J7.399
X-52.663 Y-20.035 I-8.047 J6.591
X-52.861 Y-20.204 I-4.065 J4.548
G01
G02 X-53.062 Y-20.363 I-3.266 J3.917
X-59.893 Y-22.645 I-6.831 J9.083
X-67.179 Y-20.003 I0.0 J11.365
X-68.848 Y-18.11 I6.469 J7.388
X-69.757 Y-19.03 I-7.841 J6.834
X-69.954 Y-19.199 I-4.065 J4.548
G01 X-69.955 Y-19.198
G02 X-70.156 Y-19.357 I-3.266 J3.917
X-76.987 Y-21.639 I-6.831 J9.083
X-84.228 Y-19.033 I0.0 J11.365
X-85.533 Y-17.657 I5.67 J6.683
G01 X-85.801 Y-17.986
G02 X-86.598 Y-18.82 I-7.563 J6.426
X-86.906 Y-19.089 I-4.159 J4.463
X-93.616 Y-21.63 I-7.174 J8.814
X-94.08 Y-21.639 I-.464 J11.355 F2188.
X-98.953 Y-20.542 I0.0 J11.365
X-102.408 Y-18.008 I4.872 J10.268 F1875.
X-102.926 Y-17.382 I5.203 J4.832
X-103.13 Y-17.082 I4.109 J3.021
G01 X-103.144 Y-17.08
G02 X-103.814 Y-16.006 I7.877 J5.655
G01 X-103.822 Y-16.007
G02 X-103.899 Y-16.077 I-3.491 J3.718
X-104.286 Y-16.398 I-4.084 J4.531
X-107.46 Y-18.1 I-6.888 J9.04
X-111.174 Y-18.723 I-3.713 J10.741 F2500.
X-118.453 Y-16.087 I0.0 J11.365
X-119.133 Y-15.425 I4.863 J5.679
X-120.251 Y-14.006 I6.877 J6.574
X-121.036 Y-14.806 I-9.347 J8.38
G01 X-121.046 Y-14.808
G02 X-121.45 Y-15.144 I-3.463 J3.744
X-128.267 Y-17.416 I-6.818 J9.093
X-133.451 Y-16.165 I0.0 J11.365
G01 X-134.135 Y-17.5
X-150.
Y-13.626
X-157.5
Y14.
Y19.5 F2188.
Y25. F1875.
X-152.
X0.0 F2500.
Y30.5
Z-.767
G00 Z-.571
G01 Z-.963
Z-1.963 F1000.
Y25.
X146.5 F2500.
X152. F2188.
X157.5 F1875.
Y19.5
Y-14. F2500.
Y-19.5 F2188.
Y-25. F1875.
X152.
X136.872 F2500.
Y-17.5
G03 X137.282 Y-17.064 I-8.438 J8.353 F1500.
X137.758 Y-17.43 I5.47 J6.636
X137.858 Y-17.5 I7.47 J10.474
G01 X142.188 Y-20. F2500.
X147.344 F1313.
X152.5 F1125.
Y-17.569
G02 X145.229 Y-19.821 I-7.271 J10.613 F1500.
X142.434 Y-19.514 I0.0 J12.865
X142.188 Y-20. I-4.576 J2.014
G01 X137.858 Y-17.5 F2500.
X136.872
Y-25.
X-122.399
Y-17.5
G03 X-120.55 Y-16.344 I-5.868 J11.449 F1500.
X-120.419 Y-16.244 I-3.959 J5.281
X-120.231 Y-16.447 I8.164 J7.393
X-119.413 Y-17.239 I6.637 J6.036
X-119.089 Y-17.5 I8.239 J9.88
G01 X-114.327 Y-19.92
X-119.089 Y-17.5 F2500.
X-122.399
X-128.267 Y-19.484 F1500.
X-122.399 Y-17.5 F2500.
Y-25.
X-146.5
X-152. F2188.
X-157.5 F1875.
Y-19.5
Y-13.626 F2500.
X-150.
G03 X-145.361 Y-14.492 I4.639 J11.999 F1500.
X-139.011 Y-12.816 I0.0 J12.865
G01 X-138.973 Y-12.882
G03 X-136.526 Y-15.914 I10.342 J5.843
X-136.488 Y-15.947 I.997 J1.121
X-134.135 Y-17.5 I8.22 J9.896
G01 X-133.451 Y-16.165 F2500.
G02 X-135.529 Y-14.793 I5.184 J10.114
X-137.671 Y-12.138 I6.899 J7.754
X-138.429 Y-10.631 I12.403 J7.191
G01 X-138.452 Y-10.647
G02 X-138.643 Y-10.794 I-3.205 J3.967
X-145.361 Y-12.992 I-6.718 J9.167
X-156.726 Y-1.627 I0.0 J11.365
G01 Y12.953
G02 X-145.361 Y24.318 I11.365 J0.0
X-138.76 Y22.204 I0.0 J-11.365
X-138.087 Y21.659 I-4.124 J-5.78
X-136.814 Y20.291 I-7.423 J-8.178
X-135.343 Y21.837 I8.816 J-6.916
X-135.062 Y22.063 I3.198 J-3.684
X-128.267 Y24.318 I6.794 J-9.11
X-121.473 Y22.063 I0.0 J-11.365
X-120.474 Y21.157 I-5.966 J-7.579
X-119.721 Y20.291 I-8.032 J-7.743
X-118.171 Y21.902 I8.698 J-6.815
X-117.969 Y22.062 I2.667 J-3.144
X-111.174 Y24.318 I6.796 J-9.109
X-104.374 Y22.059 I0.0 J-11.365
X-104.138 Y21.87 I-2.644 J-3.541
X-102.626 Y20.292 I-7.366 J-8.569
X-101.103 Y21.883 I8.838 J-6.939
G01 X-100.875 Y22.063
G02 X-94.08 Y24.318 I6.795 J-9.11
X-87.288 Y22.065 I0.0 J-11.365
X-86.906 Y21.75 I-3.048 J-4.089
X-85.534 Y20.291 I-7.399 J-8.331
X-84.07 Y21.831 I8.968 J-7.063
G01 X-83.818 Y22.036
X-83.772 Y22.07
G02 X-76.987 Y24.318 I6.786 J-9.117
X-70.194 Y22.065 I0.0 J-11.365
X-69.812 Y21.749 I-3.048 J-4.089
X-68.44 Y20.291 I-7.454 J-8.383
X-67.06 Y21.757 I8.88 J-6.976
X-66.686 Y22.064 I3.448 J-3.813
X-59.893 Y24.318 I6.793 J-9.112
X-53.101 Y22.065 I0.0 J-11.365
X-52.718 Y21.749 I-3.048 J-4.089
X-51.347 Y20.29 I-7.39 J-8.321
X-49.82 Y21.883 I8.716 J-6.828
X-49.594 Y22.063 I2.854 J-3.343
X-42.8 Y24.318 I6.794 J-9.111
X-36.004 Y22.062 I0.0 J-11.365
X-35.779 Y21.882 I-2.582 J-3.461
X-34.252 Y20.291 I-7.301 J-8.533
X-32.857 Y21.772 I8.865 J-6.961
X-32.495 Y22.067 I3.418 J-3.812
X-25.706 Y24.318 I6.789 J-9.115
X-18.914 Y22.065 I0.0 J-11.365
X-18.529 Y21.748 I-3.048 J-4.089
X-17.161 Y20.291 I-7.4 J-8.326
X-15.649 Y21.869 I8.88 J-6.994
X-15.408 Y22.063 I2.916 J-3.393
X-8.613 Y24.318 I6.795 J-9.11
X-1.82 Y22.065 I0.0 J-11.365
X-1.44 Y21.751 I-3.048 J-4.089
X-.066 Y20.291 I-7.458 J-8.392
X1.118 Y21.577 I8.738 J-6.851
G01 X1.332 Y21.773
G02 X1.693 Y22.068 I3.424 J-3.822
X8.481 Y24.318 I6.787 J-9.116
X15.273 Y22.065 I0.0 J-11.365
X15.656 Y21.749 I-3.048 J-4.089
X17.027 Y20.291 I-7.424 J-8.354
X18.563 Y21.89 I8.711 J-6.827
X18.787 Y22.069 I2.842 J-3.338
X25.574 Y24.318 I6.787 J-9.116
X32.367 Y22.065 I0.0 J-11.365
X32.747 Y21.752 I-3.048 J-4.089
X34.121 Y20.291 I-7.575 J-8.508
X35.539 Y21.791 I8.875 J-6.97
G01 X35.837 Y22.035
X35.875 Y22.064
G02 X42.668 Y24.318 I6.793 J-9.112
X49.46 Y22.065 I0.0 J-11.365
X49.845 Y21.747 I-3.048 J-4.089
X51.212 Y20.294 I-7.39 J-8.316
G01 X51.217 Y20.293
G02 X52.72 Y21.865 I8.738 J-6.851
X52.968 Y22.064 I3.003 J-3.496
X59.761 Y24.318 I6.793 J-9.111
X66.554 Y22.065 I0.0 J-11.365
X66.937 Y21.749 I-3.048 J-4.089
X68.309 Y20.292 I-7.607 J-8.536
X69.727 Y21.792 I8.876 J-6.971
X70.062 Y22.064 I3.376 J-3.807
X76.855 Y24.318 I6.793 J-9.112
X83.648 Y22.064 I0.0 J-11.365
X83.862 Y21.893 I-2.573 J-3.452
X85.401 Y20.291 I-7.108 J-8.364
X86.947 Y21.9 I8.834 J-6.937
G01 X87.155 Y22.064
G02 X93.948 Y24.318 I6.793 J-9.112
X100.741 Y22.065 I0.0 J-11.365
X101.123 Y21.749 I-3.048 J-4.089
X102.495 Y20.291 I-7.507 J-8.437
X103.934 Y21.809 I8.872 J-6.966
X104.256 Y22.07 I3.343 J-3.807
X111.042 Y24.318 I6.786 J-9.117
X117.834 Y22.065 I0.0 J-11.365
X118.215 Y21.751 I-3.048 J-4.089
X119.585 Y20.294 I-7.394 J-8.327
G01 X119.59 Y20.292
G02 X121.073 Y21.848 I8.79 J-6.897
X121.347 Y22.068 I3.159 J-3.654
X128.135 Y24.318 I6.788 J-9.115
X134.928 Y22.065 I0.0 J-11.365
X135.311 Y21.749 I-3.048 J-4.089
X136.682 Y20.29 I-7.412 J-8.341
X138.19 Y21.867 I8.748 J-6.857
X138.441 Y22.068 I3.022 J-3.52
X145.229 Y24.318 I6.788 J-9.115
X152.021 Y22.065 I0.0 J-11.365
X152.406 Y21.747 I-3.048 J-4.089
X155.38 Y17.552 I-7.711 J-8.617
G01 X155.47 Y17.33
G02 X155.867 Y15.775 I-5.749 J-2.293
G01 X155.889 Y15.552
X155.924 Y15.33
G02 X156.068 Y14.442 I-15.427 J-2.959
X156.17 Y12.953 I-10.839 J-1.489
G01 Y-6.956
G02 X156.069 Y-8.442 I-10.941 J0.0
X156.05 Y-8.576 I-2.538 J.282
G01 X155.889 Y-9.554
G02 X155.389 Y-11.553 I-6.171 J.481
G01 X155.342 Y-11.662
G02 X153.242 Y-14.925 I-11.465 J5.072
X152.411 Y-15.75 I-7.712 J6.937
X152.229 Y-15.905 I-4.046 J4.565
G01 X152.228 Y-15.904
G02 X151.997 Y-16.086 I-3.268 J3.916
X145.229 Y-18.321 I-6.769 J9.129
X138.629 Y-16.209 I0.0 J11.365
X137.947 Y-15.655 I4.123 J5.78
X137.128 Y-14.827 I7.343 J8.086
X136.147 Y-16.083 I-10.977 J7.561
X135.419 Y-16.815 I-7.71 J6.939
X134.809 Y-17.312 I-4.779 J5.251
X128.135 Y-19.477 I-6.674 J9.199
X121.342 Y-17.224 I0.0 J11.365
X121.051 Y-16.988 I2.873 J3.854
X120.098 Y-16.058 I7.976 J9.12
X119.525 Y-16.839 I-11.021 J7.485
X118.27 Y-18.177 I-8.182 J6.416
X118.073 Y-18.346 I-4.064 J4.549
G01 X118.072 Y-18.345
G02 X117.872 Y-18.503 I-3.265 J3.918
X111.042 Y-20.785 I-6.83 J9.084
X104.249 Y-18.532 I0.0 J11.365
X103.684 Y-18.041 I3.048 J4.089
G01 X103.676 Y-18.04
G02 X102.83 Y-17.164 I7.239 J7.835
X102.434 Y-17.69 I-13.593 J9.813
X101.178 Y-19.03 I-8.193 J6.42
X100.983 Y-19.197 I-4.065 J4.548
G01 X100.975 Y-19.202
G02 X100.778 Y-19.358 I-3.262 J3.92
X93.948 Y-21.639 I-6.83 J9.084
X87.149 Y-19.381 I0.0 J11.365
X86.851 Y-19.141 I3.054 J4.085
X86.696 Y-19.002 I6.911 J7.929
X86.496 Y-18.81 I3.43 J3.774
X85.677 Y-17.95 I6.657 J7.158
G01 X85.643 Y-17.997
X85.358 Y-18.372
X85.343 Y-18.391
G02 X84.083 Y-19.735 I-8.187 J6.41
X83.685 Y-20.062 I-4.064 J4.549
X76.855 Y-22.343 I-6.83 J9.084
X69.902 Y-19.968 I0.0 J11.365
X69.123 Y-19.244 I6.745 J8.037
X68.523 Y-18.585 I9.902 J9.625
G01 X68.26 Y-18.93
G02 X66.927 Y-20.344 I-8.198 J6.396
X66.652 Y-20.569 I-3.367 J3.83
X59.761 Y-22.896 I-6.891 J9.038
X52.803 Y-20.517 I0.0 J11.365
X51.928 Y-19.693 I6.696 J7.987
G01 X51.855 Y-19.614
X51.41 Y-19.108
X51.373 Y-19.063
X51.162 Y-19.338
G02 X49.896 Y-20.69 I-8.194 J6.401
X49.701 Y-20.858 I-4.064 J4.549
G01 X49.7 Y-20.857
G02 X49.498 Y-21.017 I-3.267 J3.916
X42.668 Y-23.298 I-6.83 J9.084
X35.829 Y-21.011 I0.0 J11.365
X35.547 Y-20.782 I3.069 J4.073
X34.569 Y-19.807 I6.805 J7.806
G01 X34.54 Y-19.774
X34.226 Y-19.395
X34.221 Y-19.392
X34.073 Y-19.584
G02 X32.803 Y-20.942 I-8.198 J6.396
X32.607 Y-21.109 I-4.064 J4.549
G01 Y-21.108
G02 X32.404 Y-21.269 I-3.267 J3.916
X25.574 Y-23.55 I-6.83 J9.084
X18.576 Y-21.139 I0.0 J11.365
X17.338 Y-19.901 I6.666 J7.903
G01 X17.093 Y-19.6
X17.087 Y-19.595
X16.979 Y-19.735
G02 X15.71 Y-21.092 I-8.2 J6.398
X15.311 Y-21.419 I-4.065 J4.549
X8.481 Y-23.701 I-6.83 J9.083
X1.559 Y-21.349 I0.0 J11.365
X1.279 Y-21.118 I3.106 J4.045
X-.085 Y-19.648 I6.904 J7.777
G01 X-.119 Y-19.691
G02 X-1.382 Y-21.04 I-8.196 J6.404
X-1.781 Y-21.368 I-4.066 J4.548
X-8.613 Y-23.65 I-6.832 J9.082
X-15.734 Y-21.142 I0.0 J11.365
X-17.225 Y-19.545 I6.873 J7.907
G01 X-17.24 Y-19.524
G02 X-18.476 Y-20.839 I-8.168 J6.439
X-18.673 Y-21.008 I-4.066 J4.548
G01 Y-21.007
G02 X-18.875 Y-21.167 I-3.267 J3.916
X-25.706 Y-23.449 I-6.831 J9.083
X-32.693 Y-21.048 I0.0 J11.365
X-33.304 Y-20.504 I4.794 J5.993
X-34.373 Y-19.273 I7.24 J7.374
X-35.569 Y-20.538 I-8.128 J6.489
X-35.766 Y-20.706 I-4.066 J4.548
G01 X-35.767
G02 X-35.969 Y-20.866 I-3.267 J3.916
X-42.8 Y-23.148 I-6.831 J9.083
X-49.867 Y-20.683 I0.0 J11.365
X-51.548 Y-18.871 I6.152 J7.396
X-52.663 Y-20.035 I-8.047 J6.591
X-52.861 Y-20.204 I-4.065 J4.548
G01
G02 X-53.062 Y-20.363 I-3.266 J3.917
X-59.893 Y-22.645 I-6.831 J9.083
X-67.179 Y-20.002 I0.0 J11.365
X-68.848 Y-18.11 I6.468 J7.388
X-69.757 Y-19.03 I-7.84 J6.834
X-69.954 Y-19.199 I-4.065 J4.548
G01 X-69.955 Y-19.198
G02 X-70.156 Y-19.358 I-3.266 J3.917
X-76.987 Y-21.639 I-6.831 J9.083
X-84.228 Y-19.033 I0.0 J11.365
X-85.533 Y-17.657 I5.668 J6.681
G01 X-85.801 Y-17.986
G02 X-86.598 Y-18.82 I-7.563 J6.426
X-86.906 Y-19.089 I-4.159 J4.463
X-93.616 Y-21.63 I-7.174 J8.814
X-94.08 Y-21.639 I-.464 J11.355 F2188.
X-98.953 Y-20.542 I0.0 J11.365
X-102.408 Y-18.008 I4.872 J10.267 F1875.
X-102.926 Y-17.382 I5.203 J4.832
X-103.13 Y-17.082 I4.109 J3.021
G01 X-103.144 Y-17.08
G02 X-103.814 Y-16.006 I7.881 J5.658
G01 X-103.822 Y-16.007
G02 X-103.899 Y-16.077 I-3.491 J3.718
X-104.286 Y-16.398 I-4.084 J4.531
X-107.46 Y-18.1 I-6.888 J9.04
X-111.174 Y-18.723 I-3.713 J10.741 F2500.
X-118.453 Y-16.087 I0.0 J11.365
X-119.133 Y-15.425 I4.859 J5.675
X-120.251 Y-14.006 I6.877 J6.574
X-121.036 Y-14.806 I-9.334 J8.368
G01 X-121.046 Y-14.808
G02 X-121.45 Y-15.144 I-3.463 J3.744
X-128.267 Y-17.416 I-6.818 J9.093
X-133.451 Y-16.165 I0.0 J11.365
G01 X-134.135 Y-17.5
X-150.
Y-13.626
X-157.5
Y14.
Y19.5 F2188.
Y25. F1875.
X-152.
X0.0 F2500.
Y30.5
Z-.963
G00 Z-.767
G01 Z-1.16
Z-2.16 F1000.
Y25.
X146.5 F2500.
X152. F2188.
X157.5 F1875.
Y19.5
Y-14. F2500.
Y-19.5 F2188.
Y-25. F1875.
X152.
X136.872 F2500.
Y-17.5
G03 X137.272 Y-17.076 I-8.436 J8.355 F1500.
G01 X137.282 Y-17.064
G03 X137.758 Y-17.43 I5.47 J6.636
X137.858 Y-17.5 I7.47 J10.474
G01 X142.188 Y-20. F2500.
X147.344 F1313.
X152.5 F1125.
Y-17.569
G02 X145.229 Y-19.821 I-7.271 J10.613 F1500.
X142.434 Y-19.514 I0.0 J12.865
X142.188 Y-20. I-4.576 J2.014
G01 X137.858 Y-17.5 F2500.
X136.872
Y-25.
X-122.399
Y-17.5
G03 X-120.55 Y-16.344 I-5.868 J11.449 F1500.
X-120.419 Y-16.244 I-3.959 J5.281
X-120.231 Y-16.447 I8.164 J7.393
X-119.413 Y-17.239 I6.635 J6.033
X-119.089 Y-17.5 I8.239 J9.88
G01 X-114.327 Y-19.92
X-119.089 Y-17.5 F2500.
X-122.399
X-128.267 Y-19.484 F1500.
X-122.399 Y-17.5 F2500.
Y-25.
X-146.5
X-152. F2188.
X-157.5 F1875.
Y-19.5
Y-13.626 F2500.
X-150.
G03 X-145.361 Y-14.492 I4.639 J11.999 F1500.
X-139.011 Y-12.816 I0.0 J12.865
G01 X-138.973 Y-12.883
G03 X-136.526 Y-15.914 I10.342 J5.843
X-136.488 Y-15.947 I.997 J1.121
X-134.135 Y-17.5 I8.22 J9.896
G01 X-133.451 Y-16.165 F2500.
G02 X-135.529 Y-14.793 I5.184 J10.114
X-137.671 Y-12.137 I6.899 J7.754
X-138.429 Y-10.631 I12.271 J7.124
G01 X-138.452 Y-10.647
G02 X-138.643 Y-10.794 I-3.205 J3.967
X-145.361 Y-12.992 I-6.718 J9.167
X-156.726 Y-1.627 I0.0 J11.365
G01 Y12.953
G02 X-145.361 Y24.318 I11.365 J0.0
X-138.76 Y22.204 I0.0 J-11.365
X-138.087 Y21.659 I-4.124 J-5.78
X-136.814 Y20.291 I-7.421 J-8.176
X-135.343 Y21.837 I8.816 J-6.916
X-135.062 Y22.063 I3.197 J-3.683
X-128.267 Y24.318 I6.795 J-9.11
X-121.473 Y22.063 I0.0 J-11.365
X-120.474 Y21.157 I-5.963 J-7.576
X-119.721 Y20.291 I-8.032 J-7.743
X-118.172 Y21.901 I8.699 J-6.817
X-117.97 Y22.062 I2.668 J-3.145
X-111.174 Y24.318 I6.796 J-9.109
X-104.374 Y22.059 I0.0 J-11.365
X-104.138 Y21.87 I-2.642 J-3.538
X-102.626 Y20.292 I-7.365 J-8.569
X-101.103 Y21.883 I8.838 J-6.939
G01 X-100.875 Y22.063
G02 X-94.08 Y24.318 I6.795 J-9.11
X-87.288 Y22.065 I0.0 J-11.365
X-86.906 Y21.75 I-3.048 J-4.089
X-85.534 Y20.291 I-7.399 J-8.33
X-84.07 Y21.831 I8.967 J-7.062
G01 X-83.818 Y22.036
X-83.772 Y22.07
G02 X-76.987 Y24.318 I6.786 J-9.117
X-70.194 Y22.065 I0.0 J-11.365
X-69.812 Y21.749 I-3.048 J-4.089
X-68.44 Y20.291 I-7.453 J-8.382
X-67.06 Y21.757 I8.879 J-6.975
X-66.686 Y22.064 I3.448 J-3.812
X-59.893 Y24.318 I6.793 J-9.112
X-53.101 Y22.065 I0.0 J-11.365
X-52.718 Y21.749 I-3.048 J-4.089
X-51.347 Y20.29 I-7.39 J-8.321
X-49.821 Y21.882 I8.716 J-6.828
X-49.594 Y22.063 I2.856 J-3.344
X-42.8 Y24.318 I6.794 J-9.11
X-36.003 Y22.061 I0.0 J-11.365
X-35.779 Y21.882 I-2.574 J-3.45
X-34.252 Y20.291 I-7.3 J-8.533
X-32.857 Y21.772 I8.864 J-6.96
X-32.495 Y22.067 I3.418 J-3.812
X-25.706 Y24.318 I6.789 J-9.115
X-18.914 Y22.065 I0.0 J-11.365
X-18.529 Y21.748 I-3.048 J-4.089
X-17.161 Y20.291 I-7.399 J-8.326
X-15.65 Y21.869 I8.881 J-6.994
X-15.408 Y22.063 I2.92 J-3.396
X-8.613 Y24.318 I6.795 J-9.11
X-1.82 Y22.065 I0.0 J-11.365
X-1.44 Y21.751 I-3.048 J-4.089
X-.066 Y20.291 I-7.457 J-8.391
X1.118 Y21.577 I8.739 J-6.852
G01 X1.332 Y21.773
G02 X1.693 Y22.068 I3.423 J-3.82
X8.481 Y24.318 I6.787 J-9.116
X15.273 Y22.065 I0.0 J-11.365
X15.656 Y21.749 I-3.048 J-4.089
X17.027 Y20.291 I-7.423 J-8.353
X18.562 Y21.89 I8.712 J-6.828
X18.787 Y22.068 I2.845 J-3.341
X25.574 Y24.318 I6.787 J-9.116
X32.367 Y22.065 I0.0 J-11.365
X32.747 Y21.752 I-3.048 J-4.089
X34.121 Y20.291 I-7.573 J-8.506
X35.539 Y21.791 I8.875 J-6.97
G01 X35.837 Y22.035
X35.875 Y22.064
G02 X42.668 Y24.318 I6.793 J-9.112
X49.46 Y22.065 I0.0 J-11.365
X49.845 Y21.747 I-3.048 J-4.089
X51.212 Y20.294 I-7.389 J-8.315
G01 X51.217 Y20.293
G02 X52.72 Y21.866 I8.738 J-6.851
X52.968 Y22.064 I2.999 J-3.492
X59.761 Y24.318 I6.793 J-9.111
X66.554 Y22.065 I0.0 J-11.365
X66.937 Y21.749 I-3.048 J-4.089
X68.309 Y20.292 I-7.606 J-8.535
X69.727 Y21.792 I8.875 J-6.97
X70.062 Y22.064 I3.37 J-3.799
X76.855 Y24.318 I6.793 J-9.112
X83.648 Y22.064 I0.0 J-11.365
X83.863 Y21.893 I-2.573 J-3.45
X85.401 Y20.291 I-7.111 J-8.365
X86.947 Y21.9 I8.834 J-6.936
G01 X87.155 Y22.064
G02 X93.948 Y24.318 I6.793 J-9.112
X100.741 Y22.065 I0.0 J-11.365
X101.123 Y21.749 I-3.048 J-4.089
X102.495 Y20.291 I-7.506 J-8.436
X103.934 Y21.809 I8.871 J-6.966
X104.256 Y22.07 I3.342 J-3.806
X111.042 Y24.318 I6.786 J-9.117
X117.834 Y22.065 I0.0 J-11.365
X118.215 Y21.751 I-3.048 J-4.089
X119.585 Y20.294 I-7.393 J-8.326
G01 X119.59 Y20.292
G02 X121.073 Y21.848 I8.79 J-6.897
X121.347 Y22.068 I3.161 J-3.656
X128.135 Y24.318 I6.788 J-9.115
X134.928 Y22.065 I0.0 J-11.365
X135.311 Y21.749 I-3.048 J-4.089
X136.682 Y20.29 I-7.411 J-8.34
X138.189 Y21.867 I8.749 J-6.858
X138.441 Y22.068 I3.027 J-3.525
X145.229 Y24.318 I6.788 J-9.115
X152.021 Y22.065 I0.0 J-11.365
X152.406 Y21.747 I-3.048 J-4.089
X155.183 Y17.997 I-7.672 J-8.583
X155.961 Y15.775 I-10.506 J-4.928
X156.132 Y14.442 I-7.004 J-1.575
X156.198 Y12.953 I-18.181 J-1.545
G01 Y-6.956
G02 X156.124 Y-8.56 I-20.427 J.13
G01 X156.119 Y-8.665
G02 X155.907 Y-9.998 I-7.266 J.468
X154.671 Y-12.968 I-10.658 J2.693
X153.242 Y-14.925 I-11.194 J6.676
X152.411 Y-15.75 I-7.712 J6.937
X152.229 Y-15.905 I-4.046 J4.565
G01 X152.228 Y-15.904
G02 X151.997 Y-16.086 I-3.268 J3.916
X145.229 Y-18.321 I-6.769 J9.129
X138.629 Y-16.209 I0.0 J11.365
X137.947 Y-15.655 I4.123 J5.78
X137.128 Y-14.827 I7.338 J8.081
X136.147 Y-16.083 I-10.974 J7.559
X135.419 Y-16.815 I-7.71 J6.939
X134.809 Y-17.312 I-4.779 J5.251
X128.135 Y-19.477 I-6.674 J9.199
X121.341 Y-17.223 I0.0 J11.365
X121.05 Y-16.988 I2.873 J3.852
X120.098 Y-16.058 I7.979 J9.122
X119.525 Y-16.839 I-10.999 J7.469
X118.27 Y-18.177 I-8.182 J6.416
X118.073 Y-18.346 I-4.064 J4.549
G01 X118.072 Y-18.345
G02 X117.872 Y-18.503 I-3.265 J3.918
X111.042 Y-20.785 I-6.83 J9.084
X104.249 Y-18.532 I0.0 J11.365
X103.684 Y-18.041 I3.048 J4.089
G01 X103.675 Y-18.04
G02 X102.83 Y-17.164 I7.237 J7.833
X102.434 Y-17.69 I-13.543 J9.776
X101.178 Y-19.03 I-8.193 J6.42
X100.983 Y-19.197 I-4.065 J4.548
G01 X100.975 Y-19.202
G02 X100.778 Y-19.358 I-3.262 J3.92
X93.948 Y-21.639 I-6.83 J9.084
X87.149 Y-19.381 I0.0 J11.365
X86.851 Y-19.141 I3.054 J4.085
X86.696 Y-19.002 I6.911 J7.929
X86.496 Y-18.81 I3.43 J3.774
X85.677 Y-17.95 I6.655 J7.156
G01 X85.643 Y-17.997
X85.358 Y-18.372
X85.343 Y-18.391
G02 X84.083 Y-19.735 I-8.187 J6.41
X83.685 Y-20.062 I-4.064 J4.549
X76.855 Y-22.343 I-6.83 J9.084
X69.902 Y-19.968 I0.0 J11.365
X69.124 Y-19.245 I6.745 J8.037
X68.523 Y-18.585 I9.9 J9.625
G01 X68.26 Y-18.93
G02 X66.927 Y-20.344 I-8.198 J6.396
X66.652 Y-20.569 I-3.367 J3.83
X59.761 Y-22.896 I-6.891 J9.038
X52.803 Y-20.517 I0.0 J11.365
X51.928 Y-19.693 I6.696 J7.987
G01 X51.855 Y-19.614
X51.41 Y-19.108
X51.373 Y-19.063
X51.162 Y-19.338
G02 X49.896 Y-20.69 I-8.194 J6.401
X49.701 Y-20.858 I-4.064 J4.549
G01 X49.7 Y-20.857
G02 X49.498 Y-21.017 I-3.267 J3.916
X42.668 Y-23.298 I-6.83 J9.084
X35.829 Y-21.011 I0.0 J11.365
X35.547 Y-20.782 I3.069 J4.073
X34.568 Y-19.807 I6.805 J7.806
G01 X34.54 Y-19.774
X34.226 Y-19.395
X34.221 Y-19.392
X34.073 Y-19.584
G02 X32.803 Y-20.942 I-8.198 J6.396
X32.607 Y-21.109 I-4.064 J4.549
G01 Y-21.108
G02 X32.404 Y-21.269 I-3.267 J3.916
X25.574 Y-23.55 I-6.829 J9.084
X18.576 Y-21.139 I0.0 J11.365
X17.338 Y-19.901 I6.666 J7.903
G01 X17.093 Y-19.6
X17.087 Y-19.596
X16.979 Y-19.735
G02 X15.71 Y-21.092 I-8.2 J6.398
X15.311 Y-21.419 I-4.065 J4.549
X8.481 Y-23.701 I-6.83 J9.083
X1.559 Y-21.349 I0.0 J11.365
X1.279 Y-21.118 I3.106 J4.045
X-.085 Y-19.648 I6.904 J7.777
G01 X-.119 Y-19.691
G02 X-1.382 Y-21.04 I-8.196 J6.404
X-1.781 Y-21.368 I-4.066 J4.548
X-8.613 Y-23.65 I-6.832 J9.082
X-15.734 Y-21.142 I0.0 J11.365
X-17.225 Y-19.545 I6.873 J7.907
G01 X-17.24 Y-19.524
G02 X-18.476 Y-20.839 I-8.168 J6.439
X-18.673 Y-21.008 I-4.066 J4.548
G01 Y-21.007
G02 X-18.876 Y-21.167 I-3.267 J3.916
X-25.706 Y-23.449 I-6.831 J9.083
X-32.693 Y-21.048 I0.0 J11.365
X-33.304 Y-20.504 I4.793 J5.992
X-34.373 Y-19.273 I7.241 J7.375
X-35.569 Y-20.538 I-8.128 J6.489
X-35.766 Y-20.706 I-4.066 J4.548
G01 X-35.767
G02 X-35.969 Y-20.866 I-3.267 J3.916
X-42.8 Y-23.148 I-6.831 J9.083
X-49.867 Y-20.683 I0.0 J11.365
X-51.549 Y-18.871 I6.149 J7.393
X-52.663 Y-20.035 I-8.047 J6.591
X-52.861 Y-20.204 I-4.065 J4.548
G01
G02 X-53.063 Y-20.363 I-3.266 J3.917
X-59.893 Y-22.645 I-6.83 J9.083
X-67.179 Y-20.002 I0.0 J11.365
X-68.848 Y-18.11 I6.468 J7.387
X-69.757 Y-19.03 I-7.84 J6.834
X-69.954 Y-19.199 I-4.065 J4.548
G01 X-69.955 Y-19.198
G02 X-70.156 Y-19.358 I-3.266 J3.917
X-76.987 Y-21.639 I-6.83 J9.083
X-84.228 Y-19.033 I0.0 J11.365
X-85.533 Y-17.657 I5.667 J6.679
G01 X-85.801 Y-17.986
G02 X-86.598 Y-18.82 I-7.563 J6.426
X-86.906 Y-19.089 I-4.159 J4.463
X-93.616 Y-21.63 I-7.174 J8.814
X-94.08 Y-21.639 I-.464 J11.355 F2188.
X-98.953 Y-20.542 I0.0 J11.365
X-102.408 Y-18.008 I4.873 J10.267 F1875.
X-102.926 Y-17.382 I5.203 J4.832
X-103.13 Y-17.082 I4.109 J3.021
G01 X-103.144 Y-17.08
G02 X-103.814 Y-16.006 I7.885 J5.661
G01 X-103.822 Y-16.007
G02 X-103.899 Y-16.077 I-3.491 J3.718
X-104.286 Y-16.398 I-4.084 J4.531
X-107.46 Y-18.1 I-6.888 J9.04
X-111.174 Y-18.723 I-3.713 J10.741 F2500.
X-118.453 Y-16.087 I0.0 J11.365
X-119.133 Y-15.425 I4.857 J5.673
X-120.251 Y-14.006 I6.878 J6.574
X-121.036 Y-14.806 I-9.33 J8.365
G01 X-121.046 Y-14.808
G02 X-121.45 Y-15.144 I-3.463 J3.744
X-128.267 Y-17.416 I-6.818 J9.093
X-133.451 Y-16.165 I0.0 J11.365
G01 X-134.135 Y-17.5
X-150.
Y-13.626
X-157.5
Y14.
Y19.5 F2188.
Y25. F1875.
X-152.
X0.0 F2500.
Y30.5
Z-1.16
G00 Z-.963
G01 Z-1.356
Z-2.356 F1000.
Y25.
X146.5 F2500.
X152. F2188.
X157.5 F1875.
Y19.5
Y-14. F2500.
Y-19.5 F2188.
Y-25. F1875.
X152.
X136.872 F2500.
Y-17.5
G03 X137.272 Y-17.076 I-8.436 J8.355 F1500.
G01 X137.282 Y-17.064
G03 X137.758 Y-17.43 I5.47 J6.636
X137.858 Y-17.5 I7.47 J10.474
G01 X142.188 Y-20. F2500.
X147.344 F1313.
X152.5 F1125.
Y-17.569
G02 X145.229 Y-19.821 I-7.271 J10.613 F1500.
X142.434 Y-19.514 I0.0 J12.865
X142.188 Y-20. I-4.576 J2.014
G01 X137.858 Y-17.5 F2500.
X136.872
Y-25.
X-122.399
Y-17.5
G03 X-120.55 Y-16.344 I-5.868 J11.449 F1500.
X-120.419 Y-16.244 I-3.959 J5.281
X-120.231 Y-16.447 I8.164 J7.394
X-119.413 Y-17.239 I6.633 J6.031
X-119.089 Y-17.5 I8.239 J9.88
G01 X-114.327 Y-19.92
X-119.089 Y-17.5 F2500.
X-122.399
X-128.267 Y-19.484 F1500.
X-122.399 Y-17.5 F2500.
Y-25.
X-146.5
X-152. F2188.
X-157.5 F1875.
Y-19.5
Y-13.626 F2500.
X-150.
G03 X-145.361 Y-14.492 I4.639 J11.999 F1500.
X-139.011 Y-12.816 I0.0 J12.865
G01 X-138.973 Y-12.883
G03 X-136.526 Y-15.914 I10.342 J5.843
X-136.488 Y-15.947 I.997 J1.121
X-134.135 Y-17.5 I8.22 J9.896
G01 X-133.451 Y-16.165 F2500.
G02 X-135.529 Y-14.793 I5.184 J10.114
X-137.671 Y-12.137 I6.899 J7.754
X-138.429 Y-10.631 I12.141 J7.058
G01 X-138.452 Y-10.647
G02 X-138.643 Y-10.794 I-3.205 J3.967
X-145.361 Y-12.992 I-6.718 J9.167
X-156.726 Y-1.627 I0.0 J11.365
G01 Y12.953
G02 X-145.361 Y24.318 I11.365 J0.0
X-138.76 Y22.204 I0.0 J-11.365
X-138.087 Y21.659 I-4.124 J-5.78
X-136.814 Y20.291 I-7.419 J-8.175
X-135.343 Y21.837 I8.815 J-6.916
X-135.062 Y22.063 I3.196 J-3.682
X-128.267 Y24.318 I6.795 J-9.11
X-121.473 Y22.063 I0.0 J-11.365
X-120.474 Y21.157 I-5.961 J-7.573
X-119.721 Y20.291 I-8.032 J-7.744
X-118.173 Y21.9 I8.701 J-6.818
X-117.97 Y22.061 I2.67 J-3.146
X-111.174 Y24.318 I6.797 J-9.109
X-104.373 Y22.059 I0.0 J-11.365
X-104.138 Y21.87 I-2.633 J-3.526
X-102.626 Y20.292 I-7.364 J-8.569
X-101.103 Y21.883 I8.838 J-6.94
G01 X-100.875 Y22.063
G02 X-94.08 Y24.318 I6.795 J-9.11
X-87.288 Y22.065 I0.0 J-11.365
X-86.906 Y21.75 I-3.048 J-4.089
X-85.534 Y20.291 I-7.398 J-8.329
X-84.07 Y21.831 I8.966 J-7.062
G01 X-83.818 Y22.036
X-83.772 Y22.07
G02 X-76.987 Y24.318 I6.786 J-9.117
X-70.194 Y22.065 I0.0 J-11.365
X-69.812 Y21.749 I-3.048 J-4.089
X-68.44 Y20.291 I-7.452 J-8.381
X-67.06 Y21.757 I8.878 J-6.975
X-66.686 Y22.064 I3.447 J-3.811
X-59.893 Y24.318 I6.793 J-9.112
X-53.101 Y22.065 I0.0 J-11.365
X-52.718 Y21.749 I-3.048 J-4.089
X-51.347 Y20.29 I-7.39 J-8.32
X-49.821 Y21.882 I8.717 J-6.829
X-49.594 Y22.063 I2.858 J-3.346
X-42.8 Y24.318 I6.795 J-9.11
X-36.002 Y22.061 I0.0 J-11.365
X-35.78 Y21.883 I-2.567 J-3.44
X-34.252 Y20.291 I-7.299 J-8.533
X-32.857 Y21.772 I8.864 J-6.96
X-32.495 Y22.067 I3.418 J-3.812
X-25.706 Y24.318 I6.789 J-9.115
X-18.914 Y22.065 I0.0 J-11.365
X-18.529 Y21.748 I-3.048 J-4.089
X-17.161 Y20.291 I-7.399 J-8.325
X-15.651 Y21.868 I8.881 J-6.995
X-15.408 Y22.062 I2.923 J-3.399
X-8.613 Y24.318 I6.795 J-9.11
X-1.82 Y22.065 I0.0 J-11.365
X-1.44 Y21.751 I-3.048 J-4.089
X-.066 Y20.291 I-7.456 J-8.39
X1.118 Y21.577 I8.741 J-6.854
G01 X1.332 Y21.773
G02 X1.693 Y22.068 I3.421 J-3.818
X8.481 Y24.318 I6.787 J-9.116
X15.273 Y22.065 I0.0 J-11.365
X15.656 Y21.749 I-3.048 J-4.089
X17.027 Y20.291 I-7.423 J-8.353
X18.562 Y21.889 I8.713 J-6.829
X18.787 Y22.068 I2.848 J-3.343
X25.574 Y24.318 I6.788 J-9.115
X32.367 Y22.065 I0.0 J-11.365
X32.747 Y21.752 I-3.048 J-4.089
X34.121 Y20.291 I-7.568 J-8.501
X35.539 Y21.791 I8.866 J-6.961
G01 X35.837 Y22.035
X35.875 Y22.064
G02 X42.668 Y24.318 I6.793 J-9.112
X49.46 Y22.065 I0.0 J-11.365
X49.845 Y21.747 I-3.048 J-4.089
X51.212 Y20.294 I-7.389 J-8.315
G01 X51.217 Y20.293
G02 X52.721 Y21.866 I8.737 J-6.85
X52.968 Y22.064 I2.995 J-3.488
X59.761 Y24.318 I6.794 J-9.111
X66.554 Y22.065 I0.0 J-11.365
X66.937 Y21.749 I-3.048 J-4.089
X68.309 Y20.292 I-7.605 J-8.534
X69.727 Y21.792 I8.875 J-6.97
X70.062 Y22.064 I3.364 J-3.792
X76.855 Y24.318 I6.793 J-9.112
X83.649 Y22.063 I0.0 J-11.365
X83.864 Y21.892 I-2.572 J-3.449
X85.401 Y20.291 I-7.115 J-8.367
X86.947 Y21.9 I8.833 J-6.936
G01 X87.155 Y22.064
G02 X93.948 Y24.318 I6.793 J-9.112
X100.741 Y22.065 I0.0 J-11.365
X101.123 Y21.749 I-3.048 J-4.089
X102.495 Y20.291 I-7.504 J-8.435
X103.934 Y21.809 I8.871 J-6.965
X104.256 Y22.07 I3.341 J-3.805
X111.042 Y24.318 I6.786 J-9.117
X117.834 Y22.065 I0.0 J-11.365
X118.215 Y21.751 I-3.048 J-4.089
X119.585 Y20.295 I-7.392 J-8.326
G01 X119.59 Y20.292
G02 X121.07 Y21.845 I8.791 J-6.898
X121.35 Y22.07 I3.201 J-3.7
X128.135 Y24.318 I6.785 J-9.117
X134.928 Y22.065 I0.0 J-11.365
X135.311 Y21.749 I-3.048 J-4.089
X136.682 Y20.29 I-7.41 J-8.339
X138.186 Y21.864 I8.75 J-6.859
X138.443 Y22.07 I3.062 J-3.564
X145.229 Y24.318 I6.786 J-9.117
X152.021 Y22.065 I0.0 J-11.365
X152.406 Y21.747 I-3.048 J-4.089
X155.118 Y18.134 I-7.677 J-8.589
G01 X155.183 Y17.997
G02 X156.298 Y12.975 I-10.753 J-5.022
G01 Y12.952
Y-6.949
X156.295 Y-6.956
X156.296 Y-7.088
G02 X156.057 Y-9.316 I-14.574 J.432
X154.72 Y-12.886 I-10.805 J2.011
X153.242 Y-14.925 I-11.233 J6.588
X152.411 Y-15.75 I-7.712 J6.937
X152.229 Y-15.905 I-4.046 J4.565
G01 X152.228 Y-15.904
G02 X151.997 Y-16.086 I-3.268 J3.916
X145.229 Y-18.321 I-6.769 J9.129
X138.629 Y-16.209 I0.0 J11.365
X137.947 Y-15.655 I4.123 J5.78
X137.128 Y-14.827 I7.333 J8.077
X136.147 Y-16.083 I-10.97 J7.556
X135.419 Y-16.815 I-7.71 J6.939
X134.809 Y-17.312 I-4.779 J5.251
X128.135 Y-19.477 I-6.674 J9.199
X121.341 Y-17.223 I0.0 J11.365
X121.05 Y-16.988 I2.872 J3.851
X120.098 Y-16.058 I7.981 J9.124
X119.525 Y-16.839 I-11.005 J7.474
X118.27 Y-18.177 I-8.182 J6.416
X118.073 Y-18.346 I-4.064 J4.549
G01 X118.072 Y-18.345
G02 X117.872 Y-18.503 I-3.265 J3.918
X111.042 Y-20.785 I-6.83 J9.084
X104.249 Y-18.532 I0.0 J11.365
X103.684 Y-18.041 I3.048 J4.089
G01 X103.675 Y-18.04
G02 X102.83 Y-17.164 I7.236 J7.832
X102.434 Y-17.69 I-13.494 J9.74
X101.178 Y-19.03 I-8.193 J6.42
X100.983 Y-19.197 I-4.065 J4.548
G01 X100.975 Y-19.202
G02 X100.777 Y-19.359 I-3.262 J3.92
X93.948 Y-21.639 I-6.829 J9.084
X87.149 Y-19.381 I0.0 J11.365
X86.851 Y-19.141 I3.054 J4.085
X86.696 Y-19.002 I6.911 J7.929
X86.496 Y-18.81 I3.43 J3.774
X85.677 Y-17.95 I6.653 J7.154
G01 X85.643 Y-17.997
X85.358 Y-18.372
X85.343 Y-18.391
G02 X84.083 Y-19.735 I-8.187 J6.41
X83.685 Y-20.062 I-4.064 J4.549
X76.855 Y-22.343 I-6.83 J9.084
X69.902 Y-19.968 I0.0 J11.365
X69.125 Y-19.246 I6.745 J8.037
X68.523 Y-18.585 I9.897 J9.624
G01 X68.26 Y-18.93
G02 X66.927 Y-20.344 I-8.198 J6.396
X66.652 Y-20.569 I-3.367 J3.83
X59.761 Y-22.896 I-6.891 J9.038
X52.803 Y-20.517 I0.0 J11.365
X51.928 Y-19.693 I6.696 J7.987
G01 X51.855 Y-19.614
X51.41 Y-19.108
X51.373 Y-19.063
X51.162 Y-19.338
G02 X49.896 Y-20.69 I-8.194 J6.401
X49.701 Y-20.858 I-4.064 J4.549
G01 X49.7 Y-20.857
G02 X49.498 Y-21.017 I-3.267 J3.916
X42.668 Y-23.298 I-6.83 J9.084
X35.829 Y-21.011 I0.0 J11.365
X35.547 Y-20.782 I3.069 J4.073
X34.568 Y-19.806 I6.805 J7.806
G01 X34.54 Y-19.774
X34.226 Y-19.395
X34.221 Y-19.392
X34.073 Y-19.584
G02 X32.803 Y-20.942 I-8.198 J6.396
X32.607 Y-21.109 I-4.064 J4.549
G01 Y-21.108
G02 X32.403 Y-21.269 I-3.267 J3.916
X25.574 Y-23.55 I-6.829 J9.084
X18.576 Y-21.139 I0.0 J11.365
X17.338 Y-19.901 I6.666 J7.903
G01 X17.093 Y-19.6
X17.087 Y-19.596
X16.979 Y-19.735
G02 X15.71 Y-21.092 I-8.2 J6.398
X15.311 Y-21.419 I-4.065 J4.549
X8.481 Y-23.701 I-6.83 J9.083
X1.559 Y-21.349 I0.0 J11.365
X1.279 Y-21.118 I3.106 J4.045
X-.085 Y-19.649 I6.904 J7.777
G01 X-.119 Y-19.691
G02 X-1.382 Y-21.04 I-8.196 J6.404
X-1.781 Y-21.368 I-4.066 J4.548
X-8.613 Y-23.65 I-6.832 J9.082
X-15.734 Y-21.142 I0.0 J11.365
X-17.225 Y-19.545 I6.873 J7.907
G01 X-17.24 Y-19.524
G02 X-18.476 Y-20.839 I-8.168 J6.439
X-18.673 Y-21.008 I-4.066 J4.548
G01 Y-21.007
G02 X-18.876 Y-21.168 I-3.267 J3.916
X-25.706 Y-23.449 I-6.83 J9.083
X-32.693 Y-21.048 I0.0 J11.365
X-33.304 Y-20.504 I4.792 J5.991
X-34.373 Y-19.273 I7.242 J7.376
X-35.569 Y-20.538 I-8.128 J6.489
X-35.766 Y-20.706 I-4.066 J4.548
G01 X-35.767
G02 X-35.969 Y-20.866 I-3.267 J3.916
X-42.8 Y-23.148 I-6.83 J9.084
X-49.868 Y-20.682 I0.0 J11.365
X-51.549 Y-18.871 I6.146 J7.39
X-52.663 Y-20.035 I-8.047 J6.591
X-52.861 Y-20.204 I-4.065 J4.548
G01
G02 X-53.063 Y-20.363 I-3.266 J3.917
X-59.893 Y-22.645 I-6.83 J9.084
X-67.179 Y-20.002 I0.0 J11.365
X-68.848 Y-18.11 I6.468 J7.387
X-69.757 Y-19.03 I-7.84 J6.834
X-69.954 Y-19.199 I-4.065 J4.548
G01 X-69.955 Y-19.198
G02 X-70.157 Y-19.358 I-3.266 J3.917
X-76.987 Y-21.639 I-6.83 J9.084
X-84.228 Y-19.033 I0.0 J11.365
X-85.533 Y-17.657 I5.665 J6.678
G01 X-85.801 Y-17.986
G02 X-86.598 Y-18.82 I-7.563 J6.426
X-86.906 Y-19.089 I-4.159 J4.463
X-93.616 Y-21.63 I-7.174 J8.814
X-94.08 Y-21.639 I-.464 J11.355 F2188.
X-98.953 Y-20.542 I0.0 J11.365
X-102.408 Y-18.008 I4.873 J10.267 F1875.
X-102.926 Y-17.382 I5.203 J4.832
X-103.13 Y-17.082 I4.109 J3.021
G01 X-103.144 Y-17.08
G02 X-103.814 Y-16.006 I7.89 J5.664
G01 X-103.822 Y-16.007
G02 X-103.899 Y-16.077 I-3.491 J3.718
X-104.286 Y-16.398 I-4.084 J4.531
X-107.46 Y-18.1 I-6.888 J9.04
X-111.174 Y-18.723 I-3.713 J10.741 F2500.
X-118.453 Y-16.087 I0.0 J11.365
X-119.133 Y-15.425 I4.855 J5.67
X-120.251 Y-14.006 I6.878 J6.574
X-121.036 Y-14.806 I-9.327 J8.361
G01 X-121.046 Y-14.808
G02 X-121.45 Y-15.144 I-3.463 J3.744
X-128.267 Y-17.416 I-6.818 J9.093
X-133.451 Y-16.165 I0.0 J11.365
G01 X-134.135 Y-17.5
X-150.
Y-13.626
X-157.5
Y14.
Y19.5 F2188.
Y25. F1875.
X-152.
X0.0 F2500.
Y30.5
Z-1.356
G00 Z-1.16
G01 Z-1.552
Z-2.552 F1000.
Y25.
X146.5 F2500.
X152. F2188.
X157.5 F1875.
Y19.5
Y-14. F2500.
Y-19.5 F2188.
Y-25. F1875.
X152.
X136.872 F2500.
Y-17.5
G03 X137.271 Y-17.076 I-8.436 J8.355 F1500.
G01 X137.282 Y-17.064
G03 X137.758 Y-17.43 I5.47 J6.636
X137.858 Y-17.5 I7.47 J10.474
G01 X142.188 Y-20. F2500.
X147.344 F1313.
X152.5 F1125.
Y-17.569
G02 X145.229 Y-19.821 I-7.271 J10.613 F1500.
X142.434 Y-19.514 I0.0 J12.865
X142.188 Y-20. I-4.576 J2.014
G01 X137.858 Y-17.5 F2500.
X136.872
Y-25.
X-122.399
Y-17.5
G03 X-120.55 Y-16.344 I-5.868 J11.449 F1500.
X-120.419 Y-16.244 I-3.959 J5.281
X-120.231 Y-16.447 I8.165 J7.394
X-119.413 Y-17.239 I6.63 J6.029
X-119.089 Y-17.5 I8.239 J9.88
G01 X-114.327 Y-19.92
X-119.089 Y-17.5 F2500.
X-122.399
X-128.267 Y-19.484 F1500.
X-122.399 Y-17.5 F2500.
Y-25.
X-146.5
X-152. F2188.
X-157.5 F1875.
Y-19.5
Y-13.626 F2500.
X-150.
G03 X-145.361 Y-14.492 I4.639 J11.999 F1500.
X-139.011 Y-12.816 I0.0 J12.865
G01 X-138.972 Y-12.883
G03 X-136.526 Y-15.914 I10.342 J5.844
X-136.488 Y-15.947 I.997 J1.121
X-134.135 Y-17.5 I8.22 J9.896
G01 X-133.451 Y-16.165 F2500.
G02 X-135.529 Y-14.793 I5.184 J10.114
X-137.671 Y-12.137 I6.899 J7.754
X-138.429 Y-10.631 I12.014 J6.994
G01 X-138.452 Y-10.647
G02 X-138.643 Y-10.794 I-3.205 J3.967
X-145.361 Y-12.992 I-6.718 J9.167
X-156.726 Y-1.627 I0.0 J11.365
G01 Y12.953
G02 X-145.361 Y24.318 I11.365 J0.0
X-138.76 Y22.204 I0.0 J-11.365
X-138.087 Y21.659 I-4.124 J-5.78
X-136.814 Y20.291 I-7.417 J-8.173
X-135.343 Y21.837 I8.815 J-6.915
X-135.062 Y22.063 I3.194 J-3.681
X-128.267 Y24.318 I6.795 J-9.11
X-121.473 Y22.063 I0.0 J-11.365
X-120.474 Y21.157 I-5.958 J-7.57
X-119.721 Y20.291 I-8.03 J-7.742
X-118.173 Y21.9 I8.702 J-6.82
X-117.971 Y22.061 I2.671 J-3.147
X-111.174 Y24.318 I6.797 J-9.108
X-104.373 Y22.059 I0.0 J-11.365
X-104.138 Y21.87 I-2.632 J-3.524
X-102.626 Y20.292 I-7.364 J-8.569
X-101.103 Y21.883 I8.838 J-6.94
G01 X-100.875 Y22.063
G02 X-94.08 Y24.318 I6.795 J-9.11
X-87.288 Y22.065 I0.0 J-11.365
X-86.906 Y21.75 I-3.048 J-4.089
X-85.534 Y20.291 I-7.397 J-8.329
X-84.07 Y21.831 I8.966 J-7.061
G01 X-83.818 Y22.036
X-83.772 Y22.07
G02 X-76.987 Y24.318 I6.786 J-9.117
X-70.194 Y22.065 I0.0 J-11.365
X-69.812 Y21.749 I-3.048 J-4.089
X-68.44 Y20.291 I-7.45 J-8.38
X-67.06 Y21.757 I8.877 J-6.974
X-66.686 Y22.064 I3.446 J-3.81
X-59.893 Y24.318 I6.793 J-9.112
X-53.101 Y22.065 I0.0 J-11.365
X-52.718 Y21.749 I-3.048 J-4.089
X-51.347 Y20.29 I-7.389 J-8.32
X-49.822 Y21.881 I8.717 J-6.829
X-49.595 Y22.063 I2.859 J-3.347
X-42.8 Y24.318 I6.795 J-9.11
X-36.004 Y22.062 I0.0 J-11.365
X-35.778 Y21.882 I-2.587 J-3.468
X-34.252 Y20.291 I-7.3 J-8.532
X-32.857 Y21.772 I8.863 J-6.96
X-32.495 Y22.067 I3.418 J-3.812
X-25.706 Y24.318 I6.789 J-9.115
X-18.914 Y22.065 I0.0 J-11.365
X-18.529 Y21.748 I-3.048 J-4.089
X-17.161 Y20.291 I-7.398 J-8.325
X-15.651 Y21.868 I8.882 J-6.996
X-15.408 Y22.062 I2.927 J-3.403
X-8.613 Y24.318 I6.795 J-9.11
X-1.82 Y22.065 I0.0 J-11.365
X-1.44 Y21.751 I-3.048 J-4.089
X-.066 Y20.291 I-7.455 J-8.389
X1.118 Y21.577 I8.742 J-6.855
G01 X1.332 Y21.773
G02 X1.693 Y22.068 I3.42 J-3.817
X8.481 Y24.318 I6.787 J-9.116
X15.273 Y22.065 I0.0 J-11.365
X15.656 Y21.749 I-3.048 J-4.089
X17.027 Y20.291 I-7.422 J-8.353
X18.561 Y21.888 I8.714 J-6.831
X18.786 Y22.068 I2.851 J-3.346
X25.574 Y24.318 I6.788 J-9.115
X32.367 Y22.065 I0.0 J-11.365
X32.747 Y21.752 I-3.048 J-4.089
X34.121 Y20.291 I-7.566 J-8.5
X35.539 Y21.791 I8.866 J-6.961
G01 X35.837 Y22.035
X35.875 Y22.064
G02 X42.668 Y24.318 I6.793 J-9.112
X49.46 Y22.065 I0.0 J-11.365
X49.845 Y21.747 I-3.048 J-4.089
X51.212 Y20.294 I-7.388 J-8.314
G01 X51.217 Y20.293
G02 X52.721 Y21.866 I8.737 J-6.85
X52.967 Y22.063 I2.992 J-3.484
X59.761 Y24.318 I6.794 J-9.111
X66.554 Y22.065 I0.0 J-11.365
X66.937 Y21.749 I-3.048 J-4.089
X68.309 Y20.292 I-7.603 J-8.533
X69.854 Y21.899 I8.682 J-6.801
X70.062 Y22.064 I2.722 J-3.207
X76.855 Y24.318 I6.793 J-9.112
X83.65 Y22.063 I0.0 J-11.365
X83.865 Y21.891 I-2.571 J-3.447
X85.401 Y20.291 I-7.118 J-8.369
X86.947 Y21.9 I8.832 J-6.935
G01 X87.155 Y22.064
G02 X93.948 Y24.318 I6.793 J-9.112
X100.741 Y22.065 I0.0 J-11.365
X101.123 Y21.749 I-3.048 J-4.089
X102.495 Y20.291 I-7.503 J-8.434
X103.934 Y21.809 I8.871 J-6.965
X104.256 Y22.07 I3.34 J-3.804
X111.042 Y24.318 I6.786 J-9.117
X117.834 Y22.065 I0.0 J-11.365
X118.215 Y21.751 I-3.048 J-4.089
X119.585 Y20.295 I-7.391 J-8.325
G01 X119.59 Y20.292
G02 X121.069 Y21.845 I8.791 J-6.898
X121.35 Y22.07 I3.203 J-3.702
X128.135 Y24.318 I6.786 J-9.117
X134.928 Y22.065 I0.0 J-11.365
X135.311 Y21.749 I-3.048 J-4.089
X136.682 Y20.29 I-7.408 J-8.337
X138.186 Y21.864 I8.752 J-6.86
X138.443 Y22.07 I3.067 J-3.569
X145.229 Y24.318 I6.786 J-9.117
X151.164 Y22.645 I0.0 J-11.365
X152.021 Y22.065 I-5.936 J-9.692 F2188.
X152.406 Y21.747 I-3.048 J-4.089
X154.854 Y18.652 I-7.681 J-8.591
X155.118 Y18.134 I-10.129 J-5.496 F1875.
G01 X155.183 Y17.997
G02 X156.291 Y13.393 I-10.767 J-5.026
G01 X156.281 Y13.386
G02 X156.3 Y12.952 I-5.082 J-.434
G01 Y7.898
Y-6.955 F2500.
G02 X156.057 Y-9.316 I-14.709 J.319
X154.72 Y-12.886 I-10.805 J2.011
X153.242 Y-14.925 I-11.233 J6.587
X152.411 Y-15.75 I-7.712 J6.937
X152.229 Y-15.905 I-4.046 J4.565
G01 X152.228 Y-15.904
G02 X151.997 Y-16.086 I-3.268 J3.916
X145.229 Y-18.321 I-6.769 J9.129
X138.629 Y-16.209 I0.0 J11.365
X137.947 Y-15.655 I4.123 J5.78
X137.128 Y-14.827 I7.328 J8.073
X136.147 Y-16.083 I-10.967 J7.553
X135.419 Y-16.815 I-7.71 J6.939
X134.809 Y-17.312 I-4.779 J5.251
X128.135 Y-19.477 I-6.674 J9.199
X121.341 Y-17.223 I0.0 J11.365
X121.05 Y-16.988 I2.871 J3.849
X120.098 Y-16.058 I7.983 J9.126
X119.525 Y-16.839 I-10.983 J7.458
X118.27 Y-18.177 I-8.182 J6.416
X118.073 Y-18.346 I-4.064 J4.549
G01 X118.072 Y-18.345
G02 X117.872 Y-18.503 I-3.265 J3.918
X111.042 Y-20.785 I-6.83 J9.084
X104.249 Y-18.532 I0.0 J11.365
X103.684 Y-18.041 I3.048 J4.089
G01 X103.675 Y-18.04
G02 X102.83 Y-17.164 I7.234 J7.83
X102.434 Y-17.69 I-13.446 J9.704
X101.178 Y-19.03 I-8.193 J6.42
X100.983 Y-19.197 I-4.065 J4.548
G01 X100.975 Y-19.202
G02 X100.777 Y-19.359 I-3.262 J3.92
X93.948 Y-21.639 I-6.829 J9.085
X87.149 Y-19.381 I0.0 J11.365
X86.851 Y-19.141 I3.054 J4.085
X86.696 Y-19.002 I6.911 J7.929
X86.496 Y-18.81 I3.43 J3.774
X85.677 Y-17.95 I6.651 J7.152
G01 X85.643 Y-17.997
X85.358 Y-18.372
X85.343 Y-18.391
G02 X84.083 Y-19.735 I-8.187 J6.41
X83.685 Y-20.062 I-4.064 J4.549
X76.855 Y-22.343 I-6.83 J9.084
X69.902 Y-19.968 I0.0 J11.365
X69.125 Y-19.246 I6.745 J8.037
X68.523 Y-18.586 I9.895 J9.624
G01 X68.26 Y-18.93
G02 X66.927 Y-20.344 I-8.198 J6.396
X66.652 Y-20.569 I-3.367 J3.83
X59.761 Y-22.896 I-6.891 J9.038
X52.803 Y-20.517 I0.0 J11.365
X51.928 Y-19.693 I6.696 J7.987
G01 X51.855 Y-19.614
X51.41 Y-19.108
X51.373 Y-19.063
X51.162 Y-19.338
G02 X49.896 Y-20.69 I-8.194 J6.401
X49.701 Y-20.858 I-4.064 J4.549
G01 X49.7 Y-20.857
G02 X49.498 Y-21.017 I-3.267 J3.916
X42.668 Y-23.298 I-6.83 J9.084
X35.829 Y-21.011 I0.0 J11.365
X35.547 Y-20.782 I3.069 J4.073
X34.568 Y-19.806 I6.805 J7.806
G01 X34.54 Y-19.774
X34.226 Y-19.395
X34.221 Y-19.392
X34.073 Y-19.584
G02 X32.803 Y-20.942 I-8.198 J6.396
X32.607 Y-21.109 I-4.064 J4.549
G01 Y-21.108
G02 X32.403 Y-21.269 I-3.267 J3.916
X25.574 Y-23.55 I-6.829 J9.085
X18.576 Y-21.139 I0.0 J11.365
X17.338 Y-19.901 I6.666 J7.903
G01 X17.093 Y-19.6
X17.087 Y-19.596
X16.979 Y-19.735
G02 X15.71 Y-21.092 I-8.2 J6.398
X15.311 Y-21.419 I-4.065 J4.549
X8.481 Y-23.701 I-6.83 J9.083
X1.559 Y-21.349 I0.0 J11.365
X1.279 Y-21.118 I3.106 J4.045
X-.085 Y-19.649 I6.904 J7.777
G01 X-.119 Y-19.691
G02 X-1.382 Y-21.04 I-8.196 J6.404
X-1.781 Y-21.368 I-4.066 J4.548
X-8.613 Y-23.65 I-6.832 J9.082
X-15.734 Y-21.142 I0.0 J11.365
X-17.225 Y-19.545 I6.873 J7.907
G01 X-17.24 Y-19.524
G02 X-18.476 Y-20.839 I-8.168 J6.439
X-18.673 Y-21.008 I-4.066 J4.548
G01 Y-21.007
G02 X-18.876 Y-21.168 I-3.267 J3.916
X-25.706 Y-23.449 I-6.83 J9.084
X-32.693 Y-21.048 I0.0 J11.365
X-33.304 Y-20.504 I4.791 J5.99
X-34.373 Y-19.273 I7.243 J7.377
X-35.569 Y-20.538 I-8.128 J6.489
X-35.766 Y-20.706 I-4.066 J4.548
G01 X-35.767
G02 X-35.97 Y-20.866 I-3.267 J3.916
X-42.8 Y-23.148 I-6.83 J9.084
X-49.868 Y-20.682 I0.0 J11.365
X-51.549 Y-18.871 I6.143 J7.387
X-52.663 Y-20.035 I-8.047 J6.591
X-52.861 Y-20.204 I-4.065 J4.548
G01
G02 X-53.063 Y-20.364 I-3.266 J3.917
X-59.893 Y-22.645 I-6.83 J9.084
X-67.179 Y-20.002 I0.0 J11.365
X-68.848 Y-18.11 I6.467 J7.386
X-69.757 Y-19.03 I-7.84 J6.834
X-69.954 Y-19.199 I-4.065 J4.548
G01 X-69.955 Y-19.198
G02 X-70.157 Y-19.358 I-3.266 J3.917
X-76.987 Y-21.639 I-6.83 J9.084
X-84.228 Y-19.033 I0.0 J11.365
X-85.533 Y-17.657 I5.664 J6.677
G01 X-85.801 Y-17.986
G02 X-86.598 Y-18.82 I-7.563 J6.426
X-86.906 Y-19.089 I-4.159 J4.463
X-93.616 Y-21.63 I-7.174 J8.814
X-94.08 Y-21.639 I-.464 J11.355 F2188.
X-98.953 Y-20.542 I0.0 J11.365
X-102.408 Y-18.008 I4.873 J10.267 F1875.
X-102.926 Y-17.382 I5.203 J4.832
X-103.13 Y-17.082 I4.109 J3.021
G01 X-103.144 Y-17.08
G02 X-103.814 Y-16.006 I7.894 J5.667
G01 X-103.822 Y-16.007
G02 X-103.899 Y-16.077 I-3.491 J3.718
X-104.286 Y-16.398 I-4.084 J4.531
X-107.46 Y-18.1 I-6.888 J9.04
X-111.174 Y-18.723 I-3.713 J10.741 F2500.
X-118.453 Y-16.087 I0.0 J11.365
X-119.133 Y-15.425 I4.852 J5.668
X-120.251 Y-14.006 I6.878 J6.575
X-121.036 Y-14.806 I-9.323 J8.358
G01 X-121.046 Y-14.808
G02 X-121.45 Y-15.144 I-3.463 J3.744
X-128.267 Y-17.416 I-6.818 J9.093
X-133.451 Y-16.165 I0.0 J11.365
G01 X-134.135 Y-17.5
X-150.
Y-13.626
X-157.5
Y14.
Y19.5 F2188.
Y25. F1875.
X-152.
X0.0 F2500.
Y30.5
Z-1.552
G00 Z-1.356
G01 Z-1.749
Z-2.749 F1000.
Y25.
X146.5 F2500.
X152. F2188.
X157.5 F1875.
Y19.5
Y-14. F2500.
Y-19.5 F2188.
Y-25. F1875.
X152.
X136.872 F2500.
Y-17.5
G03 X137.271 Y-17.076 I-8.436 J8.355 F1500.
G01 X137.282 Y-17.064
G03 X137.758 Y-17.43 I5.47 J6.636
X137.858 Y-17.5 I7.47 J10.474
G01 X142.188 Y-20. F2500.
X147.344 F1313.
X152.5 F1125.
Y-17.569
G02 X145.229 Y-19.821 I-7.271 J10.613 F1500.
X142.434 Y-19.514 I0.0 J12.865
X142.188 Y-20. I-4.576 J2.014
G01 X137.858 Y-17.5 F2500.
X136.872
Y-25.
X-122.399
Y-17.5
G03 X-120.55 Y-16.344 I-5.868 J11.449 F1500.
X-120.419 Y-16.244 I-3.959 J5.281
X-120.231 Y-16.447 I8.165 J7.394
X-119.413 Y-17.239 I6.628 J6.026
X-119.089 Y-17.5 I8.239 J9.88
G01 X-114.327 Y-19.92
X-119.089 Y-17.5 F2500.
X-122.399
X-128.267 Y-19.484 F1500.
X-122.399 Y-17.5 F2500.
Y-25.
X-146.5
X-152. F2188.
X-157.5 F1875.
Y-19.5
Y-13.626 F2500.
X-150.
G03 X-145.361 Y-14.492 I4.639 J11.999 F1500.
X-139.011 Y-12.816 I0.0 J12.865
G01 X-138.972 Y-12.883
G03 X-136.526 Y-15.914 I10.342 J5.844
X-136.488 Y-15.947 I.997 J1.121
X-134.135 Y-17.5 I8.22 J9.896
G01 X-133.451 Y-16.165 F2500.
G02 X-135.529 Y-14.793 I5.184 J10.114
X-137.671 Y-12.137 I6.899 J7.754
X-138.429 Y-10.631 I11.89 J6.932
G01 X-138.452 Y-10.647
G02 X-138.643 Y-10.794 I-3.205 J3.967
X-145.361 Y-12.992 I-6.718 J9.167
X-156.726 Y-1.627 I0.0 J11.365
G01 Y12.953
G02 X-145.361 Y24.318 I11.365 J0.0
X-138.76 Y22.204 I0.0 J-11.365
X-138.087 Y21.659 I-4.124 J-5.78
X-136.814 Y20.291 I-7.415 J-8.171
X-135.342 Y21.837 I8.815 J-6.915
X-135.062 Y22.063 I3.193 J-3.68
X-128.267 Y24.318 I6.795 J-9.11
X-121.473 Y22.063 I0.0 J-11.365
X-121.134 Y21.787 I-3.142 J-4.201
G01 X-120.921 Y21.592
X-120.878 Y21.552
G02 X-119.721 Y20.291 I-7.305 J-7.862
X-118.174 Y21.899 I8.704 J-6.821
X-117.971 Y22.061 I2.673 J-3.148
X-111.174 Y24.318 I6.797 J-9.108
X-104.373 Y22.058 I0.0 J-11.365
X-104.139 Y21.871 I-2.63 J-3.521
X-102.626 Y20.292 I-7.364 J-8.569
X-101.103 Y21.883 I8.839 J-6.94
G01 X-100.875 Y22.063
G02 X-94.08 Y24.318 I6.795 J-9.11
X-87.288 Y22.065 I0.0 J-11.365
X-86.906 Y21.75 I-3.048 J-4.089
X-85.534 Y20.291 I-7.396 J-8.328
X-84.07 Y21.831 I8.965 J-7.06
G01 X-83.818 Y22.036
X-83.772 Y22.07
G02 X-76.987 Y24.318 I6.786 J-9.117
X-70.194 Y22.065 I0.0 J-11.365
X-69.812 Y21.749 I-3.048 J-4.089
X-68.44 Y20.291 I-7.449 J-8.379
X-67.06 Y21.757 I8.876 J-6.973
X-66.686 Y22.064 I3.445 J-3.81
X-59.893 Y24.318 I6.793 J-9.112
X-53.101 Y22.065 I0.0 J-11.365
X-52.718 Y21.749 I-3.048 J-4.089
X-51.347 Y20.29 I-7.389 J-8.32
X-49.822 Y21.881 I8.718 J-6.829
X-49.595 Y22.063 I2.861 J-3.349
X-42.8 Y24.318 I6.795 J-9.11
X-36.004 Y22.062 I0.0 J-11.365
X-35.778 Y21.882 I-2.586 J-3.466
X-34.252 Y20.292 I-7.299 J-8.531
X-32.857 Y21.772 I8.872 J-6.968
X-32.495 Y22.067 I3.418 J-3.812
X-25.706 Y24.318 I6.789 J-9.115
X-18.914 Y22.065 I0.0 J-11.365
X-18.529 Y21.748 I-3.048 J-4.089
X-17.161 Y20.292 I-7.397 J-8.324
X-15.652 Y21.867 I8.882 J-6.996
X-15.408 Y22.062 I2.93 J-3.406
X-8.613 Y24.318 I6.796 J-9.109
X-1.82 Y22.065 I0.0 J-11.365
X-1.44 Y21.751 I-3.048 J-4.089
X-.066 Y20.291 I-7.454 J-8.388
X1.118 Y21.577 I8.744 J-6.856
G01 X1.332 Y21.773
G02 X1.693 Y22.068 I3.418 J-3.815
X8.481 Y24.318 I6.787 J-9.116
X15.273 Y22.065 I0.0 J-11.365
X15.656 Y21.749 I-3.048 J-4.089
X17.027 Y20.291 I-7.422 J-8.352
X18.56 Y21.888 I8.716 J-6.832
X18.786 Y22.068 I2.854 J-3.349
X25.574 Y24.318 I6.788 J-9.115
X32.367 Y22.065 I0.0 J-11.365
X32.747 Y21.752 I-3.048 J-4.089
X34.121 Y20.291 I-7.565 J-8.498
X35.539 Y21.791 I8.865 J-6.961
G01 X35.837 Y22.035
X35.875 Y22.064
G02 X42.668 Y24.318 I6.793 J-9.112
X49.46 Y22.065 I0.0 J-11.365
X49.845 Y21.747 I-3.048 J-4.089
X51.212 Y20.294 I-7.387 J-8.314
G01 X51.217 Y20.293
G02 X52.721 Y21.866 I8.737 J-6.85
X52.967 Y22.063 I2.988 J-3.48
X59.761 Y24.318 I6.794 J-9.11
X66.554 Y22.065 I0.0 J-11.365
X66.937 Y21.749 I-3.048 J-4.089
X68.309 Y20.292 I-7.602 J-8.532
X69.853 Y21.898 I8.683 J-6.802
X70.062 Y22.064 I2.729 J-3.214
X76.855 Y24.318 I6.793 J-9.111
X83.647 Y22.064 I0.0 J-11.365
X83.868 Y21.888 I-2.612 J-3.504
X85.401 Y20.291 I-7.124 J-8.368
X86.947 Y21.9 I8.832 J-6.935
G01 X87.155 Y22.064
G02 X93.948 Y24.318 I6.793 J-9.112
X100.741 Y22.065 I0.0 J-11.365
X101.123 Y21.749 I-3.048 J-4.089
X102.495 Y20.291 I-7.502 J-8.433
X103.934 Y21.809 I8.871 J-6.965
X104.256 Y22.07 I3.339 J-3.802
X111.042 Y24.318 I6.786 J-9.117
X117.834 Y22.065 I0.0 J-11.365
X118.215 Y21.751 I-3.048 J-4.089
X119.585 Y20.295 I-7.39 J-8.324
G01 X119.59 Y20.292
G02 X121.069 Y21.844 I8.791 J-6.898
X121.349 Y22.07 I3.205 J-3.704
X128.135 Y24.318 I6.786 J-9.117
X134.928 Y22.065 I0.0 J-11.365
X135.311 Y21.749 I-3.048 J-4.089
X136.682 Y20.29 I-7.407 J-8.336
X138.185 Y21.863 I8.753 J-6.861
X138.443 Y22.069 I3.072 J-3.574
X145.229 Y24.318 I6.786 J-9.117
X151.164 Y22.645 I0.0 J-11.365
X152.021 Y22.065 I-5.936 J-9.692 F2188.
X152.406 Y21.747 I-3.048 J-4.089
X154.854 Y18.652 I-7.68 J-8.591
X155.118 Y18.134 I-10.129 J-5.496 F1875.
G01 X155.183 Y17.997
G02 X156.291 Y13.393 I-10.767 J-5.027
G01 X156.281 Y13.386
G02 X156.3 Y12.952 I-5.082 J-.434
G01 Y7.898
Y-6.955 F2500.
G02 X156.057 Y-9.316 I-14.705 J.319
X154.72 Y-12.886 I-10.805 J2.011
X153.242 Y-14.925 I-11.232 J6.587
X152.411 Y-15.75 I-7.712 J6.937
X152.229 Y-15.905 I-4.046 J4.565
G01 X152.228 Y-15.904
G02 X151.997 Y-16.086 I-3.268 J3.916
X145.229 Y-18.321 I-6.769 J9.129
X138.629 Y-16.209 I0.0 J11.365
X137.947 Y-15.655 I4.123 J5.78
X137.128 Y-14.827 I7.324 J8.069
X136.147 Y-16.084 I-10.963 J7.551
X135.419 Y-16.815 I-7.71 J6.939
X134.809 Y-17.312 I-4.779 J5.251
X128.135 Y-19.477 I-6.674 J9.199
X121.34 Y-17.223 I0.0 J11.365
X121.05 Y-16.988 I2.87 J3.848
X120.098 Y-16.058 I7.986 J9.128
X119.525 Y-16.839 I-10.967 J7.447
X118.27 Y-18.177 I-8.182 J6.416
X118.073 Y-18.346 I-4.064 J4.549
G01 X118.072 Y-18.345
G02 X117.872 Y-18.503 I-3.265 J3.918
X111.042 Y-20.785 I-6.83 J9.084
X104.249 Y-18.532 I0.0 J11.365
X103.684 Y-18.041 I3.048 J4.089
G01 X103.675 Y-18.04
G02 X102.83 Y-17.164 I7.232 J7.829
X102.434 Y-17.69 I-13.398 J9.668
X101.178 Y-19.03 I-8.193 J6.42
X100.983 Y-19.197 I-4.065 J4.548
G01 X100.975 Y-19.202
G02 X100.777 Y-19.359 I-3.262 J3.92
X93.948 Y-21.639 I-6.829 J9.085
X87.149 Y-19.381 I0.0 J11.365
X86.851 Y-19.141 I3.054 J4.085
X86.696 Y-19.002 I6.911 J7.929
X86.496 Y-18.81 I3.43 J3.774
X85.677 Y-17.95 I6.648 J7.15
G01 X85.643 Y-17.997
X85.358 Y-18.372
X85.343 Y-18.391
G02 X84.083 Y-19.735 I-8.187 J6.41
X83.685 Y-20.062 I-4.064 J4.549
X76.855 Y-22.343 I-6.83 J9.084
X69.902 Y-19.968 I0.0 J11.365
X69.126 Y-19.247 I6.745 J8.037
X68.523 Y-18.586 I9.893 J9.623
G01 X68.26 Y-18.93
G02 X66.927 Y-20.344 I-8.198 J6.396
X66.652 Y-20.569 I-3.367 J3.83
X59.761 Y-22.896 I-6.891 J9.038
X52.803 Y-20.517 I0.0 J11.365
X51.928 Y-19.693 I6.696 J7.987
G01 X51.855 Y-19.614
X51.41 Y-19.108
X51.373 Y-19.063
X51.162 Y-19.338
G02 X49.896 Y-20.69 I-8.194 J6.401
X49.701 Y-20.858 I-4.064 J4.549
G01 X49.7 Y-20.857
G02 X49.498 Y-21.017 I-3.267 J3.916
X42.668 Y-23.298 I-6.83 J9.084
X35.829 Y-21.011 I0.0 J11.365
X35.547 Y-20.782 I3.069 J4.073
X34.568 Y-19.806 I6.805 J7.806
G01 X34.54 Y-19.774
X34.226 Y-19.395
X34.221 Y-19.392
X34.073 Y-19.584
G02 X32.803 Y-20.942 I-8.198 J6.396
X32.607 Y-21.109 I-4.064 J4.549
G01 Y-21.108
G02 X32.403 Y-21.27 I-3.267 J3.916
X25.574 Y-23.55 I-6.829 J9.085
X18.576 Y-21.139 I0.0 J11.365
X17.338 Y-19.901 I6.666 J7.903
G01 X17.093 Y-19.6
X17.087 Y-19.596
X16.979 Y-19.735
G02 X15.71 Y-21.092 I-8.2 J6.398
X15.311 Y-21.419 I-4.065 J4.549
X8.481 Y-23.701 I-6.83 J9.083
X1.559 Y-21.349 I0.0 J11.365
X1.279 Y-21.118 I3.106 J4.045
X-.085 Y-19.649 I6.904 J7.777
G01 X-.119 Y-19.691
G02 X-1.382 Y-21.04 I-8.196 J6.404
X-1.781 Y-21.368 I-4.066 J4.548
X-8.613 Y-23.65 I-6.832 J9.082
X-15.734 Y-21.142 I0.0 J11.365
X-17.225 Y-19.545 I6.873 J7.907
G01 X-17.24 Y-19.524
G02 X-18.476 Y-20.839 I-8.168 J6.439
X-18.673 Y-21.008 I-4.066 J4.548
G01 Y-21.007
G02 X-18.877 Y-21.168 I-3.267 J3.916
X-25.706 Y-23.449 I-6.83 J9.084
X-32.693 Y-21.048 I0.0 J11.365
X-33.304 Y-20.504 I4.79 J5.989
X-34.373 Y-19.273 I7.244 J7.377
X-35.569 Y-20.538 I-8.128 J6.49
X-35.766 Y-20.706 I-4.066 J4.548
G01 X-35.767
G02 X-35.97 Y-20.867 I-3.267 J3.916
X-42.8 Y-23.148 I-6.83 J9.084
X-49.868 Y-20.682 I0.0 J11.365
X-51.549 Y-18.871 I6.14 J7.384
X-52.663 Y-20.035 I-8.047 J6.591
X-52.861 Y-20.204 I-4.065 J4.548
G01
G02 X-53.064 Y-20.364 I-3.266 J3.917
X-59.893 Y-22.645 I-6.83 J9.084
X-67.179 Y-20.002 I0.0 J11.365
X-68.848 Y-18.11 I6.467 J7.386
X-69.757 Y-19.03 I-7.84 J6.834
X-69.954 Y-19.199 I-4.065 J4.548
G01 X-69.955 Y-19.198
G02 X-70.157 Y-19.358 I-3.266 J3.917
X-76.987 Y-21.639 I-6.829 J9.084
X-84.228 Y-19.033 I0.0 J11.365
X-85.533 Y-17.657 I5.662 J6.675
G01 X-85.801 Y-17.986
G02 X-86.598 Y-18.82 I-7.563 J6.426
X-86.906 Y-19.089 I-4.159 J4.463
X-93.616 Y-21.63 I-7.174 J8.814
X-94.08 Y-21.639 I-.464 J11.355 F2188.
X-98.953 Y-20.542 I0.0 J11.365
X-102.408 Y-18.008 I4.873 J10.267 F1875.
X-102.926 Y-17.382 I5.203 J4.832
X-103.13 Y-17.082 I4.109 J3.021
G01 X-103.144 Y-17.08
G02 X-103.814 Y-16.006 I7.899 J5.67
G01 X-103.822 Y-16.007
G02 X-103.899 Y-16.077 I-3.491 J3.718
X-104.286 Y-16.398 I-4.084 J4.531
X-107.461 Y-18.1 I-6.888 J9.04
X-111.174 Y-18.723 I-3.713 J10.741 F2500.
X-118.453 Y-16.087 I0.0 J11.365
X-119.133 Y-15.425 I4.85 J5.666
X-120.251 Y-14.006 I6.879 J6.575
X-121.036 Y-14.806 I-9.32 J8.355
G01 X-121.046 Y-14.808
G02 X-121.45 Y-15.144 I-3.463 J3.744
X-128.267 Y-17.416 I-6.818 J9.093
X-133.451 Y-16.165 I0.0 J11.365
G01 X-134.135 Y-17.5
X-150.
Y-13.626
X-157.5
Y14.
Y19.5 F2188.
Y25. F1875.
X-152.
X0.0 F2500.
Y30.5
Z-1.749
