%
G40 G17 G49 G54 G80
G91 G28 Z0.0
( NAME: Capful )
( PART: D:\Program Files\Siemens\NX 12.0\UGII\HM-µç¼«±à³Ì.prt )
( DATE: Sun May 27 04:56:08 2018 )
( D4R0.5 ---> D=4.00 R=0.50 )
S10000 M03
G00 G90 X145.229 Y23.503
Z15.
G17 G01 Z2.55 F1300.
Z-.45 F520.
Y19.103
G40 G02 X151.379 Y12.953 I0.0 J-6.151 F1300.
G01 Y-6.956
G02 X145.229 Y-13.107 I-6.151 J0.0
X139.078 Y-6.956 I0.0 J6.151
G01 Y12.953
G02 X145.229 Y19.103 I6.151 J0.0
G01 Y23.503
Z2.55
G00 Z2.6
G01 Z2.5
Z-.5 F520.
Y19.103
G02 X151.379 Y12.953 I0.0 J-6.151 F1300.
G01 Y-6.956
G02 X145.229 Y-13.107 I-6.151 J0.0
X139.078 Y-6.956 I0.0 J6.151
G01 Y12.953
G02 X145.229 Y19.103 I6.151 J0.0
G01 Y23.503
Z2.5
G00 Z15.
X128.135
G01 Z2.55
Z-.45 F520.
Y19.103
G02 X134.286 Y12.953 I0.0 J-6.151 F1300.
G01 Y-8.112
G02 X128.135 Y-14.263 I-6.151 J0.0
X121.985 Y-8.112 I0.0 J6.151
G01 Y12.953
G02 X128.135 Y19.103 I6.151 J0.0
G01 Y23.503
Z2.55
G00 Z2.6
G01 Z2.5
Z-.5 F520.
Y19.103
G02 X134.286 Y12.953 I0.0 J-6.151 F1300.
G01 Y-8.112
G02 X128.135 Y-14.263 I-6.151 J0.0
X121.985 Y-8.112 I0.0 J6.151
G01 Y12.953
G02 X128.135 Y19.103 I6.151 J0.0
G01 Y23.503
Z2.5
G00 Z15.
X111.042
G01 Z2.55
Z-.45 F520.
Y19.103
G02 X117.192 Y12.953 I0.0 J-6.151 F1300.
G01 Y-9.42
G02 X111.042 Y-15.57 I-6.151 J0.0
X104.891 Y-9.42 I0.0 J6.151
G01 Y12.953
G02 X111.042 Y19.103 I6.151 J0.0
G01 Y23.503
Z2.55
G00 Z2.6
G01 Z2.5
Z-.5 F520.
Y19.103
G02 X117.192 Y12.953 I0.0 J-6.151 F1300.
G01 Y-9.42
G02 X111.042 Y-15.57 I-6.151 J0.0
X104.891 Y-9.42 I0.0 J6.151
G01 Y12.953
G02 X111.042 Y19.103 I6.151 J0.0
G01 Y23.503
Z2.5
G00 Z15.
X93.948
G01 Z2.55
Z-.45 F520.
Y19.103
G02 X100.099 Y12.953 I0.0 J-6.151 F1300.
G01 Y-10.274
G02 X93.948 Y-16.425 I-6.151 J0.0
X87.798 Y-10.274 I0.0 J6.151
G01 Y12.953
G02 X93.948 Y19.103 I6.151 J0.0
G01 Y23.503
Z2.55
G00 Z2.6
G01 Z2.5
Z-.5 F520.
Y19.103
G02 X100.099 Y12.953 I0.0 J-6.151 F1300.
G01 Y-10.274
G02 X93.948 Y-16.425 I-6.151 J0.0
X87.798 Y-10.274 I0.0 J6.151
G01 Y12.953
G02 X93.948 Y19.103 I6.151 J0.0
G01 Y23.503
Z2.5
G00 Z15.
X76.855
G01 Z2.55
Z-.45 F520.
Y19.103
G02 X83.005 Y12.953 I0.0 J-6.151 F1300.
G01 Y-10.978
G02 X76.855 Y-17.129 I-6.151 J0.0
X70.704 Y-10.978 I0.0 J6.151
G01 Y12.953
G02 X76.855 Y19.103 I6.151 J0.0
G01 Y23.503
Z2.55
G00 Z2.6
G01 Z2.5
Z-.5 F520.
Y19.103
G02 X83.005 Y12.953 I0.0 J-6.151 F1300.
G01 Y-10.978
G02 X76.855 Y-17.129 I-6.151 J0.0
X70.704 Y-10.978 I0.0 J6.151
G01 Y12.953
G02 X76.855 Y19.103 I6.151 J0.0
G01 Y23.503
Z2.5
G00 Z15.
X59.761
G01 Z2.55
Z-.45 F520.
Y19.103
G02 X65.912 Y12.953 I0.0 J-6.151 F1300.
G01 Y-11.531
G02 X59.761 Y-17.682 I-6.151 J0.0
X53.611 Y-11.531 I0.0 J6.151
G01 Y12.953
G02 X59.761 Y19.103 I6.151 J0.0
G01 Y23.503
Z2.55
G00 Z2.6
G01 Z2.5
Z-.5 F520.
Y19.103
G02 X65.912 Y12.953 I0.0 J-6.151 F1300.
G01 Y-11.531
G02 X59.761 Y-17.682 I-6.151 J0.0
X53.611 Y-11.531 I0.0 J6.151
G01 Y12.953
G02 X59.761 Y19.103 I6.151 J0.0
G01 Y23.503
Z2.5
G00 Z15.
X42.668
G01 Z2.55
Z-.45 F520.
Y19.103
G02 X48.818 Y12.953 I0.0 J-6.151 F1300.
G01 Y-11.933
G02 X42.668 Y-18.084 I-6.151 J0.0
X36.517 Y-11.933 I0.0 J6.151
G01 Y12.953
G02 X42.668 Y19.103 I6.151 J0.0
G01 Y23.503
Z2.55
G00 Z2.6
G01 Z2.5
Z-.5 F520.
Y19.103
G02 X48.818 Y12.953 I0.0 J-6.151 F1300.
G01 Y-11.933
G02 X42.668 Y-18.084 I-6.151 J0.0
X36.517 Y-11.933 I0.0 J6.151
G01 Y12.953
G02 X42.668 Y19.103 I6.151 J0.0
G01 Y23.503
Z2.5
G00 Z15.
X25.574
G01 Z2.55
Z-.45 F520.
Y19.103
G02 X31.725 Y12.953 I0.0 J-6.151 F1300.
G01 Y-12.185
G02 X25.574 Y-18.335 I-6.151 J0.0
X19.424 Y-12.185 I0.0 J6.151
G01 Y12.953
G02 X25.574 Y19.103 I6.151 J0.0
G01 Y23.503
Z2.55
G00 Z2.6
G01 Z2.5
Z-.5 F520.
Y19.103
G02 X31.725 Y12.953 I0.0 J-6.151 F1300.
G01 Y-12.185
G02 X25.574 Y-18.335 I-6.151 J0.0
X19.424 Y-12.185 I0.0 J6.151
G01 Y12.953
G02 X25.574 Y19.103 I6.151 J0.0
G01 Y23.503
Z2.5
G00 Z15.
X8.481
G01 Z2.55
Z-.45 F520.
Y19.103
G02 X14.631 Y12.953 I0.0 J-6.151 F1300.
G01 Y-12.336
G02 X8.481 Y-18.486 I-6.151 J0.0
X2.33 Y-12.336 I0.0 J6.151
G01 Y12.953
G02 X8.481 Y19.103 I6.151 J0.0
G01 Y23.503
Z2.55
G00 Z2.6
G01 Z2.5
Z-.5 F520.
Y19.103
G02 X14.631 Y12.953 I0.0 J-6.151 F1300.
G01 Y-12.336
G02 X8.481 Y-18.486 I-6.151 J0.0
X2.33 Y-12.336 I0.0 J6.151
G01 Y12.953
G02 X8.481 Y19.103 I6.151 J0.0
G01 Y23.503
Z2.5
G00 Z15.
X-8.613
G01 Z2.55
Z-.45 F520.
Y19.103
G02 X-2.462 Y12.953 I0.0 J-6.151 F1300.
G01 Y-12.285
G02 X-8.613 Y-18.436 I-6.151 J0.0
X-14.763 Y-12.285 I0.0 J6.151
G01 Y12.953
G02 X-8.613 Y19.103 I6.151 J0.0
G01 Y23.503
Z2.55
G00 Z2.6
G01 Z2.5
Z-.5 F520.
Y19.103
G02 X-2.462 Y12.953 I0.0 J-6.151 F1300.
G01 Y-12.285
G02 X-8.613 Y-18.436 I-6.151 J0.0
X-14.763 Y-12.285 I0.0 J6.151
G01 Y12.953
G02 X-8.613 Y19.103 I6.151 J0.0
G01 Y23.503
Z2.5
G00 Z15.
X-25.706
G01 Z2.55
Z-.45 F520.
Y19.103
G02 X-19.556 Y12.953 I0.0 J-6.151 F1300.
G01 Y-12.084
G02 X-25.706 Y-18.235 I-6.151 J0.0
X-31.857 Y-12.084 I0.0 J6.151
G01 Y12.953
G02 X-25.706 Y19.103 I6.151 J0.0
G01 Y23.503
Z2.55
G00 Z2.6
G01 Z2.5
Z-.5 F520.
Y19.103
G02 X-19.556 Y12.953 I0.0 J-6.151 F1300.
G01 Y-12.084
G02 X-25.706 Y-18.235 I-6.151 J0.0
X-31.857 Y-12.084 I0.0 J6.151
G01 Y12.953
G02 X-25.706 Y19.103 I6.151 J0.0
G01 Y23.503
Z2.5
G00 Z15.
X-42.8
G01 Z2.55
Z-.45 F520.
Y19.103
G02 X-36.649 Y12.953 I0.0 J-6.151 F1300.
G01 Y-11.783
G02 X-42.8 Y-17.933 I-6.151 J0.0
X-48.95 Y-11.783 I0.0 J6.151
G01 Y12.953
G02 X-42.8 Y19.103 I6.151 J0.0
G01 Y23.503
Z2.55
G00 Z2.6
G01 Z2.5
Z-.5 F520.
Y19.103
G02 X-36.649 Y12.953 I0.0 J-6.151 F1300.
G01 Y-11.783
G02 X-42.8 Y-17.933 I-6.151 J0.0
X-48.95 Y-11.783 I0.0 J6.151
G01 Y12.953
G02 X-42.8 Y19.103 I6.151 J0.0
G01 Y23.503
Z2.5
G00 Z15.
X-59.893
G01 Z2.55
Z-.45 F520.
Y19.103
G02 X-53.743 Y12.953 I0.0 J-6.151 F1300.
G01 Y-11.28
G02 X-59.893 Y-17.43 I-6.151 J0.0
X-66.044 Y-11.28 I0.0 J6.151
G01 Y12.953
G02 X-59.893 Y19.103 I6.151 J0.0
G01 Y23.503
Z2.55
G00 Z2.6
G01 Z2.5
Z-.5 F520.
Y19.103
G02 X-53.743 Y12.953 I0.0 J-6.151 F1300.
G01 Y-11.28
G02 X-59.893 Y-17.43 I-6.151 J0.0
X-66.044 Y-11.28 I0.0 J6.151
G01 Y12.953
G02 X-59.893 Y19.103 I6.151 J0.0
G01 Y23.503
Z2.5
G00 Z15.
X-76.987
G01 Z2.55
Z-.45 F520.
Y19.103
G02 X-70.836 Y12.953 I0.0 J-6.151 F1300.
G01 Y-10.274
G02 X-76.987 Y-16.425 I-6.151 J0.0
X-83.137 Y-10.274 I0.0 J6.151
G01 Y12.953
G02 X-76.987 Y19.103 I6.151 J0.0
G01 Y23.503
Z2.55
G00 Z2.6
G01 Z2.5
Z-.5 F520.
Y19.103
G02 X-70.836 Y12.953 I0.0 J-6.151 F1300.
G01 Y-10.274
G02 X-76.987 Y-16.425 I-6.151 J0.0
X-83.137 Y-10.274 I0.0 J6.151
G01 Y12.953
G02 X-76.987 Y19.103 I6.151 J0.0
G01 Y23.503
Z2.5
G00 Z15.
X-94.08
G01 Z2.55
Z-.45 F520.
Y19.103
G02 X-87.93 Y12.953 I0.0 J-6.151 F1300.
G01 Y-10.274
G02 X-94.08 Y-16.425 I-6.151 J0.0
X-100.231 Y-10.274 I0.0 J6.151
G01 Y12.953
G02 X-94.08 Y19.103 I6.151 J0.0
G01 Y23.503
Z2.55
G00 Z2.6
G01 Z2.5
Z-.5 F520.
Y19.103
G02 X-87.93 Y12.953 I0.0 J-6.151 F1300.
G01 Y-10.274
G02 X-94.08 Y-16.425 I-6.151 J0.0
X-100.231 Y-10.274 I0.0 J6.151
G01 Y12.953
G02 X-94.08 Y19.103 I6.151 J0.0
G01 Y23.503
Z2.5
G00 Z15.
X-111.174
G01 Z2.55
Z-.45 F520.
Y19.103
G02 X-105.023 Y12.953 I0.0 J-6.151 F1300.
G01 Y-7.358
G02 X-111.174 Y-13.509 I-6.151 J0.0
X-117.324 Y-7.358 I0.0 J6.151
G01 Y12.953
G02 X-111.174 Y19.103 I6.151 J0.0
G01 Y23.503
Z2.55
G00 Z2.6
G01 Z2.5
Z-.5 F520.
Y19.103
G02 X-105.023 Y12.953 I0.0 J-6.151 F1300.
G01 Y-7.358
G02 X-111.174 Y-13.509 I-6.151 J0.0
X-117.324 Y-7.358 I0.0 J6.151
G01 Y12.953
G02 X-111.174 Y19.103 I6.151 J0.0
G01 Y23.503
Z2.5
G00 Z15.
X-128.267
G01 Z2.55
Z-.45 F520.
Y19.103
G02 X-122.117 Y12.953 I0.0 J-6.151 F1300.
G01 Y-6.051
G02 X-128.267 Y-12.202 I-6.151 J0.0
X-134.418 Y-6.051 I0.0 J6.151
G01 Y12.953
G02 X-128.267 Y19.103 I6.151 J0.0
G01 Y23.503
Z2.55
G00 Z2.6
G01 Z2.5
Z-.5 F520.
Y19.103
G02 X-122.117 Y12.953 I0.0 J-6.151 F1300.
G01 Y-6.051
G02 X-128.267 Y-12.202 I-6.151 J0.0
X-134.418 Y-6.051 I0.0 J6.151
G01 Y12.953
G02 X-128.267 Y19.103 I6.151 J0.0
G01 Y23.503
Z2.5
G00 Z15.
X-145.361
G01 Z2.55
Z-.45 F520.
Y19.103
G02 X-139.21 Y12.953 I0.0 J-6.151 F1300.
G01 Y-1.627
G02 X-145.361 Y-7.778 I-6.151 J0.0
X-151.511 Y-1.627 I0.0 J6.151
G01 Y12.953
G02 X-145.361 Y19.103 I6.151 J0.0
G01 Y23.503
Z2.55
G00 Z2.6
G01 Z2.5
Z-.5 F520.
Y19.103
G02 X-139.21 Y12.953 I0.0 J-6.151 F1300.
G01 Y-1.627
G02 X-145.361 Y-7.778 I-6.151 J0.0
X-151.511 Y-1.627 I0.0 J6.151
G01 Y12.953
G02 X-145.361 Y19.103 I6.151 J0.0
G01 Y23.503
Z2.5
G00 Z15.
( D4R0.5 ---> D=4.00 R=0.50 )
S10000 M03
G00 X147.617 Y8.726
Z15.
G01 Z-1.8 F900.
Y2.998 Z-2. F360.
Y-6.956 F540.
G02 X145.229 Y-9.345 I-2.388 J0.0
X142.84 Y-6.956 I0.0 J2.388
G01 Y12.953
G02 X145.229 Y15.341 I2.388 J0.0
X147.617 Y12.953 I0.0 J-2.388
G01 Y2.998
X146.417 F900.
Y-6.956
G02 X145.229 Y-8.145 I-1.188 J0.0
X144.04 Y-6.956 I0.0 J1.188
G01 Y12.953
G02 X145.229 Y14.141 I1.188 J0.0
X146.417 Y12.953 I0.0 J-1.188
G01 Y2.998
Z1.
G00 Z15.
X130.524 Y8.147
G01 Z-1.8
Y2.42 Z-2. F360.
Y-8.112 F540.
G02 X128.135 Y-10.501 I-2.388 J0.0
X125.747 Y-8.112 I0.0 J2.388
G01 Y12.953
G02 X128.135 Y15.341 I2.388 J0.0
X130.524 Y12.953 I0.0 J-2.388
G01 Y2.42
X129.324 F900.
Y-8.112
G02 X128.135 Y-9.301 I-1.188 J0.0
X126.947 Y-8.112 I0.0 J1.188
G01 Y12.953
G02 X128.135 Y14.141 I1.188 J0.0
X129.324 Y12.953 I0.0 J-1.188
G01 Y2.42
X129.585 Y-.568
Z1.
G00 Z15.
X113.43 Y7.494
G01 Z-1.8
Y1.767 Z-2. F360.
Y-9.42 F540.
G02 X111.042 Y-11.808 I-2.388 J0.0
X108.653 Y-9.42 I0.0 J2.388
G01 Y12.953
G02 X111.042 Y15.341 I2.388 J0.0
X113.43 Y12.953 I0.0 J-2.388
G01 Y1.767
X112.23 F900.
Y-9.42
G02 X111.042 Y-10.608 I-1.188 J0.0
X109.853 Y-9.42 I0.0 J1.188
G01 Y12.953
G02 X111.042 Y14.141 I1.188 J0.0
X112.23 Y12.953 I0.0 J-1.188
G01 Y1.767
X112.492 Y-1.222
Z1.
G00 Z15.
X96.337 Y7.066
G01 Z-1.8
Y1.339 Z-2. F360.
Y-10.274 F540.
G02 X93.948 Y-12.663 I-2.388 J0.0
X91.56 Y-10.274 I0.0 J2.388
G01 Y12.953
G02 X93.948 Y15.341 I2.388 J0.0
X96.337 Y12.953 I0.0 J-2.388
G01 Y1.339
X95.137 F900.
Y-10.274
G02 X93.948 Y-11.463 I-1.188 J0.0
X92.76 Y-10.274 I0.0 J1.188
G01 Y12.953
G02 X93.948 Y14.141 I1.188 J0.0
X95.137 Y12.953 I0.0 J-1.188
G01 Y1.339
X95.398 Y-1.649
Z1.
G00 Z15.
X79.243 Y6.715
G01 Z-1.8
Y.987 Z-2. F360.
Y-10.978 F540.
G02 X76.855 Y-13.367 I-2.388 J0.0
X74.466 Y-10.978 I0.0 J2.388
G01 Y12.953
G02 X76.855 Y15.341 I2.388 J0.0
X79.243 Y12.953 I0.0 J-2.388
G01 Y.987
X78.043 F900.
Y-10.978
G02 X76.855 Y-12.167 I-1.188 J0.0
X75.666 Y-10.978 I0.0 J1.188
G01 Y12.953
G02 X76.855 Y14.141 I1.188 J0.0
X78.043 Y12.953 I0.0 J-1.188
G01 Y.987
X78.305 Y-2.001
Z1.
G00 Z15.
X62.15 Y6.438
G01 Z-1.8
Y.711 Z-2. F360.
Y-11.531 F540.
G02 X59.761 Y-13.92 I-2.388 J0.0
X57.373 Y-11.531 I0.0 J2.388
G01 Y12.953
G02 X59.761 Y15.341 I2.388 J0.0
X62.15 Y12.953 I0.0 J-2.388
G01 Y.711
X60.95 F900.
Y-11.531
G02 X59.761 Y-12.72 I-1.188 J0.0
X58.573 Y-11.531 I0.0 J1.188
G01 Y12.953
G02 X59.761 Y14.141 I1.188 J0.0
X60.95 Y12.953 I0.0 J-1.188
G01 Y.711
X61.211 Y-2.278
Z1.
G00 Z15.
X45.056 Y6.237
G01 Z-1.8
Y.51 Z-2. F360.
Y-11.933 F540.
G02 X42.668 Y-14.322 I-2.388 J0.0
X40.279 Y-11.933 I0.0 J2.388
G01 Y12.953
G02 X42.668 Y15.341 I2.388 J0.0
X45.056 Y12.953 I0.0 J-2.388
G01 Y.51
X43.856 F900.
Y-11.933
G02 X42.668 Y-13.122 I-1.188 J0.0
X41.479 Y-11.933 I0.0 J1.188
G01 Y12.953
G02 X42.668 Y14.141 I1.188 J0.0
X43.856 Y12.953 I0.0 J-1.188
G01 Y.51
X44.118 Y-2.479
Z1.
G00 Z15.
X27.963 Y6.111
G01 Z-1.8
Y.384 Z-2. F360.
Y-12.185 F540.
G02 X25.574 Y-14.573 I-2.388 J0.0
X23.186 Y-12.185 I0.0 J2.388
G01 Y12.953
G02 X25.574 Y15.341 I2.388 J0.0
X27.963 Y12.953 I0.0 J-2.388
G01 Y.384
X26.763 F900.
Y-12.185
G02 X25.574 Y-13.373 I-1.188 J0.0
X24.386 Y-12.185 I0.0 J1.188
G01 Y12.953
G02 X25.574 Y14.141 I1.188 J0.0
X26.763 Y12.953 I0.0 J-1.188
G01 Y.384
X27.024 Y-2.605
Z1.
G00 Z15.
X10.869 Y6.036
G01 Z-1.8
Y.309 Z-2. F360.
Y-12.336 F540.
G02 X8.481 Y-14.724 I-2.388 J0.0
X6.092 Y-12.336 I0.0 J2.388
G01 Y12.953
G02 X8.481 Y15.341 I2.388 J0.0
X10.869 Y12.953 I0.0 J-2.388
G01 Y.309
X9.669 F900.
Y-12.336
G02 X8.481 Y-13.524 I-1.188 J0.0
X7.292 Y-12.336 I0.0 J1.188
G01 Y12.953
G02 X8.481 Y14.141 I1.188 J0.0
X9.669 Y12.953 I0.0 J-1.188
G01 Y.309
X9.931 Y-2.68
Z1.
G00 Z15.
X-6.224 Y6.061
G01 Z-1.8
Y.334 Z-2. F360.
Y-12.285 F540.
G02 X-8.613 Y-14.674 I-2.388 J0.0
X-11.001 Y-12.285 I0.0 J2.388
G01 Y12.953
G02 X-8.613 Y15.341 I2.388 J0.0
X-6.224 Y12.953 I0.0 J-2.388
G01 Y.334
X-7.424 F900.
Y-12.285
G02 X-8.613 Y-13.474 I-1.188 J0.0
X-9.801 Y-12.285 I0.0 J1.188
G01 Y12.953
G02 X-8.613 Y14.141 I1.188 J0.0
X-7.424 Y12.953 I0.0 J-1.188
G01 Y.334
X-7.163 Y-2.655
Z1.
G00 Z15.
X-23.318 Y6.162
G01 Z-1.8
Y.434 Z-2. F360.
Y-12.084 F540.
G02 X-25.706 Y-14.473 I-2.388 J0.0
X-28.095 Y-12.084 I0.0 J2.388
G01 Y12.953
G02 X-25.706 Y15.341 I2.388 J0.0
X-23.318 Y12.953 I0.0 J-2.388
G01 Y.434
X-24.518 F900.
Y-12.084
G02 X-25.706 Y-13.273 I-1.188 J0.0
X-26.895 Y-12.084 I0.0 J1.188
G01 Y12.953
G02 X-25.706 Y14.141 I1.188 J0.0
X-24.518 Y12.953 I0.0 J-1.188
G01 Y.434
X-24.256 Y-2.554
Z1.
G00 Z15.
X-40.411 Y6.312
G01 Z-1.8
Y.585 Z-2. F360.
Y-11.783 F540.
G02 X-42.8 Y-14.171 I-2.388 J0.0
X-45.188 Y-11.783 I0.0 J2.388
G01 Y12.953
G02 X-42.8 Y15.341 I2.388 J0.0
X-40.411 Y12.953 I0.0 J-2.388
G01 Y.585
X-41.611 F900.
Y-11.783
G02 X-42.8 Y-12.971 I-1.188 J0.0
X-43.988 Y-11.783 I0.0 J1.188
G01 Y12.953
G02 X-42.8 Y14.141 I1.188 J0.0
X-41.611 Y12.953 I0.0 J-1.188
G01 Y.585
X-41.35 Y-2.403
Z1.
G00 Z15.
X-57.505 Y6.564
G01 Z-1.8
Y.836 Z-2. F360.
Y-11.28 F540.
G02 X-59.893 Y-13.668 I-2.388 J0.0
X-62.282 Y-11.28 I0.0 J2.388
G01 Y12.953
G02 X-59.893 Y15.341 I2.388 J0.0
X-57.505 Y12.953 I0.0 J-2.388
G01 Y.836
X-58.705 F900.
Y-11.28
G02 X-59.893 Y-12.468 I-1.188 J0.0
X-61.082 Y-11.28 I0.0 J1.188
G01 Y12.953
G02 X-59.893 Y14.141 I1.188 J0.0
X-58.705 Y12.953 I0.0 J-1.188
G01 Y.836
X-58.443 Y-2.152
Z1.
G00 Z15.
X-74.598 Y7.066
G01 Z-1.8
Y1.339 Z-2. F360.
Y-10.274 F540.
G02 X-76.987 Y-12.663 I-2.388 J0.0
X-79.375 Y-10.274 I0.0 J2.388
G01 Y12.953
G02 X-76.987 Y15.341 I2.388 J0.0
X-74.598 Y12.953 I0.0 J-2.388
G01 Y1.339
X-75.798 F900.
Y-10.274
G02 X-76.987 Y-11.463 I-1.188 J0.0
X-78.175 Y-10.274 I0.0 J1.188
G01 Y12.953
G02 X-76.987 Y14.141 I1.188 J0.0
X-75.798 Y12.953 I0.0 J-1.188
G01 Y1.339
X-75.537 Y-1.649
Z1.
G00 Z15.
X-91.692 Y7.066
G01 Z-1.8
Y1.339 Z-2. F360.
Y-10.274 F540.
G02 X-94.08 Y-12.663 I-2.388 J0.0
X-96.469 Y-10.274 I0.0 J2.388
G01 Y12.953
G02 X-94.08 Y15.341 I2.388 J0.0
X-91.692 Y12.953 I0.0 J-2.388
G01 Y1.339
X-92.892 F900.
Y-10.274
G02 X-94.08 Y-11.463 I-1.188 J0.0
X-95.269 Y-10.274 I0.0 J1.188
G01 Y12.953
G02 X-94.08 Y14.141 I1.188 J0.0
X-92.892 Y12.953 I0.0 J-1.188
G01 Y1.339
X-92.63 Y-1.649
Z1.
G00 Z15.
X-108.785 Y8.524
G01 Z-1.8
Y2.797 Z-2. F360.
Y-7.358 F540.
G02 X-111.174 Y-9.747 I-2.388 J0.0
X-113.562 Y-7.358 I0.0 J2.388
G01 Y12.953
G02 X-111.174 Y15.341 I2.388 J0.0
X-108.785 Y12.953 I0.0 J-2.388
G01 Y2.797
X-109.985 F900.
Y-7.358
G02 X-111.174 Y-8.547 I-1.188 J0.0
X-112.362 Y-7.358 I0.0 J1.188
G01 Y12.953
G02 X-111.174 Y14.141 I1.188 J0.0
X-109.985 Y12.953 I0.0 J-1.188
G01 Y2.797
X-109.724 Y-.191
Z1.
G00 Z15.
X-125.879 Y9.178
G01 Z-1.8
Y3.451 Z-2. F360.
Y-6.051 F540.
G02 X-128.267 Y-8.44 I-2.388 J0.0
X-130.656 Y-6.051 I0.0 J2.388
G01 Y12.953
G02 X-128.267 Y15.341 I2.388 J0.0
X-125.879 Y12.953 I0.0 J-2.388
G01 Y3.451
X-127.079 F900.
Y-6.051
G02 X-128.267 Y-7.24 I-1.188 J0.0
X-129.456 Y-6.051 I0.0 J1.188
G01 Y12.953
G02 X-128.267 Y14.141 I1.188 J0.0
X-127.079 Y12.953 I0.0 J-1.188
G01 Y3.451
X-126.817 Y.462
Z1.
G00 Z15.
X-147.749 Y-.064
G01 Z-1.8
Y5.663 Z-2. F360.
Y12.953 F540.
G02 X-145.361 Y15.341 I2.388 J0.0
X-142.972 Y12.953 I0.0 J-2.388
G01 Y-1.627
G02 X-145.361 Y-4.015 I-2.388 J0.0
X-147.749 Y-1.627 I0.0 J2.388
G01 Y5.663
X-146.549 F900.
Y12.953
G02 X-145.361 Y14.141 I1.188 J0.0
X-144.172 Y12.953 I0.0 J-1.188
G01 Y-1.627
G02 X-145.361 Y-2.815 I-1.188 J0.0
X-146.549 Y-1.627 I0.0 J1.188
G01 Y5.663
Z1.
G00 Z15.
( D4R0.5 ---> D=4.00 R=0.50 )
S10000 M03
G00 X-146.345 Y7.926
Z15.
G01 Z2.43 F2000.
Z-.57 F800.
G03 X-148.345 Y5.926 I0.0 J-2. F400.
G01 Y-1.627 F2000.
G03 X-145.361 Y-4.612 I2.985 J0.0 F1198.
X-142.376 Y-1.627 I0.0 J2.985
G01 Y12.953 F2000.
G03 X-145.361 Y15.937 I-2.985 J0.0 F1198.
X-148.345 Y12.953 I0.0 J-2.985
G01 Y5.926 F2000.
X-148.322 Y5.703 Z-.582
X-148.301 Y5.481 Z-.593
X-148.282 Y5.258 Z-.605
X-148.264 Y5.036 Z-.617
X-148.246 Y4.814 Z-.628
X-148.23 Y4.591 Z-.64
Y-1.627
G03 X-145.361 Y-4.497 I2.87 J0.0 F1179.
X-142.491 Y-1.627 I0.0 J2.87
G01 Y12.953 F2000.
G03 X-145.361 Y15.822 I-2.87 J0.0 F1179.
X-148.23 Y12.953 I0.0 J-2.87
G01 Y5.926 F2000.
X-148.215 Y5.703 Z-.652
X-148.201 Y5.481 Z-.663
X-148.187 Y5.258 Z-.675
X-148.174 Y5.036 Z-.686
X-148.162 Y4.814 Z-.698
X-148.15 Y4.591 Z-.71
Y-1.627
G03 X-145.361 Y-4.417 I2.79 J0.0 F1165.
X-142.571 Y-1.627 I0.0 J2.79
G01 Y12.953 F2000.
G03 X-145.361 Y15.742 I-2.79 J0.0 F1165.
X-148.15 Y12.953 I0.0 J-2.79
G01 Y5.926 F2000.
X-148.139 Y5.703 Z-.721
X-148.129 Y5.481 Z-.733
X-148.118 Y5.258 Z-.745
X-148.108 Y5.036 Z-.756
X-148.099 Y4.814 Z-.768
X-148.09 Y4.591 Z-.78
Y-1.627
G03 X-145.361 Y-4.356 I2.729 J0.0 F1154.
X-142.631 Y-1.627 I0.0 J2.729
G01 Y12.953 F2000.
G03 X-145.361 Y15.682 I-2.729 J0.0 F1154.
X-148.09 Y12.953 I0.0 J-2.729
G01 Y5.926 F2000.
X-148.082 Y5.703 Z-.791
X-148.073 Y5.481 Z-.803
X-148.065 Y5.258 Z-.815
X-148.058 Y5.036 Z-.826
X-148.051 Y4.814 Z-.838
X-148.044 Y4.591 Z-.85
Y-1.627
G03 X-145.361 Y-4.31 I2.683 J0.0 F1146.
X-142.678 Y-1.627 I0.0 J2.683
G01 Y12.953 F2000.
G03 X-145.361 Y15.636 I-2.683 J0.0 F1146.
X-148.044 Y12.953 I0.0 J-2.683
G01 Y5.926 F2000.
X-148.037 Y5.703 Z-.861
X-148.031 Y5.481 Z-.873
X-148.025 Y5.258 Z-.885
X-148.019 Y5.036 Z-.896
X-148.014 Y4.814 Z-.908
X-148.008 Y4.591 Z-.92
Y-1.627
G03 X-145.361 Y-4.275 I2.648 J0.0 F1139.
X-142.713 Y-1.627 I0.0 J2.648
G01 Y12.953 F2000.
G03 X-145.361 Y15.6 I-2.648 J0.0 F1139.
X-148.008 Y12.953 I0.0 J-2.648
G01 Y5.926 F2000.
X-148.003 Y5.703 Z-.931
X-147.999 Y5.481 Z-.943
X-147.994 Y5.258 Z-.955
X-147.99 Y5.036 Z-.966
X-147.986 Y4.814 Z-.978
X-147.982 Y4.591 Z-.99
Y-1.627
G03 X-145.361 Y-4.248 I2.621 J0.0 F1134.
X-142.74 Y-1.627 I0.0 J2.621
G01 Y12.953 F2000.
G03 X-145.361 Y15.574 I-2.621 J0.0 F1134.
X-147.982 Y12.953 I0.0 J-2.621
G01 Y5.926 F2000.
X-147.978 Y5.703 Z-1.001
X-147.975 Y5.481 Z-1.013
X-147.972 Y5.258 Z-1.024
X-147.969 Y5.036 Z-1.036
X-147.966 Y4.814 Z-1.048
X-147.964 Y4.591 Z-1.059
Y-1.627
G03 X-145.361 Y-4.23 I2.603 J0.0 F1131.
X-142.758 Y-1.627 I0.0 J2.603
G01 Y12.953 F2000.
G03 X-145.361 Y15.556 I-2.603 J0.0 F1131.
X-147.964 Y12.953 I0.0 J-2.603
G01 Y5.926 F2000.
X-147.961 Y5.703 Z-1.071
X-147.959 Y5.481 Z-1.083
X-147.957 Y5.258 Z-1.094
X-147.956 Y5.036 Z-1.106
X-147.954 Y4.814 Z-1.118
X-147.953 Y4.591 Z-1.129
Y-1.627
G03 X-145.361 Y-4.219 I2.592 J0.0 F1129.
X-142.769 Y-1.627 I0.0 J2.592
G01 Y12.953 F2000.
G03 X-144.389 Y15.356 I-2.592 J0.0 F1129.
X-145.361 Y15.545 I-.971 J-2.403
X-147.953 Y12.953 I0.0 J-2.592
G01 Y5.926 F2000.
X-147.952 Y5.703 Z-1.141
X-147.951 Y5.481 Z-1.153
X-147.95 Y5.258 Z-1.164
Y5.036 Z-1.176
X-147.949 Y4.814 Z-1.188
Y4.591 Z-1.199
Y-1.627
G03 X-146.206 Y-4.074 I2.588 J0.0 F1128.
G01 X-145.872 Y-4.164 F2000.
G03 X-145.361 Y-4.215 I.511 J2.537 F1128.
X-142.772 Y-1.627 I0.0 J2.588
G01 Y12.953 F2000.
G03 X-145.361 Y15.541 I-2.588 J0.0 F1128.
X-147.949 Y12.953 I0.0 J-2.588
G01 Y5.926 F2000.
Y5.703 Z-1.211
Y4.591 Z-1.269
Y-1.627
G03 X-145.361 Y-4.215 I2.588 J0.0 F1128.
X-142.772 Y-1.627 I0.0 J2.588
G01 Y12.953 F2000.
G03 X-145.361 Y15.541 I-2.588 J0.0 F1128.
X-147.949 Y12.953 I0.0 J-2.588
G01 Y5.926 F2000.
Y4.591 Z-1.339
Y-1.627
G03 X-145.361 Y-4.215 I2.588 J0.0 F1128.
X-142.772 Y-1.627 I0.0 J2.588
G01 Y12.953 F2000.
G03 X-145.361 Y15.541 I-2.588 J0.0 F1128.
X-147.949 Y12.953 I0.0 J-2.588
G01 Y5.926 F2000.
Y4.591 Z-1.409
Y-1.627
G03 X-145.361 Y-4.215 I2.588 J0.0 F1128.
X-142.772 Y-1.627 I0.0 J2.588
G01 Y12.953 F2000.
G03 X-145.361 Y15.541 I-2.588 J0.0 F1128.
X-147.949 Y12.953 I0.0 J-2.588
G01 Y5.926 F2000.
Y4.591 Z-1.479
Y-1.627
G03 X-145.361 Y-4.215 I2.588 J0.0 F1128.
X-142.772 Y-1.627 I0.0 J2.588
G01 Y12.953 F2000.
G03 X-145.361 Y15.541 I-2.588 J0.0 F1128.
X-147.949 Y12.953 I0.0 J-2.588
G01 Y5.926 F2000.
Y4.591 Z-1.549
Y-1.627
G03 X-145.361 Y-4.215 I2.588 J0.0 F1128.
X-142.772 Y-1.627 I0.0 J2.588
G01 Y12.953 F2000.
G03 X-145.361 Y15.541 I-2.588 J0.0 F1128.
X-147.949 Y12.953 I0.0 J-2.588
G01 Y5.926 F2000.
Y4.591 Z-1.619
Y-1.627
G03 X-145.361 Y-4.215 I2.588 J0.0 F1128.
X-142.772 Y-1.627 I0.0 J2.588
G01 Y12.953 F2000.
G03 X-145.361 Y15.541 I-2.588 J0.0 F1128.
X-147.949 Y12.953 I0.0 J-2.588
G01 Y5.926 F2000.
Y4.591 Z-1.689
Y-1.627
G03 X-145.361 Y-4.215 I2.588 J0.0 F1128.
X-142.772 Y-1.627 I0.0 J2.588
G01 Y12.953 F2000.
G03 X-145.361 Y15.541 I-2.588 J0.0 F1128.
X-147.949 Y12.953 I0.0 J-2.588
G01 Y5.926 F2000.
Y4.591 Z-1.759
Y-1.627
G03 X-145.361 Y-4.215 I2.588 J0.0 F1128.
X-142.772 Y-1.627 I0.0 J2.588
G01 Y12.953 F2000.
G03 X-145.361 Y15.541 I-2.588 J0.0 F1128.
X-147.949 Y12.953 I0.0 J-2.588
G01 Y5.926 F2000.
Y4.591 Z-1.829
Y-1.627
G03 X-145.361 Y-4.215 I2.588 J0.0 F1128.
X-142.772 Y-1.627 I0.0 J2.588
G01 Y12.953 F2000.
G03 X-145.361 Y15.541 I-2.588 J0.0 F1128.
X-147.949 Y12.953 I0.0 J-2.588
G01 Y5.926 F2000.
Y4.591 Z-1.899
Y-1.627
G03 X-145.361 Y-4.215 I2.588 J0.0 F1128.
X-142.772 Y-1.627 I0.0 J2.588
G01 Y12.953 F2000.
G03 X-145.361 Y15.541 I-2.588 J0.0 F1128.
X-147.949 Y12.953 I0.0 J-2.588
G01 Y5.926 F2000.
Y4.591 Z-1.969
Y-1.627
G03 X-145.361 Y-4.215 I2.588 J0.0 F1128.
X-142.772 Y-1.627 I0.0 J2.588
G01 Y12.953 F2000.
G03 X-145.361 Y15.541 I-2.588 J0.0 F1128.
X-147.949 Y12.953 I0.0 J-2.588
G01 Y4.591 F2000.
X-145.949
Z.031
G00 Z2.5
X-129.252 Y5.714
G01 Z2.43
Z-.57 F800.
G03 X-131.252 Y3.714 I0.0 J-2. F400.
G01 Y-6.051 F2000.
G03 X-128.267 Y-9.036 I2.985 J0.0 F1198.
X-125.283 Y-6.051 I0.0 J2.985
G01 Y12.953 F2000.
G03 X-128.267 Y15.937 I-2.985 J0.0 F1198.
X-131.252 Y12.953 I0.0 J-2.985
G01 Y3.714 F2000.
X-131.229 Y3.491 Z-.582
X-131.208 Y3.269 Z-.593
X-131.188 Y3.046 Z-.605
X-131.17 Y2.824 Z-.617
X-131.153 Y2.602 Z-.628
X-131.137 Y2.379 Z-.64
Y-6.051
G03 X-128.267 Y-8.921 I2.87 J0.0 F1179.
X-125.398 Y-6.051 I0.0 J2.87
G01 Y12.953 F2000.
G03 X-128.267 Y15.822 I-2.87 J0.0 F1179.
X-131.137 Y12.953 I0.0 J-2.87
G01 Y3.714 F2000.
X-131.122 Y3.491 Z-.652
X-131.107 Y3.269 Z-.663
X-131.094 Y3.046 Z-.675
X-131.081 Y2.824 Z-.686
X-131.069 Y2.602 Z-.698
X-131.057 Y2.379 Z-.71
Y-6.051
G03 X-128.267 Y-8.841 I2.79 J0.0 F1165.
X-125.478 Y-6.051 I0.0 J2.79
G01 Y12.953 F2000.
G03 X-128.267 Y15.742 I-2.79 J0.0 F1165.
X-131.057 Y12.953 I0.0 J-2.79
G01 Y3.714 F2000.
X-131.046 Y3.491 Z-.721
X-131.035 Y3.269 Z-.733
X-131.025 Y3.046 Z-.745
X-131.015 Y2.824 Z-.756
X-131.006 Y2.602 Z-.768
X-130.997 Y2.379 Z-.78
Y-6.051
G03 X-128.267 Y-8.781 I2.729 J0.0 F1154.
X-125.538 Y-6.051 I0.0 J2.729
G01 Y12.953 F2000.
G03 X-128.267 Y15.682 I-2.729 J0.0 F1154.
X-130.997 Y12.953 I0.0 J-2.729
G01 Y3.714 F2000.
X-130.988 Y3.491 Z-.791
X-130.98 Y3.269 Z-.803
X-130.972 Y3.046 Z-.815
X-130.964 Y2.824 Z-.826
X-130.957 Y2.602 Z-.838
X-130.95 Y2.379 Z-.85
Y-6.051
G03 X-128.267 Y-8.734 I2.683 J0.0 F1146.
X-125.584 Y-6.051 I0.0 J2.683
G01 Y12.953 F2000.
G03 X-128.267 Y15.636 I-2.683 J0.0 F1146.
X-130.95 Y12.953 I0.0 J-2.683
G01 Y3.714 F2000.
X-130.944 Y3.491 Z-.861
X-130.937 Y3.269 Z-.873
X-130.931 Y3.046 Z-.885
X-130.926 Y2.824 Z-.896
X-130.92 Y2.602 Z-.908
X-130.915 Y2.379 Z-.92
Y-6.051
G03 X-128.267 Y-8.699 I2.648 J0.0 F1139.
X-125.62 Y-6.051 I0.0 J2.648
G01 Y12.953 F2000.
G03 X-128.267 Y15.6 I-2.648 J0.0 F1139.
X-130.915 Y12.953 I0.0 J-2.648
G01 Y3.714 F2000.
X-130.91 Y3.491 Z-.931
X-130.905 Y3.269 Z-.943
X-130.901 Y3.046 Z-.955
X-130.896 Y2.824 Z-.966
X-130.892 Y2.602 Z-.978
X-130.888 Y2.379 Z-.99
Y-6.051
G03 X-128.267 Y-8.672 I2.621 J0.0 F1134.
X-125.646 Y-6.051 I0.0 J2.621
G01 Y12.953 F2000.
G03 X-128.267 Y15.574 I-2.621 J0.0 F1134.
X-130.888 Y12.953 I0.0 J-2.621
G01 Y3.714 F2000.
X-130.885 Y3.491 Z-1.001
X-130.882 Y3.269 Z-1.013
X-130.878 Y3.046 Z-1.024
X-130.875 Y2.824 Z-1.036
X-130.873 Y2.602 Z-1.048
X-130.87 Y2.379 Z-1.059
Y-6.051
G03 X-128.267 Y-8.654 I2.603 J0.0 F1131.
X-125.664 Y-6.051 I0.0 J2.603
G01 Y12.953 F2000.
G03 X-128.267 Y15.556 I-2.603 J0.0 F1131.
X-130.87 Y12.953 I0.0 J-2.603
G01 Y3.714 F2000.
X-130.868 Y3.491 Z-1.071
X-130.866 Y3.269 Z-1.083
X-130.864 Y3.046 Z-1.094
X-130.862 Y2.824 Z-1.106
X-130.861 Y2.602 Z-1.118
X-130.859 Y2.379 Z-1.129
Y-6.051
G03 X-128.267 Y-8.643 I2.592 J0.0 F1129.
X-125.675 Y-6.051 I0.0 J2.592
G01 Y12.953 F2000.
G03 X-128.267 Y15.545 I-2.592 J0.0 F1129.
X-130.859 Y12.953 I0.0 J-2.592
G01 Y3.714 F2000.
X-130.858 Y3.491 Z-1.141
X-130.857 Y3.269 Z-1.153
Y3.046 Z-1.164
X-130.856 Y2.824 Z-1.176
Y2.602 Z-1.188
Y2.379 Z-1.199
Y-6.051
G03 X-128.267 Y-8.64 I2.588 J0.0 F1128.
X-125.679 Y-6.051 I0.0 J2.588
G01 Y12.953 F2000.
G03 X-128.267 Y15.541 I-2.588 J0.0 F1128.
X-130.856 Y12.953 I0.0 J-2.588
G01 Y3.714 F2000.
Y3.491 Z-1.211
Y2.379 Z-1.269
Y-6.051
G03 X-128.267 Y-8.64 I2.588 J0.0 F1128.
X-125.679 Y-6.051 I0.0 J2.588
G01 Y12.953 F2000.
G03 X-128.267 Y15.541 I-2.588 J0.0 F1128.
X-130.856 Y12.953 I0.0 J-2.588
G01 Y3.714 F2000.
Y2.379 Z-1.339
Y-6.051
G03 X-128.267 Y-8.64 I2.588 J0.0 F1128.
X-125.679 Y-6.051 I0.0 J2.588
G01 Y12.953 F2000.
G03 X-128.267 Y15.541 I-2.588 J0.0 F1128.
X-130.856 Y12.953 I0.0 J-2.588
G01 Y3.714 F2000.
Y2.379 Z-1.409
Y-6.051
G03 X-128.267 Y-8.64 I2.588 J0.0 F1128.
X-125.679 Y-6.051 I0.0 J2.588
G01 Y12.953 F2000.
G03 X-128.267 Y15.541 I-2.588 J0.0 F1128.
X-130.856 Y12.953 I0.0 J-2.588
G01 Y3.714 F2000.
Y2.379 Z-1.479
Y-6.051
G03 X-128.267 Y-8.64 I2.588 J0.0 F1128.
X-125.679 Y-6.051 I0.0 J2.588
G01 Y12.953 F2000.
G03 X-128.267 Y15.541 I-2.588 J0.0 F1128.
X-130.856 Y12.953 I0.0 J-2.588
G01 Y3.714 F2000.
Y2.379 Z-1.549
Y-6.051
G03 X-128.267 Y-8.64 I2.588 J0.0 F1128.
X-125.679 Y-6.051 I0.0 J2.588
G01 Y12.953 F2000.
G03 X-128.267 Y15.541 I-2.588 J0.0 F1128.
X-130.856 Y12.953 I0.0 J-2.588
G01 Y3.714 F2000.
Y2.379 Z-1.619
Y-6.051
G03 X-128.267 Y-8.64 I2.588 J0.0 F1128.
X-125.679 Y-6.051 I0.0 J2.588
G01 Y12.953 F2000.
G03 X-128.267 Y15.541 I-2.588 J0.0 F1128.
X-130.856 Y12.953 I0.0 J-2.588
G01 Y3.714 F2000.
Y2.379 Z-1.689
Y-6.051
G03 X-128.267 Y-8.64 I2.588 J0.0 F1128.
X-125.679 Y-6.051 I0.0 J2.588
G01 Y12.953 F2000.
G03 X-128.267 Y15.541 I-2.588 J0.0 F1128.
X-130.856 Y12.953 I0.0 J-2.588
G01 Y3.714 F2000.
Y2.379 Z-1.759
Y-6.051
G03 X-128.267 Y-8.64 I2.588 J0.0 F1128.
X-125.679 Y-6.051 I0.0 J2.588
G01 Y12.953 F2000.
G03 X-128.267 Y15.541 I-2.588 J0.0 F1128.
X-130.856 Y12.953 I0.0 J-2.588
G01 Y3.714 F2000.
Y2.379 Z-1.829
Y-6.051
G03 X-128.267 Y-8.64 I2.588 J0.0 F1128.
X-125.679 Y-6.051 I0.0 J2.588
G01 Y12.953 F2000.
G03 X-128.267 Y15.541 I-2.588 J0.0 F1128.
X-130.856 Y12.953 I0.0 J-2.588
G01 Y3.714 F2000.
Y2.379 Z-1.899
Y-6.051
G03 X-128.267 Y-8.64 I2.588 J0.0 F1128.
X-125.679 Y-6.051 I0.0 J2.588
G01 Y12.953 F2000.
G03 X-128.267 Y15.541 I-2.588 J0.0 F1128.
X-130.856 Y12.953 I0.0 J-2.588
G01 Y3.714 F2000.
Y2.379 Z-1.969
Y-6.051
G03 X-128.267 Y-8.64 I2.588 J0.0 F1128.
X-125.679 Y-6.051 I0.0 J2.588
G01 Y12.953 F2000.
G03 X-128.267 Y15.541 I-2.588 J0.0 F1128.
X-130.856 Y12.953 I0.0 J-2.588
G01 Y2.379 F2000.
X-128.856
Z.031
G00 Z2.5
X146.213 Y.998
G01 Z2.43
Z-.57 F800.
G03 X148.213 Y2.998 I0.0 J2. F400.
G01 Y12.953 F2000.
G03 X145.229 Y15.937 I-2.985 J0.0 F1198.
X142.244 Y12.953 I0.0 J-2.985
G01 Y-6.956 F2000.
G03 X145.229 Y-9.941 I2.985 J0.0 F1198.
X148.213 Y-6.956 I0.0 J2.985
G01 Y2.998 F2000.
X148.19 Y3.221 Z-.582
X148.169 Y3.443 Z-.593
X148.15 Y3.665 Z-.605
X148.132 Y3.888 Z-.617
X148.114 Y4.11 Z-.628
X148.098 Y4.333 Z-.64
Y12.953
G03 X145.229 Y15.822 I-2.87 J0.0 F1179.
X142.359 Y12.953 I0.0 J-2.87
G01 Y-6.956 F2000.
G03 X145.229 Y-9.826 I2.87 J0.0 F1179.
X148.098 Y-6.956 I0.0 J2.87
G01 Y2.998 F2000.
X148.083 Y3.221 Z-.652
X148.069 Y3.443 Z-.663
X148.055 Y3.665 Z-.675
X148.042 Y3.888 Z-.686
X148.03 Y4.11 Z-.698
X148.018 Y4.333 Z-.71
Y12.953
G03 X145.229 Y15.742 I-2.79 J0.0 F1165.
X142.439 Y12.953 I0.0 J-2.79
G01 Y-6.956 F2000.
G03 X145.229 Y-9.746 I2.79 J0.0 F1165.
X148.018 Y-6.956 I0.0 J2.79
G01 Y2.998 F2000.
X148.007 Y3.221 Z-.721
X147.997 Y3.443 Z-.733
X147.986 Y3.665 Z-.745
X147.976 Y3.888 Z-.756
X147.967 Y4.11 Z-.768
X147.958 Y4.333 Z-.78
Y12.953
G03 X145.229 Y15.682 I-2.729 J0.0 F1154.
X142.499 Y12.953 I0.0 J-2.729
G01 Y-6.956 F2000.
G03 X145.229 Y-9.686 I2.729 J0.0 F1154.
X147.958 Y-6.956 I0.0 J2.729
G01 Y2.998 F2000.
X147.95 Y3.221 Z-.791
X147.941 Y3.443 Z-.803
X147.933 Y3.665 Z-.815
X147.926 Y3.888 Z-.826
X147.919 Y4.11 Z-.838
X147.912 Y4.333 Z-.85
Y12.953
G03 X145.229 Y15.636 I-2.683 J0.0 F1146.
X142.546 Y12.953 I0.0 J-2.683
G01 Y-6.956 F2000.
G03 X145.229 Y-9.639 I2.683 J0.0 F1146.
X147.912 Y-6.956 I0.0 J2.683
G01 Y2.998 F2000.
X147.905 Y3.221 Z-.861
X147.899 Y3.443 Z-.873
X147.893 Y3.665 Z-.885
X147.887 Y3.888 Z-.896
X147.882 Y4.11 Z-.908
X147.876 Y4.333 Z-.92
Y12.953
G03 X145.229 Y15.6 I-2.648 J0.0 F1139.
X142.581 Y12.953 I0.0 J-2.648
G01 Y-6.956 F2000.
G03 X145.229 Y-9.604 I2.648 J0.0 F1139.
X147.876 Y-6.956 I0.0 J2.648
G01 Y2.998 F2000.
X147.871 Y3.221 Z-.931
X147.867 Y3.443 Z-.943
X147.862 Y3.665 Z-.955
X147.858 Y3.888 Z-.966
X147.854 Y4.11 Z-.978
X147.85 Y4.333 Z-.99
Y12.953
G03 X145.229 Y15.574 I-2.621 J0.0 F1134.
X142.608 Y12.953 I0.0 J-2.621
G01 Y-6.956 F2000.
G03 X145.229 Y-9.577 I2.621 J0.0 F1134.
X147.85 Y-6.956 I0.0 J2.621
G01 Y2.998 F2000.
X147.846 Y3.221 Z-1.001
X147.843 Y3.443 Z-1.013
X147.84 Y3.665 Z-1.024
X147.837 Y3.888 Z-1.036
X147.834 Y4.11 Z-1.048
X147.832 Y4.333 Z-1.059
Y12.953
G03 X145.229 Y15.556 I-2.603 J0.0 F1131.
X142.626 Y12.953 I0.0 J-2.603
G01 Y-6.956 F2000.
G03 X145.229 Y-9.559 I2.603 J0.0 F1131.
X147.832 Y-6.956 I0.0 J2.603
G01 Y2.998 F2000.
X147.829 Y3.221 Z-1.071
X147.827 Y3.443 Z-1.083
X147.825 Y3.665 Z-1.094
X147.824 Y3.888 Z-1.106
X147.822 Y4.11 Z-1.118
X147.821 Y4.333 Z-1.129
Y12.953
G03 X145.229 Y15.545 I-2.592 J0.0 F1129.
X142.637 Y12.953 I0.0 J-2.592
G01 Y-6.956 F2000.
G03 X145.229 Y-9.548 I2.592 J0.0 F1129.
X147.821 Y-6.956 I0.0 J2.592
G01 Y2.998 F2000.
X147.82 Y3.221 Z-1.141
X147.819 Y3.443 Z-1.153
X147.818 Y3.665 Z-1.164
Y3.888 Z-1.176
X147.817 Y4.11 Z-1.188
Y4.333 Z-1.199
Y12.927
Y12.957
G03 X145.229 Y15.541 I-2.588 J-.004 F1128.
X143.381 Y14.766 I0.0 J-2.588
G01 X143.313 Y14.694 F2000.
G03 X142.64 Y12.953 I1.915 J-1.741 F1128.
G01 Y-6.956 F2000.
G03 X145.229 Y-9.545 I2.588 J0.0 F1128.
X147.334 Y-8.461 I0.0 J2.588
X147.818 Y-6.955 I-2.106 J1.506
G01 X147.817 Y-6.906
Y2.998 F2000.
Y3.221 Z-1.211
Y4.333 Z-1.269
Y12.953
G03 X145.229 Y15.541 I-2.588 J0.0 F1128.
X142.64 Y12.953 I0.0 J-2.588
G01 Y-6.956 F2000.
G03 X145.229 Y-9.545 I2.588 J0.0 F1128.
X147.817 Y-6.956 I0.0 J2.588
G01 Y2.998 F2000.
Y4.333 Z-1.339
Y12.953
G03 X145.229 Y15.541 I-2.588 J0.0 F1128.
X142.64 Y12.953 I0.0 J-2.588
G01 Y-6.956 F2000.
G03 X145.229 Y-9.545 I2.588 J0.0 F1128.
X147.817 Y-6.956 I0.0 J2.588
G01 Y2.998 F2000.
Y4.333 Z-1.409
Y12.953
G03 X145.229 Y15.541 I-2.588 J0.0 F1128.
X142.64 Y12.953 I0.0 J-2.588
G01 Y-6.956 F2000.
G03 X145.229 Y-9.545 I2.588 J0.0 F1128.
X147.817 Y-6.956 I0.0 J2.588
G01 Y2.998 F2000.
Y4.333 Z-1.479
Y12.953
G03 X145.229 Y15.541 I-2.588 J0.0 F1128.
X142.64 Y12.953 I0.0 J-2.588
G01 Y-6.956 F2000.
G03 X145.229 Y-9.545 I2.588 J0.0 F1128.
X147.817 Y-6.956 I0.0 J2.588
G01 Y2.998 F2000.
Y4.333 Z-1.549
Y12.953
G03 X145.229 Y15.541 I-2.588 J0.0 F1128.
X142.64 Y12.953 I0.0 J-2.588
G01 Y-6.956 F2000.
G03 X145.229 Y-9.545 I2.588 J0.0 F1128.
X147.817 Y-6.956 I0.0 J2.588
G01 Y2.998 F2000.
Y4.333 Z-1.619
Y12.953
G03 X145.229 Y15.541 I-2.588 J0.0 F1128.
X142.64 Y12.953 I0.0 J-2.588
G01 Y-6.956 F2000.
G03 X145.229 Y-9.545 I2.588 J0.0 F1128.
X147.817 Y-6.956 I0.0 J2.588
G01 Y2.998 F2000.
Y4.333 Z-1.689
Y12.953
G03 X145.229 Y15.541 I-2.588 J0.0 F1128.
X142.64 Y12.953 I0.0 J-2.588
G01 Y-6.956 F2000.
G03 X145.229 Y-9.545 I2.588 J0.0 F1128.
X147.817 Y-6.956 I0.0 J2.588
G01 Y2.998 F2000.
Y4.333 Z-1.759
Y12.953
G03 X145.229 Y15.541 I-2.588 J0.0 F1128.
X142.64 Y12.953 I0.0 J-2.588
G01 Y-6.956 F2000.
G03 X145.229 Y-9.545 I2.588 J0.0 F1128.
X147.817 Y-6.956 I0.0 J2.588
G01 Y2.998 F2000.
Y4.333 Z-1.829
Y12.953
G03 X145.229 Y15.541 I-2.588 J0.0 F1128.
X142.64 Y12.953 I0.0 J-2.588
G01 Y-6.956 F2000.
G03 X145.229 Y-9.545 I2.588 J0.0 F1128.
X147.817 Y-6.956 I0.0 J2.588
G01 Y2.998 F2000.
Y4.333 Z-1.899
Y12.953
G03 X145.229 Y15.541 I-2.588 J0.0 F1128.
X142.64 Y12.953 I0.0 J-2.588
G01 Y-6.956 F2000.
G03 X145.229 Y-9.545 I2.588 J0.0 F1128.
X147.817 Y-6.956 I0.0 J2.588
G01 Y2.998 F2000.
Y4.333 Z-1.969
Y12.953
G03 X145.229 Y15.541 I-2.588 J0.0 F1128.
X142.64 Y12.953 I0.0 J-2.588
G01 Y-6.956 F2000.
G03 X145.229 Y-9.545 I2.588 J0.0 F1128.
X147.817 Y-6.956 I0.0 J2.588
G01 Y4.333 F2000.
X145.817
Z.031
G00 Z2.5
X-110.189 Y.797
G01 Z2.43
Z-.57 F800.
G03 X-108.189 Y2.797 I0.0 J2. F400.
G01 Y12.953 F2000.
G03 X-111.174 Y15.937 I-2.985 J0.0 F1198.
X-114.158 Y12.953 I0.0 J-2.985
G01 Y-7.358 F2000.
G03 X-111.174 Y-10.343 I2.985 J0.0 F1198.
X-108.189 Y-7.358 I0.0 J2.985
G01 Y2.797 F2000.
X-108.212 Y3.02 Z-.582
X-108.233 Y3.242 Z-.593
X-108.253 Y3.464 Z-.605
X-108.271 Y3.687 Z-.617
X-108.288 Y3.909 Z-.628
X-108.304 Y4.132 Z-.64
Y12.953
G03 X-111.174 Y15.822 I-2.87 J0.0 F1179.
X-114.043 Y12.953 I0.0 J-2.87
G01 Y-7.358 F2000.
G03 X-111.174 Y-10.228 I2.87 J0.0 F1179.
X-108.304 Y-7.358 I0.0 J2.87
G01 Y2.797 F2000.
X-108.319 Y3.02 Z-.652
X-108.334 Y3.242 Z-.663
X-108.347 Y3.464 Z-.675
X-108.36 Y3.687 Z-.686
X-108.372 Y3.909 Z-.698
X-108.384 Y4.132 Z-.71
Y12.953
G03 X-111.174 Y15.742 I-2.79 J0.0 F1165.
X-113.963 Y12.953 I0.0 J-2.79
G01 Y-7.358 F2000.
G03 X-111.174 Y-10.148 I2.79 J0.0 F1165.
X-108.384 Y-7.358 I0.0 J2.79
G01 Y2.797 F2000.
X-108.395 Y3.02 Z-.721
X-108.406 Y3.242 Z-.733
X-108.416 Y3.464 Z-.745
X-108.426 Y3.687 Z-.756
X-108.435 Y3.909 Z-.768
X-108.444 Y4.132 Z-.78
Y12.953
G03 X-111.174 Y15.682 I-2.729 J0.0 F1154.
X-113.903 Y12.953 I0.0 J-2.729
G01 Y-7.358 F2000.
G03 X-111.174 Y-10.088 I2.729 J0.0 F1154.
X-108.444 Y-7.358 I0.0 J2.729
G01 Y2.797 F2000.
X-108.453 Y3.02 Z-.791
X-108.461 Y3.242 Z-.803
X-108.469 Y3.464 Z-.815
X-108.477 Y3.687 Z-.826
X-108.484 Y3.909 Z-.838
X-108.491 Y4.132 Z-.85
Y12.953
G03 X-111.174 Y15.636 I-2.683 J0.0 F1146.
X-113.857 Y12.953 I0.0 J-2.683
G01 Y-7.358 F2000.
G03 X-111.174 Y-10.041 I2.683 J0.0 F1146.
X-108.491 Y-7.358 I0.0 J2.683
G01 Y2.797 F2000.
X-108.497 Y3.02 Z-.861
X-108.504 Y3.242 Z-.873
X-108.51 Y3.464 Z-.885
X-108.515 Y3.687 Z-.896
X-108.521 Y3.909 Z-.908
X-108.526 Y4.132 Z-.92
Y12.953
G03 X-111.174 Y15.6 I-2.648 J0.0 F1139.
X-113.821 Y12.953 I0.0 J-2.648
G01 Y-7.358 F2000.
G03 X-111.174 Y-10.006 I2.648 J0.0 F1139.
X-108.526 Y-7.358 I0.0 J2.648
G01 Y2.797 F2000.
X-108.531 Y3.02 Z-.931
X-108.536 Y3.242 Z-.943
X-108.54 Y3.464 Z-.955
X-108.545 Y3.687 Z-.966
X-108.549 Y3.909 Z-.978
X-108.553 Y4.132 Z-.99
Y12.953
G03 X-111.174 Y15.574 I-2.621 J0.0 F1134.
X-113.795 Y12.953 I0.0 J-2.621
G01 Y-7.358 F2000.
G03 X-111.174 Y-9.98 I2.621 J0.0 F1134.
X-108.553 Y-7.358 I0.0 J2.621
G01 Y2.797 F2000.
X-108.556 Y3.02 Z-1.001
X-108.559 Y3.242 Z-1.013
X-108.563 Y3.464 Z-1.024
X-108.566 Y3.687 Z-1.036
X-108.568 Y3.909 Z-1.048
X-108.571 Y4.132 Z-1.059
Y12.953
G03 X-111.174 Y15.556 I-2.603 J0.0 F1131.
X-113.777 Y12.953 I0.0 J-2.603
G01 Y-7.358 F2000.
G03 X-111.174 Y-9.961 I2.603 J0.0 F1131.
X-108.571 Y-7.358 I0.0 J2.603
G01 Y2.797 F2000.
X-108.573 Y3.02 Z-1.071
X-108.575 Y3.242 Z-1.083
X-108.577 Y3.464 Z-1.094
X-108.579 Y3.687 Z-1.106
X-108.58 Y3.909 Z-1.118
X-108.582 Y4.132 Z-1.129
Y12.953
G03 X-110.202 Y15.356 I-2.592 J0.0 F1129.
X-111.174 Y15.545 I-.971 J-2.403
X-113.766 Y12.953 I0.0 J-2.592
G01 Y-7.359 F2000.
G03 X-111.174 Y-9.95 I2.592 J0.0 F1129.
X-108.582 Y-7.358 I0.0 J2.592
G01 Y2.797 F2000.
X-108.583 Y3.02 Z-1.141
X-108.584 Y3.242 Z-1.153
Y3.464 Z-1.164
X-108.585 Y3.687 Z-1.176
Y3.909 Z-1.188
Y4.132 Z-1.199
Y12.927
Y12.957
G03 X-108.593 Y13.155 I-2.588 J-.004 F1128.
G01 X-108.616 Y13.349 F2000.
G03 X-108.757 Y13.879 I-2.558 J-.396 F1128.
X-110.274 Y15.38 I-2.417 J-.926 F931.
X-111.174 Y15.541 I-.9 J-2.427 F733.
X-112.403 Y15.231 I0.0 J-2.588
G01 X-113.035 Y14.751 F2000.
G03 X-113.762 Y12.953 I1.861 J-1.799 F733.
G01 Y12.741 F1300.
Y-4.947 F2000.
Y-7.147 F1650.
Y-7.358 F1300.
G03 X-113.035 Y-9.157 I2.588 J0.0 F733.
G01 X-112.403 Y-9.636 F2000.
G03 X-111.174 Y-9.947 I1.229 J2.278 F733.
X-110.274 Y-9.785 I0.0 J2.588
X-108.585 Y-7.358 I-.9 J2.427 F1128.
G01 Y.94 F2000.
Y2.797
Y3.02 Z-1.211
Y4.132 Z-1.269
Y12.953
G03 X-111.174 Y15.541 I-2.588 J0.0 F1128.
X-113.762 Y12.953 I0.0 J-2.588
G01 Y-7.358 F2000.
G03 X-111.174 Y-9.947 I2.588 J0.0 F1128.
X-108.585 Y-7.358 I0.0 J2.588
G01 Y2.797 F2000.
Y4.132 Z-1.339
Y12.953
G03 X-111.174 Y15.541 I-2.588 J0.0 F1128.
X-113.762 Y12.953 I0.0 J-2.588
G01 Y-7.358 F2000.
G03 X-111.174 Y-9.947 I2.588 J0.0 F1128.
X-108.585 Y-7.358 I0.0 J2.588
G01 Y2.797 F2000.
Y4.132 Z-1.409
Y12.953
G03 X-111.174 Y15.541 I-2.588 J0.0 F1128.
X-113.762 Y12.953 I0.0 J-2.588
G01 Y-7.358 F2000.
G03 X-111.174 Y-9.947 I2.588 J0.0 F1128.
X-108.585 Y-7.358 I0.0 J2.588
G01 Y2.797 F2000.
Y4.132 Z-1.479
Y12.953
G03 X-111.174 Y15.541 I-2.588 J0.0 F1128.
X-113.762 Y12.953 I0.0 J-2.588
G01 Y-7.358 F2000.
G03 X-111.174 Y-9.947 I2.588 J0.0 F1128.
X-108.585 Y-7.358 I0.0 J2.588
G01 Y2.797 F2000.
Y4.132 Z-1.549
Y12.953
G03 X-111.174 Y15.541 I-2.588 J0.0 F1128.
X-113.762 Y12.953 I0.0 J-2.588
G01 Y-7.358 F2000.
G03 X-111.174 Y-9.947 I2.588 J0.0 F1128.
X-108.585 Y-7.358 I0.0 J2.588
G01 Y2.797 F2000.
Y4.132 Z-1.619
Y12.953
G03 X-111.174 Y15.541 I-2.588 J0.0 F1128.
X-113.762 Y12.953 I0.0 J-2.588
G01 Y-7.358 F2000.
G03 X-111.174 Y-9.947 I2.588 J0.0 F1128.
X-108.585 Y-7.358 I0.0 J2.588
G01 Y2.797 F2000.
Y4.132 Z-1.689
Y12.953
G03 X-111.174 Y15.541 I-2.588 J0.0 F1128.
X-113.762 Y12.953 I0.0 J-2.588
G01 Y-7.358 F2000.
G03 X-111.174 Y-9.947 I2.588 J0.0 F1128.
X-108.585 Y-7.358 I0.0 J2.588
G01 Y2.797 F2000.
Y4.132 Z-1.759
Y12.953
G03 X-111.174 Y15.541 I-2.588 J0.0 F1128.
X-113.762 Y12.953 I0.0 J-2.588
G01 Y-7.358 F2000.
G03 X-111.174 Y-9.947 I2.588 J0.0 F1128.
X-108.585 Y-7.358 I0.0 J2.588
G01 Y2.797 F2000.
Y4.132 Z-1.829
Y12.953
G03 X-111.174 Y15.541 I-2.588 J0.0 F1128.
X-113.762 Y12.953 I0.0 J-2.588
G01 Y-7.358 F2000.
G03 X-111.174 Y-9.947 I2.588 J0.0 F1128.
X-108.585 Y-7.358 I0.0 J2.588
G01 Y2.797 F2000.
Y4.132 Z-1.899
Y12.953
G03 X-111.174 Y15.541 I-2.588 J0.0 F1128.
X-113.762 Y12.953 I0.0 J-2.588
G01 Y-7.358 F2000.
G03 X-111.174 Y-9.947 I2.588 J0.0 F1128.
X-108.585 Y-7.358 I0.0 J2.588
G01 Y2.797 F2000.
Y4.132 Z-1.969
Y12.953
G03 X-111.174 Y15.541 I-2.588 J0.0 F1128.
X-113.762 Y12.953 I0.0 J-2.588
G01 Y-7.358 F2000.
G03 X-111.174 Y-9.947 I2.588 J0.0 F1128.
X-108.585 Y-7.358 I0.0 J2.588
G01 Y4.132 F2000.
X-110.585
Z.031
G00 Z2.5
X127.151 Y4.683
G01 Z2.43
Z-.57 F800.
G03 X125.151 Y2.683 I0.0 J-2. F400.
G01 Y-8.112 F2000.
G03 X128.135 Y-11.097 I2.985 J0.0 F1198.
X131.12 Y-8.112 I0.0 J2.985
G01 Y12.953 F2000.
G03 X128.135 Y15.937 I-2.985 J0.0 F1198.
X125.151 Y12.953 I0.0 J-2.985
G01 Y2.683 F2000.
X125.174 Y2.461 Z-.582
X125.195 Y2.238 Z-.593
X125.214 Y2.016 Z-.605
X125.232 Y1.793 Z-.617
X125.25 Y1.571 Z-.628
X125.266 Y1.349 Z-.64
Y-8.112
G03 X128.135 Y-10.982 I2.87 J0.0 F1179.
X131.005 Y-8.112 I0.0 J2.87
G01 Y12.953 F2000.
G03 X128.135 Y15.822 I-2.87 J0.0 F1179.
X125.266 Y12.953 I0.0 J-2.87
G01 Y2.683 F2000.
X125.281 Y2.461 Z-.652
X125.295 Y2.238 Z-.663
X125.309 Y2.016 Z-.675
X125.322 Y1.793 Z-.686
X125.334 Y1.571 Z-.698
X125.346 Y1.349 Z-.71
Y-8.112
G03 X128.135 Y-10.902 I2.79 J0.0 F1165.
X130.925 Y-8.112 I0.0 J2.79
G01 Y12.953 F2000.
G03 X128.135 Y15.742 I-2.79 J0.0 F1165.
X125.346 Y12.953 I0.0 J-2.79
G01 Y2.683 F2000.
X125.357 Y2.461 Z-.721
X125.368 Y2.238 Z-.733
X125.378 Y2.016 Z-.745
X125.388 Y1.793 Z-.756
X125.397 Y1.571 Z-.768
X125.406 Y1.349 Z-.78
Y-8.112
G03 X128.135 Y-10.842 I2.729 J0.0 F1154.
X130.865 Y-8.112 I0.0 J2.729
G01 Y12.953 F2000.
G03 X128.135 Y15.682 I-2.729 J0.0 F1154.
X125.406 Y12.953 I0.0 J-2.729
G01 Y2.683 F2000.
X125.414 Y2.461 Z-.791
X125.423 Y2.238 Z-.803
X125.431 Y2.016 Z-.815
X125.438 Y1.793 Z-.826
X125.445 Y1.571 Z-.838
X125.452 Y1.349 Z-.85
Y-8.112
G03 X128.135 Y-10.796 I2.683 J0.0 F1146.
X130.818 Y-8.112 I0.0 J2.683
G01 Y12.953 F2000.
G03 X128.135 Y15.636 I-2.683 J0.0 F1146.
X125.452 Y12.953 I0.0 J-2.683
G01 Y2.683 F2000.
X125.459 Y2.461 Z-.861
X125.465 Y2.238 Z-.873
X125.471 Y2.016 Z-.885
X125.477 Y1.793 Z-.896
X125.482 Y1.571 Z-.908
X125.488 Y1.349 Z-.92
Y-8.112
G03 X128.135 Y-10.76 I2.648 J0.0 F1139.
X130.783 Y-8.112 I0.0 J2.648
G01 Y12.953 F2000.
G03 X128.135 Y15.6 I-2.648 J0.0 F1139.
X125.488 Y12.953 I0.0 J-2.648
G01 Y2.683 F2000.
X125.493 Y2.461 Z-.931
X125.497 Y2.238 Z-.943
X125.502 Y2.016 Z-.955
X125.506 Y1.793 Z-.966
X125.51 Y1.571 Z-.978
X125.514 Y1.349 Z-.99
Y-8.112
G03 X128.135 Y-10.734 I2.621 J0.0 F1134.
X130.756 Y-8.112 I0.0 J2.621
G01 Y12.953 F2000.
G03 X128.135 Y15.574 I-2.621 J0.0 F1134.
X125.514 Y12.953 I0.0 J-2.621
G01 Y2.683 F2000.
X125.518 Y2.461 Z-1.001
X125.521 Y2.238 Z-1.013
X125.524 Y2.016 Z-1.024
X125.527 Y1.793 Z-1.036
X125.53 Y1.571 Z-1.048
X125.532 Y1.349 Z-1.059
Y-8.112
G03 X128.135 Y-10.715 I2.603 J0.0 F1131.
X130.738 Y-8.112 I0.0 J2.603
G01 Y12.953 F2000.
G03 X128.135 Y15.556 I-2.603 J0.0 F1131.
X125.532 Y12.953 I0.0 J-2.603
G01 Y2.683 F2000.
X125.535 Y2.461 Z-1.071
X125.537 Y2.238 Z-1.083
X125.539 Y2.016 Z-1.094
X125.54 Y1.793 Z-1.106
X125.542 Y1.571 Z-1.118
X125.543 Y1.349 Z-1.129
Y-8.112
G03 X128.135 Y-10.705 I2.592 J0.0 F1129.
X130.727 Y-8.112 I0.0 J2.592
G01 Y12.953 F2000.
G03 X128.135 Y15.545 I-2.592 J0.0 F1129.
X125.543 Y12.953 I0.0 J-2.592
G01 Y2.683 F2000.
X125.544 Y2.461 Z-1.141
X125.545 Y2.238 Z-1.153
X125.546 Y2.016 Z-1.164
Y1.793 Z-1.176
X125.547 Y1.571 Z-1.188
Y1.349 Z-1.199
Y-8.112
G03 X128.135 Y-10.701 I2.588 J0.0 F1128.
X130.168 Y-9.715 I0.0 J2.588
X130.724 Y-8.112 I-2.033 J1.603
G01 Y12.953 F2000.
G03 X128.135 Y15.541 I-2.588 J0.0 F1128.
X125.547 Y12.953 I0.0 J-2.588
G01 Y2.683 F2000.
Y2.461 Z-1.211
Y1.349 Z-1.269
Y-8.112
G03 X128.135 Y-10.701 I2.588 J0.0 F1128.
X130.724 Y-8.112 I0.0 J2.588
G01 Y12.953 F2000.
G03 X128.135 Y15.541 I-2.588 J0.0 F1128.
X125.547 Y12.953 I0.0 J-2.588
G01 Y2.683 F2000.
Y1.349 Z-1.339
Y-8.112
G03 X128.135 Y-10.701 I2.588 J0.0 F1128.
X130.724 Y-8.112 I0.0 J2.588
G01 Y12.953 F2000.
G03 X128.135 Y15.541 I-2.588 J0.0 F1128.
X125.547 Y12.953 I0.0 J-2.588
G01 Y2.683 F2000.
Y1.349 Z-1.409
Y-8.112
G03 X128.135 Y-10.701 I2.588 J0.0 F1128.
X130.724 Y-8.112 I0.0 J2.588
G01 Y12.953 F2000.
G03 X128.135 Y15.541 I-2.588 J0.0 F1128.
X125.547 Y12.953 I0.0 J-2.588
G01 Y2.683 F2000.
Y1.349 Z-1.479
Y-8.112
G03 X128.135 Y-10.701 I2.588 J0.0 F1128.
X130.724 Y-8.112 I0.0 J2.588
G01 Y12.953 F2000.
G03 X128.135 Y15.541 I-2.588 J0.0 F1128.
X125.547 Y12.953 I0.0 J-2.588
G01 Y2.683 F2000.
Y1.349 Z-1.549
Y-8.112
G03 X128.135 Y-10.701 I2.588 J0.0 F1128.
X130.724 Y-8.112 I0.0 J2.588
G01 Y12.953 F2000.
G03 X128.135 Y15.541 I-2.588 J0.0 F1128.
X125.547 Y12.953 I0.0 J-2.588
G01 Y2.683 F2000.
Y1.349 Z-1.619
Y-8.112
G03 X128.135 Y-10.701 I2.588 J0.0 F1128.
X130.724 Y-8.112 I0.0 J2.588
G01 Y12.953 F2000.
G03 X128.135 Y15.541 I-2.588 J0.0 F1128.
X125.547 Y12.953 I0.0 J-2.588
G01 Y2.683 F2000.
Y1.349 Z-1.689
Y-8.112
G03 X128.135 Y-10.701 I2.588 J0.0 F1128.
X130.724 Y-8.112 I0.0 J2.588
G01 Y12.953 F2000.
G03 X128.135 Y15.541 I-2.588 J0.0 F1128.
X125.547 Y12.953 I0.0 J-2.588
G01 Y2.683 F2000.
Y1.349 Z-1.759
Y-8.112
G03 X128.135 Y-10.701 I2.588 J0.0 F1128.
X130.724 Y-8.112 I0.0 J2.588
G01 Y12.953 F2000.
G03 X128.135 Y15.541 I-2.588 J0.0 F1128.
X125.547 Y12.953 I0.0 J-2.588
G01 Y2.683 F2000.
Y1.349 Z-1.829
Y-8.112
G03 X128.135 Y-10.701 I2.588 J0.0 F1128.
X130.724 Y-8.112 I0.0 J2.588
G01 Y12.953 F2000.
G03 X128.135 Y15.541 I-2.588 J0.0 F1128.
X125.547 Y12.953 I0.0 J-2.588
G01 Y2.683 F2000.
Y1.349 Z-1.899
Y-8.112
G03 X128.135 Y-10.701 I2.588 J0.0 F1128.
X130.724 Y-8.112 I0.0 J2.588
G01 Y12.953 F2000.
G03 X128.135 Y15.541 I-2.588 J0.0 F1128.
X125.547 Y12.953 I0.0 J-2.588
G01 Y2.683 F2000.
Y1.349 Z-1.969
Y-8.112
G03 X128.135 Y-10.701 I2.588 J0.0 F1128.
X130.724 Y-8.112 I0.0 J2.588
G01 Y12.953 F2000.
G03 X128.135 Y15.541 I-2.588 J0.0 F1128.
X125.547 Y12.953 I0.0 J-2.588
G01 Y1.349 F2000.
X127.547
Z.031
G00 Z2.5
X112.026 Y-.233
G01 Z2.43
Z-.57 F800.
G03 X114.026 Y1.767 I0.0 J2. F400.
G01 Y12.953 F2000.
G03 X111.042 Y15.937 I-2.985 J0.0 F1198.
X108.103 Y13.476 I0.0 J-2.985
X108.057 Y12.953 I2.939 J-.523
G01 Y-9.42 F2000.
G03 X111.042 Y-12.404 I2.985 J0.0 F1198.
X114.026 Y-9.42 I0.0 J2.985
G01 Y1.767 F2000.
X114.003 Y1.989 Z-.582
X113.982 Y2.211 Z-.593
X113.963 Y2.434 Z-.605
X113.945 Y2.656 Z-.617
X113.927 Y2.879 Z-.628
X113.911 Y3.101 Z-.64
Y12.953
G03 X111.042 Y15.822 I-2.87 J0.0 F1179.
X108.22 Y13.476 I0.0 J-2.87
X108.172 Y12.953 I2.822 J-.523
G01 Y-9.42 F2000.
G03 X111.042 Y-12.289 I2.87 J0.0 F1179.
X113.911 Y-9.42 I0.0 J2.87
G01 Y1.767 F2000.
X113.896 Y1.989 Z-.652
X113.882 Y2.211 Z-.663
X113.868 Y2.434 Z-.675
X113.855 Y2.656 Z-.686
X113.843 Y2.879 Z-.698
X113.831 Y3.101 Z-.71
Y12.953
G03 X111.042 Y15.742 I-2.79 J0.0 F1165.
X108.302 Y13.476 I0.0 J-2.79
X108.252 Y12.953 I2.74 J-.523
G01 Y-9.42 F2000.
G03 X111.042 Y-12.209 I2.79 J0.0 F1165.
X113.831 Y-9.42 I0.0 J2.79
G01 Y1.767 F2000.
X113.82 Y1.989 Z-.721
X113.81 Y2.211 Z-.733
X113.799 Y2.434 Z-.745
X113.789 Y2.656 Z-.756
X113.78 Y2.879 Z-.768
X113.771 Y3.101 Z-.78
Y12.953
G03 X111.042 Y15.682 I-2.729 J0.0 F1154.
X108.363 Y13.476 I0.0 J-2.729
X108.312 Y12.953 I2.679 J-.523
G01 Y-9.42 F2000.
G03 X111.042 Y-12.149 I2.729 J0.0 F1154.
X113.771 Y-9.42 I0.0 J2.729
G01 Y1.767 F2000.
X113.763 Y1.989 Z-.791
X113.754 Y2.211 Z-.803
X113.746 Y2.434 Z-.815
X113.739 Y2.656 Z-.826
X113.732 Y2.879 Z-.838
X113.725 Y3.101 Z-.85
Y12.953
G03 X111.042 Y15.636 I-2.683 J0.0 F1146.
X108.359 Y12.953 I0.0 J-2.683
G01 Y-9.42 F2000.
G03 X111.042 Y-12.103 I2.683 J0.0 F1146.
X113.725 Y-9.42 I0.0 J2.683
G01 Y1.767 F2000.
X113.718 Y1.989 Z-.861
X113.712 Y2.211 Z-.873
X113.706 Y2.434 Z-.885
X113.7 Y2.656 Z-.896
X113.695 Y2.879 Z-.908
X113.689 Y3.101 Z-.92
Y12.953
G03 X111.042 Y15.6 I-2.648 J0.0 F1139.
X108.394 Y12.953 I0.0 J-2.648
G01 Y-9.42 F2000.
G03 X111.042 Y-12.067 I2.648 J0.0 F1139.
X113.689 Y-9.42 I0.0 J2.648
G01 Y1.767 F2000.
X113.684 Y1.989 Z-.931
X113.68 Y2.211 Z-.943
X113.675 Y2.434 Z-.955
X113.671 Y2.656 Z-.966
X113.667 Y2.879 Z-.978
X113.663 Y3.101 Z-.99
Y12.953
G03 X111.042 Y15.574 I-2.621 J0.0 F1134.
X108.421 Y12.953 I0.0 J-2.621
G01 Y-9.42 F2000.
G03 X111.042 Y-12.041 I2.621 J0.0 F1134.
X113.663 Y-9.42 I0.0 J2.621
G01 Y1.767 F2000.
X113.659 Y1.989 Z-1.001
X113.656 Y2.211 Z-1.013
X113.653 Y2.434 Z-1.024
X113.65 Y2.656 Z-1.036
X113.647 Y2.879 Z-1.048
X113.645 Y3.101 Z-1.059
Y12.953
G03 X111.042 Y15.556 I-2.603 J0.0 F1131.
X108.439 Y12.953 I0.0 J-2.603
G01 Y-9.42 F2000.
G03 X111.042 Y-12.023 I2.603 J0.0 F1131.
X113.645 Y-9.42 I0.0 J2.603
G01 Y1.767 F2000.
X113.642 Y1.989 Z-1.071
X113.64 Y2.211 Z-1.083
X113.638 Y2.434 Z-1.094
X113.637 Y2.656 Z-1.106
X113.635 Y2.879 Z-1.118
X113.634 Y3.101 Z-1.129
Y12.953
G03 X111.042 Y15.545 I-2.592 J0.0 F1129.
X108.45 Y12.953 I0.0 J-2.592
G01 Y-9.42 F2000.
G03 X111.042 Y-12.012 I2.592 J0.0 F1129.
X113.634 Y-9.42 I0.0 J2.592
G01 Y1.767 F2000.
X113.633 Y1.989 Z-1.141
X113.632 Y2.211 Z-1.153
X113.631 Y2.434 Z-1.164
Y2.656 Z-1.176
X113.63 Y2.879 Z-1.188
Y3.101 Z-1.199
Y12.927
Y12.957
G03 X111.042 Y15.541 I-2.588 J-.004 F1128.
X108.453 Y12.953 I0.0 J-2.588
G01 Y-9.42 F2000.
G03 X111.042 Y-12.008 I2.588 J0.0 F1128.
X113.116 Y-10.969 I0.0 J2.588
X113.63 Y-9.419 I-2.074 J1.549
G01 Y-9.378
Y1.767 F2000.
Y3.101 Z-1.269
Y12.953
G03 X111.042 Y15.541 I-2.588 J0.0 F1128.
X108.453 Y12.953 I0.0 J-2.588
G01 Y-9.42 F2000.
G03 X111.042 Y-12.008 I2.588 J0.0 F1128.
X113.63 Y-9.42 I0.0 J2.588
G01 Y1.767 F2000.
Y3.101 Z-1.339
Y12.953
G03 X111.042 Y15.541 I-2.588 J0.0 F1128.
X108.453 Y12.953 I0.0 J-2.588
G01 Y-9.42 F2000.
G03 X111.042 Y-12.008 I2.588 J0.0 F1128.
X113.63 Y-9.42 I0.0 J2.588
G01 Y1.767 F2000.
Y3.101 Z-1.409
Y12.953
G03 X111.042 Y15.541 I-2.588 J0.0 F1128.
X108.453 Y12.953 I0.0 J-2.588
G01 Y-9.42 F2000.
G03 X111.042 Y-12.008 I2.588 J0.0 F1128.
X113.63 Y-9.42 I0.0 J2.588
G01 Y1.767 F2000.
Y3.101 Z-1.479
Y12.953
G03 X111.042 Y15.541 I-2.588 J0.0 F1128.
X108.453 Y12.953 I0.0 J-2.588
G01 Y-9.42 F2000.
G03 X111.042 Y-12.008 I2.588 J0.0 F1128.
X113.63 Y-9.42 I0.0 J2.588
G01 Y1.767 F2000.
Y3.101 Z-1.549
Y12.953
G03 X111.042 Y15.541 I-2.588 J0.0 F1128.
X108.453 Y12.953 I0.0 J-2.588
G01 Y-9.42 F2000.
G03 X111.042 Y-12.008 I2.588 J0.0 F1128.
X113.63 Y-9.42 I0.0 J2.588
G01 Y1.767 F2000.
Y3.101 Z-1.619
Y12.953
G03 X111.042 Y15.541 I-2.588 J0.0 F1128.
X108.453 Y12.953 I0.0 J-2.588
G01 Y-9.42 F2000.
G03 X111.042 Y-12.008 I2.588 J0.0 F1128.
X113.63 Y-9.42 I0.0 J2.588
G01 Y1.767 F2000.
Y3.101 Z-1.689
Y12.953
G03 X111.042 Y15.541 I-2.588 J0.0 F1128.
X108.453 Y12.953 I0.0 J-2.588
G01 Y-9.42 F2000.
G03 X111.042 Y-12.008 I2.588 J0.0 F1128.
X113.63 Y-9.42 I0.0 J2.588
G01 Y1.767 F2000.
Y3.101 Z-1.759
Y12.953
G03 X111.042 Y15.541 I-2.588 J0.0 F1128.
X108.453 Y12.953 I0.0 J-2.588
G01 Y-9.42 F2000.
G03 X111.042 Y-12.008 I2.588 J0.0 F1128.
X113.63 Y-9.42 I0.0 J2.588
G01 Y1.767 F2000.
Y3.101 Z-1.829
Y12.953
G03 X111.042 Y15.541 I-2.588 J0.0 F1128.
X108.453 Y12.953 I0.0 J-2.588
G01 Y-9.42 F2000.
G03 X111.042 Y-12.008 I2.588 J0.0 F1128.
X113.63 Y-9.42 I0.0 J2.588
G01 Y1.767 F2000.
Y3.101 Z-1.899
Y12.953
G03 X111.042 Y15.541 I-2.588 J0.0 F1128.
X108.453 Y12.953 I0.0 J-2.588
G01 Y-9.42 F2000.
G03 X111.042 Y-12.008 I2.588 J0.0 F1128.
X113.63 Y-9.42 I0.0 J2.588
G01 Y1.767 F2000.
Y3.101 Z-1.969
Y12.953
G03 X111.042 Y15.541 I-2.588 J0.0 F1128.
X108.453 Y12.953 I0.0 J-2.588
G01 Y-9.42 F2000.
G03 X111.042 Y-12.008 I2.588 J0.0 F1128.
X113.63 Y-9.42 I0.0 J2.588
G01 Y3.101 F2000.
X111.63
Z.031
G00 Z2.5
X94.933 Y-.661
G01 Z2.43
Z-.57 F800.
G03 X96.933 Y1.339 I0.0 J2. F400.
G01 Y12.953 F2000.
G03 X93.948 Y15.937 I-2.985 J0.0 F1198.
X91.01 Y13.476 I0.0 J-2.985
X90.964 Y12.953 I2.939 J-.523
G01 Y-10.274 F2000.
G03 X93.948 Y-13.259 I2.985 J0.0 F1198.
X96.933 Y-10.274 I0.0 J2.985
G01 Y1.339 F2000.
X96.91 Y1.562 Z-.582
X96.889 Y1.784 Z-.593
X96.869 Y2.006 Z-.605
X96.851 Y2.229 Z-.617
X96.834 Y2.451 Z-.628
X96.818 Y2.674 Z-.64
Y12.953
G03 X93.948 Y15.822 I-2.87 J0.0 F1179.
X91.127 Y13.476 I0.0 J-2.87
X91.079 Y12.953 I2.822 J-.523
G01 Y-10.274 F2000.
G03 X93.948 Y-13.144 I2.87 J0.0 F1179.
X96.818 Y-10.274 I0.0 J2.87
G01 Y1.339 F2000.
X96.803 Y1.562 Z-.652
X96.788 Y1.784 Z-.663
X96.775 Y2.006 Z-.675
X96.762 Y2.229 Z-.686
X96.75 Y2.451 Z-.698
X96.738 Y2.674 Z-.71
Y12.953
G03 X93.948 Y15.742 I-2.79 J0.0 F1165.
X91.208 Y13.476 I0.0 J-2.79
X91.159 Y12.953 I2.74 J-.523
G01 Y-10.274 F2000.
G03 X93.948 Y-13.064 I2.79 J0.0 F1165.
X96.738 Y-10.274 I0.0 J2.79
G01 Y1.339 F2000.
X96.727 Y1.562 Z-.721
X96.716 Y1.784 Z-.733
X96.706 Y2.006 Z-.745
X96.696 Y2.229 Z-.756
X96.687 Y2.451 Z-.768
X96.678 Y2.674 Z-.78
Y12.953
G03 X93.948 Y15.682 I-2.729 J0.0 F1154.
X91.269 Y13.476 I0.0 J-2.729
X91.219 Y12.953 I2.679 J-.523
G01 Y-10.274 F2000.
G03 X93.948 Y-13.004 I2.729 J0.0 F1154.
X96.678 Y-10.274 I0.0 J2.729
G01 Y1.339 F2000.
X96.669 Y1.562 Z-.791
X96.661 Y1.784 Z-.803
X96.653 Y2.006 Z-.815
X96.645 Y2.229 Z-.826
X96.638 Y2.451 Z-.838
X96.631 Y2.674 Z-.85
Y12.953
G03 X93.948 Y15.636 I-2.683 J0.0 F1146.
X91.265 Y12.953 I0.0 J-2.683
G01 Y-10.274 F2000.
G03 X93.948 Y-12.957 I2.683 J0.0 F1146.
X96.631 Y-10.274 I0.0 J2.683
G01 Y1.339 F2000.
X96.625 Y1.562 Z-.861
X96.618 Y1.784 Z-.873
X96.612 Y2.006 Z-.885
X96.607 Y2.229 Z-.896
X96.601 Y2.451 Z-.908
X96.596 Y2.674 Z-.92
Y12.953
G03 X93.948 Y15.6 I-2.648 J0.0 F1139.
X91.301 Y12.953 I0.0 J-2.648
G01 Y-10.274 F2000.
G03 X93.948 Y-12.922 I2.648 J0.0 F1139.
X96.596 Y-10.274 I0.0 J2.648
G01 Y1.339 F2000.
X96.591 Y1.562 Z-.931
X96.586 Y1.784 Z-.943
X96.582 Y2.006 Z-.955
X96.577 Y2.229 Z-.966
X96.573 Y2.451 Z-.978
X96.569 Y2.674 Z-.99
Y12.953
G03 X93.948 Y15.574 I-2.621 J0.0 F1134.
X91.327 Y12.953 I0.0 J-2.621
G01 Y-10.274 F2000.
G03 X93.948 Y-12.896 I2.621 J0.0 F1134.
X96.569 Y-10.274 I0.0 J2.621
G01 Y1.339 F2000.
X96.566 Y1.562 Z-1.001
X96.563 Y1.784 Z-1.013
X96.559 Y2.006 Z-1.024
X96.556 Y2.229 Z-1.036
X96.554 Y2.451 Z-1.048
X96.551 Y2.674 Z-1.059
Y12.953
G03 X93.948 Y15.556 I-2.603 J0.0 F1131.
X91.345 Y12.953 I0.0 J-2.603
G01 Y-10.274 F2000.
G03 X93.948 Y-12.877 I2.603 J0.0 F1131.
X96.551 Y-10.274 I0.0 J2.603
G01 Y1.339 F2000.
X96.549 Y1.562 Z-1.071
X96.547 Y1.784 Z-1.083
X96.545 Y2.006 Z-1.094
X96.543 Y2.229 Z-1.106
X96.542 Y2.451 Z-1.118
X96.54 Y2.674 Z-1.129
Y12.953
G03 X94.92 Y15.356 I-2.592 J0.0 F1129.
X93.948 Y15.545 I-.971 J-2.403
X91.356 Y12.953 I0.0 J-2.592
G01 Y-10.274 F2000.
G03 X93.948 Y-12.866 I2.592 J0.0 F1129.
X96.54 Y-10.274 I0.0 J2.592
G01 Y1.339 F2000.
X96.539 Y1.562 Z-1.141
X96.538 Y1.784 Z-1.153
Y2.006 Z-1.164
X96.537 Y2.229 Z-1.176
Y2.451 Z-1.188
Y2.674 Z-1.199
Y12.953
G03 X93.948 Y15.541 I-2.588 J0.0 F1128.
X92.197 Y14.859 I0.0 J-2.588
G01 X92.066 Y14.729 F2000.
G03 X91.36 Y12.953 I1.883 J-1.776 F1128.
G01 Y-7.261 F2000.
Y-9.461 F1650.
Y-10.274 F1300.
G03 X91.722 Y-11.595 I2.588 J0.0 F733.
G01 X92.197 Y-12.18 F2000.
G03 X93.674 Y-12.848 I1.751 J1.906 F733.
G01 X94.091 Y-12.859 F1300.
G03 X94.225 Y-12.848 I-.142 J2.584 F733.
X96.537 Y-10.274 I-.276 J2.574 F1128.
G01 Y1.339 F2000.
Y1.562 Z-1.211
Y2.674 Z-1.269
Y12.953
G03 X93.948 Y15.541 I-2.588 J0.0 F1128.
X91.36 Y12.953 I0.0 J-2.588
G01 Y-10.274 F2000.
G03 X93.948 Y-12.863 I2.588 J0.0 F1128.
X96.537 Y-10.274 I0.0 J2.588
G01 Y1.339 F2000.
Y2.674 Z-1.339
Y12.953
G03 X93.948 Y15.541 I-2.588 J0.0 F1128.
X91.36 Y12.953 I0.0 J-2.588
G01 Y-10.274 F2000.
G03 X93.948 Y-12.863 I2.588 J0.0 F1128.
X96.537 Y-10.274 I0.0 J2.588
G01 Y1.339 F2000.
Y2.674 Z-1.409
Y12.953
G03 X93.948 Y15.541 I-2.588 J0.0 F1128.
X91.36 Y12.953 I0.0 J-2.588
G01 Y-10.274 F2000.
G03 X93.948 Y-12.863 I2.588 J0.0 F1128.
X96.537 Y-10.274 I0.0 J2.588
G01 Y1.339 F2000.
Y2.674 Z-1.479
Y12.953
G03 X93.948 Y15.541 I-2.588 J0.0 F1128.
X91.36 Y12.953 I0.0 J-2.588
G01 Y-10.274 F2000.
G03 X93.948 Y-12.863 I2.588 J0.0 F1128.
X96.537 Y-10.274 I0.0 J2.588
G01 Y1.339 F2000.
Y2.674 Z-1.549
Y12.953
G03 X93.948 Y15.541 I-2.588 J0.0 F1128.
X91.36 Y12.953 I0.0 J-2.588
G01 Y-10.274 F2000.
G03 X93.948 Y-12.863 I2.588 J0.0 F1128.
X96.537 Y-10.274 I0.0 J2.588
G01 Y1.339 F2000.
Y2.674 Z-1.619
Y12.953
G03 X93.948 Y15.541 I-2.588 J0.0 F1128.
X91.36 Y12.953 I0.0 J-2.588
G01 Y-10.274 F2000.
G03 X93.948 Y-12.863 I2.588 J0.0 F1128.
X96.537 Y-10.274 I0.0 J2.588
G01 Y1.339 F2000.
Y2.674 Z-1.689
Y12.953
G03 X93.948 Y15.541 I-2.588 J0.0 F1128.
X91.36 Y12.953 I0.0 J-2.588
G01 Y-10.274 F2000.
G03 X93.948 Y-12.863 I2.588 J0.0 F1128.
X96.537 Y-10.274 I0.0 J2.588
G01 Y1.339 F2000.
Y2.674 Z-1.759
Y12.953
G03 X93.948 Y15.541 I-2.588 J0.0 F1128.
X91.36 Y12.953 I0.0 J-2.588
G01 Y-10.274 F2000.
G03 X93.948 Y-12.863 I2.588 J0.0 F1128.
X96.537 Y-10.274 I0.0 J2.588
G01 Y1.339 F2000.
Y2.674 Z-1.829
Y12.953
G03 X93.948 Y15.541 I-2.588 J0.0 F1128.
X91.36 Y12.953 I0.0 J-2.588
G01 Y-10.274 F2000.
G03 X93.948 Y-12.863 I2.588 J0.0 F1128.
X96.537 Y-10.274 I0.0 J2.588
G01 Y1.339 F2000.
Y2.674 Z-1.899
Y12.953
G03 X93.948 Y15.541 I-2.588 J0.0 F1128.
X91.36 Y12.953 I0.0 J-2.588
G01 Y-10.274 F2000.
G03 X93.948 Y-12.863 I2.588 J0.0 F1128.
X96.537 Y-10.274 I0.0 J2.588
G01 Y1.339 F2000.
Y2.674 Z-1.969
Y12.953
G03 X93.948 Y15.541 I-2.588 J0.0 F1128.
X91.36 Y12.953 I0.0 J-2.588
G01 Y-10.274 F2000.
G03 X93.948 Y-12.863 I2.588 J0.0 F1128.
X96.537 Y-10.274 I0.0 J2.588
G01 Y2.674 F2000.
X94.537
Z.031
G00 Z2.5
X-76.002 Y-.661
G01 Z2.43
Z-.57 F800.
G03 X-74.002 Y1.339 I0.0 J2. F400.
G01 Y12.953 F2000.
G03 X-76.987 Y15.937 I-2.985 J0.0 F1198.
X-79.925 Y13.476 I0.0 J-2.985
X-79.971 Y12.953 I2.939 J-.523
G01 Y-10.274 F2000.
G03 X-76.987 Y-13.259 I2.985 J0.0 F1198.
X-74.002 Y-10.274 I0.0 J2.985
G01 Y1.339 F2000.
X-74.025 Y1.562 Z-.582
X-74.046 Y1.784 Z-.593
X-74.066 Y2.006 Z-.605
X-74.084 Y2.229 Z-.617
X-74.101 Y2.451 Z-.628
X-74.117 Y2.674 Z-.64
Y12.953
G03 X-76.987 Y15.822 I-2.87 J0.0 F1179.
X-79.808 Y13.476 I0.0 J-2.87
X-79.856 Y12.953 I2.822 J-.523
G01 Y-10.274 F2000.
G03 X-76.987 Y-13.144 I2.87 J0.0 F1179.
X-74.117 Y-10.274 I0.0 J2.87
G01 Y1.339 F2000.
X-74.132 Y1.562 Z-.652
X-74.147 Y1.784 Z-.663
X-74.16 Y2.006 Z-.675
X-74.173 Y2.229 Z-.686
X-74.185 Y2.451 Z-.698
X-74.197 Y2.674 Z-.71
Y12.953
G03 X-76.987 Y15.742 I-2.79 J0.0 F1165.
X-79.727 Y13.476 I0.0 J-2.79
X-79.776 Y12.953 I2.74 J-.523
G01 Y-10.274 F2000.
G03 X-76.987 Y-13.064 I2.79 J0.0 F1165.
X-74.197 Y-10.274 I0.0 J2.79
G01 Y1.339 F2000.
X-74.208 Y1.562 Z-.721
X-74.219 Y1.784 Z-.733
X-74.229 Y2.006 Z-.745
X-74.239 Y2.229 Z-.756
X-74.248 Y2.451 Z-.768
X-74.257 Y2.674 Z-.78
Y12.953
G03 X-76.987 Y15.682 I-2.729 J0.0 F1154.
X-79.666 Y13.476 I0.0 J-2.729
X-79.716 Y12.953 I2.679 J-.523
G01 Y-10.274 F2000.
G03 X-76.987 Y-13.004 I2.729 J0.0 F1154.
X-74.257 Y-10.274 I0.0 J2.729
G01 Y1.339 F2000.
X-74.266 Y1.562 Z-.791
X-74.274 Y1.784 Z-.803
X-74.282 Y2.006 Z-.815
X-74.29 Y2.229 Z-.826
X-74.297 Y2.451 Z-.838
X-74.304 Y2.674 Z-.85
Y12.953
G03 X-76.987 Y15.636 I-2.683 J0.0 F1146.
X-79.67 Y12.953 I0.0 J-2.683
G01 Y-10.274 F2000.
G03 X-76.987 Y-12.957 I2.683 J0.0 F1146.
X-74.304 Y-10.274 I0.0 J2.683
G01 Y1.339 F2000.
X-74.31 Y1.562 Z-.861
X-74.317 Y1.784 Z-.873
X-74.323 Y2.006 Z-.885
X-74.328 Y2.229 Z-.896
X-74.334 Y2.451 Z-.908
X-74.339 Y2.674 Z-.92
Y12.953
G03 X-76.987 Y15.6 I-2.648 J0.0 F1139.
X-79.634 Y12.953 I0.0 J-2.648
G01 Y-10.274 F2000.
G03 X-76.987 Y-12.922 I2.648 J0.0 F1139.
X-74.339 Y-10.274 I0.0 J2.648
G01 Y1.339 F2000.
X-74.344 Y1.562 Z-.931
X-74.349 Y1.784 Z-.943
X-74.353 Y2.006 Z-.955
X-74.358 Y2.229 Z-.966
X-74.362 Y2.451 Z-.978
X-74.366 Y2.674 Z-.99
Y12.953
G03 X-76.987 Y15.574 I-2.621 J0.0 F1134.
X-79.608 Y12.953 I0.0 J-2.621
G01 Y-10.274 F2000.
G03 X-76.987 Y-12.896 I2.621 J0.0 F1134.
X-74.366 Y-10.274 I0.0 J2.621
G01 Y1.339 F2000.
X-74.369 Y1.562 Z-1.001
X-74.372 Y1.784 Z-1.013
X-74.376 Y2.006 Z-1.024
X-74.379 Y2.229 Z-1.036
X-74.381 Y2.451 Z-1.048
X-74.384 Y2.674 Z-1.059
Y12.953
G03 X-76.987 Y15.556 I-2.603 J0.0 F1131.
X-79.59 Y12.953 I0.0 J-2.603
G01 Y-10.274 F2000.
G03 X-76.987 Y-12.877 I2.603 J0.0 F1131.
X-74.384 Y-10.274 I0.0 J2.603
G01 Y1.339 F2000.
X-74.386 Y1.562 Z-1.071
X-74.388 Y1.784 Z-1.083
X-74.39 Y2.006 Z-1.094
X-74.392 Y2.229 Z-1.106
X-74.393 Y2.451 Z-1.118
X-74.395 Y2.674 Z-1.129
Y12.953
G03 X-76.987 Y15.545 I-2.592 J0.0 F1129.
X-79.579 Y12.953 I0.0 J-2.592
G01 Y-10.274 F2000.
G03 X-76.987 Y-12.866 I2.592 J0.0 F1129.
X-74.395 Y-10.274 I0.0 J2.592
G01 Y1.339 F2000.
X-74.396 Y1.562 Z-1.141
X-74.397 Y1.784 Z-1.153
Y2.006 Z-1.164
X-74.398 Y2.229 Z-1.176
Y2.451 Z-1.188
Y2.674 Z-1.199
Y12.953
G03 X-76.987 Y15.541 I-2.588 J0.0 F1128.
X-79.566 Y13.17 I0.0 J-2.588
G01 X-79.575 Y12.953 F2000.
Y3.447
X-79.574 Y-10.342
X-79.566 Y-10.492
G03 X-77.261 Y-12.848 I2.579 J.217 F1128.
G01 X-77.041 Y-12.862 F2000.
X-76.987 Y-12.863 F1128.
G03 X-74.398 Y-10.274 I0.0 J2.588
G01 Y1.339 F2000.
Y1.562 Z-1.211
Y2.674 Z-1.269
Y12.953
G03 X-76.987 Y15.541 I-2.588 J0.0 F1128.
X-79.575 Y12.953 I0.0 J-2.588
G01 Y-10.274 F2000.
G03 X-76.987 Y-12.863 I2.588 J0.0 F1128.
X-74.398 Y-10.274 I0.0 J2.588
G01 Y1.339 F2000.
Y2.674 Z-1.339
Y12.953
G03 X-76.987 Y15.541 I-2.588 J0.0 F1128.
X-79.575 Y12.953 I0.0 J-2.588
G01 Y-10.274 F2000.
G03 X-76.987 Y-12.863 I2.588 J0.0 F1128.
X-74.398 Y-10.274 I0.0 J2.588
G01 Y1.339 F2000.
Y2.674 Z-1.409
Y12.953
G03 X-76.987 Y15.541 I-2.588 J0.0 F1128.
X-79.575 Y12.953 I0.0 J-2.588
G01 Y-10.274 F2000.
G03 X-76.987 Y-12.863 I2.588 J0.0 F1128.
X-74.398 Y-10.274 I0.0 J2.588
G01 Y1.339 F2000.
Y2.674 Z-1.479
Y12.953
G03 X-76.987 Y15.541 I-2.588 J0.0 F1128.
X-79.575 Y12.953 I0.0 J-2.588
G01 Y-10.274 F2000.
G03 X-76.987 Y-12.863 I2.588 J0.0 F1128.
X-74.398 Y-10.274 I0.0 J2.588
G01 Y1.339 F2000.
Y2.674 Z-1.549
Y12.953
G03 X-76.987 Y15.541 I-2.588 J0.0 F1128.
X-79.575 Y12.953 I0.0 J-2.588
G01 Y-10.274 F2000.
G03 X-76.987 Y-12.863 I2.588 J0.0 F1128.
X-74.398 Y-10.274 I0.0 J2.588
G01 Y1.339 F2000.
Y2.674 Z-1.619
Y12.953
G03 X-76.987 Y15.541 I-2.588 J0.0 F1128.
X-79.575 Y12.953 I0.0 J-2.588
G01 Y-10.274 F2000.
G03 X-76.987 Y-12.863 I2.588 J0.0 F1128.
X-74.398 Y-10.274 I0.0 J2.588
G01 Y1.339 F2000.
Y2.674 Z-1.689
Y12.953
G03 X-76.987 Y15.541 I-2.588 J0.0 F1128.
X-79.575 Y12.953 I0.0 J-2.588
G01 Y-10.274 F2000.
G03 X-76.987 Y-12.863 I2.588 J0.0 F1128.
X-74.398 Y-10.274 I0.0 J2.588
G01 Y1.339 F2000.
Y2.674 Z-1.759
Y12.953
G03 X-76.987 Y15.541 I-2.588 J0.0 F1128.
X-79.575 Y12.953 I0.0 J-2.588
G01 Y-10.274 F2000.
G03 X-76.987 Y-12.863 I2.588 J0.0 F1128.
X-74.398 Y-10.274 I0.0 J2.588
G01 Y1.339 F2000.
Y2.674 Z-1.829
Y12.953
G03 X-76.987 Y15.541 I-2.588 J0.0 F1128.
X-79.575 Y12.953 I0.0 J-2.588
G01 Y-10.274 F2000.
G03 X-76.987 Y-12.863 I2.588 J0.0 F1128.
X-74.398 Y-10.274 I0.0 J2.588
G01 Y1.339 F2000.
Y2.674 Z-1.899
Y12.953
G03 X-76.987 Y15.541 I-2.588 J0.0 F1128.
X-79.575 Y12.953 I0.0 J-2.588
G01 Y-10.274 F2000.
G03 X-76.987 Y-12.863 I2.588 J0.0 F1128.
X-74.398 Y-10.274 I0.0 J2.588
G01 Y1.339 F2000.
Y2.674 Z-1.969
Y12.953
G03 X-76.987 Y15.541 I-2.588 J0.0 F1128.
X-79.575 Y12.953 I0.0 J-2.588
G01 Y-10.274 F2000.
G03 X-76.987 Y-12.863 I2.588 J0.0 F1128.
X-74.398 Y-10.274 I0.0 J2.588
G01 Y2.674 F2000.
X-76.398
Z.031
G00 Z2.5
X-93.096 Y-.661
G01 Z2.43
Z-.57 F800.
G03 X-91.096 Y1.339 I0.0 J2. F400.
G01 Y12.953 F2000.
G03 X-94.08 Y15.937 I-2.985 J0.0 F1198.
X-97.065 Y12.953 I0.0 J-2.985
G01 Y-10.274 F2000.
G03 X-94.08 Y-13.259 I2.985 J0.0 F1198.
X-91.096 Y-10.274 I0.0 J2.985
G01 Y1.339 F2000.
X-91.119 Y1.562 Z-.582
X-91.14 Y1.784 Z-.593
X-91.159 Y2.006 Z-.605
X-91.177 Y2.229 Z-.617
X-91.195 Y2.451 Z-.628
X-91.211 Y2.674 Z-.64
Y12.953
G03 X-94.08 Y15.822 I-2.87 J0.0 F1179.
X-96.95 Y12.953 I0.0 J-2.87
G01 Y-10.274 F2000.
G03 X-94.08 Y-13.144 I2.87 J0.0 F1179.
X-91.211 Y-10.274 I0.0 J2.87
G01 Y1.339 F2000.
X-91.226 Y1.562 Z-.652
X-91.24 Y1.784 Z-.663
X-91.254 Y2.006 Z-.675
X-91.267 Y2.229 Z-.686
X-91.279 Y2.451 Z-.698
X-91.291 Y2.674 Z-.71
Y12.953
G03 X-94.08 Y15.742 I-2.79 J0.0 F1165.
X-96.87 Y12.953 I0.0 J-2.79
G01 Y-10.274 F2000.
G03 X-94.08 Y-13.064 I2.79 J0.0 F1165.
X-91.291 Y-10.274 I0.0 J2.79
G01 Y1.339 F2000.
X-91.302 Y1.562 Z-.721
X-91.313 Y1.784 Z-.733
X-91.323 Y2.006 Z-.745
X-91.333 Y2.229 Z-.756
X-91.342 Y2.451 Z-.768
X-91.351 Y2.674 Z-.78
Y12.953
G03 X-94.08 Y15.682 I-2.729 J0.0 F1154.
X-96.81 Y12.953 I0.0 J-2.729
G01 Y-10.274 F2000.
G03 X-94.08 Y-13.004 I2.729 J0.0 F1154.
X-91.351 Y-10.274 I0.0 J2.729
G01 Y1.339 F2000.
X-91.359 Y1.562 Z-.791
X-91.368 Y1.784 Z-.803
X-91.376 Y2.006 Z-.815
X-91.383 Y2.229 Z-.826
X-91.39 Y2.451 Z-.838
X-91.397 Y2.674 Z-.85
Y12.953
G03 X-94.08 Y15.636 I-2.683 J0.0 F1146.
X-96.763 Y12.953 I0.0 J-2.683
G01 Y-10.274 F2000.
G03 X-94.08 Y-12.957 I2.683 J0.0 F1146.
X-91.397 Y-10.274 I0.0 J2.683
G01 Y1.339 F2000.
X-91.404 Y1.562 Z-.861
X-91.41 Y1.784 Z-.873
X-91.416 Y2.006 Z-.885
X-91.422 Y2.229 Z-.896
X-91.427 Y2.451 Z-.908
X-91.433 Y2.674 Z-.92
Y12.953
G03 X-94.08 Y15.6 I-2.648 J0.0 F1139.
X-96.728 Y12.953 I0.0 J-2.648
G01 Y-10.274 F2000.
G03 X-94.08 Y-12.922 I2.648 J0.0 F1139.
X-91.433 Y-10.274 I0.0 J2.648
G01 Y1.339 F2000.
X-91.438 Y1.562 Z-.931
X-91.442 Y1.784 Z-.943
X-91.447 Y2.006 Z-.955
X-91.451 Y2.229 Z-.966
X-91.455 Y2.451 Z-.978
X-91.459 Y2.674 Z-.99
Y12.953
G03 X-94.08 Y15.574 I-2.621 J0.0 F1134.
X-96.701 Y12.953 I0.0 J-2.621
G01 Y-10.274 F2000.
G03 X-94.08 Y-12.896 I2.621 J0.0 F1134.
X-91.459 Y-10.274 I0.0 J2.621
G01 Y1.339 F2000.
X-91.463 Y1.562 Z-1.001
X-91.466 Y1.784 Z-1.013
X-91.469 Y2.006 Z-1.024
X-91.472 Y2.229 Z-1.036
X-91.475 Y2.451 Z-1.048
X-91.477 Y2.674 Z-1.059
Y12.953
G03 X-94.08 Y15.556 I-2.603 J0.0 F1131.
X-96.683 Y12.953 I0.0 J-2.603
G01 Y-10.274 F2000.
G03 X-94.08 Y-12.877 I2.603 J0.0 F1131.
X-91.477 Y-10.274 I0.0 J2.603
G01 Y1.339 F2000.
X-91.48 Y1.562 Z-1.071
X-91.482 Y1.784 Z-1.083
X-91.484 Y2.006 Z-1.094
X-91.485 Y2.229 Z-1.106
X-91.487 Y2.451 Z-1.118
X-91.488 Y2.674 Z-1.129
Y12.953
G03 X-94.08 Y15.545 I-2.592 J0.0 F1129.
X-96.672 Y12.953 I0.0 J-2.592
G01 Y-10.274 F2000.
G03 X-94.08 Y-12.866 I2.592 J0.0 F1129.
X-91.488 Y-10.274 I0.0 J2.592
G01 Y1.339 F2000.
X-91.489 Y1.562 Z-1.141
X-91.49 Y1.784 Z-1.153
X-91.491 Y2.006 Z-1.164
Y2.229 Z-1.176
X-91.492 Y2.451 Z-1.188
Y2.674 Z-1.199
Y12.927
Y12.957
G03 X-94.08 Y15.541 I-2.588 J-.004 F1128.
X-96.617 Y13.469 I0.0 J-2.588
X-96.669 Y12.952 I2.536 J-.517
G01 Y12.927
Y3.447 F2000.
Y-10.274
G03 X-94.355 Y-12.848 I2.588 J0.0 F1128.
G01 X-94.091 Y-12.863 F2000.
X-94.08 F1128.
G03 X-91.492 Y-10.274 I0.0 J2.588
G01 Y-.94 F2000.
Y1.339
Y1.562 Z-1.211
Y2.674 Z-1.269
Y12.953
G03 X-94.08 Y15.541 I-2.588 J0.0 F1128.
X-96.669 Y12.953 I0.0 J-2.588
G01 Y-10.274 F2000.
G03 X-94.08 Y-12.863 I2.588 J0.0 F1128.
X-91.492 Y-10.274 I0.0 J2.588
G01 Y1.339 F2000.
Y2.674 Z-1.339
Y12.953
G03 X-94.08 Y15.541 I-2.588 J0.0 F1128.
X-96.669 Y12.953 I0.0 J-2.588
G01 Y-10.274 F2000.
G03 X-94.08 Y-12.863 I2.588 J0.0 F1128.
X-91.492 Y-10.274 I0.0 J2.588
G01 Y1.339 F2000.
Y2.674 Z-1.409
Y12.953
G03 X-94.08 Y15.541 I-2.588 J0.0 F1128.
X-96.669 Y12.953 I0.0 J-2.588
G01 Y-10.274 F2000.
G03 X-94.08 Y-12.863 I2.588 J0.0 F1128.
X-91.492 Y-10.274 I0.0 J2.588
G01 Y1.339 F2000.
Y2.674 Z-1.479
Y12.953
G03 X-94.08 Y15.541 I-2.588 J0.0 F1128.
X-96.669 Y12.953 I0.0 J-2.588
G01 Y-10.274 F2000.
G03 X-94.08 Y-12.863 I2.588 J0.0 F1128.
X-91.492 Y-10.274 I0.0 J2.588
G01 Y1.339 F2000.
Y2.674 Z-1.549
Y12.953
G03 X-94.08 Y15.541 I-2.588 J0.0 F1128.
X-96.669 Y12.953 I0.0 J-2.588
G01 Y-10.274 F2000.
G03 X-94.08 Y-12.863 I2.588 J0.0 F1128.
X-91.492 Y-10.274 I0.0 J2.588
G01 Y1.339 F2000.
Y2.674 Z-1.619
Y12.953
G03 X-94.08 Y15.541 I-2.588 J0.0 F1128.
X-96.669 Y12.953 I0.0 J-2.588
G01 Y-10.274 F2000.
G03 X-94.08 Y-12.863 I2.588 J0.0 F1128.
X-91.492 Y-10.274 I0.0 J2.588
G01 Y1.339 F2000.
Y2.674 Z-1.689
Y12.953
G03 X-94.08 Y15.541 I-2.588 J0.0 F1128.
X-96.669 Y12.953 I0.0 J-2.588
G01 Y-10.274 F2000.
G03 X-94.08 Y-12.863 I2.588 J0.0 F1128.
X-91.492 Y-10.274 I0.0 J2.588
G01 Y1.339 F2000.
Y2.674 Z-1.759
Y12.953
G03 X-94.08 Y15.541 I-2.588 J0.0 F1128.
X-96.669 Y12.953 I0.0 J-2.588
G01 Y-10.274 F2000.
G03 X-94.08 Y-12.863 I2.588 J0.0 F1128.
X-91.492 Y-10.274 I0.0 J2.588
G01 Y1.339 F2000.
Y2.674 Z-1.829
Y12.953
G03 X-94.08 Y15.541 I-2.588 J0.0 F1128.
X-96.669 Y12.953 I0.0 J-2.588
G01 Y-10.274 F2000.
G03 X-94.08 Y-12.863 I2.588 J0.0 F1128.
X-91.492 Y-10.274 I0.0 J2.588
G01 Y1.339 F2000.
Y2.674 Z-1.899
Y12.953
G03 X-94.08 Y15.541 I-2.588 J0.0 F1128.
X-96.669 Y12.953 I0.0 J-2.588
G01 Y-10.274 F2000.
G03 X-94.08 Y-12.863 I2.588 J0.0 F1128.
X-91.492 Y-10.274 I0.0 J2.588
G01 Y1.339 F2000.
Y2.674 Z-1.969
Y12.953
G03 X-94.08 Y15.541 I-2.588 J0.0 F1128.
X-96.669 Y12.953 I0.0 J-2.588
G01 Y-10.274 F2000.
G03 X-94.08 Y-12.863 I2.588 J0.0 F1128.
X-91.492 Y-10.274 I0.0 J2.588
G01 Y2.674 F2000.
X-93.492
Z.031
G00 Z2.5
X75.87 Y2.987
G01 Z2.43
Z-.57 F800.
G03 X73.87 Y.987 I0.0 J-2. F400.
G01 Y-10.978 F2000.
G03 X76.855 Y-13.963 I2.985 J0.0 F1198.
X79.839 Y-10.978 I0.0 J2.985
G01 Y12.953 F2000.
G03 X76.855 Y15.937 I-2.985 J0.0 F1198.
X73.87 Y12.953 I0.0 J-2.985
G01 Y.987 F2000.
X73.893 Y.765 Z-.582
X73.914 Y.543 Z-.593
X73.934 Y.32 Z-.605
X73.952 Y.098 Z-.617
X73.969 Y-.125 Z-.628
X73.985 Y-.347 Z-.64
Y-10.978
G03 X76.855 Y-13.848 I2.87 J0.0 F1179.
X79.724 Y-10.978 I0.0 J2.87
G01 Y12.953 F2000.
G03 X76.855 Y15.822 I-2.87 J0.0 F1179.
X74.033 Y13.476 I0.0 J-2.87
X73.985 Y12.953 I2.822 J-.523
G01 Y.987 F2000.
X74. Y.765 Z-.652
X74.015 Y.543 Z-.663
X74.028 Y.32 Z-.675
X74.041 Y.098 Z-.686
X74.053 Y-.125 Z-.698
X74.065 Y-.347 Z-.71
Y-10.978
G03 X76.855 Y-13.768 I2.79 J0.0 F1165.
X79.644 Y-10.978 I0.0 J2.79
G01 Y12.953 F2000.
G03 X76.855 Y15.742 I-2.79 J0.0 F1165.
X74.115 Y13.476 I0.0 J-2.79
X74.065 Y12.953 I2.74 J-.523
G01 Y.987 F2000.
X74.076 Y.765 Z-.721
X74.087 Y.543 Z-.733
X74.097 Y.32 Z-.745
X74.107 Y.098 Z-.756
X74.116 Y-.125 Z-.768
X74.125 Y-.347 Z-.78
Y-10.978
G03 X76.855 Y-13.708 I2.729 J0.0 F1154.
X79.584 Y-10.978 I0.0 J2.729
G01 Y12.953 F2000.
G03 X76.855 Y15.682 I-2.729 J0.0 F1154.
X74.176 Y13.476 I0.0 J-2.729
X74.125 Y12.953 I2.679 J-.523
G01 Y.987 F2000.
X74.134 Y.765 Z-.791
X74.142 Y.543 Z-.803
X74.15 Y.32 Z-.815
X74.158 Y.098 Z-.826
X74.165 Y-.125 Z-.838
X74.172 Y-.347 Z-.85
Y-10.978
G03 X76.855 Y-13.661 I2.683 J0.0 F1146.
X79.538 Y-10.978 I0.0 J2.683
G01 Y12.953 F2000.
G03 X76.855 Y15.636 I-2.683 J0.0 F1146.
X74.172 Y12.953 I0.0 J-2.683
G01 Y.987 F2000.
X74.178 Y.765 Z-.861
X74.185 Y.543 Z-.873
X74.191 Y.32 Z-.885
X74.196 Y.098 Z-.896
X74.202 Y-.125 Z-.908
X74.207 Y-.347 Z-.92
Y-10.978
G03 X76.855 Y-13.626 I2.648 J0.0 F1139.
X79.502 Y-10.978 I0.0 J2.648
G01 Y12.953 F2000.
G03 X76.855 Y15.6 I-2.648 J0.0 F1139.
X74.207 Y12.953 I0.0 J-2.648
G01 Y.987 F2000.
X74.212 Y.765 Z-.931
X74.217 Y.543 Z-.943
X74.221 Y.32 Z-.955
X74.226 Y.098 Z-.966
X74.23 Y-.125 Z-.978
X74.234 Y-.347 Z-.99
Y-10.978
G03 X76.855 Y-13.599 I2.621 J0.0 F1134.
X79.476 Y-10.978 I0.0 J2.621
G01 Y12.953 F2000.
G03 X76.855 Y15.574 I-2.621 J0.0 F1134.
X74.234 Y12.953 I0.0 J-2.621
G01 Y.987 F2000.
X74.237 Y.765 Z-1.001
X74.24 Y.543 Z-1.013
X74.244 Y.32 Z-1.024
X74.247 Y.098 Z-1.036
X74.249 Y-.125 Z-1.048
X74.252 Y-.347 Z-1.059
Y-10.978
G03 X76.855 Y-13.581 I2.603 J0.0 F1131.
X79.458 Y-10.978 I0.0 J2.603
G01 Y12.953 F2000.
G03 X76.855 Y15.556 I-2.603 J0.0 F1131.
X74.252 Y12.953 I0.0 J-2.603
G01 Y.987 F2000.
X74.254 Y.765 Z-1.071
X74.256 Y.543 Z-1.083
X74.258 Y.32 Z-1.094
X74.26 Y.098 Z-1.106
X74.261 Y-.125 Z-1.118
X74.263 Y-.347 Z-1.129
Y-10.978
G03 X76.855 Y-13.57 I2.592 J0.0 F1129.
X79.447 Y-10.978 I0.0 J2.592
G01 Y12.953 F2000.
G03 X76.855 Y15.545 I-2.592 J0.0 F1129.
X74.263 Y12.953 I0.0 J-2.592
G01 Y.987 F2000.
X74.264 Y.765 Z-1.141
X74.265 Y.543 Z-1.153
Y.32 Z-1.164
X74.266 Y.098 Z-1.176
Y-.125 Z-1.188
Y-.347 Z-1.199
Y-7.875
Y-10.075 F1650.
Y-10.978 F1300.
G03 X74.585 Y-12.222 I2.588 J0.0 F733.
G01 X75.066 Y-12.849 F2000.
G03 X76.855 Y-13.567 I1.789 J1.871 F733.
X77.079 Y-13.557 I0.0 J2.588
X79.443 Y-10.978 I-.225 J2.579 F1128.
G01 Y12.953 F2000.
G03 X76.855 Y15.541 I-2.588 J0.0 F1128.
X74.266 Y12.953 I0.0 J-2.588
G01 Y.987 F2000.
Y.765 Z-1.211
Y-.347 Z-1.269
Y-10.978
G03 X76.855 Y-13.567 I2.588 J0.0 F1128.
X79.443 Y-10.978 I0.0 J2.588
G01 Y12.953 F2000.
G03 X76.855 Y15.541 I-2.588 J0.0 F1128.
X74.266 Y12.953 I0.0 J-2.588
G01 Y.987 F2000.
Y-.347 Z-1.339
Y-10.978
G03 X76.855 Y-13.567 I2.588 J0.0 F1128.
X79.443 Y-10.978 I0.0 J2.588
G01 Y12.953 F2000.
G03 X76.855 Y15.541 I-2.588 J0.0 F1128.
X74.266 Y12.953 I0.0 J-2.588
G01 Y.987 F2000.
Y-.347 Z-1.409
Y-10.978
G03 X76.855 Y-13.567 I2.588 J0.0 F1128.
X79.443 Y-10.978 I0.0 J2.588
G01 Y12.953 F2000.
G03 X76.855 Y15.541 I-2.588 J0.0 F1128.
X74.266 Y12.953 I0.0 J-2.588
G01 Y.987 F2000.
Y-.347 Z-1.479
Y-10.978
G03 X76.855 Y-13.567 I2.588 J0.0 F1128.
X79.443 Y-10.978 I0.0 J2.588
G01 Y12.953 F2000.
G03 X76.855 Y15.541 I-2.588 J0.0 F1128.
X74.266 Y12.953 I0.0 J-2.588
G01 Y.987 F2000.
Y-.347 Z-1.549
Y-10.978
G03 X76.855 Y-13.567 I2.588 J0.0 F1128.
X79.443 Y-10.978 I0.0 J2.588
G01 Y12.953 F2000.
G03 X76.855 Y15.541 I-2.588 J0.0 F1128.
X74.266 Y12.953 I0.0 J-2.588
G01 Y.987 F2000.
Y-.347 Z-1.619
Y-10.978
G03 X76.855 Y-13.567 I2.588 J0.0 F1128.
X79.443 Y-10.978 I0.0 J2.588
G01 Y12.953 F2000.
G03 X76.855 Y15.541 I-2.588 J0.0 F1128.
X74.266 Y12.953 I0.0 J-2.588
G01 Y.987 F2000.
Y-.347 Z-1.689
Y-10.978
G03 X76.855 Y-13.567 I2.588 J0.0 F1128.
X79.443 Y-10.978 I0.0 J2.588
G01 Y12.953 F2000.
G03 X76.855 Y15.541 I-2.588 J0.0 F1128.
X74.266 Y12.953 I0.0 J-2.588
G01 Y.987 F2000.
Y-.347 Z-1.759
Y-10.978
G03 X76.855 Y-13.567 I2.588 J0.0 F1128.
X79.443 Y-10.978 I0.0 J2.588
G01 Y12.953 F2000.
G03 X76.855 Y15.541 I-2.588 J0.0 F1128.
X74.266 Y12.953 I0.0 J-2.588
G01 Y.987 F2000.
Y-.347 Z-1.829
Y-10.978
G03 X76.855 Y-13.567 I2.588 J0.0 F1128.
X79.443 Y-10.978 I0.0 J2.588
G01 Y12.953 F2000.
G03 X76.855 Y15.541 I-2.588 J0.0 F1128.
X74.266 Y12.953 I0.0 J-2.588
G01 Y.987 F2000.
Y-.347 Z-1.899
Y-10.978
G03 X76.855 Y-13.567 I2.588 J0.0 F1128.
X79.443 Y-10.978 I0.0 J2.588
G01 Y12.953 F2000.
G03 X76.855 Y15.541 I-2.588 J0.0 F1128.
X74.266 Y12.953 I0.0 J-2.588
G01 Y.987 F2000.
Y-.347 Z-1.969
Y-10.978
G03 X76.855 Y-13.567 I2.588 J0.0 F1128.
X79.443 Y-10.978 I0.0 J2.588
G01 Y12.953 F2000.
G03 X76.855 Y15.541 I-2.588 J0.0 F1128.
X74.266 Y12.953 I0.0 J-2.588
G01 Y-.347 F2000.
X76.266
Z.031
G00 Z2.5
X-58.909 Y-1.164
G01 Z2.43
Z-.57 F800.
G03 X-56.909 Y.836 I0.0 J2. F400.
G01 Y12.953 F2000.
G03 X-59.893 Y15.937 I-2.985 J0.0 F1198.
X-62.832 Y13.476 I0.0 J-2.985
X-62.878 Y12.953 I2.939 J-.523
G01 Y-11.28 F2000.
G03 X-59.893 Y-14.264 I2.985 J0.0 F1198.
X-56.909 Y-11.28 I0.0 J2.985
G01 Y.836 F2000.
X-56.932 Y1.059 Z-.582
X-56.953 Y1.281 Z-.593
X-56.972 Y1.504 Z-.605
X-56.99 Y1.726 Z-.617
X-57.008 Y1.948 Z-.628
X-57.024 Y2.171 Z-.64
Y12.953
G03 X-59.893 Y15.822 I-2.87 J0.0 F1179.
X-62.715 Y13.476 I0.0 J-2.87
X-62.763 Y12.953 I2.822 J-.523
G01 Y-11.28 F2000.
G03 X-59.893 Y-14.149 I2.87 J0.0 F1179.
X-57.024 Y-11.28 I0.0 J2.87
G01 Y.836 F2000.
X-57.039 Y1.059 Z-.652
X-57.053 Y1.281 Z-.663
X-57.067 Y1.504 Z-.675
X-57.08 Y1.726 Z-.686
X-57.092 Y1.948 Z-.698
X-57.104 Y2.171 Z-.71
Y12.953
G03 X-59.893 Y15.742 I-2.79 J0.0 F1165.
X-62.633 Y13.476 I0.0 J-2.79
X-62.683 Y12.953 I2.74 J-.523
G01 Y-11.28 F2000.
G03 X-59.893 Y-14.069 I2.79 J0.0 F1165.
X-57.104 Y-11.28 I0.0 J2.79
G01 Y.836 F2000.
X-57.115 Y1.059 Z-.721
X-57.126 Y1.281 Z-.733
X-57.136 Y1.504 Z-.745
X-57.146 Y1.726 Z-.756
X-57.155 Y1.948 Z-.768
X-57.164 Y2.171 Z-.78
Y12.953
G03 X-59.893 Y15.682 I-2.729 J0.0 F1154.
X-62.572 Y13.476 I0.0 J-2.729
X-62.623 Y12.953 I2.679 J-.523
G01 Y-11.28 F2000.
G03 X-59.893 Y-14.009 I2.729 J0.0 F1154.
X-57.164 Y-11.28 I0.0 J2.729
G01 Y.836 F2000.
X-57.172 Y1.059 Z-.791
X-57.181 Y1.281 Z-.803
X-57.189 Y1.504 Z-.815
X-57.196 Y1.726 Z-.826
X-57.203 Y1.948 Z-.838
X-57.21 Y2.171 Z-.85
Y12.953
G03 X-59.893 Y15.636 I-2.683 J0.0 F1146.
X-62.576 Y12.953 I0.0 J-2.683
G01 Y-11.28 F2000.
G03 X-59.893 Y-13.963 I2.683 J0.0 F1146.
X-57.21 Y-11.28 I0.0 J2.683
G01 Y.836 F2000.
X-57.217 Y1.059 Z-.861
X-57.223 Y1.281 Z-.873
X-57.229 Y1.504 Z-.885
X-57.235 Y1.726 Z-.896
X-57.24 Y1.948 Z-.908
X-57.246 Y2.171 Z-.92
Y12.953
G03 X-59.893 Y15.6 I-2.648 J0.0 F1139.
X-62.541 Y12.953 I0.0 J-2.648
G01 Y-11.28 F2000.
G03 X-59.893 Y-13.927 I2.648 J0.0 F1139.
X-57.246 Y-11.28 I0.0 J2.648
G01 Y.836 F2000.
X-57.251 Y1.059 Z-.931
X-57.255 Y1.281 Z-.943
X-57.26 Y1.504 Z-.955
X-57.264 Y1.726 Z-.966
X-57.268 Y1.948 Z-.978
X-57.272 Y2.171 Z-.99
Y12.953
G03 X-59.893 Y15.574 I-2.621 J0.0 F1134.
X-62.514 Y12.953 I0.0 J-2.621
G01 Y-11.28 F2000.
G03 X-59.893 Y-13.901 I2.621 J0.0 F1134.
X-57.272 Y-11.28 I0.0 J2.621
G01 Y.836 F2000.
X-57.276 Y1.059 Z-1.001
X-57.279 Y1.281 Z-1.013
X-57.282 Y1.504 Z-1.024
X-57.285 Y1.726 Z-1.036
X-57.288 Y1.948 Z-1.048
X-57.29 Y2.171 Z-1.059
Y12.953
G03 X-59.893 Y15.556 I-2.603 J0.0 F1131.
X-62.496 Y12.953 I0.0 J-2.603
G01 Y-11.28 F2000.
G03 X-59.893 Y-13.883 I2.603 J0.0 F1131.
X-57.29 Y-11.28 I0.0 J2.603
G01 Y.836 F2000.
X-57.293 Y1.059 Z-1.071
X-57.295 Y1.281 Z-1.083
X-57.297 Y1.504 Z-1.094
X-57.298 Y1.726 Z-1.106
X-57.3 Y1.948 Z-1.118
X-57.301 Y2.171 Z-1.129
Y12.953
G03 X-58.922 Y15.356 I-2.592 J0.0 F1129.
X-59.893 Y15.545 I-.971 J-2.403
X-62.485 Y12.953 I0.0 J-2.592
G01 Y-11.28 F2000.
G03 X-59.893 Y-13.872 I2.592 J0.0 F1129.
X-57.301 Y-11.28 I0.0 J2.592
G01 Y.836 F2000.
X-57.302 Y1.059 Z-1.141
X-57.303 Y1.281 Z-1.153
X-57.304 Y1.504 Z-1.164
Y1.726 Z-1.176
X-57.305 Y1.948 Z-1.188
Y2.171 Z-1.199
Y12.953
G03 X-59.893 Y15.541 I-2.588 J0.0 F1128.
X-62.482 Y12.953 I0.0 J-2.588
G01 Y-11.28 F2000.
G03 X-59.893 Y-13.868 I2.588 J0.0 F1128.
X-57.305 Y-11.28 I0.0 J2.588
G01 Y.836 F2000.
Y1.059 Z-1.211
Y2.171 Z-1.269
Y12.953
G03 X-59.893 Y15.541 I-2.588 J0.0 F1128.
X-62.482 Y12.953 I0.0 J-2.588
G01 Y-11.28 F2000.
G03 X-59.893 Y-13.868 I2.588 J0.0 F1128.
X-57.305 Y-11.28 I0.0 J2.588
G01 Y.836 F2000.
Y2.171 Z-1.339
Y12.953
G03 X-59.893 Y15.541 I-2.588 J0.0 F1128.
X-62.482 Y12.953 I0.0 J-2.588
G01 Y-11.28 F2000.
G03 X-59.893 Y-13.868 I2.588 J0.0 F1128.
X-57.305 Y-11.28 I0.0 J2.588
G01 Y.836 F2000.
Y2.171 Z-1.409
Y12.953
G03 X-59.893 Y15.541 I-2.588 J0.0 F1128.
X-62.482 Y12.953 I0.0 J-2.588
G01 Y-11.28 F2000.
G03 X-59.893 Y-13.868 I2.588 J0.0 F1128.
X-57.305 Y-11.28 I0.0 J2.588
G01 Y.836 F2000.
Y2.171 Z-1.479
Y12.953
G03 X-59.893 Y15.541 I-2.588 J0.0 F1128.
X-62.482 Y12.953 I0.0 J-2.588
G01 Y-11.28 F2000.
G03 X-59.893 Y-13.868 I2.588 J0.0 F1128.
X-57.305 Y-11.28 I0.0 J2.588
G01 Y.836 F2000.
Y2.171 Z-1.549
Y12.953
G03 X-59.893 Y15.541 I-2.588 J0.0 F1128.
X-62.482 Y12.953 I0.0 J-2.588
G01 Y-11.28 F2000.
G03 X-59.893 Y-13.868 I2.588 J0.0 F1128.
X-57.305 Y-11.28 I0.0 J2.588
G01 Y.836 F2000.
Y2.171 Z-1.619
Y12.953
G03 X-59.893 Y15.541 I-2.588 J0.0 F1128.
X-62.482 Y12.953 I0.0 J-2.588
G01 Y-11.28 F2000.
G03 X-59.893 Y-13.868 I2.588 J0.0 F1128.
X-57.305 Y-11.28 I0.0 J2.588
G01 Y.836 F2000.
Y2.171 Z-1.689
Y12.953
G03 X-59.893 Y15.541 I-2.588 J0.0 F1128.
X-62.482 Y12.953 I0.0 J-2.588
G01 Y-11.28 F2000.
G03 X-59.893 Y-13.868 I2.588 J0.0 F1128.
X-57.305 Y-11.28 I0.0 J2.588
G01 Y.836 F2000.
Y2.171 Z-1.759
Y12.953
G03 X-59.893 Y15.541 I-2.588 J0.0 F1128.
X-62.482 Y12.953 I0.0 J-2.588
G01 Y-11.28 F2000.
G03 X-59.893 Y-13.868 I2.588 J0.0 F1128.
X-57.305 Y-11.28 I0.0 J2.588
G01 Y.836 F2000.
Y2.171 Z-1.829
Y12.953
G03 X-59.893 Y15.541 I-2.588 J0.0 F1128.
X-62.482 Y12.953 I0.0 J-2.588
G01 Y-11.28 F2000.
G03 X-59.893 Y-13.868 I2.588 J0.0 F1128.
X-57.305 Y-11.28 I0.0 J2.588
G01 Y.836 F2000.
Y2.171 Z-1.899
Y12.953
G03 X-59.893 Y15.541 I-2.588 J0.0 F1128.
X-62.482 Y12.953 I0.0 J-2.588
G01 Y-11.28 F2000.
G03 X-59.893 Y-13.868 I2.588 J0.0 F1128.
X-57.305 Y-11.28 I0.0 J2.588
G01 Y.836 F2000.
Y2.171 Z-1.969
Y12.953
G03 X-59.893 Y15.541 I-2.588 J0.0 F1128.
X-62.482 Y12.953 I0.0 J-2.588
G01 Y-11.28 F2000.
G03 X-59.893 Y-13.868 I2.588 J0.0 F1128.
X-57.305 Y-11.28 I0.0 J2.588
G01 Y2.171 F2000.
X-59.305
Z.031
G00 Z2.5
X58.777 Y2.974
G01 Z2.43
Z-.57 F800.
G03 X56.777 Y.974 I0.0 J-2. F400.
G01 Y-11.531 F2000.
G03 X59.761 Y-14.516 I2.985 J0.0 F1198.
X62.746 Y-11.531 I0.0 J2.985
G01 Y12.953 F2000.
G03 X59.761 Y15.937 I-2.985 J0.0 F1198.
X56.823 Y13.476 I0.0 J-2.985
X56.777 Y12.953 I2.939 J-.523
G01 Y.974 F2000.
X56.8 Y.751 Z-.582
X56.821 Y.529 Z-.593
X56.84 Y.306 Z-.605
X56.858 Y.084 Z-.617
X56.876 Y-.138 Z-.628
X56.892 Y-.361 Z-.64
Y-11.531
G03 X59.761 Y-14.401 I2.87 J0.0 F1179.
X62.631 Y-11.531 I0.0 J2.87
G01 Y12.953 F2000.
G03 X59.761 Y15.822 I-2.87 J0.0 F1179.
X56.94 Y13.476 I0.0 J-2.87
X56.892 Y12.953 I2.822 J-.523
G01 Y.974 F2000.
X56.907 Y.751 Z-.652
X56.921 Y.529 Z-.663
X56.935 Y.306 Z-.675
X56.948 Y.084 Z-.686
X56.96 Y-.138 Z-.698
X56.972 Y-.361 Z-.71
Y-11.531
G03 X59.761 Y-14.321 I2.79 J0.0 F1165.
X62.551 Y-11.531 I0.0 J2.79
G01 Y12.953 F2000.
G03 X59.761 Y15.742 I-2.79 J0.0 F1165.
X57.021 Y13.476 I0.0 J-2.79
X56.972 Y12.953 I2.74 J-.523
G01 Y.974 F2000.
X56.983 Y.751 Z-.721
X56.994 Y.529 Z-.733
X57.004 Y.306 Z-.745
X57.014 Y.084 Z-.756
X57.023 Y-.138 Z-.768
X57.032 Y-.361 Z-.78
Y-11.531
G03 X59.761 Y-14.261 I2.729 J0.0 F1154.
X62.491 Y-11.531 I0.0 J2.729
G01 Y12.953 F2000.
G03 X59.761 Y15.682 I-2.729 J0.0 F1154.
X57.082 Y13.476 I0.0 J-2.729
X57.032 Y12.953 I2.679 J-.523
G01 Y.974 F2000.
X57.04 Y.751 Z-.791
X57.049 Y.529 Z-.803
X57.057 Y.306 Z-.815
X57.064 Y.084 Z-.826
X57.071 Y-.138 Z-.838
X57.078 Y-.361 Z-.85
Y-11.531
G03 X59.761 Y-14.214 I2.683 J0.0 F1146.
X62.444 Y-11.531 I0.0 J2.683
G01 Y12.953 F2000.
G03 X59.761 Y15.636 I-2.683 J0.0 F1146.
X57.078 Y12.953 I0.0 J-2.683
G01 Y.974 F2000.
X57.085 Y.751 Z-.861
X57.091 Y.529 Z-.873
X57.097 Y.306 Z-.885
X57.103 Y.084 Z-.896
X57.108 Y-.138 Z-.908
X57.114 Y-.361 Z-.92
Y-11.531
G03 X59.761 Y-14.179 I2.648 J0.0 F1139.
X62.409 Y-11.531 I0.0 J2.648
G01 Y12.953 F2000.
G03 X59.761 Y15.6 I-2.648 J0.0 F1139.
X57.114 Y12.953 I0.0 J-2.648
G01 Y.974 F2000.
X57.119 Y.751 Z-.931
X57.123 Y.529 Z-.943
X57.128 Y.306 Z-.955
X57.132 Y.084 Z-.966
X57.136 Y-.138 Z-.978
X57.14 Y-.361 Z-.99
Y-11.531
G03 X59.761 Y-14.152 I2.621 J0.0 F1134.
X62.382 Y-11.531 I0.0 J2.621
G01 Y12.953 F2000.
G03 X59.761 Y15.574 I-2.621 J0.0 F1134.
X57.14 Y12.953 I0.0 J-2.621
G01 Y.974 F2000.
X57.144 Y.751 Z-1.001
X57.147 Y.529 Z-1.013
X57.15 Y.306 Z-1.024
X57.153 Y.084 Z-1.036
X57.156 Y-.138 Z-1.048
X57.158 Y-.361 Z-1.059
Y-11.531
G03 X59.761 Y-14.134 I2.603 J0.0 F1131.
X62.364 Y-11.531 I0.0 J2.603
G01 Y12.953 F2000.
G03 X59.761 Y15.556 I-2.603 J0.0 F1131.
X57.158 Y12.953 I0.0 J-2.603
G01 Y.974 F2000.
X57.161 Y.751 Z-1.071
X57.163 Y.529 Z-1.083
X57.165 Y.306 Z-1.094
X57.166 Y.084 Z-1.106
X57.168 Y-.138 Z-1.118
X57.169 Y-.361 Z-1.129
Y-11.531
G03 X59.761 Y-14.123 I2.592 J0.0 F1129.
X62.353 Y-11.531 I0.0 J2.592
G01 Y12.953 F2000.
G03 X59.761 Y15.545 I-2.592 J0.0 F1129.
X57.169 Y12.953 I0.0 J-2.592
G01 Y.974 F2000.
X57.17 Y.751 Z-1.141
X57.171 Y.529 Z-1.153
X57.172 Y.306 Z-1.164
Y.084 Z-1.176
X57.173 Y-.138 Z-1.188
Y-.361 Z-1.199
Y-10.892
Y-11.531 F1650.
G03 X57.629 Y-12.999 I2.588 J0.0 F931.
X59.457 Y-14.102 I2.132 J1.468 F733.
G01 X59.991 Y-14.109 F2000.
G03 X61.85 Y-13.06 I-.229 J2.578 F733.
X62.35 Y-11.531 I-2.088 J1.529 F1128.
G01 Y12.953 F2000.
G03 X59.761 Y15.541 I-2.588 J0.0 F1128.
X57.173 Y12.953 I0.0 J-2.588
G01 Y.974 F2000.
Y.751 Z-1.211
Y-.361 Z-1.269
Y-11.531
G03 X59.761 Y-14.12 I2.588 J0.0 F1128.
X62.35 Y-11.531 I0.0 J2.588
G01 Y12.953 F2000.
G03 X59.761 Y15.541 I-2.588 J0.0 F1128.
X57.173 Y12.953 I0.0 J-2.588
G01 Y.974 F2000.
Y-.361 Z-1.339
Y-11.531
G03 X59.761 Y-14.12 I2.588 J0.0 F1128.
X62.35 Y-11.531 I0.0 J2.588
G01 Y12.953 F2000.
G03 X59.761 Y15.541 I-2.588 J0.0 F1128.
X57.173 Y12.953 I0.0 J-2.588
G01 Y.974 F2000.
Y-.361 Z-1.409
Y-11.531
G03 X59.761 Y-14.12 I2.588 J0.0 F1128.
X62.35 Y-11.531 I0.0 J2.588
G01 Y12.953 F2000.
G03 X59.761 Y15.541 I-2.588 J0.0 F1128.
X57.173 Y12.953 I0.0 J-2.588
G01 Y.974 F2000.
Y-.361 Z-1.479
Y-11.531
G03 X59.761 Y-14.12 I2.588 J0.0 F1128.
X62.35 Y-11.531 I0.0 J2.588
G01 Y12.953 F2000.
G03 X59.761 Y15.541 I-2.588 J0.0 F1128.
X57.173 Y12.953 I0.0 J-2.588
G01 Y.974 F2000.
Y-.361 Z-1.549
Y-11.531
G03 X59.761 Y-14.12 I2.588 J0.0 F1128.
X62.35 Y-11.531 I0.0 J2.588
G01 Y12.953 F2000.
G03 X59.761 Y15.541 I-2.588 J0.0 F1128.
X57.173 Y12.953 I0.0 J-2.588
G01 Y.974 F2000.
Y-.361 Z-1.619
Y-11.531
G03 X59.761 Y-14.12 I2.588 J0.0 F1128.
X62.35 Y-11.531 I0.0 J2.588
G01 Y12.953 F2000.
G03 X59.761 Y15.541 I-2.588 J0.0 F1128.
X57.173 Y12.953 I0.0 J-2.588
G01 Y.974 F2000.
Y-.361 Z-1.689
Y-11.531
G03 X59.761 Y-14.12 I2.588 J0.0 F1128.
X62.35 Y-11.531 I0.0 J2.588
G01 Y12.953 F2000.
G03 X59.761 Y15.541 I-2.588 J0.0 F1128.
X57.173 Y12.953 I0.0 J-2.588
G01 Y.974 F2000.
Y-.361 Z-1.759
Y-11.531
G03 X59.761 Y-14.12 I2.588 J0.0 F1128.
X62.35 Y-11.531 I0.0 J2.588
G01 Y12.953 F2000.
G03 X59.761 Y15.541 I-2.588 J0.0 F1128.
X57.173 Y12.953 I0.0 J-2.588
G01 Y.974 F2000.
Y-.361 Z-1.829
Y-11.531
G03 X59.761 Y-14.12 I2.588 J0.0 F1128.
X62.35 Y-11.531 I0.0 J2.588
G01 Y12.953 F2000.
G03 X59.761 Y15.541 I-2.588 J0.0 F1128.
X57.173 Y12.953 I0.0 J-2.588
G01 Y.974 F2000.
Y-.361 Z-1.899
Y-11.531
G03 X59.761 Y-14.12 I2.588 J0.0 F1128.
X62.35 Y-11.531 I0.0 J2.588
G01 Y12.953 F2000.
G03 X59.761 Y15.541 I-2.588 J0.0 F1128.
X57.173 Y12.953 I0.0 J-2.588
G01 Y.974 F2000.
Y-.361 Z-1.969
Y-11.531
G03 X59.761 Y-14.12 I2.588 J0.0 F1128.
X62.35 Y-11.531 I0.0 J2.588
G01 Y12.953 F2000.
G03 X59.761 Y15.541 I-2.588 J0.0 F1128.
X57.173 Y12.953 I0.0 J-2.588
G01 Y-.361 F2000.
X59.173
Z.031
G00 Z2.5
X43.652 Y-1.49
G01 Z2.43
Z-.57 F800.
G03 X45.652 Y.51 I0.0 J2. F400.
G01 Y12.953 F2000.
G03 X42.668 Y15.937 I-2.985 J0.0 F1198.
X39.729 Y13.476 I0.0 J-2.985
X39.683 Y12.953 I2.939 J-.523
G01 Y-11.933 F2000.
G03 X42.668 Y-14.918 I2.985 J0.0 F1198.
X45.652 Y-11.933 I0.0 J2.985
G01 Y.51 F2000.
X45.629 Y.732 Z-.582
X45.608 Y.954 Z-.593
X45.589 Y1.177 Z-.605
X45.571 Y1.399 Z-.617
X45.553 Y1.622 Z-.628
X45.537 Y1.844 Z-.64
Y12.953
G03 X42.668 Y15.822 I-2.87 J0.0 F1179.
X39.846 Y13.476 I0.0 J-2.87
X39.798 Y12.953 I2.822 J-.523
G01 Y-11.933 F2000.
G03 X42.668 Y-14.803 I2.87 J0.0 F1179.
X45.537 Y-11.933 I0.0 J2.87
G01 Y.51 F2000.
X45.522 Y.732 Z-.652
X45.508 Y.954 Z-.663
X45.494 Y1.177 Z-.675
X45.481 Y1.399 Z-.686
X45.469 Y1.622 Z-.698
X45.457 Y1.844 Z-.71
Y12.953
G03 X42.668 Y15.742 I-2.79 J0.0 F1165.
X39.928 Y13.476 I0.0 J-2.79
X39.878 Y12.953 I2.74 J-.523
G01 Y-11.933 F2000.
G03 X42.668 Y-14.723 I2.79 J0.0 F1165.
X45.457 Y-11.933 I0.0 J2.79
G01 Y.51 F2000.
X45.446 Y.732 Z-.721
X45.436 Y.954 Z-.733
X45.425 Y1.177 Z-.745
X45.415 Y1.399 Z-.756
X45.406 Y1.622 Z-.768
X45.397 Y1.844 Z-.78
Y12.953
G03 X42.668 Y15.682 I-2.729 J0.0 F1154.
X39.989 Y13.476 I0.0 J-2.729
X39.938 Y12.953 I2.679 J-.523
G01 Y-11.933 F2000.
G03 X42.668 Y-14.663 I2.729 J0.0 F1154.
X45.397 Y-11.933 I0.0 J2.729
G01 Y.51 F2000.
X45.389 Y.732 Z-.791
X45.38 Y.954 Z-.803
X45.372 Y1.177 Z-.815
X45.365 Y1.399 Z-.826
X45.358 Y1.622 Z-.838
X45.351 Y1.844 Z-.85
Y12.953
G03 X42.668 Y15.636 I-2.683 J0.0 F1146.
X39.985 Y12.953 I0.0 J-2.683
G01 Y-11.933 F2000.
G03 X42.668 Y-14.616 I2.683 J0.0 F1146.
X45.351 Y-11.933 I0.0 J2.683
G01 Y.51 F2000.
X45.344 Y.732 Z-.861
X45.338 Y.954 Z-.873
X45.332 Y1.177 Z-.885
X45.326 Y1.399 Z-.896
X45.321 Y1.622 Z-.908
X45.315 Y1.844 Z-.92
Y12.953
G03 X42.668 Y15.6 I-2.648 J0.0 F1139.
X40.02 Y12.953 I0.0 J-2.648
G01 Y-11.933 F2000.
G03 X42.668 Y-14.581 I2.648 J0.0 F1139.
X45.315 Y-11.933 I0.0 J2.648
G01 Y.51 F2000.
X45.31 Y.732 Z-.931
X45.306 Y.954 Z-.943
X45.301 Y1.177 Z-.955
X45.297 Y1.399 Z-.966
X45.293 Y1.622 Z-.978
X45.289 Y1.844 Z-.99
Y12.953
G03 X42.668 Y15.574 I-2.621 J0.0 F1134.
X40.047 Y12.953 I0.0 J-2.621
G01 Y-11.933 F2000.
G03 X42.668 Y-14.555 I2.621 J0.0 F1134.
X45.289 Y-11.933 I0.0 J2.621
G01 Y.51 F2000.
X45.285 Y.732 Z-1.001
X45.282 Y.954 Z-1.013
X45.279 Y1.177 Z-1.024
X45.276 Y1.399 Z-1.036
X45.273 Y1.622 Z-1.048
X45.271 Y1.844 Z-1.059
Y12.953
G03 X42.668 Y15.556 I-2.603 J0.0 F1131.
X40.065 Y12.953 I0.0 J-2.603
G01 Y-11.933 F2000.
G03 X42.668 Y-14.536 I2.603 J0.0 F1131.
X45.271 Y-11.933 I0.0 J2.603
G01 Y.51 F2000.
X45.268 Y.732 Z-1.071
X45.266 Y.954 Z-1.083
X45.264 Y1.177 Z-1.094
X45.263 Y1.399 Z-1.106
X45.261 Y1.622 Z-1.118
X45.26 Y1.844 Z-1.129
Y12.953
G03 X43.639 Y15.356 I-2.592 J0.0 F1129.
X42.668 Y15.545 I-.971 J-2.403
X40.076 Y12.953 I0.0 J-2.592
G01 Y-11.933 F2000.
G03 X42.668 Y-14.525 I2.592 J0.0 F1129.
X45.26 Y-11.933 I0.0 J2.592
G01 Y.51 F2000.
X45.259 Y.732 Z-1.141
X45.258 Y.954 Z-1.153
X45.257 Y1.177 Z-1.164
Y1.399 Z-1.176
X45.256 Y1.622 Z-1.188
Y1.844 Z-1.199
Y12.953
G03 X44.987 Y14.102 I-2.588 J0.0 F1128.
G01 X44.835 Y14.369 F2000.
G03 X42.668 Y15.541 I-2.167 J-1.416 F1128.
X40.079 Y12.953 I0.0 J-2.588
G01 Y-11.933 F2000.
G03 X42.668 Y-14.522 I2.588 J0.0 F1128.
X45.256 Y-11.933 I0.0 J2.588
G01 Y.51 F2000.
Y.732 Z-1.211
Y1.844 Z-1.269
Y12.953
G03 X42.668 Y15.541 I-2.588 J0.0 F1128.
X40.079 Y12.953 I0.0 J-2.588
G01 Y-11.933 F2000.
G03 X42.668 Y-14.522 I2.588 J0.0 F1128.
X45.256 Y-11.933 I0.0 J2.588
G01 Y.51 F2000.
Y1.844 Z-1.339
Y12.953
G03 X42.668 Y15.541 I-2.588 J0.0 F1128.
X40.079 Y12.953 I0.0 J-2.588
G01 Y-11.933 F2000.
G03 X42.668 Y-14.522 I2.588 J0.0 F1128.
X45.256 Y-11.933 I0.0 J2.588
G01 Y.51 F2000.
Y1.844 Z-1.409
Y12.953
G03 X42.668 Y15.541 I-2.588 J0.0 F1128.
X40.079 Y12.953 I0.0 J-2.588
G01 Y-11.933 F2000.
G03 X42.668 Y-14.522 I2.588 J0.0 F1128.
X45.256 Y-11.933 I0.0 J2.588
G01 Y.51 F2000.
Y1.844 Z-1.479
Y12.953
G03 X42.668 Y15.541 I-2.588 J0.0 F1128.
X40.079 Y12.953 I0.0 J-2.588
G01 Y-11.933 F2000.
G03 X42.668 Y-14.522 I2.588 J0.0 F1128.
X45.256 Y-11.933 I0.0 J2.588
G01 Y.51 F2000.
Y1.844 Z-1.549
Y12.953
G03 X42.668 Y15.541 I-2.588 J0.0 F1128.
X40.079 Y12.953 I0.0 J-2.588
G01 Y-11.933 F2000.
G03 X42.668 Y-14.522 I2.588 J0.0 F1128.
X45.256 Y-11.933 I0.0 J2.588
G01 Y.51 F2000.
Y1.844 Z-1.619
Y12.953
G03 X42.668 Y15.541 I-2.588 J0.0 F1128.
X40.079 Y12.953 I0.0 J-2.588
G01 Y-11.933 F2000.
G03 X42.668 Y-14.522 I2.588 J0.0 F1128.
X45.256 Y-11.933 I0.0 J2.588
G01 Y.51 F2000.
Y1.844 Z-1.689
Y12.953
G03 X42.668 Y15.541 I-2.588 J0.0 F1128.
X40.079 Y12.953 I0.0 J-2.588
G01 Y-11.933 F2000.
G03 X42.668 Y-14.522 I2.588 J0.0 F1128.
X45.256 Y-11.933 I0.0 J2.588
G01 Y.51 F2000.
Y1.844 Z-1.759
Y12.953
G03 X42.668 Y15.541 I-2.588 J0.0 F1128.
X40.079 Y12.953 I0.0 J-2.588
G01 Y-11.933 F2000.
G03 X42.668 Y-14.522 I2.588 J0.0 F1128.
X45.256 Y-11.933 I0.0 J2.588
G01 Y.51 F2000.
Y1.844 Z-1.829
Y12.953
G03 X42.668 Y15.541 I-2.588 J0.0 F1128.
X40.079 Y12.953 I0.0 J-2.588
G01 Y-11.933 F2000.
G03 X42.668 Y-14.522 I2.588 J0.0 F1128.
X45.256 Y-11.933 I0.0 J2.588
G01 Y.51 F2000.
Y1.844 Z-1.899
Y12.953
G03 X42.668 Y15.541 I-2.588 J0.0 F1128.
X40.079 Y12.953 I0.0 J-2.588
G01 Y-11.933 F2000.
G03 X42.668 Y-14.522 I2.588 J0.0 F1128.
X45.256 Y-11.933 I0.0 J2.588
G01 Y.51 F2000.
Y1.844 Z-1.969
Y12.953
G03 X42.668 Y15.541 I-2.588 J0.0 F1128.
X40.079 Y12.953 I0.0 J-2.588
G01 Y-11.933 F2000.
G03 X42.668 Y-14.522 I2.588 J0.0 F1128.
X45.256 Y-11.933 I0.0 J2.588
G01 Y1.844 F2000.
X43.256
Z.031
G00 Z2.5
X-24.722 Y-1.566
G01 Z2.43
Z-.57 F800.
G03 X-22.722 Y.434 I0.0 J2. F400.
G01 Y12.953 F2000.
G03 X-25.706 Y15.937 I-2.985 J0.0 F1198.
X-28.645 Y13.476 I0.0 J-2.985
X-28.691 Y12.953 I2.939 J-.523
G01 Y-12.084 F2000.
G03 X-25.706 Y-15.069 I2.985 J0.0 F1198.
X-22.722 Y-12.084 I0.0 J2.985
G01 Y.434 F2000.
X-22.745 Y.657 Z-.582
X-22.766 Y.879 Z-.593
X-22.785 Y1.101 Z-.605
X-22.803 Y1.324 Z-.617
X-22.821 Y1.546 Z-.628
X-22.837 Y1.769 Z-.64
Y12.953
G03 X-25.706 Y15.822 I-2.87 J0.0 F1179.
X-28.528 Y13.476 I0.0 J-2.87
X-28.576 Y12.953 I2.822 J-.523
G01 Y-12.084 F2000.
G03 X-25.706 Y-14.954 I2.87 J0.0 F1179.
X-22.837 Y-12.084 I0.0 J2.87
G01 Y.434 F2000.
X-22.852 Y.657 Z-.652
X-22.866 Y.879 Z-.663
X-22.88 Y1.101 Z-.675
X-22.893 Y1.324 Z-.686
X-22.905 Y1.546 Z-.698
X-22.917 Y1.769 Z-.71
Y12.953
G03 X-25.706 Y15.742 I-2.79 J0.0 F1165.
X-28.446 Y13.476 I0.0 J-2.79
X-28.496 Y12.953 I2.74 J-.523
G01 Y-12.084 F2000.
G03 X-25.706 Y-14.874 I2.79 J0.0 F1165.
X-22.917 Y-12.084 I0.0 J2.79
G01 Y.434 F2000.
X-22.928 Y.657 Z-.721
X-22.939 Y.879 Z-.733
X-22.949 Y1.101 Z-.745
X-22.959 Y1.324 Z-.756
X-22.968 Y1.546 Z-.768
X-22.977 Y1.769 Z-.78
Y12.953
G03 X-25.706 Y15.682 I-2.729 J0.0 F1154.
X-28.436 Y12.953 I0.0 J-2.729
G01 Y-12.084 F2000.
G03 X-25.706 Y-14.814 I2.729 J0.0 F1154.
X-22.977 Y-12.084 I0.0 J2.729
G01 Y.434 F2000.
X-22.985 Y.657 Z-.791
X-22.994 Y.879 Z-.803
X-23.002 Y1.101 Z-.815
X-23.009 Y1.324 Z-.826
X-23.016 Y1.546 Z-.838
X-23.023 Y1.769 Z-.85
Y12.953
G03 X-25.706 Y15.636 I-2.683 J0.0 F1146.
X-28.389 Y12.953 I0.0 J-2.683
G01 Y-12.084 F2000.
G03 X-25.706 Y-14.767 I2.683 J0.0 F1146.
X-23.023 Y-12.084 I0.0 J2.683
G01 Y.434 F2000.
X-23.03 Y.657 Z-.861
X-23.036 Y.879 Z-.873
X-23.042 Y1.101 Z-.885
X-23.048 Y1.324 Z-.896
X-23.053 Y1.546 Z-.908
X-23.059 Y1.769 Z-.92
Y12.953
G03 X-25.706 Y15.6 I-2.648 J0.0 F1139.
X-28.354 Y12.953 I0.0 J-2.648
G01 Y-12.084 F2000.
G03 X-25.706 Y-14.732 I2.648 J0.0 F1139.
X-23.059 Y-12.084 I0.0 J2.648
G01 Y.434 F2000.
X-23.064 Y.657 Z-.931
X-23.068 Y.879 Z-.943
X-23.073 Y1.101 Z-.955
X-23.077 Y1.324 Z-.966
X-23.081 Y1.546 Z-.978
X-23.085 Y1.769 Z-.99
Y12.953
G03 X-25.706 Y15.574 I-2.621 J0.0 F1134.
X-28.327 Y12.953 I0.0 J-2.621
G01 Y-12.084 F2000.
G03 X-25.706 Y-14.705 I2.621 J0.0 F1134.
X-23.085 Y-12.084 I0.0 J2.621
G01 Y.434 F2000.
X-23.089 Y.657 Z-1.001
X-23.092 Y.879 Z-1.013
X-23.095 Y1.101 Z-1.024
X-23.098 Y1.324 Z-1.036
X-23.101 Y1.546 Z-1.048
X-23.103 Y1.769 Z-1.059
Y12.953
G03 X-25.706 Y15.556 I-2.603 J0.0 F1131.
X-28.309 Y12.953 I0.0 J-2.603
G01 Y-12.084 F2000.
G03 X-25.706 Y-14.687 I2.603 J0.0 F1131.
X-23.103 Y-12.084 I0.0 J2.603
G01 Y.434 F2000.
X-23.106 Y.657 Z-1.071
X-23.108 Y.879 Z-1.083
X-23.11 Y1.101 Z-1.094
X-23.111 Y1.324 Z-1.106
X-23.113 Y1.546 Z-1.118
X-23.114 Y1.769 Z-1.129
Y12.953
G03 X-25.706 Y15.545 I-2.592 J0.0 F1129.
X-28.298 Y12.953 I0.0 J-2.592
G01 Y-12.084 F2000.
G03 X-25.706 Y-14.676 I2.592 J0.0 F1129.
X-23.114 Y-12.084 I0.0 J2.592
G01 Y.434 F2000.
X-23.115 Y.657 Z-1.141
X-23.116 Y.879 Z-1.153
X-23.117 Y1.101 Z-1.164
Y1.324 Z-1.176
X-23.118 Y1.546 Z-1.188
Y1.769 Z-1.199
Y12.953
G03 X-25.706 Y15.541 I-2.588 J0.0 F1128.
X-28.295 Y12.953 I0.0 J-2.588
G01 Y-12.084 F2000.
G03 X-25.706 Y-14.673 I2.588 J0.0 F1128.
X-23.118 Y-12.084 I0.0 J2.588
G01 Y.434 F2000.
Y.657 Z-1.211
Y1.769 Z-1.269
Y12.953
G03 X-25.706 Y15.541 I-2.588 J0.0 F1128.
X-28.295 Y12.953 I0.0 J-2.588
G01 Y-12.084 F2000.
G03 X-25.706 Y-14.673 I2.588 J0.0 F1128.
X-23.118 Y-12.084 I0.0 J2.588
G01 Y.434 F2000.
Y1.769 Z-1.339
Y12.953
G03 X-25.706 Y15.541 I-2.588 J0.0 F1128.
X-28.295 Y12.953 I0.0 J-2.588
G01 Y-12.084 F2000.
G03 X-25.706 Y-14.673 I2.588 J0.0 F1128.
X-23.118 Y-12.084 I0.0 J2.588
G01 Y.434 F2000.
Y1.769 Z-1.409
Y12.953
G03 X-25.706 Y15.541 I-2.588 J0.0 F1128.
X-28.295 Y12.953 I0.0 J-2.588
G01 Y-12.084 F2000.
G03 X-25.706 Y-14.673 I2.588 J0.0 F1128.
X-23.118 Y-12.084 I0.0 J2.588
G01 Y.434 F2000.
Y1.769 Z-1.479
Y12.953
G03 X-25.706 Y15.541 I-2.588 J0.0 F1128.
X-28.295 Y12.953 I0.0 J-2.588
G01 Y-12.084 F2000.
G03 X-25.706 Y-14.673 I2.588 J0.0 F1128.
X-23.118 Y-12.084 I0.0 J2.588
G01 Y.434 F2000.
Y1.769 Z-1.549
Y12.953
G03 X-25.706 Y15.541 I-2.588 J0.0 F1128.
X-28.295 Y12.953 I0.0 J-2.588
G01 Y-12.084 F2000.
G03 X-25.706 Y-14.673 I2.588 J0.0 F1128.
X-23.118 Y-12.084 I0.0 J2.588
G01 Y.434 F2000.
Y1.769 Z-1.619
Y12.953
G03 X-25.706 Y15.541 I-2.588 J0.0 F1128.
X-28.295 Y12.953 I0.0 J-2.588
G01 Y-12.084 F2000.
G03 X-25.706 Y-14.673 I2.588 J0.0 F1128.
X-23.118 Y-12.084 I0.0 J2.588
G01 Y.434 F2000.
Y1.769 Z-1.689
Y12.953
G03 X-25.706 Y15.541 I-2.588 J0.0 F1128.
X-28.295 Y12.953 I0.0 J-2.588
G01 Y-12.084 F2000.
G03 X-25.706 Y-14.673 I2.588 J0.0 F1128.
X-23.118 Y-12.084 I0.0 J2.588
G01 Y.434 F2000.
Y1.769 Z-1.759
Y12.953
G03 X-25.706 Y15.541 I-2.588 J0.0 F1128.
X-28.295 Y12.953 I0.0 J-2.588
G01 Y-12.084 F2000.
G03 X-25.706 Y-14.673 I2.588 J0.0 F1128.
X-23.118 Y-12.084 I0.0 J2.588
G01 Y.434 F2000.
Y1.769 Z-1.829
Y12.953
G03 X-25.706 Y15.541 I-2.588 J0.0 F1128.
X-28.295 Y12.953 I0.0 J-2.588
G01 Y-12.084 F2000.
G03 X-25.706 Y-14.673 I2.588 J0.0 F1128.
X-23.118 Y-12.084 I0.0 J2.588
G01 Y.434 F2000.
Y1.769 Z-1.899
Y12.953
G03 X-25.706 Y15.541 I-2.588 J0.0 F1128.
X-28.295 Y12.953 I0.0 J-2.588
G01 Y-12.084 F2000.
G03 X-25.706 Y-14.673 I2.588 J0.0 F1128.
X-23.118 Y-12.084 I0.0 J2.588
G01 Y.434 F2000.
Y1.769 Z-1.969
Y12.953
G03 X-25.706 Y15.541 I-2.588 J0.0 F1128.
X-28.295 Y12.953 I0.0 J-2.588
G01 Y-12.084 F2000.
G03 X-25.706 Y-14.673 I2.588 J0.0 F1128.
X-23.118 Y-12.084 I0.0 J2.588
G01 Y1.769 F2000.
X-25.118
Z.031
G00 Z2.5
X-41.815 Y-1.415
G01 Z2.43
Z-.57 F800.
G03 X-39.815 Y.585 I0.0 J2. F400.
G01 Y12.953 F2000.
G03 X-42.8 Y15.937 I-2.985 J0.0 F1198.
X-45.738 Y13.476 I0.0 J-2.985
X-45.784 Y12.953 I2.939 J-.523
G01 Y-11.783 F2000.
G03 X-42.8 Y-14.767 I2.985 J0.0 F1198.
X-39.815 Y-11.783 I0.0 J2.985
G01 Y.585 F2000.
X-39.838 Y.807 Z-.582
X-39.859 Y1.03 Z-.593
X-39.879 Y1.252 Z-.605
X-39.897 Y1.475 Z-.617
X-39.914 Y1.697 Z-.628
X-39.93 Y1.919 Z-.64
Y12.953
G03 X-42.8 Y15.822 I-2.87 J0.0 F1179.
X-45.621 Y13.476 I0.0 J-2.87
X-45.669 Y12.953 I2.822 J-.523
G01 Y-11.783 F2000.
G03 X-42.8 Y-14.652 I2.87 J0.0 F1179.
X-39.93 Y-11.783 I0.0 J2.87
G01 Y.585 F2000.
X-39.945 Y.807 Z-.652
X-39.96 Y1.03 Z-.663
X-39.973 Y1.252 Z-.675
X-39.986 Y1.475 Z-.686
X-39.998 Y1.697 Z-.698
X-40.01 Y1.919 Z-.71
Y12.953
G03 X-42.8 Y15.742 I-2.79 J0.0 F1165.
X-45.54 Y13.476 I0.0 J-2.79
X-45.589 Y12.953 I2.74 J-.523
G01 Y-11.783 F2000.
G03 X-42.8 Y-14.572 I2.79 J0.0 F1165.
X-40.01 Y-11.783 I0.0 J2.79
G01 Y.585 F2000.
X-40.021 Y.807 Z-.721
X-40.032 Y1.03 Z-.733
X-40.042 Y1.252 Z-.745
X-40.052 Y1.475 Z-.756
X-40.061 Y1.697 Z-.768
X-40.07 Y1.919 Z-.78
Y12.953
G03 X-42.8 Y15.682 I-2.729 J0.0 F1154.
X-45.479 Y13.476 I0.0 J-2.729
X-45.529 Y12.953 I2.679 J-.523
G01 Y-11.783 F2000.
G03 X-42.8 Y-14.512 I2.729 J0.0 F1154.
X-40.07 Y-11.783 I0.0 J2.729
G01 Y.585 F2000.
X-40.079 Y.807 Z-.791
X-40.087 Y1.03 Z-.803
X-40.095 Y1.252 Z-.815
X-40.103 Y1.475 Z-.826
X-40.11 Y1.697 Z-.838
X-40.117 Y1.919 Z-.85
Y12.953
G03 X-42.8 Y15.636 I-2.683 J0.0 F1146.
X-45.483 Y12.953 I0.0 J-2.683
G01 Y-11.783 F2000.
G03 X-42.8 Y-14.466 I2.683 J0.0 F1146.
X-40.117 Y-11.783 I0.0 J2.683
G01 Y.585 F2000.
X-40.123 Y.807 Z-.861
X-40.13 Y1.03 Z-.873
X-40.136 Y1.252 Z-.885
X-40.141 Y1.475 Z-.896
X-40.147 Y1.697 Z-.908
X-40.152 Y1.919 Z-.92
Y12.953
G03 X-42.8 Y15.6 I-2.648 J0.0 F1139.
X-45.447 Y12.953 I0.0 J-2.648
G01 Y-11.783 F2000.
G03 X-42.8 Y-14.43 I2.648 J0.0 F1139.
X-40.152 Y-11.783 I0.0 J2.648
G01 Y.585 F2000.
X-40.157 Y.807 Z-.931
X-40.162 Y1.03 Z-.943
X-40.166 Y1.252 Z-.955
X-40.171 Y1.475 Z-.966
X-40.175 Y1.697 Z-.978
X-40.179 Y1.919 Z-.99
Y12.953
G03 X-42.8 Y15.574 I-2.621 J0.0 F1134.
X-45.421 Y12.953 I0.0 J-2.621
G01 Y-11.783 F2000.
G03 X-42.8 Y-14.404 I2.621 J0.0 F1134.
X-40.179 Y-11.783 I0.0 J2.621
G01 Y.585 F2000.
X-40.182 Y.807 Z-1.001
X-40.185 Y1.03 Z-1.013
X-40.189 Y1.252 Z-1.024
X-40.192 Y1.475 Z-1.036
X-40.194 Y1.697 Z-1.048
X-40.197 Y1.919 Z-1.059
Y12.953
G03 X-42.8 Y15.556 I-2.603 J0.0 F1131.
X-45.403 Y12.953 I0.0 J-2.603
G01 Y-11.783 F2000.
G03 X-42.8 Y-14.385 I2.603 J0.0 F1131.
X-40.197 Y-11.783 I0.0 J2.603
G01 Y.585 F2000.
X-40.199 Y.807 Z-1.071
X-40.201 Y1.03 Z-1.083
X-40.203 Y1.252 Z-1.094
X-40.205 Y1.475 Z-1.106
X-40.206 Y1.697 Z-1.118
X-40.208 Y1.919 Z-1.129
Y12.953
G03 X-42.8 Y15.545 I-2.592 J0.0 F1129.
X-45.392 Y12.953 I0.0 J-2.592
G01 Y-11.783 F2000.
G03 X-42.8 Y-14.375 I2.592 J0.0 F1129.
X-40.208 Y-11.783 I0.0 J2.592
G01 Y.585 F2000.
X-40.209 Y.807 Z-1.141
X-40.21 Y1.03 Z-1.153
Y1.252 Z-1.164
X-40.211 Y1.475 Z-1.176
Y1.697 Z-1.188
Y1.919 Z-1.199
Y12.953
G03 X-42.8 Y15.541 I-2.588 J0.0 F1128.
X-45.388 Y12.953 I0.0 J-2.588
G01 Y-11.783 F2000.
G03 X-42.8 Y-14.371 I2.588 J0.0 F1128.
X-40.211 Y-11.783 I0.0 J2.588
G01 Y.585 F2000.
Y.807 Z-1.211
Y1.919 Z-1.269
Y12.953
G03 X-42.8 Y15.541 I-2.588 J0.0 F1128.
X-45.388 Y12.953 I0.0 J-2.588
G01 Y-11.783 F2000.
G03 X-42.8 Y-14.371 I2.588 J0.0 F1128.
X-40.211 Y-11.783 I0.0 J2.588
G01 Y.585 F2000.
Y1.919 Z-1.339
Y12.953
G03 X-42.8 Y15.541 I-2.588 J0.0 F1128.
X-45.388 Y12.953 I0.0 J-2.588
G01 Y-11.783 F2000.
G03 X-42.8 Y-14.371 I2.588 J0.0 F1128.
X-40.211 Y-11.783 I0.0 J2.588
G01 Y.585 F2000.
Y1.919 Z-1.409
Y12.953
G03 X-42.8 Y15.541 I-2.588 J0.0 F1128.
X-45.388 Y12.953 I0.0 J-2.588
G01 Y-11.783 F2000.
G03 X-42.8 Y-14.371 I2.588 J0.0 F1128.
X-40.211 Y-11.783 I0.0 J2.588
G01 Y.585 F2000.
Y1.919 Z-1.479
Y12.953
G03 X-42.8 Y15.541 I-2.588 J0.0 F1128.
X-45.388 Y12.953 I0.0 J-2.588
G01 Y-11.783 F2000.
G03 X-42.8 Y-14.371 I2.588 J0.0 F1128.
X-40.211 Y-11.783 I0.0 J2.588
G01 Y.585 F2000.
Y1.919 Z-1.549
Y12.953
G03 X-42.8 Y15.541 I-2.588 J0.0 F1128.
X-45.388 Y12.953 I0.0 J-2.588
G01 Y-11.783 F2000.
G03 X-42.8 Y-14.371 I2.588 J0.0 F1128.
X-40.211 Y-11.783 I0.0 J2.588
G01 Y.585 F2000.
Y1.919 Z-1.619
Y12.953
G03 X-42.8 Y15.541 I-2.588 J0.0 F1128.
X-45.388 Y12.953 I0.0 J-2.588
G01 Y-11.783 F2000.
G03 X-42.8 Y-14.371 I2.588 J0.0 F1128.
X-40.211 Y-11.783 I0.0 J2.588
G01 Y.585 F2000.
Y1.919 Z-1.689
Y12.953
G03 X-42.8 Y15.541 I-2.588 J0.0 F1128.
X-45.388 Y12.953 I0.0 J-2.588
G01 Y-11.783 F2000.
G03 X-42.8 Y-14.371 I2.588 J0.0 F1128.
X-40.211 Y-11.783 I0.0 J2.588
G01 Y.585 F2000.
Y1.919 Z-1.759
Y12.953
G03 X-42.8 Y15.541 I-2.588 J0.0 F1128.
X-45.388 Y12.953 I0.0 J-2.588
G01 Y-11.783 F2000.
G03 X-42.8 Y-14.371 I2.588 J0.0 F1128.
X-40.211 Y-11.783 I0.0 J2.588
G01 Y.585 F2000.
Y1.919 Z-1.829
Y12.953
G03 X-42.8 Y15.541 I-2.588 J0.0 F1128.
X-45.388 Y12.953 I0.0 J-2.588
G01 Y-11.783 F2000.
G03 X-42.8 Y-14.371 I2.588 J0.0 F1128.
X-40.211 Y-11.783 I0.0 J2.588
G01 Y.585 F2000.
Y1.919 Z-1.899
Y12.953
G03 X-42.8 Y15.541 I-2.588 J0.0 F1128.
X-45.388 Y12.953 I0.0 J-2.588
G01 Y-11.783 F2000.
G03 X-42.8 Y-14.371 I2.588 J0.0 F1128.
X-40.211 Y-11.783 I0.0 J2.588
G01 Y.585 F2000.
Y1.919 Z-1.969
Y12.953
G03 X-42.8 Y15.541 I-2.588 J0.0 F1128.
X-45.388 Y12.953 I0.0 J-2.588
G01 Y-11.783 F2000.
G03 X-42.8 Y-14.371 I2.588 J0.0 F1128.
X-40.211 Y-11.783 I0.0 J2.588
G01 Y1.919 F2000.
X-42.211
Z.031
G00 Z2.5
X24.59 Y2.647
G01 Z2.43
Z-.57 F800.
G03 X22.59 Y.647 I0.0 J-2. F400.
G01 Y-12.185 F2000.
G03 X25.574 Y-15.169 I2.985 J0.0 F1198.
X28.559 Y-12.185 I0.0 J2.985
G01 Y12.953 F2000.
G03 X25.574 Y15.937 I-2.985 J0.0 F1198.
X22.636 Y13.476 I0.0 J-2.985
X22.59 Y12.953 I2.939 J-.523
G01 Y.647 F2000.
X22.613 Y.424 Z-.582
X22.634 Y.202 Z-.593
X22.653 Y-.02 Z-.605
X22.671 Y-.243 Z-.617
X22.689 Y-.465 Z-.628
X22.705 Y-.688 Z-.64
Y-12.185
G03 X25.574 Y-15.054 I2.87 J0.0 F1179.
X28.444 Y-12.185 I0.0 J2.87
G01 Y12.953 F2000.
G03 X25.574 Y15.822 I-2.87 J0.0 F1179.
X22.705 Y12.953 I0.0 J-2.87
G01 Y.647 F2000.
X22.72 Y.424 Z-.652
X22.734 Y.202 Z-.663
X22.748 Y-.02 Z-.675
X22.761 Y-.243 Z-.686
X22.773 Y-.465 Z-.698
X22.785 Y-.688 Z-.71
Y-12.185
G03 X25.574 Y-14.974 I2.79 J0.0 F1165.
X28.364 Y-12.185 I0.0 J2.79
G01 Y12.953 F2000.
G03 X25.574 Y15.742 I-2.79 J0.0 F1165.
X22.834 Y13.476 I0.0 J-2.79
X22.785 Y12.953 I2.74 J-.523
G01 Y.647 F2000.
X22.796 Y.424 Z-.721
X22.807 Y.202 Z-.733
X22.817 Y-.02 Z-.745
X22.827 Y-.243 Z-.756
X22.836 Y-.465 Z-.768
X22.845 Y-.688 Z-.78
