%
G40 G17 G49 G54 G80
G91 G28 Z0.0
( NAME: Capful )
( PART: D:\Program Files\Siemens\NX 12.0\UGII\HM-µç¼«±à³Ì.prt )
( DATE: Sun May 27 04:56:06 2018 )
( D10 ---> D=10.00 R=0.00 )
S8000 M03
G00 G90 X-6.5 Y35.6
Z14.5
G17 G01 Z-18.032 F1000.
Z-19.032 F400.
Y34.1
G40 G03 X-1.5 Y29.1 I5. J0.0
G01 X152.5 F1000.
G02 X156.106 Y27.606 I0.0 J-5.1
G01 X160.106 Y23.606
G02 X161.6 Y20. I-3.606 J-3.606
G01 Y-23.
G02 X155.5 Y-29.1 I-6.1 J0.0
G01 X-141.5
G02 X-161.6 Y-9. I0.0 J20.1
G01 Y23.
G02 X-155.5 Y29.1 I6.1 J0.0
G01 X-1.5
X1.5
G03 X6.5 Y34.1 I0.0 J5.
G01 X-6.5 Y34.05
G03 X-1.5 Y29.05 I5. J0.0 F400.
G01 X152.5 F1000.
G02 X156.071 Y27.571 I0.0 J-5.05
G01 X160.071 Y23.571
G02 X161.55 Y20. I-3.571 J-3.571
G01 Y-23.
G02 X155.5 Y-29.05 I-6.05 J0.0
G01 X-141.5
G02 X-161.55 Y-9. I0.0 J20.05
G01 Y23.
G02 X-155.5 Y29.05 I6.05 J0.0
G01 X-1.5
X1.5
G03 X6.5 Y34.05 I0.0 J5.
G01 X-6.5 Y34.
G03 X-1.5 Y29. I5. J0.0 F400.
G01 X152.5 F1000.
G02 X156.036 Y27.536 I0.0 J-5.
G01 X160.036 Y23.536
G02 X161.5 Y20. I-3.536 J-3.536
G01 Y-23.
G02 X155.5 Y-29. I-6. J0.0
G01 X-141.5
G02 X-161.5 Y-9. I0.0 J20.
G01 Y23.
G02 X-155.5 Y29. I6. J0.0
G01 X-1.5
X1.5
G03 X6.5 Y34. I0.0 J5.
G01 Y35.55
Z-18.032
G00 Z14.5
M09
M05
G91 G28 Z0.0
G28 Y0.0
M30
%
(TOTAL Machine Time: 2.6 min)
