%
G40 G17 G49 G54 G80
G91 G28 Z0.0
( NAME: Capful )
( PART: D:\Program Files\Siemens\NX 12.0\UGII\HM-µç¼«±à³Ì.prt )
( DATE: Sun May 27 04:56:06 2018 )
( D10 ---> D=10.00 R=0.00 )
S8000 M03
G00 G90 X-137.937 Y-32.
Z15.
G17 G01 Z-5.982 F1300.
Z-8.982 F520.
Y-25.5
X-141.5 F1300.
G40 G02 X-158. Y-9. I0.0 J16.5
G01 Y23.
G02 X-155.5 Y25.5 I2.5 J0.0
G01 X-152.236
Y22.5
G03 X-155. Y19.698 I6.875 J-9.547 F780.
G01 Y22.5 F1300.
X-152.236
Y25.5
X-135.142
Y22.5
G03 X-136.805 Y20.927 I6.489 J-8.524 F780.
X-137.816 Y21.954 I-8.012 J-6.874
X-138.486 Y22.5 I-5.067 J-5.529
G01 X-135.142 F1300.
Y25.5
X-118.049
Y22.5
X-118.208 Y22.384 F780.
X-118.474 Y22.185
X-119.281 Y21.416
G03 X-119.721 Y20.925 I8.903 J-8.439
X-120.288 Y21.54 I-9.175 J-7.889
G01 X-121.234 Y22.384
X-121.392 Y22.5
X-118.049 F1300.
Y25.5
X-100.955
Y22.5
G03 X-102.624 Y20.92 I6.488 J-8.524 F780.
X-103.195 Y21.541 I-9.179 J-7.884
G01 X-104.14 Y22.384
X-104.299 Y22.5
X-100.955 F1300.
Y25.5
X-83.862
Y22.5
X-84.018 Y22.385 F780.
X-84.284 Y22.187
X-85.026 Y21.481
X-85.256 Y21.235
G03 X-85.527 Y20.93 I8.875 J-8.179
X-86.82 Y22.215 I-8.373 J-7.135
G01 X-87.049 Y22.385
X-87.205 Y22.5
X-83.862 F1300.
Y25.5
X-66.768
Y22.5
X-66.925 Y22.385 F780.
X-67.191 Y22.187
X-67.932 Y21.481
X-68.163 Y21.235
G03 X-68.434 Y20.93 I8.897 J-8.199
X-69.727 Y22.215 I-8.373 J-7.135
G01 X-69.955 Y22.385
X-70.112 Y22.5
X-66.768 F1300.
Y25.5
X-49.675
Y22.5
X-49.831 Y22.385 F780.
X-50.097 Y22.187
X-50.906 Y21.417
G03 X-51.345 Y20.929 I8.901 J-8.44
X-52.632 Y22.214 I-8.865 J-7.591
G01 X-52.862 Y22.385
X-53.018 Y22.5
X-49.675 F1300.
Y25.5
X-32.581
Y22.5
X-32.738 Y22.385 F780.
G03 X-34.09 Y21.108 I3.811 J-5.39
X-34.251 Y20.925 I8.99 J-8.054
X-35.538 Y22.214 I-9.053 J-7.75
G01 X-35.768 Y22.385
X-35.925 Y22.5
X-32.581 F1300.
Y25.5
X-15.488
Y22.5
X-15.644 Y22.385 F780.
G03 X-16.997 Y21.108 I3.811 J-5.39
G01 X-17.153 Y20.93
G03 X-18.446 Y22.215 I-8.373 J-7.135
G01 X-18.675 Y22.385
X-18.831 Y22.5
X-15.488 F1300.
Y25.5
X1.606
Y22.5
X1.449 Y22.385 F780.
G03 X.097 Y21.108 I3.811 J-5.39
G01 X-.059 Y20.93
G03 X-1.353 Y22.215 I-8.373 J-7.135
G01 X-1.581 Y22.385
X-1.738 Y22.5
X1.606 F1300.
Y25.5
X18.699
Y22.5
X18.543 Y22.385 F780.
G03 X17.19 Y21.108 I3.811 J-5.39
X17.03 Y20.925 I9.012 J-8.073
X15.741 Y22.215 I-8.968 J-7.671
G01 X15.512 Y22.385
X15.356 Y22.5
X18.699 F1300.
Y25.5
X35.793
Y22.5
X35.636 Y22.385 F780.
X35.37 Y22.187
X34.629 Y21.481
X34.398 Y21.235
G03 X34.123 Y20.925 I8.875 J-8.179
X32.834 Y22.215 I-8.967 J-7.671
G01 X32.606 Y22.385
X32.449 Y22.5
X35.793 F1300.
Y25.5
X52.886
Y22.5
X52.73 Y22.385 F780.
G03 X51.377 Y21.108 I3.811 J-5.39
X51.217 Y20.925 I8.99 J-8.054
X49.928 Y22.215 I-8.968 J-7.671
G01 X49.699 Y22.385
X49.543 Y22.5
X52.886 F1300.
Y25.5
X69.98
Y22.5
G03 X68.314 Y20.924 I4.179 J-6.083 F780.
X67.022 Y22.214 I-8.87 J-7.586
G01 X66.793 Y22.385
X66.636 Y22.5
X69.98 F1300.
Y25.5
X87.073
Y22.5
X86.917 Y22.385 F780.
G03 X85.564 Y21.108 I3.811 J-5.39
G01 X85.409 Y20.931
G03 X84.176 Y22.169 I-8.475 J-7.202
G01 X83.887 Y22.385
X83.73 Y22.5
X87.073 F1300.
Y25.5
X104.167
Y22.5
X104.01 Y22.385 F780.
X103.744 Y22.187
X103.003 Y21.481
X102.772 Y21.235
G03 X102.497 Y20.925 I8.897 J-8.199
X101.208 Y22.215 I-8.967 J-7.671
G01 X100.98 Y22.385
X100.823 Y22.5
X104.167 F1300.
Y25.5
X121.26
Y22.5
X121.104 Y22.385 F780.
X120.838 Y22.187
X120.096 Y21.481
X119.866 Y21.235
G03 X119.59 Y20.925 I8.875 J-8.179
X118.302 Y22.215 I-8.967 J-7.671
G01 X118.073 Y22.385
X117.917 Y22.5
X121.26 F1300.
Y25.5
X138.354
Y22.5
X138.197 Y22.385 F780.
G03 X136.845 Y21.108 I3.811 J-5.39
X136.684 Y20.925 I9.012 J-8.073
X135.395 Y22.215 I-8.968 J-7.671
G01 X135.167 Y22.385
X135.01 Y22.5
X138.354 F1300.
Y25.5
X153.121
X158. Y20.621
Y19.214
X155.
G03 X154.73 Y19.649 I-10.468 J-6.203 F780.
G01 X155. Y19.379 F1300.
Y19.214
X158.
Y-23.
G02 X155.5 Y-25.5 I-2.5 J0.0
G01 X79.238
Y-22.5
G03 X83.918 Y-20.387 I-2.385 J11.521 F780.
X84.392 Y-19.995 I-3.902 J5.198
X85.701 Y-18.584 I-7.676 J8.434
X86.589 Y-19.442 I8.69 J8.108
G01 X86.747 Y-19.58
G03 X93.947 Y-22.04 I7.2 J9.304
X101.011 Y-19.683 I0.0 J11.765
X101.486 Y-19.291 I-3.902 J5.198
X102.73 Y-17.96 I-7.679 J8.432
G01 X102.873 Y-17.78
X103.182 Y-18.128
X103.768 Y-18.671
G03 X111.039 Y-21.187 I7.271 J9.249
X118.105 Y-18.829 I0.0 J11.765
X118.579 Y-18.436 I-3.902 J5.198
X119.824 Y-17.106 I-7.679 J8.432
X120.151 Y-16.68 I-9.498 J7.637
G01 X120.3 Y-16.843
X120.861 Y-17.364
G03 X128.132 Y-19.88 I7.271 J9.249
X135.044 Y-17.636 I0.0 J11.765
X135.688 Y-17.111 I-4.404 J6.071
X136.453 Y-16.341 I-7.252 J7.967
G01 X137.171 Y-15.439
X137.548 Y-15.832
X137.669 Y-15.943
G03 X138.401 Y-16.537 I5.084 J5.513
X145.229 Y-18.721 I6.828 J9.581
X152.23 Y-16.411 I0.0 J11.765
X152.717 Y-16.012 I-3.868 J5.224
X153.503 Y-15.233 I-7.879 J8.728
G01 X154.685 Y-13.707
X155. Y-13.175
Y-22.5 F1300.
X79.238
Y-25.5
X64.023
Y-22.5
G03 X67.068 Y-20.755 I-4.262 J10.966 F780.
G01 X67.23 Y-20.609
G03 X68.544 Y-19.217 I-7.61 J8.493
X69.025 Y-19.713 I8.774 J8.036
X69.492 Y-20.144 I7.622 J7.781
G01 X69.647 Y-20.279
G03 X74.468 Y-22.5 I7.206 J9.3
G01 X64.023 F1300.
Y-25.5
X47.842
Y-22.5
G03 X49.731 Y-21.342 I-5.175 J10.566 F780.
X50.205 Y-20.95 I-3.902 J5.198
X51.392 Y-19.691 I-7.679 J8.432
G01 X51.546 Y-19.875
X51.686 Y-20.019
G03 X52.339 Y-20.646 I9.098 J8.829
G01 X52.515 Y-20.803
G03 X55.499 Y-22.5 I7.246 J9.269
G01 X47.842 F1300.
Y-25.5
X31.233
Y-22.5
G03 X32.637 Y-21.594 I-5.66 J10.314 F780.
X33.112 Y-21.201 I-3.902 J5.198
X34.23 Y-20.027 I-7.679 J8.432
X35.284 Y-21.083 I8.121 J7.052
G01 X35.432 Y-21.212
G03 X37.491 Y-22.5 I7.235 J9.278
G01 X31.233 F1300.
Y-25.5
X14.406
Y-22.5
G03 X15.543 Y-21.745 I-5.927 J10.163 F780.
X16.018 Y-21.352 I-3.902 J5.198
X17.093 Y-20.23 I-7.678 J8.432
X18.12 Y-21.274 I8.854 J7.687
G01 X18.289 Y-21.426
G03 X19.912 Y-22.5 I7.283 J9.24
G01 X14.406 F1300.
Y-25.5
X-2.775
Y-22.5
G03 X-1.549 Y-21.694 I-5.837 J10.215 F780.
X-1.074 Y-21.301 I-3.903 J5.198
X-.087 Y-20.282 I-7.68 J8.43
X.957 Y-21.367 I8.919 J7.545
G01 X1.129 Y-21.524
G03 X2.552 Y-22.5 I7.349 J9.187
G01 X-2.775 F1300.
Y-25.5
X-20.235
Y-22.5
G03 X-18.642 Y-21.493 I-5.473 J10.414 F780.
X-18.168 Y-21.1 I-3.903 J5.198
X-17.247 Y-20.158 I-7.68 J8.43
G01 X-16.813 Y-20.652
X-16.094 Y-21.372
X-15.818 Y-21.586
G03 X-14.45 Y-22.5 I7.205 J9.301
G01 X-20.235 F1300.
Y-25.5
X-37.946
Y-22.5
G03 X-35.736 Y-21.191 I-4.856 J10.716 F780.
X-35.261 Y-20.798 I-3.903 J5.198
X-34.389 Y-19.912 I-7.68 J8.43
X-33.137 Y-21.209 I9. J7.441
X-31.181 Y-22.5 I7.429 J9.123
G01 X-37.946 F1300.
Y-25.5
X-56.355
Y-22.5
G03 X-52.83 Y-20.688 I-3.539 J11.22 F780.
X-52.355 Y-20.295 I-3.903 J5.198
X-51.571 Y-19.508 I-7.68 J8.431
X-51.117 Y-20.042 I9.468 J7.594
G01 X-50.298 Y-20.851
G03 X-47.658 Y-22.5 I7.497 J9.067
G01 X-56.355 F1300.
Y-25.5
X-137.937
Y-22.5
X-141.5
G02 X-155. Y-9. I0.0 J13.5
G01 Y-8.372
G03 X-145.361 Y-13.392 I9.639 J6.745 F780.
X-138.601 Y-11.256 I0.0 J11.765
X-137.397 Y-13.322 I11.292 J5.197
G01 X-136.774 Y-14.097
X-135.953 Y-14.966
G03 X-128.272 Y-17.82 I7.681 J8.912
X-121.21 Y-15.464 I0.0 J11.765
X-120.489 Y-14.836 I-3.899 J5.201
X-120.299 Y-14.65 I-8.229 J8.579
X-118.708 Y-16.394 I6.363 J4.208
X-111.174 Y-19.123 I7.534 J9.036
X-103.931 Y-16.629 I0.0 J11.765
X-103.248 Y-17.619 I8.074 J4.842
X-102.701 Y-18.28 I6.043 J4.442
X-94.08 Y-22.039 I8.621 J8.006
X-86.659 Y-19.403 I0.0 J11.765
X-86.284 Y-19.073 I-4.1 J5.044
X-85.538 Y-18.294 I-7.727 J8.144
G01 X-85.399 Y-18.457
X-84.692 Y-19.169
G03 X-76.989 Y-22.041 I7.703 J8.893
X-69.923 Y-19.683 I0.0 J11.765
X-69.449 Y-19.29 I-3.903 J5.198
X-68.888 Y-18.743 I-7.68 J8.431
X-68.674 Y-19.022 I9.932 J7.408
X-67.431 Y-20.313 I5.837 J4.376
X-63.432 Y-22.5 I7.538 J9.033
G01 X-122.17 F1300.
Y-19.5
G03 X-120.637 Y-18.693 I-6.102 J13.445
X-119.575 Y-19.5 I9.458 J11.338
G01 X-122.17
Y-22.5
X-137.937
Y-19.5
X-141.5
G02 X-149.501 Y-15.8 I0.0 J10.5
G03 X-145.361 Y-16.392 I4.14 J14.173
X-139.689 Y-15.259 I0.0 J14.765
G01 X-139.037 Y-16.07
X-138.028 Y-17.138
G03 X-134.374 Y-19.5 I9.754 J11.085
G01 X-137.937
Y-32.
Z-5.982
G00 Z-5.932
G01 Z-6.032
Z-9.032 F520.
Y-25.5
X-141.5 F1300.
G02 X-158. Y-9. I0.0 J16.5
G01 Y23.
G02 X-155.5 Y25.5 I2.5 J0.0
G01 X-152.236
Y22.5
G03 X-155. Y19.698 I6.875 J-9.547 F780.
G01 Y22.5 F1300.
X-152.236
Y25.5
X-135.142
Y22.5
G03 X-136.805 Y20.927 I6.489 J-8.524 F780.
X-137.816 Y21.954 I-8.012 J-6.874
X-138.486 Y22.5 I-5.067 J-5.529
G01 X-135.142 F1300.
Y25.5
X-118.049
Y22.5
X-118.208 Y22.384 F780.
X-118.474 Y22.185
X-119.281 Y21.416
G03 X-119.721 Y20.925 I8.903 J-8.439
X-120.288 Y21.54 I-9.175 J-7.889
G01 X-121.234 Y22.384
X-121.392 Y22.5
X-118.049 F1300.
Y25.5
X-100.955
Y22.5
G03 X-102.624 Y20.92 I6.488 J-8.524 F780.
X-103.195 Y21.541 I-9.179 J-7.884
G01 X-104.14 Y22.384
X-104.299 Y22.5
X-100.955 F1300.
Y25.5
X-83.862
Y22.5
X-84.018 Y22.385 F780.
X-84.284 Y22.187
X-85.026 Y21.481
X-85.256 Y21.235
G03 X-85.527 Y20.93 I8.875 J-8.179
X-86.82 Y22.215 I-8.373 J-7.135
G01 X-87.049 Y22.385
X-87.205 Y22.5
X-83.862 F1300.
Y25.5
X-66.768
Y22.5
X-66.925 Y22.385 F780.
X-67.191 Y22.187
X-67.932 Y21.481
X-68.163 Y21.235
G03 X-68.434 Y20.93 I8.897 J-8.199
X-69.727 Y22.215 I-8.373 J-7.135
G01 X-69.955 Y22.385
X-70.112 Y22.5
X-66.768 F1300.
Y25.5
X-49.675
Y22.5
X-49.831 Y22.385 F780.
X-50.097 Y22.187
X-50.906 Y21.417
G03 X-51.345 Y20.929 I8.901 J-8.44
X-52.632 Y22.214 I-8.865 J-7.591
G01 X-52.862 Y22.385
X-53.018 Y22.5
X-49.675 F1300.
Y25.5
X-32.581
Y22.5
X-32.738 Y22.385 F780.
G03 X-34.09 Y21.108 I3.811 J-5.39
X-34.251 Y20.925 I8.99 J-8.054
X-35.538 Y22.214 I-9.053 J-7.75
G01 X-35.768 Y22.385
X-35.925 Y22.5
X-32.581 F1300.
Y25.5
X-15.488
Y22.5
X-15.644 Y22.385 F780.
G03 X-16.997 Y21.108 I3.811 J-5.39
G01 X-17.153 Y20.93
G03 X-18.446 Y22.215 I-8.373 J-7.135
G01 X-18.675 Y22.385
X-18.831 Y22.5
X-15.488 F1300.
Y25.5
X1.606
Y22.5
X1.449 Y22.385 F780.
G03 X.097 Y21.108 I3.811 J-5.39
G01 X-.059 Y20.93
G03 X-1.353 Y22.215 I-8.373 J-7.135
G01 X-1.581 Y22.385
X-1.738 Y22.5
X1.606 F1300.
Y25.5
X18.699
Y22.5
X18.543 Y22.385 F780.
G03 X17.19 Y21.108 I3.811 J-5.39
X17.03 Y20.925 I9.012 J-8.073
X15.741 Y22.215 I-8.968 J-7.671
G01 X15.512 Y22.385
X15.356 Y22.5
X18.699 F1300.
Y25.5
X35.793
Y22.5
X35.636 Y22.385 F780.
X35.37 Y22.187
X34.629 Y21.481
X34.398 Y21.235
G03 X34.123 Y20.925 I8.875 J-8.179
X32.834 Y22.215 I-8.967 J-7.671
G01 X32.606 Y22.385
X32.449 Y22.5
X35.793 F1300.
Y25.5
X52.886
Y22.5
X52.73 Y22.385 F780.
G03 X51.377 Y21.108 I3.811 J-5.39
X51.217 Y20.925 I8.99 J-8.054
X49.928 Y22.215 I-8.968 J-7.671
G01 X49.699 Y22.385
X49.543 Y22.5
X52.886 F1300.
Y25.5
X69.98
Y22.5
G03 X68.314 Y20.924 I4.179 J-6.083 F780.
X67.022 Y22.214 I-8.87 J-7.586
G01 X66.793 Y22.385
X66.636 Y22.5
X69.98 F1300.
Y25.5
X87.073
Y22.5
X86.917 Y22.385 F780.
G03 X85.564 Y21.108 I3.811 J-5.39
G01 X85.409 Y20.931
G03 X84.176 Y22.169 I-8.475 J-7.202
G01 X83.887 Y22.385
X83.73 Y22.5
X87.073 F1300.
Y25.5
X104.167
Y22.5
X104.01 Y22.385 F780.
X103.744 Y22.187
X103.003 Y21.481
X102.772 Y21.235
G03 X102.497 Y20.925 I8.897 J-8.199
X101.208 Y22.215 I-8.967 J-7.671
G01 X100.98 Y22.385
X100.823 Y22.5
X104.167 F1300.
Y25.5
X121.26
Y22.5
X121.104 Y22.385 F780.
X120.838 Y22.187
X120.096 Y21.481
X119.866 Y21.235
G03 X119.59 Y20.925 I8.875 J-8.179
X118.302 Y22.215 I-8.967 J-7.671
G01 X118.073 Y22.385
X117.917 Y22.5
X121.26 F1300.
Y25.5
X138.354
Y22.5
X138.197 Y22.385 F780.
G03 X136.845 Y21.108 I3.811 J-5.39
X136.684 Y20.925 I9.012 J-8.073
X135.395 Y22.215 I-8.968 J-7.671
G01 X135.167 Y22.385
X135.01 Y22.5
X138.354 F1300.
Y25.5
X153.121
X158. Y20.621
Y19.214
X155.
G03 X154.73 Y19.649 I-10.468 J-6.203 F780.
G01 X155. Y19.379 F1300.
Y19.214
X158.
Y-23.
G02 X155.5 Y-25.5 I-2.5 J0.0
G01 X79.238
Y-22.5
G03 X83.918 Y-20.387 I-2.385 J11.521 F780.
X84.392 Y-19.995 I-3.902 J5.198
X85.701 Y-18.584 I-7.676 J8.434
X86.589 Y-19.442 I8.69 J8.108
G01 X86.747 Y-19.58
G03 X93.947 Y-22.04 I7.2 J9.304
X101.011 Y-19.683 I0.0 J11.765
X101.486 Y-19.291 I-3.902 J5.198
X102.73 Y-17.96 I-7.679 J8.432
G01 X102.873 Y-17.78
X103.182 Y-18.128
X103.768 Y-18.671
G03 X111.039 Y-21.187 I7.271 J9.249
X118.105 Y-18.829 I0.0 J11.765
X118.579 Y-18.436 I-3.902 J5.198
X119.824 Y-17.106 I-7.679 J8.432
X120.151 Y-16.68 I-9.498 J7.637
G01 X120.3 Y-16.843
X120.861 Y-17.364
G03 X128.132 Y-19.88 I7.271 J9.249
X135.044 Y-17.636 I0.0 J11.765
X135.688 Y-17.111 I-4.404 J6.071
X136.453 Y-16.341 I-7.252 J7.967
G01 X137.171 Y-15.439
X137.548 Y-15.832
X137.669 Y-15.943
G03 X138.401 Y-16.537 I5.084 J5.513
X145.229 Y-18.721 I6.828 J9.581
X152.23 Y-16.411 I0.0 J11.765
X152.717 Y-16.012 I-3.868 J5.224
X153.503 Y-15.233 I-7.879 J8.728
G01 X154.685 Y-13.707
X155. Y-13.175
Y-22.5 F1300.
X79.238
Y-25.5
X64.023
Y-22.5
G03 X67.068 Y-20.755 I-4.262 J10.966 F780.
G01 X67.23 Y-20.609
G03 X68.544 Y-19.217 I-7.61 J8.493
X69.025 Y-19.713 I8.774 J8.036
X69.492 Y-20.144 I7.622 J7.781
G01 X69.647 Y-20.279
G03 X74.468 Y-22.5 I7.206 J9.3
G01 X64.023 F1300.
Y-25.5
X47.842
Y-22.5
G03 X49.731 Y-21.342 I-5.175 J10.566 F780.
X50.205 Y-20.95 I-3.902 J5.198
X51.392 Y-19.691 I-7.679 J8.432
G01 X51.546 Y-19.875
X51.686 Y-20.019
G03 X52.339 Y-20.646 I9.098 J8.829
G01 X52.515 Y-20.803
G03 X55.499 Y-22.5 I7.246 J9.269
G01 X47.842 F1300.
Y-25.5
X31.233
Y-22.5
G03 X32.637 Y-21.594 I-5.66 J10.314 F780.
X33.112 Y-21.201 I-3.902 J5.198
X34.23 Y-20.027 I-7.679 J8.432
X35.284 Y-21.083 I8.121 J7.052
G01 X35.432 Y-21.212
G03 X37.491 Y-22.5 I7.235 J9.278
G01 X31.233 F1300.
Y-25.5
X14.406
Y-22.5
G03 X15.543 Y-21.745 I-5.927 J10.163 F780.
X16.018 Y-21.352 I-3.902 J5.198
X17.093 Y-20.23 I-7.678 J8.432
X18.12 Y-21.274 I8.854 J7.687
G01 X18.289 Y-21.426
G03 X19.912 Y-22.5 I7.283 J9.24
G01 X14.406 F1300.
Y-25.5
X-2.775
Y-22.5
G03 X-1.549 Y-21.694 I-5.837 J10.215 F780.
X-1.074 Y-21.301 I-3.903 J5.198
X-.087 Y-20.282 I-7.68 J8.43
X.957 Y-21.367 I8.919 J7.545
G01 X1.129 Y-21.524
G03 X2.552 Y-22.5 I7.349 J9.187
G01 X-2.775 F1300.
Y-25.5
X-20.235
Y-22.5
G03 X-18.642 Y-21.493 I-5.473 J10.414 F780.
X-18.168 Y-21.1 I-3.903 J5.198
X-17.247 Y-20.158 I-7.68 J8.43
G01 X-16.813 Y-20.652
X-16.094 Y-21.372
X-15.818 Y-21.586
G03 X-14.45 Y-22.5 I7.205 J9.301
G01 X-20.235 F1300.
Y-25.5
X-37.946
Y-22.5
G03 X-35.736 Y-21.191 I-4.856 J10.716 F780.
X-35.261 Y-20.798 I-3.903 J5.198
X-34.389 Y-19.912 I-7.68 J8.43
X-33.137 Y-21.209 I9. J7.441
X-31.181 Y-22.5 I7.429 J9.123
G01 X-37.946 F1300.
Y-25.5
X-56.355
Y-22.5
G03 X-52.83 Y-20.688 I-3.539 J11.22 F780.
X-52.355 Y-20.295 I-3.903 J5.198
X-51.571 Y-19.508 I-7.68 J8.431
X-51.117 Y-20.042 I9.468 J7.594
G01 X-50.298 Y-20.851
G03 X-47.658 Y-22.5 I7.497 J9.067
G01 X-56.355 F1300.
Y-25.5
X-137.937
Y-22.5
X-141.5
G02 X-155. Y-9. I0.0 J13.5
G01 Y-8.372
G03 X-145.361 Y-13.392 I9.639 J6.745 F780.
X-138.601 Y-11.256 I0.0 J11.765
X-137.397 Y-13.322 I11.292 J5.197
G01 X-136.774 Y-14.097
X-135.953 Y-14.966
G03 X-128.272 Y-17.82 I7.681 J8.912
X-121.21 Y-15.464 I0.0 J11.765
X-120.489 Y-14.836 I-3.899 J5.201
X-120.299 Y-14.65 I-8.229 J8.579
X-118.708 Y-16.394 I6.363 J4.208
X-111.174 Y-19.123 I7.534 J9.036
X-103.931 Y-16.629 I0.0 J11.765
X-103.248 Y-17.619 I8.074 J4.842
X-102.701 Y-18.28 I6.043 J4.442
X-94.08 Y-22.039 I8.621 J8.006
X-86.659 Y-19.403 I0.0 J11.765
X-86.284 Y-19.073 I-4.1 J5.044
X-85.538 Y-18.294 I-7.727 J8.144
G01 X-85.399 Y-18.457
X-84.692 Y-19.169
G03 X-76.989 Y-22.041 I7.703 J8.893
X-69.923 Y-19.683 I0.0 J11.765
X-69.449 Y-19.29 I-3.903 J5.198
X-68.888 Y-18.743 I-7.68 J8.431
X-68.674 Y-19.022 I9.932 J7.408
X-67.431 Y-20.313 I5.837 J4.376
X-63.432 Y-22.5 I7.538 J9.033
G01 X-122.17 F1300.
Y-19.5
G03 X-120.637 Y-18.693 I-6.102 J13.445
X-119.575 Y-19.5 I9.458 J11.338
G01 X-122.17
Y-22.5
X-137.937
Y-19.5
X-141.5
G02 X-149.501 Y-15.8 I0.0 J10.5
G03 X-145.361 Y-16.392 I4.14 J14.173
X-139.689 Y-15.259 I0.0 J14.765
G01 X-139.037 Y-16.07
X-138.028 Y-17.138
G03 X-134.374 Y-19.5 I9.754 J11.085
G01 X-137.937
Y-32.
Z-6.032
G00 Z15.
M09
M05
G91 G28 Z0.0
G28 Y0.0
M30
%
(TOTAL Machine Time: 3.1 min)
