%
G40 G17 G49 G54 G80
G91 G28 Z0.0
( NAME: Capful )
( PART: D:\Program Files\Siemens\NX 12.0\UGII\HM-µç¼«±à³Ì.prt )
( DATE: Sun May 27 04:56:06 2018 )
( D4 ---> D=4.00 R=0.00 )
S9000 M03
G00 G90 X-142.855 Y3.203
Z15.
G17 G01 Z.1 F2000.
Y-1.627 Z-.069 F800.
Y-2.016 Z-.082
X-143.148 Y-2.865 Z-.114
X-143.627 Y-3.478 Z-.141
X-144.429 Y-3.986 Z-.174
X-145.361 Y-4.163 Z-.207
X-146.293 Y-3.986 Z-.24
X-147.095 Y-3.478 Z-.273
X-147.574 Y-2.865 Z-.3
X-147.867 Y-2.016 Z-.332
Y-1.627 Z-.345
Y5.663 Z-.6
Y12.953 F1200.
G40 G02 X-145.361 Y15.459 I2.506 J0.0
X-142.855 Y12.953 I0.0 J-2.506
G01 Y-1.627
G02 X-145.361 Y-4.133 I-2.506 J0.0
X-147.867 Y-1.627 I0.0 J2.506
G01 Y5.663
X-146.067 F2000.
Y12.953
G02 X-145.361 Y13.659 I.706 J0.0
X-144.655 Y12.953 I0.0 J-.706
G01 Y-1.627
G02 X-145.361 Y-2.333 I-.706 J0.0
X-146.067 Y-1.627 I0.0 J.706
G01 Y5.663
X-146.241 Y7.655
Z.4
G00 Z1.
X-147.546 Y-2.876
G01 Z-.5
X-147.552 Y-2.868 F800.
X-147.849 Y-2.015 Z-.532
Y-1.627 Z-.545
Y5.663 Z-.8
Y12.953 F1200.
G02 X-145.361 Y15.441 I2.488 J0.0
X-142.872 Y12.953 I0.0 J-2.488
G01 Y-1.627
G02 X-145.361 Y-4.115 I-2.488 J0.0
X-147.849 Y-1.627 I0.0 J2.488
G01 Y5.663
X-146.049 F2000.
Y12.953
G02 X-145.361 Y13.641 I.688 J0.0
X-144.672 Y12.953 I0.0 J-.688
G01 Y-1.627
G02 X-145.361 Y-2.315 I-.688 J0.0
X-146.049 Y-1.627 I0.0 J.688
G01 Y5.663
X-146.223 Y7.655
Z.2
G00 Z.4
X-147.546 Y-2.876
G01 Z-.7
X-147.552 Y-2.868 F800.
X-147.849 Y-2.015 Z-.732
Y-1.627 Z-.745
Y5.663 Z-1.
Y12.953 F1200.
G02 X-145.361 Y15.441 I2.488 J0.0
X-142.872 Y12.953 I0.0 J-2.488
G01 Y-1.627
G02 X-145.361 Y-4.115 I-2.488 J0.0
X-147.849 Y-1.627 I0.0 J2.488
G01 Y5.663
X-146.049 F2000.
Y12.953
G02 X-145.361 Y13.641 I.688 J0.0
X-144.672 Y12.953 I0.0 J-.688
G01 Y-1.627
G02 X-145.361 Y-2.315 I-.688 J0.0
X-146.049 Y-1.627 I0.0 J.688
G01 Y5.663
X-146.223 Y7.655
Z0.0
G00 Z.4
X-147.546 Y-2.876
G01 Z-.9
X-147.552 Y-2.868 F800.
X-147.849 Y-2.015 Z-.932
Y-1.627 Z-.945
Y5.663 Z-1.2
Y12.953 F1200.
G02 X-145.361 Y15.441 I2.488 J0.0
X-142.872 Y12.953 I0.0 J-2.488
G01 Y-1.627
G02 X-145.361 Y-4.115 I-2.488 J0.0
X-147.849 Y-1.627 I0.0 J2.488
G01 Y5.663
X-146.049 F2000.
Y12.953
G02 X-145.361 Y13.641 I.688 J0.0
X-144.672 Y12.953 I0.0 J-.688
G01 Y-1.627
G02 X-145.361 Y-2.315 I-.688 J0.0
X-146.049 Y-1.627 I0.0 J.688
G01 Y5.663
X-146.223 Y7.655
Z-.2
G00 Z.4
X-147.546 Y-2.876
G01 Z-1.1
X-147.552 Y-2.868 F800.
X-147.849 Y-2.015 Z-1.132
Y-1.627 Z-1.145
Y5.663 Z-1.4
Y12.953 F1200.
G02 X-145.361 Y15.441 I2.488 J0.0
X-142.872 Y12.953 I0.0 J-2.488
G01 Y-1.627
G02 X-145.361 Y-4.115 I-2.488 J0.0
X-147.849 Y-1.627 I0.0 J2.488
G01 Y5.663
X-146.049 F2000.
Y12.953
G02 X-145.361 Y13.641 I.688 J0.0
X-144.672 Y12.953 I0.0 J-.688
G01 Y-1.627
G02 X-145.361 Y-2.315 I-.688 J0.0
X-146.049 Y-1.627 I0.0 J.688
G01 Y5.663
X-146.223 Y7.655
Z-.4
G00 Z.4
X-147.546 Y-2.876
G01 Z-1.3
X-147.552 Y-2.868 F800.
X-147.849 Y-2.015 Z-1.332
Y-1.627 Z-1.345
Y5.663 Z-1.6
Y12.953 F1200.
G02 X-145.361 Y15.441 I2.488 J0.0
X-142.872 Y12.953 I0.0 J-2.488
G01 Y-1.627
G02 X-145.361 Y-4.115 I-2.488 J0.0
X-147.849 Y-1.627 I0.0 J2.488
G01 Y5.663
X-146.049 F2000.
Y12.953
G02 X-145.361 Y13.641 I.688 J0.0
X-144.672 Y12.953 I0.0 J-.688
G01 Y-1.627
G02 X-145.361 Y-2.315 I-.688 J0.0
X-146.049 Y-1.627 I0.0 J.688
G01 Y5.663
X-146.223 Y7.655
Z-.6
G00 Z.4
X-147.546 Y-2.876
G01 Z-1.5
X-147.552 Y-2.868 F800.
X-147.849 Y-2.015 Z-1.532
Y-1.627 Z-1.545
Y5.663 Z-1.8
Y12.953 F1200.
G02 X-145.361 Y15.441 I2.488 J0.0
X-142.872 Y12.953 I0.0 J-2.488
G01 Y-1.627
G02 X-145.361 Y-4.115 I-2.488 J0.0
X-147.849 Y-1.627 I0.0 J2.488
G01 Y5.663
X-146.049 F2000.
Y12.953
G02 X-145.361 Y13.641 I.688 J0.0
X-144.672 Y12.953 I0.0 J-.688
G01 Y-1.627
G02 X-145.361 Y-2.315 I-.688 J0.0
X-146.049 Y-1.627 I0.0 J.688
G01 Y5.663
X-146.223 Y7.655
Z-.8
G00 Z1.
X-136.814 Y19.798
G01 Z.4
Z-.6 F800.
Y17.552
G03 X-135.424 Y18.091 I0.0 J2.06 F2000.
G02 X-134.749 Y18.353 I.675 J-.738
X-134.136 Y18.143 I0.0 J-1.
G03 X-136.102 Y12.953 I5.869 J-5.19 F1200.
G01 Y-4.999
Y-6.051 F1050.
G03 X-136.018 Y-7.195 I7.835 J0.0
X-135.397 Y-9.298 I7.751 J1.144 F900.
G02 X-135.753 Y-9.364 I-.356 J.935 F2000.
X-136.614 Y-8.872 I0.0 J1.
G03 X-138.388 Y-7.86 I-1.774 J-1.047
X-139.431 Y-8.143 I0.0 J-2.06
G02 X-139.937 Y-8.281 I-.506 J.862
X-140.701 Y-7.926 I0.0 J1.
G03 X-137.526 Y-1.627 I-4.659 J6.299 F1200.
G01 Y12.953
G03 X-137.629 Y14.221 I-7.835 J0.0
X-138.284 Y16.313 I-7.731 J-1.268 F1050.
X-139.492 Y18.143 I-7.077 J-3.361 F900.
G02 X-138.879 Y18.353 I.613 J-.79 F2000.
X-138.204 Y18.091 I0.0 J-1.
G03 X-136.814 Y17.552 I1.39 J1.52
G01 Y19.798
Z.4
G00 Z1.
Y19.839
G01 Z.2
Z-.8 F800.
Y17.593
G03 X-135.429 Y18.128 I0.0 J2.06 F2000.
G02 X-134.756 Y18.388 I.673 J-.74
X-134.14 Y18.176 I0.0 J-1.
G03 X-136.127 Y12.953 I5.873 J-5.223 F1200.
G01 Y-5.034
Y-6.051 F1050.
G03 X-136.038 Y-7.23 I7.86 J0.0
X-135.41 Y-9.331 I7.771 J1.178 F900.
G02 X-135.769 Y-9.397 I-.359 J.934 F2000.
X-136.628 Y-8.908 I0.0 J1.
G03 X-138.399 Y-7.902 I-1.77 J-1.053
X-139.436 Y-8.182 I0.0 J-2.06
G02 X-139.939 Y-8.318 I-.503 J.864
X-140.706 Y-7.96 I0.0 J1.
G03 X-137.501 Y-1.627 I-4.655 J6.333 F1200.
G01 Y12.953
G03 X-137.61 Y14.26 I-7.86 J0.0
X-138.273 Y16.35 I-7.75 J-1.307 F1050.
X-139.488 Y18.176 I-7.088 J-3.397 F900.
G02 X-138.872 Y18.388 I.616 J-.788 F2000.
X-138.199 Y18.128 I0.0 J-1.
G03 X-136.814 Y17.593 I1.385 J1.525
G01 Y19.839
Z.2
G00 Z.4
Y19.861
G01 Z0.0
Z-1. F800.
Y17.615
G03 X-135.431 Y18.148 I0.0 J2.06 F2000.
G02 X-134.76 Y18.407 I.671 J-.741
X-134.144 Y18.195 I0.0 J-1.
G03 X-134.217 Y18.11 I5.956 J-5.169 F1200.
X-136.141 Y12.953 I5.95 J-5.157
G01 Y-5.079
Y-6.051 F1050.
G03 X-136.046 Y-7.274 I7.874 J0.0
X-135.407 Y-9.372 I7.778 J1.223 F900.
G02 X-135.77 Y-9.44 I-.363 J.932 F2000.
X-136.627 Y-8.956 I0.0 J1.
G03 X-138.392 Y-7.958 I-1.765 J-1.062
X-139.449 Y-8.251 I0.0 J-2.06
G02 X-139.962 Y-8.392 I-.513 J.858
X-140.735 Y-8.027 I0.0 J1.
G03 X-140.634 Y-7.953 I-4.626 J6.4 F1200.
X-139.245 Y-6.587 I-3.897 J5.35
X-137.487 Y-1.627 I-6.115 J4.96
G01 Y12.953
G03 X-137.6 Y14.282 I-7.874 J0.0
X-138.267 Y16.37 I-7.761 J-1.329 F1050.
X-139.408 Y18.106 I-7.093 J-3.418 F900.
X-139.484 Y18.195 I-6.032 J-5.08
G02 X-138.868 Y18.407 I.616 J-.788 F2000.
X-138.197 Y18.148 I0.0 J-1.
G03 X-136.814 Y17.615 I1.383 J1.527
G01 Y19.861
Z0.0
G00 Z.2
X-136.813 Y19.946
G01 Z-.2
Z-1.2 F800.
X-136.814 Y17.695
G03 X-135.382 Y18.273 I0.0 J2.06 F2000.
G02 X-134.688 Y18.554 I.695 J-.719
X-134.116 Y18.374 I0.0 J-1.
G01 X-134.13 Y18.356 F1200.
G03 X-135.104 Y16.886 I14.235 J-10.498
X-136.155 Y12.953 I6.837 J-3.934
G01 Y-5.186
Y-6.051 F1050.
G03 X-136.042 Y-7.38 I7.888 J0.0
X-135.376 Y-9.469 I7.775 J1.329 F900.
G02 X-135.751 Y-9.542 I-.375 J.927 F2000.
X-136.601 Y-9.069 I0.0 J1.
G03 X-138.352 Y-8.094 I-1.751 J-1.085
X-139.483 Y-8.432 I0.0 J-2.06
G02 X-140.032 Y-8.596 I-.549 J.836
X-140.794 Y-8.244 I0.0 J1.
G03 X-140.548 Y-8.068 I-4.567 J6.617 F1200.
X-138.778 Y-5.973 I-5.117 J6.118
X-137.473 Y-1.627 I-6.582 J4.346
G01 Y12.953
G03 X-137.609 Y14.413 I-7.888 J0.0
X-138.311 Y16.491 I-7.751 J-1.46 F1050.
X-138.775 Y17.294 I-7.05 J-3.538 F900.
X-139.49 Y18.344 I-6.291 J-3.515
G02 X-138.912 Y18.528 I.578 J-.816 F2000.
X-138.226 Y18.256 I0.0 J-1.
G03 X-136.814 Y17.695 I1.413 J1.499
G01 X-136.813 Y19.946
Z-.2
G00 Z0.0
X-136.812 Y20.41
G01 Z-.4
Z-1.4 F800.
X-136.813 Y18.147
X-136.812 F2000.
G03 X-135.292 Y18.817 I0.0 J2.06
G02 X-134.554 Y19.143 I.738 J-.675
X-133.991 Y18.969 I0.0 J-1.
G03 X-134.529 Y18.188 I3.436 J-2.943 F1050.
X-134.713 Y17.809 I3.974 J-2.162 F900.
G01 X-134.918 Y17.321
G03 X-135.404 Y16.345 I19.872 J-10.491
X-135.808 Y15.313 I7.136 J-3.393
X-136.169 Y12.953 I7.541 J-2.36 F1200.
G01 Y-5.432
Y-6.051 F1050.
G03 X-136.011 Y-7.622 I7.902 J0.0
X-135.37 Y-9.514 I7.744 J1.571 F900.
G01 X-135.283 Y-9.691
G02 X-135.685 Y-9.775 I-.402 J.916 F2000.
X-136.518 Y-9.327 I0.0 J1.
G03 X-138.235 Y-8.405 I-1.717 J-1.138
X-139.318 Y-8.713 I0.0 J-2.06
G02 X-139.844 Y-8.862 I-.526 J.851
X-140.607 Y-8.509 I0.0 J1.
G03 X-140.416 Y-8.374 I-4.754 J6.882 F1200.
G01 X-140.018 Y-8.033
G03 X-139.02 Y-6.725 I-3.352 J3.591
G01 X-138.964 Y-6.587
X-138.274 Y-5.123
G03 X-137.459 Y-1.627 I-7.086 J3.496
G01 Y12.953
G03 X-137.736 Y15.027 I-7.902 J0.0
X-138.224 Y16.345 I-7.625 J-2.074 F1050.
G01 X-138.567 Y17.06
X-138.926 Y17.809 F900.
X-139.02 Y18.046
G03 X-139.641 Y18.968 I-4.338 J-2.25
G02 X-139.073 Y19.145 I.568 J-.823 F2000.
X-138.334 Y18.819 I0.0 J-1.
G03 X-136.813 Y18.147 I1.522 J1.388
G01 X-136.812 Y20.41
Z-.4
G00 Z-.2
X-136.816 Y20.479
G01 Z-.6
Z-1.6 F800.
X-136.813 Y18.232
G03 X-135.418 Y18.779 I-.002 J2.06 F2000.
G02 X-134.739 Y19.045 I.679 J-.734
X-134.134 Y18.841 I0.0 J-1.
G03 X-135.104 Y17.407 I5.005 J-4.433 F1200.
G01 X-135.643 Y15.826
G03 X-136.183 Y12.953 I7.376 J-2.873
G01 Y-5.537
Y-6.051 F1050.
G03 X-136.004 Y-7.724 I7.916 J0.0
X-135.643 Y-8.924 I7.737 J1.673 F900.
G02 X-135.338 Y-9.818 I-6.341 J-2.667
X-135.663 Y-9.873 I-.325 J.946 F2000.
X-136.512 Y-9.401 I0.0 J1.
G03 X-138.261 Y-8.43 I-1.749 J-1.089
X-139.33 Y-8.729 I0.0 J-2.06
G02 X-139.849 Y-8.874 I-.519 J.855
X-140.616 Y-8.516 I0.0 J1.
G03 X-140.416 Y-8.374 I-4.745 J6.889 F1200.
X-138.519 Y-6.099 I-4.521 J5.699
G02 X-137.985 Y-4.5 I43.747 J-13.72
G03 X-137.445 Y-1.627 I-7.376 J2.873
G01 Y12.953
G03 X-137.678 Y14.86 I-7.916 J0.0
X-137.986 Y15.83 I-7.683 J-1.907 F1050.
G01 X-138.041 Y15.983
X-138.365 Y16.949
X-138.531 Y17.442 F900.
G03 X-139.487 Y18.817 I-5.679 J-2.929
G02 X-138.874 Y19.028 I.614 J-.789 F2000.
X-138.201 Y18.768 I0.0 J-1.
G03 X-136.816 Y18.232 I1.385 J1.525
G01 X-136.813
X-136.816 Y20.479
Z-.6
G00 Z-.4
Y20.478
G01 Z-.8
Z-1.8 F800.
X-136.813 Y18.232
G03 X-135.432 Y18.767 I-.002 J2.06 F2000.
G02 X-134.76 Y19.026 I.672 J-.741
X-134.142 Y18.812 I0.0 J-1.
G03 X-134.905 Y17.809 I6.107 J-5.434 F1200.
G01 X-135.146 Y17.42
G03 X-135.656 Y16.184 I3.495 J-2.167
G01 X-135.959 Y14.882
G03 X-136.197 Y12.953 I7.692 J-1.929
G01 Y-4.602
Y-6.051 F1050.
G03 X-136.162 Y-6.801 I7.93 J0.0
X-135.941 Y-8.051 I7.894 J.75 F900.
G01 X-135.73 Y-8.956
G03 X-135.393 Y-10.033 I3.032 J.357 F1200.
G01 X-135.338 Y-10.136
G02 X-135.691 Y-10.2 I-.353 J.936 F2000.
X-136.577 Y-9.664 I0.0 J1.
G03 X-138.403 Y-8.558 I-1.826 J-.954
X-139.461 Y-8.85 I0.0 J-2.06
G02 X-139.975 Y-8.992 I-.514 J.858
X-140.759 Y-8.612 I0.0 J1.
G03 X-140.416 Y-8.374 I-4.602 J6.985 F1200.
X-138.033 Y-5.123 I-4.86 J6.063
G01 X-137.696 Y-3.659
G03 X-137.431 Y-1.627 I-7.665 J2.032
G01 Y12.953
G03 X-137.669 Y14.882 I-7.93 J0.0
G02 X-138.041 Y16.47 I19.906 J5.501 F1050.
G03 X-138.254 Y16.967 I-7.028 J-2.718
X-139.468 Y18.792 I-6.816 J-3.214 F900.
G02 X-138.85 Y19.006 I.618 J-.786 F2000.
X-138.185 Y18.753 I0.0 J-1.
G03 X-136.816 Y18.232 I1.369 J1.539
G01 X-136.813
X-136.816 Y20.478
Z-.8
G00 Z-.6
G01 Z-1.
Z-2. F800.
X-136.813 Y18.233
G03 X-135.431 Y18.767 I-.002 J2.06 F2000.
G02 X-134.759 Y19.027 I.672 J-.74
X-134.139 Y18.811 I0.0 J-1.
G03 X-135.839 Y15.9 I6.355 J-5.662 F1200.
X-136.211 Y12.93 I15.739 J-3.483
G01 Y-5.667
Y-6.051 F1050.
G03 X-136.045 Y-7.858 I16.907 J.639
X-135.839 Y-8.999 I16.742 J2.446 F900.
X-135.439 Y-9.959 I8.552 J2.996
G02 X-135.825 Y-10.037 I-.386 J.922 F2000.
X-136.669 Y-9.574 I0.0 J1.
G03 X-138.406 Y-8.621 I-1.737 J-1.107
X-139.292 Y-8.821 I0.0 J-2.06
G01 X-139.529 Y-8.934
G03 X-139.629 Y-8.985 I.886 J-1.86
G02 X-140.108 Y-9.107 I-.479 J.878
X-140.907 Y-8.708 I0.0 J1.
G03 X-140.416 Y-8.374 I-4.453 J7.081 F1200.
X-137.797 Y-4.593 I-5.37 J6.519
X-137.417 Y-1.627 I-15.685 J3.514
G01 Y12.957
G03 X-137.465 Y13.821 I-7.944 J-.005
X-137.609 Y14.904 I-23.986 J-2.639
X-137.777 Y15.857 I-23.842 J-3.721 F1050.
X-138.252 Y16.993 I-8.077 J-2.71
X-139.486 Y18.807 I-7.602 J-3.846 F900.
G02 X-138.867 Y19.022 I.619 J-.785 F2000.
X-138.196 Y18.764 I0.0 J-1.
G03 X-136.816 Y18.233 I1.381 J1.529
G01 X-136.813
X-136.816 Y20.478
Z-1.
G00 Z-.8
G01 Y20.479 Z-1.2
Z-2.2 F800.
X-136.813 Y18.233
G03 X-135.427 Y18.771 I-.002 J2.06 F2000.
G02 X-134.752 Y19.033 I.674 J-.738
X-134.131 Y18.817 I0.0 J-1.
G03 X-136.127 Y14.882 I6.432 J-5.735 F1200.
X-136.251 Y13.341 I9.514 J-1.541
G01 Y-5.683
Y-6.051 F1050.
G03 X-136.252 Y-6.233 I11.945 J-.182
X-136.138 Y-7.878 I11.947 J0.0
X-136.113 Y-8.051 I11.833 J1.645 F900.
X-135.441 Y-9.957 I8.729 J2.006
G02 X-135.827 Y-10.035 I-.386 J.923 F2000.
X-136.67 Y-9.573 I0.0 J1.
G03 X-138.406 Y-8.621 I-1.736 J-1.109
X-139.291 Y-8.821 I0.0 J-2.06
G01 X-139.528 Y-8.934
G03 X-139.628 Y-8.985 I.885 J-1.86
G02 X-140.107 Y-9.107 I-.478 J.878
X-140.906 Y-8.707 I0.0 J1.
G03 X-140.416 Y-8.374 I-4.454 J7.08 F1200.
X-137.444 Y-3.171 I-5.356 J6.51
X-137.377 Y-1.774 I-14.555 J1.398
G01 Y-1.627
Y12.953
G03 X-137.375 Y13.164 I-11.82 J.212
X-137.501 Y14.882 I-11.822 J0.0
X-138.253 Y16.999 I-8.438 J-1.806 F1050.
X-139.491 Y18.81 I-7.685 J-3.924 F900.
G02 X-138.871 Y19.026 I.62 J-.784 F2000.
X-138.199 Y18.767 I0.0 J-1.
G03 X-136.816 Y18.233 I1.384 J1.526
G01 X-136.813
X-136.816 Y20.479
Z-1.2
G00 Z-1.
Y20.48
G01 Z-1.4
Z-2.4 F800.
X-136.813 Y18.233
G03 X-135.416 Y18.782 I-.002 J2.06 F2000.
G02 X-134.736 Y19.048 I.68 J-.734
X-134.114 Y18.831 I0.0 J-1.
G03 X-136.339 Y12.998 I6.533 J-5.833 F1200.
G01 X-136.338 Y12.951
Y-5.697
Y-6.099 F1050.
G03 X-136.148 Y-7.884 I8.959 J.052
X-135.439 Y-9.961 I8.769 J1.837 F900.
G02 X-135.825 Y-10.038 I-.386 J.923 F2000.
X-136.668 Y-9.575 I0.0 J1.
G03 X-138.406 Y-8.621 I-1.738 J-1.106
X-139.29 Y-8.821 I0.0 J-2.06
G01 X-139.526 Y-8.933
G03 X-139.636 Y-8.989 I.884 J-1.861
G02 X-140.118 Y-9.113 I-.482 J.876
X-140.917 Y-8.714 I0.0 J1.
G03 X-140.416 Y-8.374 I-4.444 J7.087 F1200.
X-137.289 Y-1.683 I-5.596 J6.691
G01 X-137.29 Y-1.626
Y12.996
G03 X-137.509 Y14.947 I-8.774 J0.0
X-138.261 Y17.009 I-8.554 J-1.951 F1050.
X-139.501 Y18.819 I-7.802 J-4.012 F900.
G02 X-138.881 Y19.035 I.62 J-.785 F2000.
X-138.206 Y18.773 I0.0 J-1.
G03 X-136.816 Y18.233 I1.39 J1.52
G01 X-136.813
X-136.816 Y20.48
Z-1.4
G00 Z-1.2
G01 Z-1.6
Z-2.6 F800.
X-136.813 Y18.233
G03 X-135.416 Y18.782 I-.002 J2.06 F2000.
G02 X-134.736 Y19.048 I.68 J-.734
X-134.114 Y18.831 I0.0 J-1.
G03 X-136.339 Y12.999 I6.532 J-5.832 F1200.
G01 X-136.338 Y12.951
Y-5.697
Y-6.099 F1050.
G03 X-136.148 Y-7.884 I8.958 J.051
X-135.439 Y-9.961 I8.768 J1.836 F900.
G02 X-135.825 Y-10.038 I-.386 J.923 F2000.
X-136.668 Y-9.575 I0.0 J1.
G03 X-138.406 Y-8.622 I-1.738 J-1.106
X-139.289 Y-8.82 I0.0 J-2.06
G01 X-139.525 Y-8.933
G03 X-139.636 Y-8.989 I.883 J-1.861
G02 X-140.118 Y-9.113 I-.482 J.876
X-140.917 Y-8.714 I0.0 J1.
G03 X-140.416 Y-8.374 I-4.444 J7.087 F1200.
X-137.289 Y-1.683 I-5.596 J6.691
G01 X-137.29 Y-1.626
Y13.016
G03 X-137.504 Y14.939 I-8.724 J0.0
X-138.253 Y17.001 I-8.509 J-1.922 F1050.
X-139.492 Y18.811 I-7.761 J-3.985 F900.
G02 X-138.872 Y19.027 I.62 J-.784 F2000.
X-138.2 Y18.768 I0.0 J-1.
G03 X-136.816 Y18.233 I1.384 J1.526
G01 X-136.813
X-136.816 Y20.48
Z-1.6
G00 Z-1.4
G01 Z-1.8
Z-2.8 F800.
X-136.813 Y18.233
G03 X-135.416 Y18.782 I-.002 J2.06 F2000.
G02 X-134.736 Y19.049 I.68 J-.734
X-134.114 Y18.831 I0.0 J-1.
G03 X-136.339 Y12.999 I6.531 J-5.832 F1200.
G01 X-136.338 Y12.951
Y-5.698
Y-6.099 F1050.
G03 X-136.148 Y-7.885 I8.956 J.051
X-135.439 Y-9.961 I8.766 J1.836 F900.
G02 X-135.825 Y-10.039 I-.386 J.923 F2000.
X-136.668 Y-9.576 I0.0 J1.
G03 X-138.406 Y-8.622 I-1.738 J-1.106
X-139.288 Y-8.82 I0.0 J-2.06
G01 X-139.524 Y-8.932
G03 X-139.636 Y-8.989 I.882 J-1.862
G02 X-140.118 Y-9.113 I-.482 J.876
X-140.917 Y-8.714 I0.0 J1.
G03 X-140.416 Y-8.374 I-4.444 J7.087 F1200.
X-137.289 Y-1.683 I-5.596 J6.691
G01 X-137.29 Y-1.626
Y13.014
G03 X-137.505 Y14.94 I-8.731 J0.0
X-138.254 Y17.002 I-8.515 J-1.926 F1050.
X-139.493 Y18.813 I-7.766 J-3.988 F900.
G02 X-138.873 Y19.028 I.62 J-.784 F2000.
X-138.201 Y18.768 I0.0 J-1.
G03 X-136.816 Y18.233 I1.385 J1.525
G01 X-136.813
X-136.816 Y20.48
Z-1.8
G00 Z-1.6
G01 Y20.481 Z-2.
Z-3. F800.
X-136.813 Y18.233
G03 X-135.416 Y18.782 I-.002 J2.06 F2000.
G02 X-134.736 Y19.049 I.68 J-.734
X-134.114 Y18.831 I0.0 J-1.
G03 X-136.339 Y13. I6.53 J-5.831 F1200.
G01 X-136.338 Y12.951
Y-5.698
Y-6.099 F1050.
G03 X-136.148 Y-7.885 I8.955 J.051
X-135.439 Y-9.961 I8.765 J1.836 F900.
G02 X-135.825 Y-10.039 I-.386 J.922 F2000.
X-136.668 Y-9.576 I0.0 J1.
G03 X-138.406 Y-8.622 I-1.738 J-1.106
X-139.287 Y-8.82 I0.0 J-2.06
G01 X-139.523 Y-8.931
G03 X-139.636 Y-8.989 I.881 J-1.862
G02 X-140.118 Y-9.113 I-.482 J.876
X-140.917 Y-8.714 I0.0 J1.
G03 X-140.416 Y-8.374 I-4.444 J7.087 F1200.
X-137.289 Y-1.683 I-5.595 J6.691
G01 X-137.29 Y-1.626
Y13.011
G03 X-137.505 Y14.941 I-8.737 J0.0
X-138.255 Y17.003 I-8.521 J-1.93 F1050.
X-139.495 Y18.814 I-7.772 J-3.992 F900.
G02 X-138.874 Y19.029 I.62 J-.784 F2000.
X-138.202 Y18.769 I0.0 J-1.
G03 X-136.816 Y18.233 I1.386 J1.524
G01 X-136.813
X-136.816 Y20.481
Z-2.
G00 Z-1.8
G01 Z-2.2
Z-3.2 F800.
X-136.813 Y18.234
G03 X-135.416 Y18.782 I-.002 J2.06 F2000.
G02 X-134.736 Y19.049 I.68 J-.734
X-134.114 Y18.832 I0.0 J-1.
G03 X-136.339 Y13. I6.529 J-5.831 F1200.
G01 X-136.338 Y12.951
Y-5.698
Y-6.05 F1050.
G03 X-136.148 Y-7.885 I8.953 J.001
X-135.438 Y-9.962 I8.763 J1.836 F900.
G02 X-135.824 Y-10.039 I-.386 J.922 F2000.
X-136.668 Y-9.576 I0.0 J1.
G03 X-138.406 Y-8.622 I-1.738 J-1.106
X-139.285 Y-8.819 I0.0 J-2.06
G01 X-139.522 Y-8.931
G03 X-139.636 Y-8.989 I.88 J-1.863
G02 X-140.118 Y-9.113 I-.482 J.876
X-140.917 Y-8.714 I0.0 J1.
G03 X-140.416 Y-8.374 I-4.444 J7.087 F1200.
X-137.289 Y-1.684 I-5.595 J6.69
G01 X-137.29 Y-1.626
Y13.009
G03 X-137.506 Y14.942 I-8.744 J0.0
X-138.256 Y17.005 I-8.527 J-1.934 F1050.
X-139.496 Y18.815 I-7.777 J-3.996 F900.
G02 X-138.875 Y19.031 I.62 J-.784 F2000.
X-138.202 Y18.77 I0.0 J-1.
G03 X-136.816 Y18.234 I1.387 J1.523
G01 X-136.813
X-136.816 Y20.481
Z-2.2
G00 Z-2.
G01 Z-2.4
Z-3.4 F800.
X-136.813 Y18.234
G03 X-135.416 Y18.783 I-.002 J2.06 F2000.
G02 X-134.736 Y19.049 I.68 J-.734
X-134.114 Y18.832 I0.0 J-1.
G03 X-136.339 Y13.001 I6.528 J-5.831 F1200.
G01 X-136.338 Y12.951
Y-5.698
Y-6.05 F1050.
G03 X-136.148 Y-7.885 I8.952 J0.0
X-135.438 Y-9.962 I8.762 J1.836 F900.
G02 X-135.824 Y-10.039 I-.386 J.922 F2000.
X-136.668 Y-9.576 I0.0 J1.
G03 X-138.406 Y-8.622 I-1.738 J-1.106
X-139.284 Y-8.819 I0.0 J-2.06
G01 X-139.521 Y-8.931
G03 X-139.636 Y-8.989 I.879 J-1.863
G02 X-140.118 Y-9.113 I-.482 J.876
X-140.917 Y-8.714 I0.0 J1.
G03 X-140.416 Y-8.374 I-4.444 J7.087 F1200.
X-137.289 Y-1.684 I-5.594 J6.69
G01 X-137.29 Y-1.626
Y13.006
G03 X-137.507 Y14.944 I-8.751 J0.0
X-138.257 Y17.006 I-8.533 J-1.937 F1050.
X-139.497 Y18.816 I-7.783 J-3.999 F900.
G02 X-138.877 Y19.032 I.62 J-.784 F2000.
X-138.203 Y18.771 I0.0 J-1.
G03 X-136.816 Y18.234 I1.387 J1.523
G01 X-136.813
X-136.816 Y20.481
Z-2.4
G00 Z-2.2
G01 Z-2.6
Z-3.6 F800.
X-136.813 Y18.234
G03 X-135.416 Y18.783 I-.002 J2.06 F2000.
G02 X-134.736 Y19.049 I.68 J-.734
X-134.114 Y18.832 I0.0 J-1.
G03 X-136.339 Y13.001 I6.526 J-5.83 F1200.
G01 X-136.338 Y12.951
Y-5.699
Y-6.05 F1050.
G03 X-136.148 Y-7.886 I8.951 J0.0
X-135.438 Y-9.962 I8.76 J1.836 F900.
G02 X-135.824 Y-10.04 I-.386 J.922 F2000.
X-136.668 Y-9.576 I0.0 J1.
G03 X-138.406 Y-8.622 I-1.738 J-1.106
X-139.284 Y-8.819 I0.0 J-2.06
G01 X-139.52 Y-8.93
G03 X-139.636 Y-8.989 I.877 J-1.864
G02 X-140.117 Y-9.113 I-.482 J.876
X-140.917 Y-8.714 I0.0 J1.
G03 X-140.416 Y-8.374 I-4.444 J7.087 F1200.
X-137.289 Y-1.684 I-5.594 J6.69
G01 X-137.29 Y-1.626
Y13.004
G03 X-137.507 Y14.945 I-8.757 J0.0
X-138.258 Y17.007 I-8.539 J-1.941 F1050.
X-139.498 Y18.817 I-7.789 J-4.003 F900.
G02 X-138.878 Y19.033 I.62 J-.785 F2000.
X-138.204 Y18.772 I0.0 J-1.
G03 X-136.816 Y18.234 I1.388 J1.522
G01 X-136.813
X-136.816 Y20.481
Z-2.6
G00 Z-2.4
G01 Z-2.8
Z-3.8 F800.
X-136.813 Y18.234
G03 X-135.416 Y18.783 I-.002 J2.06 F2000.
G02 X-134.736 Y19.049 I.68 J-.734
X-134.114 Y18.832 I0.0 J-1.
G03 X-136.339 Y13.002 I6.525 J-5.83 F1200.
G01 X-136.338 Y12.951
Y-5.699
Y-6.05 F1050.
G03 X-136.148 Y-7.886 I8.949 J0.0
X-135.438 Y-9.962 I8.759 J1.836 F900.
G02 X-135.824 Y-10.04 I-.386 J.922 F2000.
X-136.668 Y-9.577 I0.0 J1.
G03 X-138.406 Y-8.623 I-1.738 J-1.106
X-139.282 Y-8.818 I0.0 J-2.06
G01 X-139.519 Y-8.929
G03 X-139.636 Y-8.989 I.876 J-1.864
G02 X-140.117 Y-9.113 I-.482 J.876
X-140.917 Y-8.714 I0.0 J1.
G03 X-140.416 Y-8.374 I-4.444 J7.087 F1200.
X-137.289 Y-1.684 I-5.593 J6.69
G01 X-137.29 Y-1.626
Y13.001
G03 X-137.508 Y14.946 I-8.764 J0.0
X-138.259 Y17.008 I-8.545 J-1.945 F1050.
X-139.499 Y18.819 I-7.794 J-4.007 F900.
G02 X-138.879 Y19.034 I.62 J-.785 F2000.
X-138.205 Y18.773 I0.0 J-1.
G03 X-136.816 Y18.234 I1.389 J1.521
G01 X-136.813
X-136.816 Y20.481
Z-2.8
G00 Z-2.6
G01 Z-3.
Z-4. F800.
X-136.813 Y18.234
G03 X-135.416 Y18.783 I-.002 J2.06 F2000.
G02 X-134.736 Y19.049 I.68 J-.734
X-134.113 Y18.832 I0.0 J-1.
G03 X-136.339 Y13.002 I6.524 J-5.83 F1200.
G01 X-136.338 Y12.951
Y-5.699
Y-6.05 F1050.
G03 X-136.148 Y-7.886 I8.948 J0.0
X-135.438 Y-9.962 I8.758 J1.835 F900.
G02 X-135.824 Y-10.04 I-.386 J.922 F2000.
X-136.668 Y-9.577 I0.0 J1.
G03 X-138.406 Y-8.623 I-1.738 J-1.106
X-139.281 Y-8.818 I0.0 J-2.06
G01 X-139.518 Y-8.929
G03 X-139.635 Y-8.989 I.875 J-1.865
G02 X-140.117 Y-9.113 I-.482 J.876
X-140.917 Y-8.714 I0.0 J1.
G03 X-140.416 Y-8.374 I-4.444 J7.087 F1200.
X-137.289 Y-1.684 I-5.593 J6.69
G01 X-137.29 Y-1.626
Y12.999
G03 X-137.509 Y14.948 I-8.771 J0.0
X-138.26 Y17.009 I-8.551 J-1.949 F1050.
X-139.5 Y18.82 I-7.8 J-4.011 F900.
G02 X-138.88 Y19.035 I.62 J-.785 F2000.
X-138.205 Y18.774 I0.0 J-1.
G03 X-136.816 Y18.234 I1.39 J1.521
G01 X-136.813
X-136.816 Y20.481
Z-3.
G00 Z-2.8
G01 Y20.482 Z-3.2
Z-4.2 F800.
X-136.813 Y18.234
G03 X-135.414 Y18.785 I-.002 J2.06 F2000.
G02 X-134.733 Y19.053 I.681 J-.733
X-134.11 Y18.835 I0.0 J-1.
G03 X-136.339 Y12.998 I6.53 J-5.837 F1200.
G01 X-136.338 Y12.951
Y-5.699
Y-6.05 F1050.
G03 X-136.148 Y-7.886 I8.947 J0.0
X-135.438 Y-9.963 I8.757 J1.835 F900.
G02 X-135.824 Y-10.04 I-.386 J.922 F2000.
X-136.668 Y-9.577 I0.0 J1.
G03 X-138.406 Y-8.623 I-1.738 J-1.106
X-139.28 Y-8.817 I0.0 J-2.06
G01 X-139.517 Y-8.928
G03 X-139.635 Y-8.989 I.874 J-1.865
G02 X-140.117 Y-9.113 I-.482 J.876
X-140.917 Y-8.714 I0.0 J1.
G03 X-140.416 Y-8.374 I-4.444 J7.087 F1200.
X-137.289 Y-1.685 I-5.593 J6.689
G01 X-137.29 Y-1.626
Y12.996
G03 X-137.51 Y14.949 I-8.777 J0.0
X-138.261 Y17.011 I-8.557 J-1.953 F1050.
X-139.501 Y18.821 I-7.806 J-4.014 F900.
G02 X-138.881 Y19.037 I.62 J-.785 F2000.
X-138.206 Y18.774 I0.0 J-1.
G03 X-136.816 Y18.234 I1.39 J1.52
G01 X-136.813
X-136.816 Y20.482
Z-3.2
G00 Z-3.
G01 Z-3.4
Z-4.4 F800.
X-136.813 Y18.235
G03 X-135.414 Y18.785 I-.002 J2.06 F2000.
G02 X-134.733 Y19.053 I.681 J-.733
X-134.11 Y18.835 I0.0 J-1.
G03 X-136.339 Y12.998 I6.529 J-5.837 F1200.
G01 X-136.338 Y12.951
Y-5.7
Y-6.05 F1050.
Y-6.051
G03 X-136.148 Y-7.887 I8.946 J0.0
X-135.438 Y-9.963 I8.756 J1.835 F900.
G02 X-135.824 Y-10.041 I-.386 J.922 F2000.
X-136.668 Y-9.577 I0.0 J1.
G03 X-138.406 Y-8.623 I-1.738 J-1.106
X-139.279 Y-8.817 I0.0 J-2.06
G01 X-139.515 Y-8.928
G03 X-139.635 Y-8.989 I.873 J-1.866
G02 X-140.117 Y-9.113 I-.482 J.876
X-140.917 Y-8.714 I0.0 J1.
G03 X-140.416 Y-8.374 I-4.444 J7.087 F1200.
X-137.289 Y-1.685 I-5.592 J6.689
G01 X-137.29 Y-1.626
Y13.016
G03 X-137.504 Y14.941 I-8.728 J0.0
X-138.253 Y17.003 I-8.513 J-1.924 F1050.
X-139.493 Y18.813 I-7.764 J-3.987 F900.
G02 X-138.873 Y19.029 I.62 J-.784 F2000.
X-138.2 Y18.769 I0.0 J-1.
G03 X-136.816 Y18.235 I1.385 J1.525
G01 X-136.813
X-136.816 Y20.482
Z-3.4
G00 Z-3.2
G01 Z-3.6
Z-4.6 F800.
X-136.813 Y18.235
G03 X-135.414 Y18.786 I-.002 J2.06 F2000.
G02 X-134.733 Y19.053 I.681 J-.733
X-134.11 Y18.835 I0.0 J-1.
G03 X-136.339 Y12.999 I6.528 J-5.836 F1200.
G01 X-136.338 Y12.951
Y-5.7
Y-6.107 F1050.
G03 X-136.148 Y-7.887 I8.946 J.056
X-135.438 Y-9.963 I8.756 J1.836 F900.
G02 X-135.824 Y-10.041 I-.386 J.922 F2000.
X-136.668 Y-9.578 I0.0 J1.
G03 X-138.406 Y-8.623 I-1.738 J-1.106
X-139.278 Y-8.817 I0.0 J-2.06
G01 X-139.514 Y-8.927
G03 X-139.635 Y-8.989 I.872 J-1.866
G02 X-140.117 Y-9.113 I-.482 J.876
X-140.916 Y-8.714 I0.0 J1.
G03 X-140.416 Y-8.374 I-4.444 J7.087 F1200.
X-137.289 Y-1.685 I-5.592 J6.689
G01 X-137.29 Y-1.626
Y13.014
G03 X-137.505 Y14.942 I-8.734 J0.0
X-138.254 Y17.004 I-8.519 J-1.928 F1050.
X-139.494 Y18.815 I-7.769 J-3.99 F900.
G02 X-138.874 Y19.03 I.62 J-.784 F2000.
X-138.201 Y18.77 I0.0 J-1.
G03 X-136.816 Y18.235 I1.386 J1.524
G01 X-136.813
X-136.816 Y20.482
Z-3.6
G00 Z-3.4
G01 Z-3.8
Z-4.8 F800.
X-136.813 Y18.235
G03 X-135.414 Y18.786 I-.002 J2.06 F2000.
G02 X-134.733 Y19.053 I.681 J-.733
X-134.11 Y18.835 I0.0 J-1.
G03 X-136.339 Y13. I6.527 J-5.836 F1200.
G01 X-136.338 Y12.951
Y-5.7
Y-6.099 F1050.
G03 X-136.148 Y-7.887 I8.945 J.048
X-135.438 Y-9.963 I8.754 J1.836 F900.
G02 X-135.824 Y-10.041 I-.386 J.922 F2000.
X-136.668 Y-9.578 I0.0 J1.
G03 X-138.406 Y-8.623 I-1.738 J-1.106
X-139.277 Y-8.816 I0.0 J-2.06
G01 X-139.513 Y-8.927
G03 X-139.635 Y-8.989 I.871 J-1.867
G02 X-140.117 Y-9.113 I-.482 J.876
X-140.916 Y-8.714 I0.0 J1.
G03 X-140.416 Y-8.374 I-4.444 J7.087 F1200.
X-137.289 Y-1.685 I-5.591 J6.689
G01 X-137.29 Y-1.626
Y13.011
G03 X-137.506 Y14.943 I-8.741 J0.0
X-138.255 Y17.005 I-8.525 J-1.932 F1050.
X-139.495 Y18.816 I-7.775 J-3.994 F900.
G02 X-138.875 Y19.031 I.62 J-.784 F2000.
X-138.202 Y18.771 I0.0 J-1.
G03 X-136.816 Y18.235 I1.386 J1.524
G01 X-136.813
X-136.816 Y20.482
Z-3.8
G00 Z-3.6
G01 Z-4.
Z-5. F800.
X-136.813 Y18.235
G03 X-135.414 Y18.786 I-.002 J2.06 F2000.
G02 X-134.733 Y19.053 I.681 J-.733
X-134.11 Y18.836 I0.0 J-1.
G03 X-136.339 Y13. I6.526 J-5.836 F1200.
G01 X-136.338 Y12.951
Y-5.7
Y-6.099 F1050.
G03 X-136.148 Y-7.887 I8.943 J.047
X-135.438 Y-9.964 I8.753 J1.836 F900.
G02 X-135.824 Y-10.041 I-.386 J.922 F2000.
X-136.668 Y-9.578 I0.0 J1.
G03 X-138.406 Y-8.624 I-1.738 J-1.106
X-139.276 Y-8.816 I0.0 J-2.06
G01 X-139.512 Y-8.926
G03 X-139.635 Y-8.989 I.869 J-1.868
G02 X-140.117 Y-9.113 I-.482 J.876
X-140.916 Y-8.714 I0.0 J1.
G03 X-140.416 Y-8.374 I-4.444 J7.087 F1200.
X-137.289 Y-1.685 I-5.591 J6.689
G01 X-137.29 Y-1.626
Y13.009
G03 X-137.506 Y14.945 I-8.748 J0.0
X-138.257 Y17.007 I-8.531 J-1.936 F1050.
X-139.496 Y18.817 I-7.781 J-3.998 F900.
G02 X-138.876 Y19.033 I.62 J-.784 F2000.
X-138.203 Y18.772 I0.0 J-1.
G03 X-136.816 Y18.235 I1.387 J1.523
G01 X-136.813
X-136.816 Y20.482
Z-4.
G00 Z-3.8
G01 Y20.483 Z-4.2
Z-5.2 F800.
X-136.813 Y18.235
G03 X-135.414 Y18.786 I-.002 J2.06 F2000.
G02 X-134.733 Y19.053 I.681 J-.733
X-134.11 Y18.836 I0.0 J-1.
G03 X-136.339 Y13.001 I6.525 J-5.835 F1200.
G01 X-136.338 Y12.951
Y-5.701
Y-6.099 F1050.
G03 X-136.148 Y-7.888 I8.942 J.047
X-135.438 Y-9.964 I8.752 J1.836 F900.
G02 X-135.824 Y-10.041 I-.386 J.922 F2000.
X-136.668 Y-9.578 I0.0 J1.
G03 X-138.406 Y-8.624 I-1.738 J-1.106
X-139.274 Y-8.816 I0.0 J-2.06
G01 X-139.511 Y-8.926
G03 X-139.635 Y-8.989 I.868 J-1.868
G02 X-140.117 Y-9.113 I-.482 J.876
X-140.916 Y-8.714 I0.0 J1.
G03 X-140.416 Y-8.374 I-4.444 J7.087 F1200.
X-137.289 Y-1.686 I-5.591 J6.688
G01 X-137.29 Y-1.626
Y13.006
G03 X-137.507 Y14.946 I-8.754 J0.0
X-138.258 Y17.008 I-8.537 J-1.94 F1050.
X-139.497 Y18.818 I-7.786 J-4.002 F900.
G02 X-138.877 Y19.034 I.62 J-.785 F2000.
X-138.204 Y18.773 I0.0 J-1.
G03 X-136.816 Y18.235 I1.388 J1.522
G01 X-136.813
X-136.816 Y20.483
Z-4.2
G00 Z-4.
G01 Z-4.4
Z-5.4 F800.
X-136.813 Y18.235
G03 X-135.414 Y18.786 I-.002 J2.06 F2000.
G02 X-134.733 Y19.054 I.681 J-.733
X-134.11 Y18.836 I0.0 J-1.
G03 X-136.339 Y13.001 I6.524 J-5.835 F1200.
G01 X-136.338 Y12.951
Y-5.701
Y-6.099 F1050.
G03 X-136.148 Y-7.888 I8.941 J.047
X-135.437 Y-9.964 I8.751 J1.835 F900.
G02 X-135.824 Y-10.042 I-.387 J.922 F2000.
X-136.668 Y-9.578 I0.0 J1.
G03 X-138.406 Y-8.624 I-1.738 J-1.106
X-139.273 Y-8.815 I0.0 J-2.06
G01 X-139.51 Y-8.925
G03 X-139.635 Y-8.989 I.867 J-1.869
G02 X-140.117 Y-9.113 I-.482 J.876
X-140.916 Y-8.714 I0.0 J1.
G03 X-140.416 Y-8.374 I-4.444 J7.087 F1200.
X-137.289 Y-1.686 I-5.59 J6.688
G01 X-137.29 Y-1.626
Y13.004
G03 X-137.508 Y14.947 I-8.761 J0.0
X-138.259 Y17.009 I-8.543 J-1.944 F1050.
X-139.498 Y18.82 I-7.792 J-4.005 F900.
G02 X-138.878 Y19.035 I.62 J-.785 F2000.
X-138.204 Y18.774 I0.0 J-1.
G03 X-136.816 Y18.235 I1.389 J1.522
G01 X-136.813
X-136.816 Y20.483
Z-4.4
G00 Z-4.2
G01 Z-4.6
Z-5.6 F800.
X-136.813 Y18.236
G03 X-135.414 Y18.786 I-.002 J2.06 F2000.
G02 X-134.733 Y19.054 I.681 J-.733
X-134.11 Y18.836 I0.0 J-1.
G03 X-136.339 Y13.002 I6.522 J-5.834 F1200.
G01 X-136.338 Y12.951
Y-5.701
Y-6.099 F1050.
G03 X-136.148 Y-7.888 I8.94 J.046
X-135.437 Y-9.964 I8.75 J1.835 F900.
G02 X-135.824 Y-10.042 I-.387 J.922 F2000.
X-136.668 Y-9.579 I0.0 J1.
G03 X-138.406 Y-8.624 I-1.738 J-1.106
X-139.272 Y-8.815 I0.0 J-2.06
G01 X-139.509 Y-8.925
G03 X-139.635 Y-8.989 I.867 J-1.869
G02 X-140.117 Y-9.112 I-.482 J.876
X-140.916 Y-8.714 I0.0 J1.
G03 X-140.416 Y-8.374 I-4.444 J7.087 F1200.
X-137.289 Y-1.686 I-5.59 J6.688
G01 X-137.29 Y-1.626
Y12.996
G03 X-137.513 Y14.952 I-8.834 J-.018
X-138.265 Y17.013 I-8.611 J-1.973 F1050.
X-139.502 Y18.826 I-7.859 J-4.035 F900.
G02 X-138.883 Y19.04 I.618 J-.786 F2000.
X-138.208 Y18.777 I0.0 J-1.
G03 X-136.816 Y18.236 I1.392 J1.519
G01 X-136.813
X-136.816 Y20.483
Z-4.6
G00 Z-4.4
G01 Z-4.8
Z-5.8 F800.
X-136.813 Y18.236
G03 X-135.413 Y18.787 I-.002 J2.06 F2000.
G02 X-134.733 Y19.054 I.681 J-.733
X-134.11 Y18.836 I0.0 J-1.
G03 X-136.339 Y13.002 I6.522 J-5.834 F1200.
G01 X-136.338 Y12.951
Y-5.701
Y-6.099 F1050.
G03 X-136.148 Y-7.888 I8.939 J.046
X-135.437 Y-9.964 I8.748 J1.835 F900.
G02 X-135.824 Y-10.042 I-.387 J.922 F2000.
X-136.668 Y-9.579 I0.0 J1.
G03 X-138.406 Y-8.624 I-1.738 J-1.105
X-139.271 Y-8.815 I0.0 J-2.06
G01 X-139.508 Y-8.924
G03 X-139.635 Y-8.989 I.865 J-1.869
G02 X-140.117 Y-9.112 I-.482 J.876
X-140.916 Y-8.714 I0.0 J1.
G03 X-140.416 Y-8.374 I-4.444 J7.087 F1200.
X-137.289 Y-1.686 I-5.589 J6.688
G01 X-137.29 Y-1.626
Y12.996
G03 X-137.513 Y14.952 I-8.835 J-.018
X-138.265 Y17.013 I-8.612 J-1.974 F1050.
X-139.502 Y18.826 I-7.86 J-4.035 F900.
G02 X-138.883 Y19.04 I.618 J-.786 F2000.
X-138.208 Y18.777 I0.0 J-1.
G03 X-136.816 Y18.236 I1.392 J1.519
G01 X-136.813
X-136.816 Y20.483
Z-4.8
G00 Z-4.6
G01 Z-5.
Z-6. F800.
X-136.813 Y18.236
G03 X-135.413 Y18.787 I-.002 J2.06 F2000.
G02 X-134.732 Y19.054 I.681 J-.732
X-134.109 Y18.837 I0.0 J-1.
G03 X-136.339 Y13.002 I6.521 J-5.835 F1200.
G01 X-136.338 Y12.951
Y-5.702
Y-6.099 F1050.
G03 X-136.148 Y-7.889 I8.937 J.046
X-135.437 Y-9.965 I8.747 J1.835 F900.
G02 X-135.824 Y-10.042 I-.387 J.922 F2000.
X-136.668 Y-9.579 I0.0 J1.
G03 X-138.406 Y-8.624 I-1.738 J-1.105
X-139.27 Y-8.814 I0.0 J-2.06
G01 X-139.507 Y-8.924
G03 X-139.635 Y-8.989 I.864 J-1.87
G02 X-140.117 Y-9.112 I-.482 J.876
X-140.916 Y-8.714 I0.0 J1.
G03 X-140.416 Y-8.374 I-4.444 J7.087 F1200.
X-137.289 Y-1.686 I-5.589 J6.688
G01 X-137.29 Y-1.626
Y12.996
G03 X-137.513 Y14.952 I-8.836 J-.018
X-138.265 Y17.013 I-8.613 J-1.974 F1050.
X-139.502 Y18.826 I-7.861 J-4.035 F900.
G02 X-138.883 Y19.04 I.618 J-.786 F2000.
X-138.208 Y18.777 I0.0 J-1.
G03 X-136.816 Y18.236 I1.392 J1.519
G01 X-136.813
X-136.816 Y20.483
Z-5.
G00 Z-4.8
G01 Z-5.2
Z-6.2 F800.
X-136.813 Y18.236
G03 X-135.413 Y18.787 I-.002 J2.06 F2000.
G02 X-134.733 Y19.055 I.681 J-.733
X-134.109 Y18.837 I0.0 J-1.
G03 X-136.339 Y13.003 I6.52 J-5.834 F1200.
G01 X-136.338 Y12.951
Y-5.702
Y-6.099 F1050.
G03 X-136.148 Y-7.889 I8.936 J.045
X-135.437 Y-9.965 I8.746 J1.835 F900.
G02 X-135.824 Y-10.043 I-.387 J.922 F2000.
X-136.668 Y-9.579 I0.0 J1.
G03 X-138.406 Y-8.625 I-1.738 J-1.105
X-139.269 Y-8.814 I0.0 J-2.06
G01 X-139.505 Y-8.923
G03 X-139.635 Y-8.989 I.863 J-1.871
G02 X-140.117 Y-9.112 I-.482 J.876
X-140.916 Y-8.714 I0.0 J1.
G03 X-140.416 Y-8.374 I-4.444 J7.087 F1200.
X-137.289 Y-1.687 I-5.589 J6.688
G01 X-137.29 Y-1.626
Y12.996
G03 X-137.513 Y14.952 I-8.837 J-.018
X-138.265 Y17.013 I-8.614 J-1.974 F1050.
X-139.502 Y18.826 I-7.862 J-4.036 F900.
G02 X-138.883 Y19.04 I.618 J-.786 F2000.
X-138.208 Y18.777 I0.0 J-1.
G03 X-136.816 Y18.236 I1.392 J1.519
G01 X-136.813
X-136.816 Y20.483
Z-5.2
G00 Z-5.
G01 Y20.484 Z-5.4
Z-6.4 F800.
X-136.813 Y18.236
G03 X-135.413 Y18.787 I-.002 J2.06 F2000.
G02 X-134.732 Y19.055 I.681 J-.732
X-134.109 Y18.837 I0.0 J-1.
G03 X-136.339 Y13.003 I6.519 J-5.834 F1200.
G01 X-136.338 Y12.951
Y-5.702
Y-6.099 F1050.
G03 X-136.148 Y-7.889 I8.935 J.045
X-135.437 Y-9.965 I8.745 J1.835 F900.
G02 X-135.824 Y-10.043 I-.387 J.922 F2000.
X-136.668 Y-9.579 I0.0 J1.
G03 X-138.406 Y-8.625 I-1.738 J-1.105
X-139.268 Y-8.814 I0.0 J-2.06
G01 X-139.505 Y-8.923
G03 X-139.635 Y-8.989 I.862 J-1.871
G02 X-140.117 Y-9.112 I-.482 J.876
X-140.916 Y-8.714 I0.0 J1.
G03 X-140.416 Y-8.374 I-4.445 J7.087 F1200.
X-137.289 Y-1.687 I-5.588 J6.687
G01 X-137.29 Y-1.626
Y12.996
G03 X-137.513 Y14.952 I-8.838 J-.018
X-138.265 Y17.014 I-8.615 J-1.974 F1050.
X-139.502 Y18.826 I-7.863 J-4.036 F900.
G02 X-138.883 Y19.04 I.618 J-.786 F2000.
X-138.208 Y18.778 I0.0 J-1.
G03 X-136.816 Y18.236 I1.392 J1.519
G01 X-136.813
X-136.816 Y20.484
Z-5.4
G00 Z-5.2
G01 Z-5.6
Z-6.6 F800.
X-136.813 Y18.236
G03 X-135.414 Y18.787 I-.002 J2.06 F2000.
G02 X-134.733 Y19.055 I.681 J-.733
X-134.11 Y18.837 I0.0 J-1.
G03 X-136.339 Y13.004 I6.517 J-5.833 F1200.
G01 X-136.338 Y12.951
Y-5.702
Y-6.099 F1050.
G03 X-136.148 Y-7.889 I8.934 J.045
X-135.437 Y-9.965 I8.744 J1.835 F900.
G02 X-135.824 Y-10.043 I-.387 J.922 F2000.
X-136.668 Y-9.58 I0.0 J1.
G03 X-138.406 Y-8.625 I-1.738 J-1.105
X-139.267 Y-8.813 I0.0 J-2.06
G01 X-139.504 Y-8.922
G03 X-139.635 Y-8.989 I.861 J-1.871
G02 X-140.117 Y-9.112 I-.482 J.876
X-140.916 Y-8.714 I0.0 J1.
G03 X-140.416 Y-8.374 I-4.445 J7.087 F1200.
X-137.289 Y-1.687 I-5.588 J6.687
G01 X-137.29 Y-1.626
Y12.996
G03 X-137.513 Y14.952 I-8.839 J-.019
X-138.265 Y17.014 I-8.615 J-1.975 F1050.
X-139.502 Y18.827 I-7.863 J-4.036 F900.
G02 X-138.883 Y19.041 I.618 J-.786 F2000.
X-138.208 Y18.778 I0.0 J-1.
G03 X-136.816 Y18.236 I1.392 J1.519
G01 X-136.813
X-136.816 Y20.484
Z-5.6
G00 Z-5.4
G01 Z-5.8
Z-6.8 F800.
X-136.813 Y18.236
G03 X-135.414 Y18.787 I-.002 J2.06 F2000.
G02 X-134.733 Y19.055 I.681 J-.733
X-134.11 Y18.837 I0.0 J-1.
G03 X-136.339 Y13.005 I6.516 J-5.832 F1200.
G01 X-136.338 Y12.951
Y-5.659
Y-6.099 F1050.
G03 X-136.157 Y-7.846 I8.945 J.046
X-135.456 Y-9.926 I8.763 J1.794 F900.
G02 X-135.838 Y-10.002 I-.382 J.924 F2000.
X-136.685 Y-9.534 I0.0 J1.
G03 X-138.429 Y-8.57 I-1.744 J-1.096
X-139.467 Y-8.851 I0.0 J-2.06
G02 X-139.971 Y-8.987 I-.504 J.864
X-140.754 Y-8.609 I0.0 J1.
G03 X-140.41 Y-8.369 I-4.607 J6.982 F1200.
X-140.16 Y-8.165 I-1.84 J2.495
X-137.29 Y-1.659 I-5.936 J6.506
G01 Y12.996
G03 X-137.513 Y14.953 I-8.84 J-.019
X-138.265 Y17.014 I-8.616 J-1.975 F1050.
X-139.502 Y18.827 I-7.864 J-4.037 F900.
G02 X-138.883 Y19.041 I.618 J-.786 F2000.
X-138.208 Y18.778 I0.0 J-1.
G03 X-136.816 Y18.236 I1.392 J1.519
G01 X-136.813
X-136.816 Y20.484
Z-5.8
G00 Z-5.6
G01 Z-6.
Z-7. F800.
X-136.813 Y18.237
G03 X-135.414 Y18.787 I-.002 J2.06 F2000.
G02 X-134.733 Y19.055 I.681 J-.733
X-134.11 Y18.837 I0.0 J-1.
G03 X-136.339 Y13.005 I6.514 J-5.832 F1200.
G01 X-136.338 Y12.951
Y-5.659
Y-6.099 F1050.
G03 X-136.157 Y-7.847 I8.944 J.046
X-135.456 Y-9.926 I8.762 J1.794 F900.
G02 X-135.838 Y-10.002 I-.382 J.924 F2000.
X-136.685 Y-9.534 I0.0 J1.
G03 X-138.429 Y-8.57 I-1.744 J-1.096
X-139.467 Y-8.851 I0.0 J-2.06
G02 X-139.971 Y-8.987 I-.504 J.864
X-140.754 Y-8.609 I0.0 J1.
G03 X-140.41 Y-8.369 I-4.607 J6.982 F1200.
X-140.16 Y-8.165 I-1.84 J2.495
X-137.29 Y-1.659 I-5.936 J6.506
G01 Y12.996
G03 X-137.513 Y14.953 I-8.841 J-.019
X-138.265 Y17.014 I-8.617 J-1.975 F1050.
X-139.502 Y18.827 I-7.865 J-4.037 F900.
G02 X-138.883 Y19.041 I.618 J-.786 F2000.
X-138.208 Y18.778 I0.0 J-1.
G03 X-136.816 Y18.237 I1.392 J1.519
G01 X-136.813
X-136.816 Y20.484
Z-6.
G00 Z-5.8
G01 Z-6.2
Z-7.2 F800.
X-136.813 Y18.237
G03 X-135.414 Y18.788 I-.002 J2.06 F2000.
G02 X-134.733 Y19.055 I.681 J-.733
X-134.11 Y18.837 I0.0 J-1.
G03 X-136.339 Y13.006 I6.513 J-5.831 F1200.
G01 X-136.338 Y12.951
Y-5.659
Y-6.099 F1050.
G03 X-136.157 Y-7.847 I8.943 J.046
X-135.456 Y-9.926 I8.761 J1.794 F900.
G02 X-135.838 Y-10.002 I-.382 J.924 F2000.
X-136.685 Y-9.534 I0.0 J1.
G03 X-138.429 Y-8.57 I-1.744 J-1.096
X-139.467 Y-8.851 I0.0 J-2.06
G02 X-139.971 Y-8.987 I-.504 J.864
X-140.754 Y-8.609 I0.0 J1.
G03 X-140.41 Y-8.369 I-4.607 J6.982 F1200.
X-140.16 Y-8.165 I-1.84 J2.495
X-137.29 Y-1.659 I-5.935 J6.505
G01 Y12.996
G03 X-137.513 Y14.953 I-8.842 J-.019
X-138.265 Y17.014 I-8.618 J-1.976 F1050.
X-139.502 Y18.827 I-7.866 J-4.037 F900.
G02 X-138.883 Y19.041 I.618 J-.786 F2000.
X-138.208 Y18.778 I0.0 J-1.
G03 X-136.816 Y18.237 I1.392 J1.519
G01 X-136.813
X-136.816 Y20.484
Z-6.2
G00 Z-6.
G01 Z-6.4
Z-7.4 F800.
X-136.813 Y18.237
G03 X-135.414 Y18.788 I-.002 J2.06 F2000.
G02 X-134.733 Y19.055 I.681 J-.733
X-134.11 Y18.837 I0.0 J-1.
G03 X-136.339 Y13.006 I6.512 J-5.831 F1200.
G01 X-136.338 Y12.951
Y-5.659
Y-6.099 F1050.
G03 X-136.157 Y-7.847 I8.942 J.046
X-135.456 Y-9.926 I8.76 J1.793 F900.
G02 X-135.838 Y-10.002 I-.382 J.924 F2000.
X-136.685 Y-9.534 I0.0 J1.
G03 X-138.429 Y-8.57 I-1.744 J-1.096
X-139.467 Y-8.851 I0.0 J-2.06
G02 X-139.971 Y-8.987 I-.504 J.864
X-140.754 Y-8.609 I0.0 J1.
G03 X-140.41 Y-8.369 I-4.607 J6.982 F1200.
X-140.161 Y-8.165 I-1.84 J2.495
X-137.29 Y-1.66 I-5.935 J6.505
G01 Y12.996
G03 X-137.513 Y14.953 I-8.842 J-.019
X-138.265 Y17.014 I-8.619 J-1.976 F1050.
X-139.502 Y18.827 I-7.867 J-4.037 F900.
G02 X-138.883 Y19.041 I.618 J-.786 F2000.
X-138.208 Y18.778 I0.0 J-1.
G03 X-136.816 Y18.237 I1.392 J1.519
G01 X-136.813
X-136.816 Y20.484
Z-6.4
G00 Z-6.2
G01 Y20.485 Z-6.6
Z-7.6 F800.
X-136.813 Y18.237
G03 X-135.412 Y18.79 I-.002 J2.06 F2000.
G02 X-134.73 Y19.058 I.682 J-.732
X-134.106 Y18.84 I0.0 J-1.
G03 X-136.339 Y13.002 I6.518 J-5.838 F1200.
G01 X-136.338 Y12.951
Y-5.659
Y-6.099 F1050.
G03 X-136.157 Y-7.847 I8.941 J.045
X-135.456 Y-9.927 I8.759 J1.793 F900.
G02 X-135.838 Y-10.002 I-.382 J.924 F2000.
X-136.685 Y-9.534 I0.0 J1.
G03 X-138.429 Y-8.57 I-1.744 J-1.096
X-139.467 Y-8.851 I0.0 J-2.06
G02 X-139.971 Y-8.987 I-.504 J.864
X-140.754 Y-8.609 I0.0 J1.
G03 X-140.41 Y-8.369 I-4.607 J6.982 F1200.
X-140.161 Y-8.165 I-1.84 J2.495
X-137.29 Y-1.66 I-5.934 J6.505
G01 Y12.996
G03 X-137.513 Y14.953 I-8.843 J-.019
X-138.265 Y17.015 I-8.62 J-1.976 F1050.
X-139.501 Y18.828 I-7.868 J-4.038 F900.
G02 X-138.883 Y19.041 I.618 J-.786 F2000.
X-138.208 Y18.779 I0.0 J-1.
G03 X-136.816 Y18.237 I1.392 J1.519
G01 X-136.813
X-136.816 Y20.485
Z-6.6
G00 Z-6.4
G01 Z-6.8
Z-7.8 F800.
X-136.813 Y18.237
G03 X-135.412 Y18.79 I-.002 J2.06 F2000.
G02 X-134.73 Y19.058 I.682 J-.732
X-134.106 Y18.84 I0.0 J-1.
G03 X-136.339 Y13.003 I6.517 J-5.838 F1200.
G01 X-136.338 Y12.951
Y-5.659
Y-6.099 F1050.
G03 X-136.157 Y-7.847 I8.939 J.045
X-135.456 Y-9.927 I8.758 J1.793 F900.
G02 X-135.838 Y-10.003 I-.382 J.924 F2000.
X-136.685 Y-9.534 I0.0 J1.
G03 X-138.43 Y-8.57 I-1.744 J-1.096
X-139.467 Y-8.851 I0.0 J-2.06
G02 X-139.971 Y-8.987 I-.504 J.864
X-140.754 Y-8.609 I0.0 J1.
G03 X-140.41 Y-8.369 I-4.607 J6.982 F1200.
X-140.161 Y-8.165 I-1.84 J2.495
X-137.29 Y-1.66 I-5.933 J6.505
G01 Y12.996
G03 X-137.513 Y14.953 I-8.844 J-.019
X-138.265 Y17.015 I-8.621 J-1.977 F1050.
X-139.501 Y18.828 I-7.869 J-4.038 F900.
G02 X-138.883 Y19.042 I.618 J-.786 F2000.
X-138.208 Y18.779 I0.0 J-1.
G03 X-136.816 Y18.237 I1.392 J1.519
G01 X-136.813
X-136.816 Y20.485
Z-6.8
G00 Z-6.6
G01 Z-7.
Z-8. F800.
X-136.813 Y18.237
G03 X-135.412 Y18.79 I-.002 J2.06 F2000.
G02 X-134.73 Y19.058 I.682 J-.732
X-134.106 Y18.84 I0.0 J-1.
G03 X-136.339 Y13.003 I6.515 J-5.837 F1200.
G01 X-136.338 Y12.951
Y-5.66
Y-6.099 F1050.
G03 X-136.157 Y-7.847 I8.938 J.045
X-135.456 Y-9.927 I8.757 J1.793 F900.
G02 X-135.838 Y-10.003 I-.382 J.924 F2000.
X-136.685 Y-9.535 I0.0 J1.
G03 X-138.43 Y-8.57 I-1.744 J-1.096
X-139.467 Y-8.851 I0.0 J-2.06
G02 X-139.971 Y-8.987 I-.504 J.864
X-140.754 Y-8.609 I0.0 J1.
G03 X-140.41 Y-8.369 I-4.607 J6.982 F1200.
X-140.161 Y-8.165 I-1.84 J2.495
X-137.29 Y-1.66 I-5.933 J6.505
G01 Y12.996
G03 X-137.513 Y14.953 I-8.845 J-.02
X-138.265 Y17.015 I-8.622 J-1.977 F1050.
X-139.501 Y18.828 I-7.87 J-4.038 F900.
G02 X-138.883 Y19.042 I.618 J-.786 F2000.
X-138.208 Y18.779 I0.0 J-1.
G03 X-136.816 Y18.237 I1.392 J1.519
G01 X-136.813
X-136.816 Y20.485
Z-7.
G00 Z-6.8
G01 Z-7.2
Z-8.2 F800.
X-136.813 Y18.238
G03 X-135.412 Y18.79 I-.002 J2.06 F2000.
G02 X-134.73 Y19.058 I.682 J-.732
X-134.107 Y18.84 I0.0 J-1.
G03 X-136.339 Y13.004 I6.514 J-5.836 F1200.
G01 X-136.338 Y12.951
Y-5.66
Y-6.099 F1050.
G03 X-136.157 Y-7.847 I8.937 J.044
X-135.456 Y-9.927 I8.756 J1.793 F900.
G02 X-135.838 Y-10.003 I-.382 J.924 F2000.
X-136.685 Y-9.535 I0.0 J1.
G03 X-138.43 Y-8.57 I-1.745 J-1.096
X-139.467 Y-8.851 I0.0 J-2.06
G02 X-139.971 Y-8.987 I-.504 J.864
X-140.754 Y-8.609 I0.0 J1.
G03 X-140.41 Y-8.369 I-4.607 J6.982 F1200.
X-140.161 Y-8.165 I-1.84 J2.495
X-137.29 Y-1.66 I-5.932 J6.505
G01 Y12.996
G03 X-137.513 Y14.954 I-8.846 J-.02
X-138.265 Y17.015 I-8.622 J-1.977 F1050.
X-139.501 Y18.828 I-7.87 J-4.039 F900.
G02 X-138.883 Y19.042 I.618 J-.786 F2000.
X-138.208 Y18.779 I0.0 J-1.
G03 X-136.816 Y18.238 I1.392 J1.519
G01 X-136.813
X-136.816 Y20.485
Z-7.2
G00 Z-7.
G01 Z-7.4
Z-8.4 F800.
X-136.813 Y18.238
G03 X-135.412 Y18.79 I-.002 J2.06 F2000.
G02 X-134.73 Y19.058 I.681 J-.732
X-134.107 Y18.84 I0.0 J-1.
G03 X-136.339 Y13.005 I6.512 J-5.835 F1200.
G01 X-136.338 Y12.951
Y-5.66
Y-6.099 F1050.
G03 X-136.157 Y-7.848 I8.936 J.044
X-135.456 Y-9.927 I8.755 J1.793 F900.
G02 X-135.838 Y-10.003 I-.382 J.924 F2000.
X-136.685 Y-9.535 I0.0 J1.
G03 X-138.43 Y-8.57 I-1.745 J-1.095
X-139.467 Y-8.851 I0.0 J-2.06
G02 X-139.971 Y-8.987 I-.504 J.864
X-140.754 Y-8.609 I0.0 J1.
G03 X-140.41 Y-8.369 I-4.607 J6.982 F1200.
X-140.161 Y-8.165 I-1.84 J2.495
X-137.29 Y-1.661 I-5.932 J6.505
G01 Y12.996
G03 X-137.513 Y14.954 I-8.847 J-.02
X-138.265 Y17.015 I-8.623 J-1.977 F1050.
X-139.501 Y18.828 I-7.871 J-4.039 F900.
G02 X-138.883 Y19.042 I.618 J-.786 F2000.
X-138.208 Y18.779 I0.0 J-1.
G03 X-136.816 Y18.238 I1.392 J1.519
G01 X-136.813
X-136.816 Y20.485
Z-7.4
G00 Z-7.2
G01 Y20.486 Z-7.6
Z-8.6 F800.
X-136.813 Y18.238
G03 X-135.412 Y18.79 I-.002 J2.06 F2000.
G02 X-134.73 Y19.058 I.681 J-.732
X-134.107 Y18.84 I0.0 J-1.
G03 X-136.339 Y13.005 I6.511 J-5.835 F1200.
G01 X-136.338 Y12.951
Y-5.66
Y-6.099 F1050.
G03 X-136.157 Y-7.848 I8.935 J.044
X-135.456 Y-9.927 I8.754 J1.792 F900.
G02 X-135.838 Y-10.003 I-.382 J.924 F2000.
X-136.685 Y-9.535 I0.0 J1.
G03 X-138.43 Y-8.57 I-1.745 J-1.095
X-139.468 Y-8.851 I0.0 J-2.06
G02 X-139.971 Y-8.987 I-.504 J.864
X-140.754 Y-8.609 I0.0 J1.
G03 X-140.41 Y-8.369 I-4.607 J6.982 F1200.
X-140.161 Y-8.165 I-1.84 J2.495
X-137.29 Y-1.661 I-5.931 J6.504
G01 Y12.996
G03 X-137.513 Y14.954 I-8.848 J-.02
X-138.265 Y17.015 I-8.624 J-1.978 F1050.
X-139.501 Y18.829 I-7.872 J-4.039 F900.
G02 X-138.883 Y19.042 I.618 J-.786 F2000.
X-138.208 Y18.779 I0.0 J-1.
G03 X-136.816 Y18.238 I1.392 J1.518
G01 X-136.813
X-136.816 Y20.486
Z-7.6
G00 Z-7.4
G01 Z-7.8
Z-8.8 F800.
X-136.813 Y18.238
G03 X-135.412 Y18.79 I-.002 J2.06 F2000.
G02 X-134.731 Y19.058 I.681 J-.732
X-134.107 Y18.84 I0.0 J-1.
G03 X-136.339 Y13.006 I6.509 J-5.834 F1200.
G01 X-136.338 Y12.951
Y-5.66
Y-6.099 F1050.
G03 X-136.157 Y-7.848 I8.934 J.043
X-135.456 Y-9.927 I8.752 J1.792 F900.
G02 X-135.838 Y-10.003 I-.382 J.924 F2000.
X-136.685 Y-9.535 I0.0 J1.
G03 X-138.43 Y-8.57 I-1.745 J-1.095
X-139.468 Y-8.851 I0.0 J-2.06
G02 X-139.971 Y-8.987 I-.504 J.864
X-140.754 Y-8.609 I0.0 J1.
G03 X-140.41 Y-8.369 I-4.607 J6.982 F1200.
X-140.161 Y-8.165 I-1.84 J2.495
X-137.29 Y-1.661 I-5.931 J6.504
G01 Y12.996
G03 X-137.513 Y14.954 I-8.849 J-.02
X-138.265 Y17.016 I-8.625 J-1.978 F1050.
X-139.501 Y18.829 I-7.873 J-4.04 F900.
G02 X-138.883 Y19.042 I.618 J-.786 F2000.
X-138.208 Y18.78 I0.0 J-1.
G03 X-136.816 Y18.238 I1.392 J1.518
G01 X-136.813
X-136.816 Y20.486
Z-7.8
G00 Z1.
X-125.761 Y-3.433
G01 Z.1
Y-6.051 Z.009 F800.
Y-6.44 Z-.005
X-126.034 Y-7.253 Z-.035
X-126.503 Y-7.873 Z-.062
X-127.316 Y-8.402 Z-.096
X-128.267 Y-8.587 Z-.13
X-129.219 Y-8.402 Z-.164
X-130.031 Y-7.873 Z-.198
X-130.501 Y-7.253 Z-.225
X-130.773 Y-6.44 Z-.255
Y-6.051 Z-.268
Y3.451 Z-.6
Y12.953 F1200.
G02 X-128.267 Y15.459 I2.506 J0.0
X-125.761 Y12.953 I0.0 J-2.506
G01 Y-6.051
G02 X-128.267 Y-8.557 I-2.506 J0.0
X-130.773 Y-6.051 I0.0 J2.506
G01 Y3.451
X-128.973 F2000.
Y12.953
G02 X-128.267 Y13.659 I.706 J0.0
X-127.561 Y12.953 I0.0 J-.706
G01 Y-6.051
G02 X-128.267 Y-6.757 I-.706 J0.0
X-128.973 Y-6.051 I0.0 J.706
G01 Y3.451
X-129.148 Y5.443
Z.4
G00 Z1.
X-130.756 Y-5.14
G01 Z-.5
Y3.451 Z-.8 F800.
Y12.953 F1200.
G02 X-128.267 Y15.441 I2.488 J0.0
X-125.779 Y12.953 I0.0 J-2.488
G01 Y-6.051
G02 X-128.267 Y-8.54 I-2.488 J0.0
X-130.756 Y-6.051 I0.0 J2.488
G01 Y3.451
X-128.956 F2000.
Y12.953
G02 X-128.267 Y13.641 I.688 J0.0
X-127.579 Y12.953 I0.0 J-.688
G01 Y-6.051
G02 X-128.267 Y-6.74 I-.688 J0.0
X-128.956 Y-6.051 I0.0 J.688
G01 Y3.451
X-129.13 Y5.443
Z.2
G00 Z.4
X-130.756 Y-5.14
G01 Z-.7
Y3.451 Z-1. F800.
Y12.953 F1200.
G02 X-128.267 Y15.441 I2.488 J0.0
X-125.779 Y12.953 I0.0 J-2.488
G01 Y-6.051
G02 X-128.267 Y-8.54 I-2.488 J0.0
X-130.756 Y-6.051 I0.0 J2.488
G01 Y3.451
X-128.956 F2000.
Y12.953
G02 X-128.267 Y13.641 I.688 J0.0
X-127.579 Y12.953 I0.0 J-.688
G01 Y-6.051
G02 X-128.267 Y-6.74 I-.688 J0.0
X-128.956 Y-6.051 I0.0 J.688
G01 Y3.451
X-129.13 Y5.443
Z0.0
G00 Z.2
X-130.756 Y-5.14
G01 Z-.9
Y3.451 Z-1.2 F800.
Y12.953 F1200.
G02 X-128.267 Y15.441 I2.488 J0.0
X-125.779 Y12.953 I0.0 J-2.488
G01 Y-6.051
G02 X-128.267 Y-8.54 I-2.488 J0.0
X-130.756 Y-6.051 I0.0 J2.488
G01 Y3.451
X-128.956 F2000.
Y12.953
G02 X-128.267 Y13.641 I.688 J0.0
X-127.579 Y12.953 I0.0 J-.688
G01 Y-6.051
G02 X-128.267 Y-6.74 I-.688 J0.0
X-128.956 Y-6.051 I0.0 J.688
G01 Y3.451
X-129.13 Y5.443
Z-.2
G00 Z0.0
X-130.756 Y-5.14
G01 Z-1.1
Y3.451 Z-1.4 F800.
Y12.953 F1200.
G02 X-128.267 Y15.441 I2.488 J0.0
X-125.779 Y12.953 I0.0 J-2.488
G01 Y-6.051
G02 X-128.267 Y-8.54 I-2.488 J0.0
X-130.756 Y-6.051 I0.0 J2.488
G01 Y3.451
X-128.956 F2000.
Y12.953
G02 X-128.267 Y13.641 I.688 J0.0
X-127.579 Y12.953 I0.0 J-.688
G01 Y-6.051
G02 X-128.267 Y-6.74 I-.688 J0.0
X-128.956 Y-6.051 I0.0 J.688
G01 Y3.451
X-129.13 Y5.443
Z-.4
G00 Z-.2
X-130.756 Y-5.14
G01 Z-1.3
Y3.451 Z-1.6 F800.
Y12.953 F1200.
G02 X-128.267 Y15.441 I2.488 J0.0
X-125.779 Y12.953 I0.0 J-2.488
G01 Y-6.051
G02 X-128.267 Y-8.54 I-2.488 J0.0
X-130.756 Y-6.051 I0.0 J2.488
G01 Y3.451
X-128.956 F2000.
Y12.953
G02 X-128.267 Y13.641 I.688 J0.0
X-127.579 Y12.953 I0.0 J-.688
G01 Y-6.051
G02 X-128.267 Y-6.74 I-.688 J0.0
X-128.956 Y-6.051 I0.0 J.688
G01 Y3.451
X-129.13 Y5.443
Z-.6
G00 Z-.4
X-130.756 Y-5.14
G01 Z-1.5
Y3.451 Z-1.8 F800.
Y12.953 F1200.
G02 X-128.267 Y15.441 I2.488 J0.0
X-125.779 Y12.953 I0.0 J-2.488
G01 Y-6.051
G02 X-128.267 Y-8.54 I-2.488 J0.0
X-130.756 Y-6.051 I0.0 J2.488
G01 Y3.451
X-128.956 F2000.
Y12.953
G02 X-128.267 Y13.641 I.688 J0.0
X-127.579 Y12.953 I0.0 J-.688
G01 Y-6.051
G02 X-128.267 Y-6.74 I-.688 J0.0
X-128.956 Y-6.051 I0.0 J.688
G01 Y3.451
X-129.13 Y5.443
Z-.8
G00 Z1.
X-119.721 Y19.798
G01 Z.4
Z-.6 F800.
Y17.552
G03 X-118.33 Y18.091 I0.0 J2.06 F2000.
G02 X-117.656 Y18.353 I.675 J-.738
X-117.042 Y18.143 I0.0 J-1.
G03 X-119.008 Y12.953 I5.869 J-5.19 F1200.
G01 Y-7.358
G03 X-118.982 Y-8.004 I7.835 J0.0
X-118.497 Y-10.142 I7.808 J.645 F1050.
X-117.439 Y-12.063 I7.323 J2.784 F900.
G02 X-117.987 Y-12.226 I-.548 J.836 F2000.
X-118.719 Y-11.908 I0.0 J1.
G03 X-120.226 Y-11.252 I-1.507 J-1.404
X-121.502 Y-11.695 I0.0 J-2.06
G02 X-122.121 Y-11.91 I-.619 J.785
X-122.79 Y-11.653 I0.0 J1.
G03 X-120.433 Y-6.051 I-5.477 J5.602 F1200.
G01 Y12.953
G03 X-120.536 Y14.221 I-7.835 J0.0
X-121.19 Y16.313 I-7.731 J-1.268 F1050.
X-122.399 Y18.143 I-7.077 J-3.361 F900.
G02 X-121.785 Y18.353 I.613 J-.79 F2000.
X-121.111 Y18.091 I0.0 J-1.
G03 X-119.721 Y17.552 I1.39 J1.52
G01 Y19.798
Z.4
G00 Z1.
Y19.839
G01 Z.2
Z-.8 F800.
Y17.593
G03 X-118.335 Y18.128 I0.0 J2.06 F2000.
G02 X-117.663 Y18.388 I.673 J-.74
X-117.047 Y18.176 I0.0 J-1.
G03 X-119.034 Y12.953 I5.873 J-5.223 F1200.
G01 Y-7.358
G03 X-119.004 Y-8.042 I7.86 J0.0
X-118.51 Y-10.178 I7.83 J.683 F1050.
X-117.446 Y-12.095 I7.337 J2.82 F900.
G02 X-117.997 Y-12.261 I-.551 J.835 F2000.
X-118.726 Y-11.944 I0.0 J1.
G03 X-120.229 Y-11.293 I-1.503 J-1.409
X-121.5 Y-11.732 I0.0 J-2.06
G02 X-122.117 Y-11.945 I-.617 J.787
X-122.788 Y-11.687 I0.0 J1.
G03 X-120.407 Y-6.051 I-5.479 J5.636 F1200.
G01 Y12.953
G03 X-120.517 Y14.26 I-7.86 J0.0
X-121.18 Y16.35 I-7.75 J-1.307 F1050.
X-122.394 Y18.176 I-7.088 J-3.397 F900.
G02 X-121.778 Y18.388 I.616 J-.788 F2000.
X-121.106 Y18.128 I0.0 J-1.
G03 X-119.721 Y17.593 I1.385 J1.525
G01 Y19.839
Z.2
G00 Z.4
Y19.861
G01 Z0.0
Z-1. F800.
Y17.615
G03 X-118.338 Y18.148 I0.0 J2.06 F2000.
G02 X-117.666 Y18.407 I.671 J-.741
X-117.051 Y18.195 I0.0 J-1.
G03 X-117.123 Y18.11 I5.956 J-5.169 F1200.
X-119.048 Y12.953 I5.95 J-5.157
G01 Y-7.358
G03 X-119.016 Y-8.067 I7.874 J0.0
X-118.516 Y-10.202 I7.842 J.709 F1050.
X-117.447 Y-12.117 I7.342 J2.844 F900.
G02 X-118. Y-12.283 I-.553 J.833 F2000.
X-118.728 Y-11.969 I0.0 J1.
G03 X-120.227 Y-11.321 I-1.5 J-1.412
X-121.509 Y-11.769 I0.0 J-2.06
G02 X-122.131 Y-11.986 I-.622 J.783
X-122.798 Y-11.732 I0.0 J1.
G03 X-122.125 Y-10.978 I-5.537 J5.616 F1200.
X-120.393 Y-6.051 I-6.142 J4.927
G01 Y12.953
G03 X-120.506 Y14.282 I-7.874 J0.0
X-121.174 Y16.37 I-7.761 J-1.329 F1050.
X-122.314 Y18.106 I-7.093 J-3.418 F900.
X-122.389 Y18.196 I-5.25 J-4.265
G02 X-121.775 Y18.407 I.614 J-.789 F2000.
X-121.103 Y18.148 I0.0 J-1.
G03 X-119.721 Y17.615 I1.383 J1.527
G01 Y19.861
Z0.0
G00 Z.2
X-119.727 Y19.972
G01 Z-.2
Z-1.2 F800.
X-119.721 Y17.716
G03 X-118.251 Y18.339 I-.006 J2.06 F2000.
G02 X-117.535 Y18.641 I.716 J-.698
X-116.962 Y18.46 I0.0 J-1.
G03 X-117.131 Y18.235 I3.807 J-3.017 F1200.
X-117.756 Y17.3 I20.026 J-14.061
X-119.062 Y12.953 I6.582 J-4.347
G01 Y-7.358
G03 X-119.018 Y-8.185 I7.888 J0.0
X-118.487 Y-10.313 I7.844 J.827 F1050.
X-117.908 Y-11.466 I7.314 J2.955 F900.
X-117.426 Y-12.235 I7.888 J4.403
G02 X-117.955 Y-12.387 I-.529 J.848 F2000.
X-118.686 Y-12.07 I0.0 J1.
G03 X-120.191 Y-11.416 I-1.505 J-1.407
X-121.533 Y-11.913 I0.0 J-2.06
G02 X-122.185 Y-12.155 I-.652 J.759
X-122.836 Y-11.913 I0.0 J1.
G03 X-121.44 Y-10.002 I-6.257 J6.036 F1200.
X-120.379 Y-6.051 I-6.827 J3.951
G01 Y12.953
G03 X-120.523 Y14.453 I-7.888 J0.0
X-121.236 Y16.527 I-7.744 J-1.5 F1050.
X-121.682 Y17.294 I-7.032 J-3.574 F900.
X-122.422 Y18.375 I-6.296 J-3.519
G02 X-121.839 Y18.563 I.583 J-.813 F2000.
X-121.149 Y18.286 I0.0 J-1.
G03 X-119.727 Y17.716 I1.422 J1.49
G01 X-119.721
X-119.727 Y19.972
Z-.2
G00 Z0.0
X-119.725 Y20.39
G01 Z-.4
Z-1.4 F800.
X-119.673 Y18.125
G03 X-118.148 Y18.854 I-.048 J2.059 F2000.
G02 X-117.384 Y19.208 I.763 J-.646
X-116.834 Y19.043 I0.0 J-1.
G03 X-117.378 Y18.222 I3.04 J-2.602 F1200.
G01 X-118.31 Y16.345
G03 X-119.076 Y12.953 I7.136 J-3.393
G01 Y-7.358
G03 X-118.885 Y-9.084 I7.902 J0.0
X-118.198 Y-10.978 I7.711 J1.726 F1050.
G02 X-118.115 Y-11.138 I-7.519 J-3.999
X-117.696 Y-12.114 I-7.602 J-3.839 F900.
G03 X-117.163 Y-13.114 I3.634 J1.297
G02 X-117.649 Y-13.24 I-.486 J.874 F2000.
X-118.482 Y-12.793 I0.0 J1.
G03 X-120.197 Y-11.874 I-1.715 J-1.14
X-121.586 Y-12.412 I0.0 J-2.06
G02 X-122.26 Y-12.674 I-.674 J.739
X-122.907 Y-12.436 I0.0 J1.
G03 X-121.884 Y-11.022 I-3.345 J3.498 F1200.
G01 X-121.165 Y-9.514
G03 X-120.365 Y-6.051 I-7.102 J3.463
G01 Y12.953
G03 X-120.631 Y14.983 I-7.902 J0.0
X-121.24 Y16.565 I-7.637 J-2.03 F1050.
G01 X-121.452 Y17.019
X-121.888 Y17.952 F900.
G03 X-122.518 Y18.934 I-4.309 J-2.075
G02 X-121.963 Y19.103 I.555 J-.832 F2000.
X-121.23 Y18.783 I0.0 J-1.
G03 X-119.721 Y18.125 I1.51 J1.402
G01 X-119.673
X-119.725 Y20.39
Z-.4
G00 Z-.2
Y20.48
G01 Z-.6
Z-1.6 F800.
X-119.675 Y18.23
G03 X-118.322 Y18.778 I-.045 J2.06 F2000.
G02 X-117.643 Y19.043 I.679 J-.734
X-117.035 Y18.837 I0.0 J-1.
G03 X-117.971 Y17.494 I5.324 J-4.713 F1200.
G01 X-118.461 Y16.071
X-118.55 Y15.826
G03 X-119.09 Y12.953 I7.376 J-2.873
G01 Y-7.358
G03 X-118.973 Y-8.713 I7.916 J0.0
X-118.635 Y-10.002 I7.799 J1.355 F1050.
G02 X-118.351 Y-10.82 I-56.245 J-19.967
X-117.98 Y-11.954 I-56.529 J-19.149 F900.
G03 X-117.434 Y-12.799 I6.065 J3.317
G02 X-117.977 Y-12.959 I-.543 J.84 F2000.
X-118.72 Y-12.628 I0.0 J1.
G03 X-120.252 Y-11.946 I-1.531 J-1.378
X-121.341 Y-12.258 I0.0 J-2.06
G02 X-121.437 Y-12.315 I-1.587 J2.546
G03 X-121.542 Y-12.38 I1.024 J-1.788
G02 X-122.09 Y-12.543 I-.548 J.836
X-122.785 Y-12.263 I0.0 J1.
G03 X-122.757 Y-12.221 I-1.724 J1.199 F1050.
X-122.73 Y-12.179 I-1.752 J1.158 F900.
G01 X-122.653 Y-12.182
G03 X-121.418 Y-10.49 I-4.851 J4.837
G02 X-120.894 Y-8.931 I52.192 J-16.677 F1200.
G03 X-120.351 Y-6.051 I-7.373 J2.88
G01 Y12.953
G03 X-120.587 Y14.869 I-7.916 J0.0
X-120.893 Y15.83 I-7.68 J-1.916 F1050.
G02 X-121.274 Y16.958 I20.293 J7.488
X-121.382 Y17.321 I20.674 J6.36 F900.
G03 X-122.397 Y18.826 I-5.906 J-2.887
G02 X-121.788 Y19.034 I.61 J-.793 F2000.
X-121.112 Y18.771 I0.0 J-1.
G03 X-119.721 Y18.23 I1.391 J1.519
G01 X-119.675
X-119.725 Y20.48
Z-.6
G00 Z-.4
Y20.476
G01 Z-.8
Z-1.8 F800.
X-119.675 Y18.231
G03 X-118.347 Y18.755 I-.045 J2.06 F2000.
G02 X-117.679 Y19.01 I.667 J-.745
X-117.065 Y18.799 I0.0 J-1.
G03 X-118.461 Y16.555 I5.895 J-5.221 F1200.
G01 X-118.865 Y14.882
G03 X-119.104 Y12.953 I7.692 J-1.929
G01 Y-7.358
G03 X-118.992 Y-8.684 I7.93 J0.0
X-118.926 Y-9.027 I7.818 J1.326 F1050.
G01 X-118.501 Y-10.829
X-118.466 Y-10.978 F900.
G03 X-117.464 Y-12.755 I7.123 J2.844
G02 X-118.013 Y-12.92 I-.549 J.836 F2000.
X-118.745 Y-12.602 I0.0 J1.
G03 X-120.252 Y-11.946 I-1.507 J-1.405
X-121.34 Y-12.257 I0.0 J-2.06
G02 X-121.436 Y-12.315 I-1.585 J2.547
G03 X-121.55 Y-12.385 I1.022 J-1.788
G02 X-122.102 Y-12.551 I-.552 J.834
X-122.793 Y-12.274 I0.0 J1.
G03 X-122.761 Y-12.227 I-1.716 J1.21 F1050.
X-122.73 Y-12.179 I-1.748 J1.163 F900.
G01 X-122.653 Y-12.182
G03 X-121.38 Y-10.489 I-6.387 J6.124
X-121.118 Y-10.002 I-7.659 J4.431 F1200.
X-120.594 Y-8.051 I-13.334 J4.631
X-120.337 Y-6.051 I-7.674 J1.999
G01 Y12.953
G03 X-120.576 Y14.882 I-7.93 J0.0
G02 X-120.907 Y16.345 I13.671 J3.865 F1050.
G03 X-121.146 Y16.938 I-6.855 J-2.423
X-122.345 Y18.772 I-6.616 J-3.015 F900.
G02 X-121.731 Y18.983 I.614 J-.789 F2000.
X-121.074 Y18.737 I0.0 J-1.
G03 X-119.721 Y18.23 I1.353 J1.553
G01 X-119.675 Y18.231
X-119.725 Y20.476
Z-.8
G00 Z-.6
Y20.479
G01 Z-1.
Z-2. F800.
X-119.675 Y18.231
G03 X-118.344 Y18.758 I-.045 J2.06 F2000.
G02 X-117.676 Y19.014 I.668 J-.744
X-117.057 Y18.8 I0.0 J-1.
G03 X-118.751 Y15.857 I6.277 J-5.572 F1200.
X-119.104 Y13.418 I18.729 J-3.953
X-119.118 Y12.953 I7.93 J-.465
G01 Y-7.358
G03 X-119.069 Y-8.234 I7.944 J0.0
X-119.015 Y-8.685 I27.026 J2.997
X-118.814 Y-10.002 I26.972 J3.448 F1050.
X-118.544 Y-10.825 I7.704 J2.073
X-117.474 Y-12.74 I7.434 J2.896 F900.
G02 X-118.026 Y-12.906 I-.552 J.834 F2000.
X-118.753 Y-12.593 I0.0 J1.
G03 X-120.252 Y-11.946 I-1.498 J-1.414
X-121.339 Y-12.257 I0.0 J-2.06
G02 X-121.435 Y-12.314 I-1.583 J2.548
G03 X-121.548 Y-12.384 I1.021 J-1.789
G02 X-122.099 Y-12.549 I-.551 J.835
X-122.791 Y-12.271 I0.0 J1.
G03 X-122.76 Y-12.226 I-1.718 J1.208 F1050.
X-122.73 Y-12.179 I-1.749 J1.162 F900.
G01 X-122.653 Y-12.183
G03 X-121.38 Y-10.49 I-6.292 J6.054
X-120.699 Y-9.001 I-7.564 J4.362 F1200.
X-120.342 Y-6.587 I-16.558 J3.683
X-120.323 Y-6.051 I-7.926 J.536
G01 Y12.953
G03 X-120.507 Y14.9 I-16.593 J-.582
X-120.683 Y15.857 I-16.409 J-2.529 F1050.
X-121.154 Y16.988 I-7.985 J-2.661
X-122.39 Y18.801 I-7.514 J-3.792 F900.
G02 X-121.769 Y19.017 I.62 J-.784 F2000.
X-121.1 Y18.76 I0.0 J-1.
G03 X-119.721 Y18.23 I1.379 J1.53
G01 X-119.675 Y18.231
X-119.725 Y20.479
Z-1.
G00 Z-.8
G01 Z-1.2
Z-2.2 F800.
X-119.675 Y18.231
G03 X-118.344 Y18.758 I-.045 J2.06 F2000.
G02 X-117.675 Y19.014 I.668 J-.744
X-117.058 Y18.8 I0.0 J-1.
G03 X-118.107 Y17.321 I6.228 J-5.528 F1200.
X-118.186 Y17.181 I6.707 J-3.901
X-118.967 Y15.133 I6.786 J-3.761 F1050.
X-119.155 Y13.671 I7.567 J-1.713 F900.
G01 X-119.177 Y12.985
X-119.157 Y12.953
Y10.753
Y-7.911 F1200.
G03 X-119.108 Y-8.726 I6.756 J0.0
X-119.064 Y-9.027 I6.707 J.815 F1050.
X-118.545 Y-10.847 I8.357 J1.399
X-117.456 Y-12.751 I7.838 J3.219 F900.
G02 X-118.013 Y-12.92 I-.557 J.831 F2000.
X-118.745 Y-12.602 I0.0 J1.
G03 X-120.252 Y-11.947 I-1.507 J-1.404
X-121.337 Y-12.256 I0.0 J-2.06
G02 X-121.434 Y-12.313 I-1.581 J2.549
G03 X-121.548 Y-12.383 I1.02 J-1.79
G02 X-122.098 Y-12.548 I-.55 J.835
X-122.79 Y-12.27 I0.0 J1.
G03 X-122.759 Y-12.225 I-1.719 J1.207 F1050.
X-122.73 Y-12.179 I-1.75 J1.161 F900.
G01 X-122.652 Y-12.183
G03 X-121.379 Y-10.491 I-6.289 J6.056
X-120.419 Y-8.023 I-7.562 J4.364 F1200.
X-120.282 Y-6.233 I-11.659 J1.79
X-120.284 Y-6.051 I-11.796 J0.0
G01 Y12.953
X-120.283 Y13.107
G03 X-120.408 Y14.882 I-12.66 J0.0
X-121.159 Y16.998 I-8.396 J-1.788 F1050.
X-122.399 Y18.808 I-7.644 J-3.905 F900.
G02 X-121.777 Y19.024 I.621 J-.784 F2000.
X-121.105 Y18.765 I0.0 J-1.
G03 X-119.721 Y18.23 I1.385 J1.525
G01 X-119.675 Y18.231
X-119.725 Y20.479
Z-1.2
G00 Z-1.
G01 Z-1.4
Z-2.4 F800.
X-119.675 Y18.231
G03 X-118.331 Y18.769 I-.045 J2.06 F2000.
G02 X-117.657 Y19.031 I.674 J-.738
X-117.036 Y18.815 I0.0 J-1.
G03 X-117.95 Y17.584 I6.51 J-5.79 F1200.
X-118.854 Y15.585 I7.424 J-4.559 F1050.
X-119.226 Y13.479 I8.328 J-2.56 F900.
G01 X-119.188 Y13.439
G03 X-119.245 Y12.951 I2.043 J-.488
G01 Y11.243
Y-7.358 F1200.
G03 X-119.139 Y-8.723 I9.055 J.018
X-118.706 Y-10.418 I8.948 J1.383 F1050.
G01 X-118.68 Y-10.49
G03 X-118.548 Y-10.838 I7.857 J2.781
X-117.465 Y-12.745 I7.725 J3.128 F900.
G02 X-118.02 Y-12.913 I-.555 J.832 F2000.
X-118.749 Y-12.597 I0.0 J1.
G03 X-120.252 Y-11.947 I-1.502 J-1.409
X-121.336 Y-12.256 I0.0 J-2.06
G02 X-121.432 Y-12.313 I-1.58 J2.55
G03 X-121.552 Y-12.386 I1.019 J-1.79
G02 X-122.105 Y-12.553 I-.553 J.833
X-122.795 Y-12.276 I0.0 J1.
G03 X-122.761 Y-12.228 I-1.714 J1.213 F1050.
X-122.73 Y-12.179 I-1.748 J1.165 F900.
G01 X-122.652 Y-12.183
G03 X-121.383 Y-10.488 I-6.41 J6.125
X-120.196 Y-6.057 I-7.679 J4.431 F1200.
G01 Y-6.05
Y12.952
Y13.046
G03 X-120.403 Y14.927 I-8.642 J0.0
X-121.148 Y16.99 I-8.434 J-1.881 F1050.
X-122.389 Y18.799 I-7.689 J-3.944 F900.
G02 X-121.768 Y19.016 I.622 J-.783 F2000.
X-121.099 Y18.759 I0.0 J-1.
G03 X-119.721 Y18.23 I1.378 J1.531
G01 X-119.675 Y18.231
X-119.725 Y20.479
Z-1.4
G00 Z-1.2
G01 Z-1.6
Z-2.6 F800.
X-119.675 Y18.231
G03 X-118.331 Y18.769 I-.045 J2.06 F2000.
G02 X-117.657 Y19.031 I.674 J-.738
X-117.036 Y18.815 I0.0 J-1.
G03 X-117.95 Y17.584 I6.509 J-5.789 F1200.
X-118.854 Y15.585 I7.423 J-4.559 F1050.
X-119.226 Y13.479 I8.327 J-2.559 F900.
G01 X-119.188 Y13.439
G03 X-119.245 Y12.951 I2.043 J-.488
G01 Y11.243
Y-7.358 F1200.
G03 X-119.139 Y-8.724 I9.05 J.017
X-118.706 Y-10.418 I8.944 J1.383 F1050.
G01 X-118.68 Y-10.49
G03 X-118.548 Y-10.838 I7.856 J2.781
X-117.464 Y-12.745 I7.724 J3.128 F900.
G02 X-118.02 Y-12.914 I-.555 J.832 F2000.
X-118.749 Y-12.598 I0.0 J1.
G03 X-120.252 Y-11.947 I-1.502 J-1.409
X-121.335 Y-12.255 I0.0 J-2.06
G02 X-121.431 Y-12.312 I-1.578 J2.551
G03 X-121.552 Y-12.386 I1.018 J-1.791
G02 X-122.104 Y-12.552 I-.553 J.834
X-122.794 Y-12.276 I0.0 J1.
G03 X-122.761 Y-12.228 I-1.715 J1.212 F1050.
X-122.73 Y-12.179 I-1.748 J1.164 F900.
G01 X-122.652 Y-12.183
G03 X-121.383 Y-10.488 I-6.411 J6.126
X-120.196 Y-6.057 I-7.68 J4.431 F1200.
G01 Y-6.05
Y12.952
Y13.045
G03 X-120.403 Y14.927 I-8.642 J0.0
X-121.148 Y16.99 I-8.435 J-1.881 F1050.
X-122.39 Y18.8 I-7.689 J-3.945 F900.
G02 X-121.768 Y19.016 I.622 J-.783 F2000.
X-121.099 Y18.759 I0.0 J-1.
G03 X-119.721 Y18.23 I1.378 J1.531
G01 X-119.675 Y18.231
X-119.725 Y20.479
Z-1.6
G00 Z-1.4
G01 Z-1.8
Z-2.8 F800.
X-119.675 Y18.231
G03 X-118.332 Y18.769 I-.045 J2.06 F2000.
G02 X-117.657 Y19.03 I.674 J-.739
X-117.037 Y18.815 I0.0 J-1.
G03 X-117.95 Y17.584 I6.508 J-5.788 F1200.
X-118.854 Y15.585 I7.421 J-4.558 F1050.
X-119.226 Y13.479 I8.325 J-2.558 F900.
G01 X-119.188 Y13.439
G03 X-119.245 Y12.951 I2.043 J-.488
G01 Y11.243
Y-7.358 F1200.
G03 X-119.139 Y-8.724 I9.049 J.017
X-118.706 Y-10.419 I8.943 J1.383 F1050.
G01 X-118.68 Y-10.49
G03 X-118.548 Y-10.838 I7.856 J2.78
X-117.464 Y-12.745 I7.724 J3.128 F900.
G02 X-118.02 Y-12.914 I-.555 J.832 F2000.
X-118.749 Y-12.598 I0.0 J1.
G03 X-120.252 Y-11.947 I-1.503 J-1.409
X-121.334 Y-12.254 I0.0 J-2.06
G02 X-121.43 Y-12.311 I-1.576 J2.553
G03 X-121.552 Y-12.386 I1.016 J-1.792
G02 X-122.104 Y-12.552 I-.552 J.834
X-122.794 Y-12.276 I0.0 J1.
G03 X-122.761 Y-12.228 I-1.715 J1.212 F1050.
X-122.73 Y-12.179 I-1.748 J1.164 F900.
G01 X-122.652 Y-12.183
G03 X-121.383 Y-10.488 I-6.412 J6.126
X-120.196 Y-6.057 I-7.681 J4.431 F1200.
G01 Y-6.05
Y12.952
Y13.045
G03 X-120.403 Y14.927 I-8.643 J0.0
X-121.149 Y16.991 I-8.436 J-1.882 F1050.
X-122.39 Y18.8 I-7.69 J-3.946 F900.
G02 X-121.769 Y19.017 I.622 J-.783 F2000.
X-121.099 Y18.76 I0.0 J-1.
G03 X-119.721 Y18.23 I1.379 J1.531
G01 X-119.675 Y18.231
X-119.725 Y20.479
Z-1.8
G00 Z-1.6
G01 Z-2.
Z-3. F800.
X-119.675 Y18.231
G03 X-118.332 Y18.769 I-.045 J2.06 F2000.
G02 X-117.658 Y19.03 I.674 J-.739
X-117.037 Y18.814 I0.0 J-1.
G03 X-117.951 Y17.584 I6.507 J-5.787 F1200.
X-118.854 Y15.585 I7.42 J-4.557 F1050.
X-119.226 Y13.479 I8.323 J-2.557 F900.
G01 X-119.188 Y13.439
G03 X-119.245 Y12.951 I2.043 J-.488
G01 Y11.243
Y-7.358 F1200.
G03 X-119.139 Y-8.725 I9.05 J.017
X-118.706 Y-10.419 I8.943 J1.383 F1050.
G01 X-118.68 Y-10.49
G03 X-118.548 Y-10.839 I7.855 J2.78
X-117.464 Y-12.746 I7.723 J3.128 F900.
G02 X-118.019 Y-12.914 I-.555 J.832 F2000.
X-118.749 Y-12.598 I0.0 J1.
G03 X-120.252 Y-11.947 I-1.503 J-1.409
X-121.333 Y-12.254 I0.0 J-2.06
G02 X-121.429 Y-12.311 I-1.574 J2.554
G03 X-121.551 Y-12.386 I1.015 J-1.792
G02 X-122.104 Y-12.552 I-.552 J.834
X-122.794 Y-12.276 I0.0 J1.
G03 X-122.761 Y-12.228 I-1.715 J1.212 F1050.
X-122.73 Y-12.179 I-1.748 J1.164 F900.
G01 X-122.652 Y-12.183
G03 X-121.383 Y-10.489 I-6.413 J6.126
X-120.196 Y-6.057 I-7.682 J4.432 F1200.
G01 Y-6.05
Y12.952
Y13.044
G03 X-120.403 Y14.928 I-8.645 J0.0
X-121.149 Y16.991 I-8.437 J-1.883 F1050.
X-122.39 Y18.8 I-7.691 J-3.947 F900.
G02 X-121.769 Y19.017 I.622 J-.783 F2000.
X-121.1 Y18.76 I0.0 J-1.
G03 X-119.721 Y18.23 I1.379 J1.53
G01 X-119.675 Y18.231
X-119.725 Y20.479
Z-2.
G00 Z-1.8
G01 Z-2.2
Z-3.2 F800.
X-119.675 Y18.231
G03 X-118.332 Y18.769 I-.045 J2.06 F2000.
G02 X-117.658 Y19.03 I.674 J-.739
X-117.038 Y18.814 I0.0 J-1.
G03 X-117.951 Y17.585 I6.505 J-5.786 F1200.
X-118.854 Y15.585 I7.419 J-4.556 F1050.
X-119.226 Y13.479 I8.322 J-2.557 F900.
G01 X-119.188 Y13.439
G03 X-119.245 Y12.951 I2.043 J-.488
G01 Y11.243
Y-7.358 F1200.
G03 X-119.139 Y-8.725 I9.05 J.017
X-118.706 Y-10.419 I8.944 J1.383 F1050.
G01 X-118.68 Y-10.49
G03 X-118.548 Y-10.839 I7.855 J2.779
X-117.464 Y-12.746 I7.722 J3.128 F900.
G02 X-118.019 Y-12.915 I-.555 J.832 F2000.
X-118.749 Y-12.599 I0.0 J1.
G03 X-120.252 Y-11.947 I-1.503 J-1.409
X-121.332 Y-12.253 I0.0 J-2.06
G02 X-121.428 Y-12.31 I-1.573 J2.555
G03 X-121.551 Y-12.386 I1.014 J-1.793
G02 X-122.103 Y-12.552 I-.552 J.834
X-122.794 Y-12.275 I0.0 J1.
G03 X-122.761 Y-12.228 I-1.715 J1.212 F1050.
X-122.73 Y-12.179 I-1.748 J1.164 F900.
G01 X-122.652 Y-12.183
G03 X-121.383 Y-10.489 I-6.414 J6.127
X-120.196 Y-6.057 I-7.683 J4.432 F1200.
G01 Y-6.05
Y12.952
Y13.044
G03 X-120.403 Y14.928 I-8.646 J0.0
X-121.149 Y16.992 I-8.438 J-1.884 F1050.
X-122.391 Y18.801 I-7.692 J-3.948 F900.
G02 X-121.769 Y19.017 I.622 J-.783 F2000.
X-121.1 Y18.76 I0.0 J-1.
G03 X-119.721 Y18.23 I1.379 J1.53
G01 X-119.675 Y18.231
X-119.725 Y20.479
Z-2.2
G00 Z-2.
G01 Z-2.4
Z-3.4 F800.
X-119.675 Y18.231
G03 X-118.332 Y18.768 I-.045 J2.06 F2000.
G02 X-117.658 Y19.03 I.674 J-.739
X-117.038 Y18.814 I0.0 J-1.
G03 X-117.951 Y17.585 I6.504 J-5.785 F1200.
X-118.854 Y15.585 I7.417 J-4.555 F1050.
X-119.226 Y13.479 I8.321 J-2.556 F900.
G01 X-119.188 Y13.439
G03 X-119.245 Y12.951 I2.043 J-.488
G01 Y11.243
Y-7.358 F1200.
G03 X-119.139 Y-8.725 I9.051 J.017
X-118.706 Y-10.419 I8.944 J1.384 F1050.
G01 X-118.68 Y-10.49
G03 X-118.548 Y-10.839 I7.854 J2.779
X-117.464 Y-12.746 I7.721 J3.128 F900.
G02 X-118.019 Y-12.915 I-.555 J.832 F2000.
X-118.749 Y-12.599 I0.0 J1.
G03 X-120.252 Y-11.948 I-1.503 J-1.409
X-121.33 Y-12.253 I0.0 J-2.06
G02 X-121.426 Y-12.309 I-1.571 J2.556
G03 X-121.551 Y-12.386 I1.013 J-1.794
G02 X-122.103 Y-12.552 I-.552 J.834
X-122.794 Y-12.275 I0.0 J1.
G03 X-122.761 Y-12.228 I-1.715 J1.211 F1050.
X-122.73 Y-12.179 I-1.748 J1.164 F900.
G01 X-122.652 Y-12.183
G03 X-121.383 Y-10.489 I-6.415 J6.127
X-120.196 Y-6.057 I-7.684 J4.432 F1200.
G01 Y-6.05
Y12.952
Y13.043
G03 X-120.404 Y14.929 I-8.647 J0.0
X-121.15 Y16.992 I-8.439 J-1.885 F1050.
X-122.391 Y18.801 I-7.693 J-3.949 F900.
G02 X-121.77 Y19.018 I.622 J-.783 F2000.
X-121.1 Y18.76 I0.0 J-1.
G03 X-119.721 Y18.23 I1.379 J1.53
G01 X-119.675 Y18.231
X-119.725 Y20.479
Z-2.4
G00 Z-2.2
G01 Z-2.6
Z-3.6 F800.
X-119.675 Y18.231
G03 X-118.332 Y18.768 I-.045 J2.06 F2000.
G02 X-117.659 Y19.029 I.674 J-.739
X-117.038 Y18.814 I0.0 J-1.
G03 X-117.951 Y17.585 I6.503 J-5.784 F1200.
X-118.854 Y15.585 I7.416 J-4.555 F1050.
X-119.226 Y13.479 I8.32 J-2.555 F900.
G01 X-119.188 Y13.439
G03 X-119.245 Y12.951 I2.043 J-.488
G01 Y11.243
Y-7.358 F1200.
G03 X-119.139 Y-8.726 I9.051 J.016
X-118.706 Y-10.419 I8.945 J1.384 F1050.
G01 X-118.68 Y-10.49
G03 X-118.548 Y-10.84 I7.853 J2.779
X-117.463 Y-12.747 I7.721 J3.128 F900.
G02 X-118.019 Y-12.915 I-.556 J.831 F2000.
X-118.749 Y-12.599 I0.0 J1.
G03 X-120.252 Y-11.948 I-1.503 J-1.409
X-121.329 Y-12.252 I0.0 J-2.06
G02 X-121.425 Y-12.309 I-1.569 J2.557
G03 X-121.551 Y-12.385 I1.012 J-1.795
G02 X-122.103 Y-12.552 I-.552 J.834
X-122.793 Y-12.275 I0.0 J1.
G03 X-122.761 Y-12.227 I-1.716 J1.211 F1050.
X-122.73 Y-12.179 I-1.748 J1.164 F900.
G01 X-122.652 Y-12.183
G03 X-121.383 Y-10.489 I-6.417 J6.127
X-120.196 Y-6.056 I-7.685 J4.433 F1200.
G01 Y-6.05
Y12.952
Y13.043
G03 X-120.404 Y14.929 I-8.648 J0.0
X-121.15 Y16.992 I-8.44 J-1.886 F1050.
X-122.392 Y18.801 I-7.694 J-3.95 F900.
G02 X-121.77 Y19.018 I.622 J-.783 F2000.
X-121.1 Y18.761 I0.0 J-1.
G03 X-119.721 Y18.23 I1.38 J1.53
G01 X-119.675 Y18.231
X-119.725 Y20.479
Z-2.6
G00 Z-2.4
G01 Z-2.8
Z-3.8 F800.
X-119.675 Y18.231
G03 X-118.333 Y18.768 I-.045 J2.06 F2000.
G02 X-117.659 Y19.029 I.674 J-.739
X-117.038 Y18.813 I0.0 J-1.
G03 X-117.951 Y17.585 I6.502 J-5.783 F1200.
X-118.855 Y15.585 I7.415 J-4.554 F1050.
X-119.227 Y13.479 I8.318 J-2.555 F900.
G01 X-119.188 Y13.439
G03 X-119.245 Y12.951 I2.043 J-.488
G01 Y11.243
Y-7.358 F1200.
G03 X-119.138 Y-8.726 I9.052 J.016
X-118.706 Y-10.419 I8.945 J1.384 F1050.
G01 X-118.68 Y-10.49
G03 X-118.548 Y-10.84 I7.853 J2.778
X-117.463 Y-12.747 I7.72 J3.128 F900.
G02 X-118.019 Y-12.916 I-.556 J.831 F2000.
X-118.748 Y-12.599 I0.0 J1.
G03 X-120.252 Y-11.948 I-1.503 J-1.409
X-121.328 Y-12.251 I0.0 J-2.06
G02 X-121.424 Y-12.308 I-1.567 J2.558
G03 X-121.551 Y-12.385 I1.01 J-1.795
G02 X-122.103 Y-12.551 I-.552 J.834
X-122.793 Y-12.275 I0.0 J1.
G03 X-122.761 Y-12.227 I-1.716 J1.211 F1050.
X-122.73 Y-12.179 I-1.748 J1.164 F900.
G01 X-122.651 Y-12.184
G03 X-121.383 Y-10.489 I-6.418 J6.127
X-120.196 Y-6.056 I-7.686 J4.433 F1200.
G01 Y-6.05
Y12.952
Y13.042
G03 X-120.404 Y14.93 I-8.65 J0.0
X-121.15 Y16.993 I-8.441 J-1.887 F1050.
X-122.392 Y18.802 I-7.695 J-3.951 F900.
G02 X-121.77 Y19.019 I.622 J-.783 F2000.
X-121.101 Y18.761 I0.0 J-1.
G03 X-119.721 Y18.23 I1.38 J1.529
G01 X-119.675 Y18.231
X-119.725 Y20.479
Z-2.8
G00 Z-2.6
G01 Z-3.
Z-4. F800.
X-119.675 Y18.231
G03 X-118.333 Y18.768 I-.045 J2.06 F2000.
G02 X-117.659 Y19.029 I.674 J-.739
X-117.039 Y18.813 I0.0 J-1.
G03 X-117.951 Y17.585 I6.501 J-5.782 F1200.
X-118.855 Y15.585 I7.414 J-4.554 F1050.
X-119.227 Y13.479 I8.317 J-2.554 F900.
G01 X-119.188 Y13.439
G03 X-119.245 Y12.951 I2.043 J-.488
G01 Y11.243
Y-7.358 F1200.
G03 X-119.138 Y-8.727 I9.052 J.016
X-118.706 Y-10.42 I8.946 J1.384 F1050.
G01 X-118.68 Y-10.49
G03 X-118.547 Y-10.841 I7.852 J2.778
X-117.463 Y-12.747 I7.719 J3.128 F900.
G02 X-118.019 Y-12.916 I-.556 J.831 F2000.
X-118.748 Y-12.6 I0.0 J1.
G03 X-120.252 Y-11.948 I-1.503 J-1.408
X-121.327 Y-12.251 I0.0 J-2.06
G02 X-121.423 Y-12.307 I-1.566 J2.559
G03 X-121.55 Y-12.385 I1.009 J-1.796
G02 X-122.102 Y-12.551 I-.552 J.834
X-122.793 Y-12.274 I0.0 J1.
G03 X-122.761 Y-12.227 I-1.716 J1.211 F1050.
X-122.73 Y-12.179 I-1.748 J1.163 F900.
G01 X-122.651 Y-12.184
G03 X-121.383 Y-10.489 I-6.419 J6.128
X-120.196 Y-6.056 I-7.687 J4.433 F1200.
G01 Y-6.05
Y12.952
Y13.042
G03 X-120.404 Y14.93 I-8.651 J0.0
X-121.151 Y16.993 I-8.442 J-1.888 F1050.
X-122.392 Y18.802 I-7.696 J-3.951 F900.
G02 X-121.771 Y19.019 I.622 J-.783 F2000.
X-121.101 Y18.761 I0.0 J-1.
G03 X-119.721 Y18.23 I1.38 J1.529
G01 X-119.675 Y18.231
X-119.725 Y20.479
Z-3.
G00 Z-2.8
G01 Z-3.2
Z-4.2 F800.
X-119.675 Y18.231
G03 X-118.333 Y18.768 I-.045 J2.06 F2000.
G02 X-117.659 Y19.029 I.674 J-.739
X-117.039 Y18.813 I0.0 J-1.
G03 X-117.951 Y17.585 I6.501 J-5.782 F1200.
X-118.855 Y15.585 I7.413 J-4.553 F1050.
X-119.227 Y13.479 I8.317 J-2.554 F900.
G01 X-119.188 Y13.439
G03 X-119.245 Y12.951 I2.043 J-.488
G01 Y11.243
Y-7.358 F1200.
G03 X-119.139 Y-8.721 I9.054 J.015
X-118.68 Y-10.49 I8.949 J1.378 F1050.
G01 X-118.543 Y-10.833
X-118.485 Y-10.978 F900.
G03 X-117.469 Y-12.745 I7.466 J3.12
G02 X-118.022 Y-12.912 I-.553 J.833 F2000.
X-118.751 Y-12.597 I0.0 J1.
G03 X-120.252 Y-11.948 I-1.501 J-1.411
X-121.326 Y-12.25 I0.0 J-2.06
G02 X-121.422 Y-12.307 I-1.564 J2.56
G03 X-121.55 Y-12.385 I1.008 J-1.797
G02 X-122.102 Y-12.551 I-.552 J.834
X-122.793 Y-12.274 I0.0 J1.
G03 X-122.761 Y-12.227 I-1.716 J1.21 F1050.
X-122.73 Y-12.179 I-1.748 J1.163 F900.
G01 X-122.651 Y-12.184
G03 X-121.383 Y-10.49 I-6.42 J6.128
X-120.196 Y-6.056 I-7.688 J4.434 F1200.
G01 Y-6.05
Y12.952
Y13.041
G03 X-120.404 Y14.931 I-8.652 J0.0
X-121.151 Y16.994 I-8.443 J-1.889 F1050.
X-122.393 Y18.803 I-7.696 J-3.952 F900.
G02 X-121.771 Y19.019 I.622 J-.783 F2000.
X-121.101 Y18.762 I0.0 J-1.
G03 X-119.721 Y18.231 I1.38 J1.529
G01 X-119.675
X-119.725 Y20.479
Z-3.2
G00 Z-3.
G01 Z-3.4
Z-4.4 F800.
X-119.675 Y18.231
G03 X-118.333 Y18.768 I-.045 J2.06 F2000.
G02 X-117.66 Y19.029 I.674 J-.739
X-117.039 Y18.813 I0.0 J-1.
G03 X-117.951 Y17.585 I6.5 J-5.781 F1200.
X-118.855 Y15.585 I7.412 J-4.553 F1050.
X-119.227 Y13.479 I8.316 J-2.553 F900.
G01 X-119.188 Y13.439
G03 X-119.245 Y12.951 I2.043 J-.488
G01 Y11.243
Y-7.358 F1200.
G03 X-119.139 Y-8.721 I9.053 J.015
X-118.68 Y-10.49 I8.948 J1.378 F1050.
G01 X-118.543 Y-10.833
X-118.485 Y-10.978 F900.
G03 X-117.469 Y-12.745 I7.465 J3.119
G02 X-118.022 Y-12.912 I-.553 J.833 F2000.
X-118.751 Y-12.597 I0.0 J1.
G03 X-120.252 Y-11.948 I-1.501 J-1.411
X-121.324 Y-12.25 I0.0 J-2.06
G02 X-121.42 Y-12.306 I-1.562 J2.561
G03 X-121.55 Y-12.385 I1.007 J-1.797
G02 X-122.102 Y-12.551 I-.552 J.834
X-122.793 Y-12.274 I0.0 J1.
G03 X-122.76 Y-12.227 I-1.716 J1.21 F1050.
X-122.73 Y-12.179 I-1.748 J1.163 F900.
G01 X-122.651 Y-12.184
G03 X-121.383 Y-10.49 I-6.421 J6.128
X-120.196 Y-6.056 I-7.689 J4.434 F1200.
G01 Y-6.05
Y12.952
Y13.041
G03 X-120.405 Y14.931 I-8.653 J0.0
X-121.152 Y16.994 I-8.444 J-1.89 F1050.
X-122.393 Y18.803 I-7.697 J-3.953 F900.
G02 X-121.772 Y19.02 I.622 J-.783 F2000.
X-121.101 Y18.762 I0.0 J-1.
G03 X-119.721 Y18.231 I1.381 J1.529
G01 X-119.675
X-119.725 Y20.479
Z-3.4
G00 Z-3.2
G01 Z-3.6
Z-4.6 F800.
X-119.675 Y18.231
G03 X-118.333 Y18.768 I-.045 J2.06 F2000.
G02 X-117.66 Y19.029 I.673 J-.739
X-117.039 Y18.813 I0.0 J-1.
G03 X-117.952 Y17.585 I6.499 J-5.781 F1200.
X-118.855 Y15.585 I7.412 J-4.553 F1050.
X-119.227 Y13.479 I8.315 J-2.553 F900.
G01 X-119.188 Y13.439
G03 X-119.245 Y12.951 I2.043 J-.488
G01 Y11.243
Y-7.358 F1200.
G03 X-119.139 Y-8.724 I9.052 J.015
X-118.68 Y-10.49 I8.946 J1.38 F1050.
G01 X-118.542 Y-10.835
X-118.485 Y-10.978 F900.
G03 X-117.467 Y-12.747 I7.482 J3.131
G02 X-118.021 Y-12.914 I-.554 J.833 F2000.
X-118.75 Y-12.599 I0.0 J1.
G03 X-120.252 Y-11.949 I-1.502 J-1.41
X-121.323 Y-12.249 I0.0 J-2.06
G02 X-121.419 Y-12.305 I-1.56 J2.562
G03 X-121.55 Y-12.385 I1.006 J-1.798
G02 X-122.101 Y-12.551 I-.552 J.834
X-122.792 Y-12.273 I0.0 J1.
G03 X-122.76 Y-12.227 I-1.717 J1.21 F1050.
X-122.73 Y-12.179 I-1.749 J1.163 F900.
G01 X-122.651 Y-12.184
G03 X-121.383 Y-10.49 I-6.422 J6.129
X-120.196 Y-6.055 I-7.69 J4.434 F1200.
G01 Y-6.05
Y12.952
Y13.04
G03 X-120.405 Y14.931 I-8.654 J0.0
X-121.152 Y16.994 I-8.445 J-1.891 F1050.
X-122.394 Y18.803 I-7.698 J-3.954 F900.
G02 X-121.772 Y19.02 I.622 J-.783 F2000.
X-121.102 Y18.762 I0.0 J-1.
G03 X-119.721 Y18.231 I1.381 J1.529
G01 X-119.675
X-119.725 Y20.479
Z-3.6
G00 Z-3.4
G01 Y20.48 Z-3.8
Z-4.8 F800.
X-119.675 Y18.231
G03 X-118.333 Y18.768 I-.045 J2.06 F2000.
G02 X-117.66 Y19.029 I.673 J-.739
X-117.039 Y18.813 I0.0 J-1.
G03 X-117.952 Y17.585 I6.498 J-5.78 F1200.
X-118.855 Y15.585 I7.411 J-4.552 F1050.
X-119.227 Y13.479 I8.314 J-2.553 F900.
G01 X-119.188 Y13.439
G03 X-119.245 Y12.951 I2.043 J-.488
G01 Y11.243
Y-7.358 F1200.
G03 X-119.139 Y-8.724 I9.051 J.015
X-118.68 Y-10.49 I8.945 J1.38 F1050.
G01 X-118.542 Y-10.836
X-118.485 Y-10.978 F900.
G03 X-117.467 Y-12.747 I7.48 J3.129
G02 X-118.021 Y-12.914 I-.554 J.833 F2000.
X-118.75 Y-12.599 I0.0 J1.
G03 X-120.252 Y-11.949 I-1.502 J-1.41
X-121.322 Y-12.249 I0.0 J-2.06
G02 X-121.418 Y-12.304 I-1.559 J2.563
G03 X-121.55 Y-12.385 I1.004 J-1.799
G02 X-122.101 Y-12.55 I-.551 J.834
X-122.792 Y-12.273 I0.0 J1.
G03 X-122.76 Y-12.227 I-1.717 J1.209 F1050.
X-122.73 Y-12.179 I-1.749 J1.163 F900.
G01 X-122.651 Y-12.184
G03 X-121.383 Y-10.49 I-6.423 J6.129
X-120.196 Y-6.055 I-7.691 J4.435 F1200.
G01 Y-6.05
Y12.952
Y13.04
G03 X-120.405 Y14.932 I-8.656 J0.0
X-121.152 Y16.995 I-8.446 J-1.892 F1050.
X-122.394 Y18.804 I-7.699 J-3.955 F900.
G02 X-121.772 Y19.02 I.622 J-.783 F2000.
X-121.102 Y18.762 I0.0 J-1.
G03 X-119.721 Y18.231 I1.381 J1.528
G01 X-119.675
X-119.725 Y20.48
Z-3.8
G00 Z-3.6
G01 Z-4.
Z-5. F800.
X-119.675 Y18.231
G03 X-118.333 Y18.768 I-.045 J2.06 F2000.
G02 X-117.66 Y19.028 I.673 J-.739
X-117.039 Y18.813 I0.0 J-1.
G03 X-117.952 Y17.585 I6.498 J-5.78 F1200.
X-118.855 Y15.585 I7.41 J-4.552 F1050.
X-119.227 Y13.479 I8.314 J-2.552 F900.
G01 X-119.188 Y13.439
G03 X-119.245 Y12.951 I2.043 J-.488
G01 Y11.243
Y-7.358 F1200.
G03 X-119.138 Y-8.724 I9.124 J.026
X-118.545 Y-10.837 I9.017 J1.391 F1050.
X-118.461 Y-11.033 I8.424 J3.504 F900.
X-117.468 Y-12.747 I7.411 J3.149
G02 X-118.021 Y-12.914 I-.553 J.833 F2000.
X-118.75 Y-12.599 I0.0 J1.
G03 X-120.252 Y-11.949 I-1.502 J-1.41
X-121.321 Y-12.248 I0.0 J-2.06
G02 X-121.417 Y-12.304 I-1.557 J2.564
G03 X-121.549 Y-12.385 I1.003 J-1.799
G02 X-122.101 Y-12.55 I-.551 J.834
X-122.792 Y-12.273 I0.0 J1.
G03 X-122.76 Y-12.226 I-1.717 J1.209 F1050.
X-122.73 Y-12.179 I-1.749 J1.163 F900.
G01 X-122.651 Y-12.184
G03 X-121.383 Y-10.49 I-6.424 J6.129
X-120.196 Y-6.055 I-7.692 J4.435 F1200.
G01 Y-6.05
Y12.952
Y13.039
G03 X-120.405 Y14.932 I-8.657 J0.0
X-121.153 Y16.995 I-8.447 J-1.893 F1050.
X-122.394 Y18.804 I-7.7 J-3.956 F900.
G02 X-121.773 Y19.021 I.622 J-.783 F2000.
X-121.102 Y18.763 I0.0 J-1.
G03 X-119.721 Y18.231 I1.381 J1.528
G01 X-119.675
X-119.725 Y20.48
Z-4.
G00 Z-3.8
G01 Z-4.2
Z-5.2 F800.
X-119.675 Y18.231
G03 X-118.334 Y18.768 I-.045 J2.06 F2000.
G02 X-117.66 Y19.028 I.673 J-.739
X-117.04 Y18.813 I0.0 J-1.
G03 X-117.952 Y17.585 I6.497 J-5.779 F1200.
X-118.855 Y15.585 I7.409 J-4.551 F1050.
X-119.227 Y13.479 I8.313 J-2.552 F900.
G01 X-119.188 Y13.439
G03 X-119.245 Y12.951 I2.043 J-.488
G01 Y11.243
Y-7.358 F1200.
G03 X-119.138 Y-8.724 I9.122 J.025
X-118.545 Y-10.837 I9.015 J1.391 F1050.
X-118.461 Y-11.033 I8.422 J3.504 F900.
X-117.467 Y-12.748 I7.41 J3.148
G02 X-118.021 Y-12.915 I-.553 J.833 F2000.
X-118.75 Y-12.599 I0.0 J1.
G03 X-120.252 Y-11.949 I-1.502 J-1.41
X-121.319 Y-12.247 I0.0 J-2.06
G02 X-121.415 Y-12.303 I-1.555 J2.565
G03 X-121.549 Y-12.384 I1.002 J-1.8
G02 X-122.1 Y-12.55 I-.551 J.834
X-122.792 Y-12.273 I0.0 J1.
G03 X-122.76 Y-12.226 I-1.717 J1.209 F1050.
X-122.73 Y-12.179 I-1.749 J1.163 F900.
G01 X-122.651 Y-12.184
G03 X-121.383 Y-10.49 I-6.426 J6.129
X-120.196 Y-6.055 I-7.693 J4.435 F1200.
G01 Y-6.05
Y12.952
Y13.039
G03 X-120.405 Y14.933 I-8.658 J0.0
X-121.153 Y16.996 I-8.448 J-1.894 F1050.
X-122.395 Y18.804 I-7.701 J-3.957 F900.
G02 X-121.773 Y19.021 I.622 J-.783 F2000.
X-121.102 Y18.763 I0.0 J-1.
G03 X-119.721 Y18.231 I1.382 J1.528
G01 X-119.675
X-119.725 Y20.48
Z-4.2
G00 Z-4.
G01 Z-4.4
Z-5.4 F800.
X-119.675 Y18.231
G03 X-118.333 Y18.768 I-.045 J2.06 F2000.
G02 X-117.66 Y19.029 I.673 J-.739
X-117.039 Y18.813 I0.0 J-1.
G03 X-117.952 Y17.584 I6.498 J-5.78 F1200.
X-118.855 Y15.585 I7.411 J-4.552 F1050.
X-119.227 Y13.479 I8.314 J-2.552 F900.
G01 X-119.188 Y13.439
G03 X-119.245 Y12.951 I2.043 J-.488
G01 Y11.243
Y-7.358 F1200.
G03 X-119.138 Y-8.724 I9.12 J.025
X-118.545 Y-10.837 I9.013 J1.391 F1050.
X-118.461 Y-11.033 I8.42 J3.504 F900.
X-117.467 Y-12.748 I7.408 J3.147
G02 X-118.021 Y-12.915 I-.553 J.833 F2000.
X-118.75 Y-12.599 I0.0 J1.
G03 X-120.252 Y-11.949 I-1.502 J-1.41
X-121.318 Y-12.247 I0.0 J-2.06
G02 X-121.414 Y-12.302 I-1.553 J2.567
G03 X-121.549 Y-12.384 I1.001 J-1.801
G02 X-122.1 Y-12.55 I-.551 J.834
X-122.792 Y-12.272 I0.0 J1.
G03 X-122.76 Y-12.226 I-1.717 J1.209 F1050.
X-122.73 Y-12.179 I-1.749 J1.162 F900.
G01 X-122.651 Y-12.184
G03 X-121.383 Y-10.49 I-6.427 J6.13
X-120.196 Y-6.055 I-7.694 J4.436 F1200.
G01 Y-6.05
Y12.952
Y13.038
G03 X-120.406 Y14.933 I-8.659 J0.0
X-121.153 Y16.996 I-8.449 J-1.895 F1050.
X-122.395 Y18.805 I-7.702 J-3.958 F900.
G02 X-121.773 Y19.022 I.622 J-.783 F2000.
X-121.103 Y18.763 I0.0 J-1.
G03 X-119.721 Y18.231 I1.382 J1.528
G01 X-119.675
X-119.725 Y20.48
Z-4.4
G00 Z-4.2
G01 Z-4.6
Z-5.6 F800.
X-119.675 Y18.231
G03 X-118.333 Y18.768 I-.045 J2.06 F2000.
G02 X-117.66 Y19.029 I.673 J-.739
X-117.039 Y18.813 I0.0 J-1.
G03 X-117.952 Y17.584 I6.497 J-5.78 F1200.
X-118.855 Y15.585 I7.41 J-4.552 F1050.
X-119.227 Y13.479 I8.313 J-2.552 F900.
G01 X-119.188 Y13.439
G03 X-119.245 Y12.951 I2.043 J-.488
G01 Y11.243
Y-7.358 F1200.
G03 X-119.138 Y-8.725 I9.117 J.024
X-118.545 Y-10.838 I9.011 J1.391 F1050.
X-118.461 Y-11.033 I8.417 J3.504 F900.
X-117.467 Y-12.748 I7.407 J3.147
G02 X-118.02 Y-12.915 I-.553 J.833 F2000.
X-118.75 Y-12.6 I0.0 J1.
G03 X-120.252 Y-11.949 I-1.502 J-1.41
X-121.317 Y-12.246 I0.0 J-2.06
G02 X-121.413 Y-12.302 I-1.551 J2.568
G03 X-121.549 Y-12.384 I.999 J-1.801
G02 X-122.1 Y-12.55 I-.551 J.834
X-122.791 Y-12.272 I0.0 J1.
G03 X-122.76 Y-12.226 I-1.718 J1.208 F1050.
X-122.73 Y-12.179 I-1.749 J1.162 F900.
G01 X-122.65 Y-12.185
G03 X-121.383 Y-10.491 I-6.428 J6.13
X-120.196 Y-6.055 I-7.695 J4.436 F1200.
G01 Y-6.05
Y12.952
Y13.038
G03 X-120.406 Y14.934 I-8.66 J0.0
X-121.154 Y16.997 I-8.45 J-1.896 F1050.
X-122.396 Y18.805 I-7.702 J-3.959 F900.
G02 X-121.774 Y19.022 I.622 J-.783 F2000.
X-121.103 Y18.763 I0.0 J-1.
G03 X-119.721 Y18.231 I1.382 J1.527
G01 X-119.675
X-119.725 Y20.48
Z-4.6
G00 Z-4.4
G01 Z-4.8
Z-5.8 F800.
X-119.675 Y18.231
G03 X-118.334 Y18.768 I-.045 J2.06 F2000.
G02 X-117.66 Y19.028 I.673 J-.739
X-117.04 Y18.813 I0.0 J-1.
G03 X-117.952 Y17.584 I6.496 J-5.779 F1200.
X-118.855 Y15.585 I7.409 J-4.551 F1050.
X-119.227 Y13.479 I8.312 J-2.551 F900.
G01 X-119.188 Y13.439
G03 X-119.245 Y12.951 I2.043 J-.488
G01 Y11.243
Y-7.358 F1200.
G03 X-119.138 Y-8.725 I9.115 J.024
X-118.545 Y-10.838 I9.008 J1.391 F1050.
X-118.461 Y-11.033 I8.415 J3.503 F900.
X-117.467 Y-12.749 I7.406 J3.146
G02 X-118.02 Y-12.916 I-.553 J.833 F2000.
X-118.75 Y-12.6 I0.0 J1.
G03 X-120.252 Y-11.95 I-1.502 J-1.41
X-121.316 Y-12.246 I0.0 J-2.06
G02 X-121.412 Y-12.301 I-1.55 J2.569
G03 X-121.549 Y-12.384 I.998 J-1.802
G02 X-122.1 Y-12.55 I-.551 J.835
X-122.791 Y-12.272 I0.0 J1.
G03 X-122.76 Y-12.226 I-1.718 J1.208 F1050.
X-122.73 Y-12.179 I-1.749 J1.162 F900.
G01 X-122.65 Y-12.185
G03 X-121.383 Y-10.491 I-6.429 J6.13
X-120.196 Y-6.054 I-7.696 J4.436 F1200.
G01 Y-6.05
Y12.952
Y13.037
G03 X-120.406 Y14.934 I-8.662 J0.0
X-121.154 Y16.997 I-8.451 J-1.897 F1050.
X-122.396 Y18.806 I-7.703 J-3.96 F900.
G02 X-121.774 Y19.022 I.622 J-.783 F2000.
X-121.103 Y18.764 I0.0 J-1.
G03 X-119.721 Y18.231 I1.383 J1.527
G01 X-119.675
X-119.725 Y20.48
Z-4.8
G00 Z-4.6
G01 Z-5.
Z-6. F800.
X-119.675 Y18.231
G03 X-118.334 Y18.768 I-.045 J2.06 F2000.
G02 X-117.66 Y19.028 I.673 J-.739
X-117.04 Y18.812 I0.0 J-1.
G03 X-117.952 Y17.584 I6.495 J-5.778 F1200.
X-118.855 Y15.585 I7.408 J-4.55 F1050.
X-119.227 Y13.479 I8.311 J-2.551 F900.
G01 X-119.188 Y13.439
G03 X-119.245 Y12.951 I2.043 J-.488
G01 Y11.243
Y-7.358 F1200.
G03 X-119.138 Y-8.726 I9.111 J.023
X-118.545 Y-10.838 I9.004 J1.39 F1050.
X-118.461 Y-11.033 I8.411 J3.503 F900.
X-117.467 Y-12.749 I7.405 J3.145
G02 X-118.02 Y-12.916 I-.554 J.833 F2000.
X-118.749 Y-12.6 I0.0 J1.
G03 X-120.252 Y-11.95 I-1.502 J-1.409
X-121.315 Y-12.245 I0.0 J-2.06
G02 X-121.411 Y-12.3 I-1.548 J2.57
G03 X-121.548 Y-12.384 I.997 J-1.803
G02 X-122.099 Y-12.549 I-.551 J.835
X-122.791 Y-12.272 I0.0 J1.
G03 X-122.76 Y-12.226 I-1.718 J1.208 F1050.
X-122.73 Y-12.179 I-1.749 J1.162 F900.
G01 X-122.65 Y-12.185
G03 X-121.383 Y-10.491 I-6.43 J6.13
X-120.196 Y-6.054 I-7.697 J4.437 F1200.
G01 Y-6.05
Y12.952
Y13.036
G03 X-120.406 Y14.935 I-8.663 J0.0
X-121.154 Y16.997 I-8.452 J-1.898 F1050.
X-122.396 Y18.806 I-7.704 J-3.961 F900.
G02 X-121.775 Y19.023 I.622 J-.783 F2000.
X-121.103 Y18.764 I0.0 J-1.
G03 X-119.721 Y18.231 I1.383 J1.527
G01 X-119.675
X-119.725 Y20.48
Z-5.
G00 Z-4.8
G01 Z-5.2
Z-6.2 F800.
X-119.675 Y18.231
G03 X-118.334 Y18.768 I-.045 J2.06 F2000.
G02 X-117.661 Y19.028 I.673 J-.739
X-117.04 Y18.812 I0.0 J-1.
G03 X-117.952 Y17.584 I6.494 J-5.778 F1200.
X-118.856 Y15.585 I7.407 J-4.55 F1050.
X-119.227 Y13.479 I8.31 J-2.55 F900.
G01 X-119.188 Y13.439
G03 X-119.245 Y12.951 I2.043 J-.488
G01 Y11.243
Y-7.358 F1200.
G03 X-119.138 Y-8.726 I9.106 J.022
X-118.545 Y-10.839 I8.999 J1.389 F1050.
X-118.461 Y-11.033 I8.406 J3.502 F900.
X-117.466 Y-12.749 I7.404 J3.145
G02 X-118.02 Y-12.916 I-.554 J.833 F2000.
X-118.749 Y-12.601 I0.0 J1.
G03 X-120.252 Y-11.95 I-1.502 J-1.409
X-121.313 Y-12.244 I0.0 J-2.06
G02 X-121.409 Y-12.3 I-1.546 J2.571
G03 X-121.548 Y-12.384 I.996 J-1.803
G02 X-122.099 Y-12.549 I-.551 J.835
X-122.791 Y-12.271 I0.0 J1.
G03 X-122.76 Y-12.226 I-1.718 J1.208 F1050.
X-122.73 Y-12.179 I-1.749 J1.162 F900.
G01 X-122.65 Y-12.185
G03 X-121.383 Y-10.491 I-6.431 J6.131
X-120.196 Y-6.054 I-7.698 J4.437 F1200.
G01 Y-6.05
Y12.952
Y13.036
G03 X-120.406 Y14.935 I-8.664 J0.0
X-121.155 Y16.998 I-8.453 J-1.899 F1050.
X-122.397 Y18.806 I-7.705 J-3.962 F900.
G02 X-121.775 Y19.023 I.622 J-.783 F2000.
X-121.104 Y18.764 I0.0 J-1.
G03 X-119.721 Y18.231 I1.383 J1.527
G01 X-119.675
X-119.725 Y20.48
Z-5.2
G00 Z-5.
G01 Z-5.4
Z-6.4 F800.
X-119.675 Y18.231
G03 X-118.334 Y18.767 I-.045 J2.06 F2000.
G02 X-117.661 Y19.028 I.673 J-.74
X-117.04 Y18.812 I0.0 J-1.
G03 X-117.952 Y17.584 I6.494 J-5.777 F1200.
X-118.856 Y15.585 I7.406 J-4.549 F1050.
X-119.227 Y13.479 I8.309 J-2.55 F900.
G01 X-119.188 Y13.439
G03 X-119.245 Y12.951 I2.043 J-.488
G01 Y11.243
Y-7.358 F1200.
G03 X-119.138 Y-8.726 I9.101 J.021
X-118.544 Y-10.839 I8.995 J1.389 F1050.
X-118.461 Y-11.033 I8.401 J3.501 F900.
X-117.466 Y-12.749 I7.403 J3.144
G02 X-118.02 Y-12.917 I-.554 J.833 F2000.
X-118.749 Y-12.601 I0.0 J1.
G03 X-120.252 Y-11.95 I-1.503 J-1.409
X-121.312 Y-12.244 I0.0 J-2.06
G02 X-121.408 Y-12.299 I-1.544 J2.572
G03 X-121.548 Y-12.384 I.995 J-1.804
G02 X-122.099 Y-12.549 I-.551 J.835
X-122.791 Y-12.271 I0.0 J1.
G03 X-122.76 Y-12.225 I-1.718 J1.207 F1050.
X-122.73 Y-12.179 I-1.749 J1.162 F900.
G01 X-122.65 Y-12.185
G03 X-121.383 Y-10.491 I-6.432 J6.131
X-120.196 Y-6.054 I-7.699 J4.437 F1200.
G01 Y-6.05
Y12.952
Y13.035
G03 X-120.407 Y14.936 I-8.665 J0.0
X-121.155 Y16.998 I-8.454 J-1.9 F1050.
X-122.397 Y18.807 I-7.706 J-3.963 F900.
G02 X-121.775 Y19.024 I.622 J-.783 F2000.
X-121.104 Y18.765 I0.0 J-1.
G03 X-119.721 Y18.231 I1.383 J1.526
G01 X-119.675
X-119.725 Y20.48
Z-5.4
G00 Z-5.2
G01 Z-5.6
Z-6.6 F800.
X-119.675 Y18.232
G03 X-118.334 Y18.767 I-.045 J2.06 F2000.
G02 X-117.661 Y19.028 I.673 J-.74
X-117.041 Y18.812 I0.0 J-1.
G03 X-117.952 Y17.584 I6.493 J-5.776 F1200.
X-118.856 Y15.585 I7.405 J-4.549 F1050.
X-119.227 Y13.479 I8.308 J-2.549 F900.
G01 X-119.188 Y13.439
G03 X-119.245 Y12.951 I2.043 J-.488
G01 Y11.243
Y-7.358 F1200.
G03 X-119.138 Y-8.727 I9.096 J.02
X-118.544 Y-10.84 I8.99 J1.388 F1050.
X-118.461 Y-11.033 I8.396 J3.501 F900.
X-117.466 Y-12.75 I7.402 J3.143
G02 X-118.02 Y-12.917 I-.554 J.833 F2000.
X-118.749 Y-12.601 I0.0 J1.
G03 X-120.252 Y-11.95 I-1.503 J-1.409
X-121.311 Y-12.243 I0.0 J-2.06
G02 X-121.407 Y-12.298 I-1.542 J2.573
G03 X-121.548 Y-12.384 I.993 J-1.805
G02 X-122.098 Y-12.549 I-.551 J.835
X-122.79 Y-12.271 I0.0 J1.
G03 X-122.759 Y-12.225 I-1.718 J1.207 F1050.
X-122.73 Y-12.179 I-1.749 J1.162 F900.
G01 X-122.65 Y-12.185
G03 X-121.383 Y-10.491 I-6.433 J6.131
X-120.196 Y-6.054 I-7.7 J4.438 F1200.
G01 Y-6.05
Y12.952
Y13.035
G03 X-120.407 Y14.936 I-8.666 J0.0
X-121.155 Y16.999 I-8.455 J-1.901 F1050.
X-122.398 Y18.807 I-7.707 J-3.964 F900.
G02 X-121.776 Y19.024 I.622 J-.783 F2000.
X-121.104 Y18.765 I0.0 J-1.
G03 X-119.721 Y18.231 I1.384 J1.526
G01 X-119.675 Y18.232
X-119.725 Y20.48
Z-5.6
G00 Z-5.4
G01 Z-5.8
Z-6.8 F800.
X-119.675 Y18.232
G03 X-118.334 Y18.767 I-.045 J2.06 F2000.
G02 X-117.661 Y19.028 I.673 J-.74
X-117.041 Y18.812 I0.0 J-1.
G03 X-117.953 Y17.584 I6.492 J-5.776 F1200.
X-118.856 Y15.585 I7.404 J-4.548 F1050.
X-119.227 Y13.479 I8.307 J-2.549 F900.
G01 X-119.188 Y13.439
G03 X-119.245 Y12.951 I2.043 J-.488
G01 Y11.243
Y-7.358 F1200.
G03 X-119.138 Y-8.727 I9.092 J.019
X-118.544 Y-10.84 I8.985 J1.387 F1050.
X-118.461 Y-11.033 I8.391 J3.5 F900.
X-117.466 Y-12.75 I7.401 J3.142
G02 X-118.02 Y-12.917 I-.554 J.833 F2000.
X-118.749 Y-12.601 I0.0 J1.
G03 X-120.252 Y-11.95 I-1.503 J-1.409
X-121.31 Y-12.243 I0.0 J-2.06
G02 X-121.406 Y-12.298 I-1.541 J2.574
G03 X-121.548 Y-12.383 I.992 J-1.805
G02 X-122.098 Y-12.549 I-.551 J.835
X-122.79 Y-12.27 I0.0 J1.
G03 X-122.759 Y-12.225 I-1.719 J1.207 F1050.
X-122.73 Y-12.179 I-1.75 J1.161 F900.
G01 X-122.65 Y-12.185
G03 X-121.383 Y-10.491 I-6.434 J6.132
X-120.196 Y-6.054 I-7.701 J4.438 F1200.
G01 Y-6.05
Y12.952
Y13.034
G03 X-120.407 Y14.937 I-8.668 J0.0
X-121.156 Y16.999 I-8.456 J-1.902 F1050.
X-122.398 Y18.807 I-7.708 J-3.965 F900.
G02 X-121.776 Y19.024 I.622 J-.783 F2000.
X-121.104 Y18.765 I0.0 J-1.
G03 X-119.721 Y18.231 I1.384 J1.526
G01 X-119.675 Y18.232
X-119.725 Y20.48
Z-5.8
G00 Z-5.6
G01 Z-6.
Z-7. F800.
X-119.675 Y18.232
G03 X-118.335 Y18.767 I-.045 J2.06 F2000.
G02 X-117.662 Y19.027 I.673 J-.74
X-117.041 Y18.812 I0.0 J-1.
G03 X-117.953 Y17.585 I6.491 J-5.775 F1200.
X-118.856 Y15.585 I7.403 J-4.548 F1050.
X-119.227 Y13.479 I8.306 J-2.548 F900.
G01 X-119.188 Y13.439
G03 X-119.245 Y12.951 I2.043 J-.488
G01 Y11.243
Y-7.38 F1200.
G03 X-119.139 Y-8.746 I8.85 J0.0
X-118.534 Y-10.855 I8.744 J1.366 F1050.
X-118.333 Y-11.293 I8.139 J3.475 F900.
G01 X-118.248 Y-11.466
G03 X-117.458 Y-12.768 I6.726 J3.19
G02 X-118.006 Y-12.932 I-.548 J.836 F2000.
X-118.74 Y-12.611 I0.0 J1.
G03 X-120.252 Y-11.95 I-1.512 J-1.399
X-121.309 Y-12.242 I0.0 J-2.06
G02 X-121.404 Y-12.297 I-1.539 J2.575
G03 X-121.547 Y-12.383 I.991 J-1.806
G02 X-122.098 Y-12.548 I-.55 J.835
X-122.79 Y-12.27 I0.0 J1.
G03 X-122.759 Y-12.225 I-1.719 J1.206 F1050.
X-122.73 Y-12.179 I-1.75 J1.161 F900.
G01 X-122.65 Y-12.185
G03 X-121.383 Y-10.492 I-6.436 J6.132
X-120.196 Y-6.053 I-7.702 J4.438 F1200.
G01 Y-6.05
Y12.952
Y13.034
G03 X-120.407 Y14.937 I-8.669 J0.0
X-121.156 Y16.999 I-8.457 J-1.903 F1050.
X-122.398 Y18.808 I-7.709 J-3.966 F900.
G02 X-121.776 Y19.025 I.622 J-.783 F2000.
X-121.105 Y18.765 I0.0 J-1.
G03 X-119.721 Y18.231 I1.384 J1.526
G01 X-119.675 Y18.232
X-119.725 Y20.48
Z-6.
G00 Z-5.8
G01 Z-6.2
Z-7.2 F800.
X-119.675 Y18.232
G03 X-118.335 Y18.767 I-.045 J2.06 F2000.
G02 X-117.662 Y19.027 I.673 J-.74
X-117.041 Y18.811 I0.0 J-1.
G03 X-117.953 Y17.585 I6.49 J-5.774 F1200.
X-118.856 Y15.585 I7.402 J-4.547 F1050.
X-119.227 Y13.479 I8.305 J-2.548 F900.
G01 X-119.188 Y13.439
G03 X-119.245 Y12.951 I2.043 J-.488
G01 Y11.243
Y-7.38 F1200.
G03 X-119.139 Y-8.746 I8.85 J0.0
X-118.534 Y-10.856 I8.744 J1.366 F1050.
X-118.333 Y-11.293 I8.139 J3.476 F900.
G01 X-118.248 Y-11.466
G03 X-117.458 Y-12.768 I6.725 J3.189
G02 X-118.006 Y-12.932 I-.548 J.836 F2000.
X-118.74 Y-12.611 I0.0 J1.
G03 X-120.252 Y-11.951 I-1.512 J-1.399
X-121.307 Y-12.242 I0.0 J-2.06
G02 X-121.403 Y-12.296 I-1.537 J2.576
G03 X-121.547 Y-12.383 I.99 J-1.807
G02 X-122.098 Y-12.548 I-.55 J.835
X-122.79 Y-12.27 I0.0 J1.
G03 X-122.759 Y-12.225 I-1.719 J1.206 F1050.
X-122.73 Y-12.179 I-1.75 J1.161 F900.
G01 X-122.649 Y-12.185
G03 X-121.383 Y-10.492 I-6.437 J6.132
X-120.196 Y-6.053 I-7.703 J4.438 F1200.
G01 Y-6.05
Y12.952
Y13.033
G03 X-120.407 Y14.937 I-8.67 J0.0
X-121.156 Y17. I-8.458 J-1.904 F1050.
X-122.399 Y18.808 I-7.709 J-3.966 F900.
G02 X-121.777 Y19.025 I.622 J-.783 F2000.
X-121.105 Y18.766 I0.0 J-1.
G03 X-119.721 Y18.231 I1.384 J1.526
G01 X-119.675 Y18.232
X-119.725 Y20.48
Z-6.2
G00 Z-6.
G01 Z-6.4
Z-7.4 F800.
X-119.675 Y18.232
G03 X-118.335 Y18.767 I-.045 J2.06 F2000.
G02 X-117.662 Y19.027 I.673 J-.74
X-117.041 Y18.811 I0.0 J-1.
G03 X-117.953 Y17.585 I6.489 J-5.774 F1200.
X-118.856 Y15.585 I7.401 J-4.547 F1050.
X-119.227 Y13.479 I8.304 J-2.547 F900.
G01 X-119.188 Y13.439
G03 X-119.245 Y12.951 I2.043 J-.488
G01 Y11.243
Y-7.38 F1200.
G03 X-119.139 Y-8.747 I8.85 J0.0
X-118.534 Y-10.856 I8.744 J1.367 F1050.
X-118.333 Y-11.293 I8.139 J3.476 F900.
G01 X-118.248 Y-11.466
G03 X-117.458 Y-12.769 I6.724 J3.188
G02 X-118.006 Y-12.932 I-.549 J.836 F2000.
X-118.74 Y-12.612 I0.0 J1.
G03 X-120.252 Y-11.951 I-1.512 J-1.399
X-121.306 Y-12.241 I0.0 J-2.06
G02 X-121.402 Y-12.296 I-1.535 J2.577
G03 X-121.547 Y-12.383 I.988 J-1.807
G02 X-122.097 Y-12.548 I-.55 J.835
X-122.79 Y-12.269 I0.0 J1.
G03 X-122.759 Y-12.225 I-1.719 J1.206 F1050.
X-122.73 Y-12.179 I-1.75 J1.161 F900.
G01 X-122.649 Y-12.186
G03 X-121.383 Y-10.492 I-6.436 J6.132
X-120.196 Y-6.054 I-7.702 J4.438 F1200.
G01 Y-6.05
Y12.952
Y13.033
G03 X-120.408 Y14.938 I-8.671 J0.0
X-121.157 Y17. I-8.459 J-1.905 F1050.
X-122.399 Y18.808 I-7.71 J-3.967 F900.
G02 X-121.777 Y19.025 I.622 J-.783 F2000.
X-121.105 Y18.766 I0.0 J-1.
G03 X-119.721 Y18.231 I1.385 J1.525
G01 X-119.675 Y18.232
X-119.725 Y20.48
Z-6.4
G00 Z-6.2
G01 Y20.481 Z-6.6
Z-7.6 F800.
X-119.675 Y18.232
G03 X-118.335 Y18.767 I-.045 J2.06 F2000.
G02 X-117.662 Y19.027 I.673 J-.74
X-117.042 Y18.811 I0.0 J-1.
G03 X-117.953 Y17.585 I6.489 J-5.773 F1200.
X-118.856 Y15.585 I7.4 J-4.547 F1050.
X-119.227 Y13.479 I8.303 J-2.547 F900.
G01 X-119.188 Y13.439
G03 X-119.245 Y12.951 I2.043 J-.488
G01 Y11.243
Y-7.38 F1200.
G03 X-119.139 Y-8.747 I8.851 J0.0
X-118.534 Y-10.856 I8.744 J1.367 F1050.
X-118.333 Y-11.293 I8.139 J3.476 F900.
G01 X-118.248 Y-11.466
G03 X-117.457 Y-12.769 I6.723 J3.187
G02 X-118.006 Y-12.933 I-.549 J.836 F2000.
X-118.74 Y-12.612 I0.0 J1.
G03 X-120.252 Y-11.951 I-1.512 J-1.399
X-121.305 Y-12.24 I0.0 J-2.06
G02 X-121.401 Y-12.295 I-1.533 J2.578
G03 X-121.547 Y-12.383 I.987 J-1.808
G02 X-122.097 Y-12.548 I-.55 J.835
X-122.789 Y-12.269 I0.0 J1.
G03 X-122.759 Y-12.224 I-1.72 J1.205 F1050.
X-122.73 Y-12.179 I-1.75 J1.161 F900.
G01 X-122.649 Y-12.186
G03 X-121.383 Y-10.492 I-6.436 J6.132
X-120.196 Y-6.054 I-7.702 J4.438 F1200.
G01 Y-6.05
Y12.952
Y13.032
G03 X-120.408 Y14.938 I-8.672 J0.0
X-121.157 Y17.001 I-8.46 J-1.906 F1050.
X-122.4 Y18.809 I-7.711 J-3.968 F900.
G02 X-121.778 Y19.026 I.622 J-.783 F2000.
X-121.105 Y18.766 I0.0 J-1.
G03 X-119.721 Y18.231 I1.385 J1.525
G01 X-119.675 Y18.232
X-119.725 Y20.481
Z-6.6
G00 Z-6.4
G01 Z-6.8
Z-7.8 F800.
X-119.675 Y18.232
G03 X-118.335 Y18.767 I-.045 J2.06 F2000.
G02 X-117.662 Y19.027 I.673 J-.74
X-117.042 Y18.811 I0.0 J-1.
G03 X-117.953 Y17.584 I6.488 J-5.773 F1200.
X-118.856 Y15.585 I7.399 J-4.546 F1050.
X-119.227 Y13.479 I8.303 J-2.547 F900.
G01 X-119.188 Y13.439
G03 X-119.245 Y12.951 I2.043 J-.488
G01 Y11.243
Y-7.38 F1200.
G03 X-119.139 Y-8.747 I8.851 J0.0
X-118.533 Y-10.857 I8.745 J1.367 F1050.
X-118.333 Y-11.293 I8.14 J3.477 F900.
G01 X-118.248 Y-11.466
G03 X-117.457 Y-12.769 I6.721 J3.186
G02 X-118.006 Y-12.933 I-.549 J.836 F2000.
X-118.74 Y-12.612 I0.0 J1.
G03 X-120.252 Y-11.951 I-1.512 J-1.399
X-121.304 Y-12.24 I0.0 J-2.06
G02 X-121.4 Y-12.294 I-1.532 J2.58
G03 X-121.547 Y-12.383 I.986 J-1.809
G02 X-122.096 Y-12.547 I-.55 J.835
X-122.789 Y-12.269 I0.0 J1.
G03 X-122.759 Y-12.224 I-1.72 J1.205 F1050.
X-122.73 Y-12.179 I-1.75 J1.161 F900.
G01 X-122.649 Y-12.186
G03 X-121.383 Y-10.492 I-6.437 J6.132
X-120.196 Y-6.054 I-7.703 J4.438 F1200.
G01 Y-6.05
Y12.952
Y13.032
G03 X-120.408 Y14.939 I-8.674 J0.0
X-121.157 Y17.001 I-8.461 J-1.907 F1050.
X-122.4 Y18.809 I-7.712 J-3.969 F900.
G02 X-121.778 Y19.026 I.622 J-.783 F2000.
X-121.106 Y18.766 I0.0 J-1.
G03 X-119.721 Y18.231 I1.385 J1.525
G01 X-119.675 Y18.232
X-119.725 Y20.481
Z-6.8
G00 Z-6.6
G01 Z-7.
Z-8. F800.
X-119.675 Y18.232
G03 X-118.335 Y18.767 I-.045 J2.06 F2000.
G02 X-117.663 Y19.027 I.673 J-.74
X-117.042 Y18.811 I0.0 J-1.
G03 X-117.953 Y17.584 I6.487 J-5.772 F1200.
X-118.856 Y15.585 I7.399 J-4.546 F1050.
X-119.227 Y13.479 I8.302 J-2.546 F900.
G01 X-119.188 Y13.439
G03 X-119.245 Y12.951 I2.043 J-.488
G01 Y11.243
Y-7.38 F1200.
G03 X-119.139 Y-8.748 I8.851 J0.0
X-118.533 Y-10.857 I8.745 J1.368 F1050.
X-118.333 Y-11.293 I8.14 J3.477 F900.
G01 X-118.248 Y-11.466
G03 X-117.457 Y-12.769 I6.72 J3.186
G02 X-118.006 Y-12.933 I-.549 J.836 F2000.
X-118.74 Y-12.612 I0.0 J1.
G03 X-120.252 Y-11.951 I-1.512 J-1.399
X-121.302 Y-12.239 I0.0 J-2.06
G02 X-121.398 Y-12.294 I-1.53 J2.581
G03 X-121.546 Y-12.383 I.985 J-1.809
G02 X-122.096 Y-12.547 I-.55 J.835
X-122.789 Y-12.268 I0.0 J1.
G03 X-122.759 Y-12.224 I-1.72 J1.205 F1050.
X-122.73 Y-12.179 I-1.75 J1.16 F900.
G01 X-122.649 Y-12.186
G03 X-121.383 Y-10.493 I-6.437 J6.132
X-120.196 Y-6.054 I-7.703 J4.438 F1200.
G01 Y-6.05
Y12.952
Y13.031
G03 X-120.408 Y14.939 I-8.675 J0.0
X-121.158 Y17.001 I-8.462 J-1.908 F1050.
X-122.4 Y18.81 I-7.713 J-3.97 F900.
G02 X-121.778 Y19.027 I.622 J-.783 F2000.
X-121.106 Y18.767 I0.0 J-1.
G03 X-119.721 Y18.231 I1.385 J1.525
G01 X-119.675 Y18.232
X-119.725 Y20.481
Z-7.
G00 Z-6.8
G01 Z-7.2
Z-8.2 F800.
X-119.675 Y18.232
G03 X-118.335 Y18.767 I-.045 J2.06 F2000.
G02 X-117.663 Y19.027 I.673 J-.74
X-117.042 Y18.811 I0.0 J-1.
G03 X-117.953 Y17.584 I6.487 J-5.772 F1200.
X-118.857 Y15.585 I7.398 J-4.545 F1050.
X-119.227 Y13.479 I8.301 J-2.546 F900.
G01 X-119.188 Y13.439
G03 X-119.245 Y12.951 I2.043 J-.488
G01 Y11.243
Y-7.38 F1200.
G03 X-119.139 Y-8.748 I8.852 J0.0
X-118.533 Y-10.857 I8.745 J1.368 F1050.
X-118.333 Y-11.293 I8.14 J3.478 F900.
G01 X-118.248 Y-11.466
G03 X-117.457 Y-12.77 I6.719 J3.185
G02 X-118.005 Y-12.934 I-.549 J.836 F2000.
X-118.74 Y-12.613 I0.0 J1.
G03 X-120.252 Y-11.951 I-1.512 J-1.399
X-121.301 Y-12.239 I0.0 J-2.06
G02 X-121.397 Y-12.293 I-1.528 J2.582
G03 X-121.546 Y-12.382 I.983 J-1.81
G02 X-122.096 Y-12.547 I-.55 J.835
X-122.789 Y-12.268 I0.0 J1.
G03 X-122.759 Y-12.224 I-1.72 J1.204 F1050.
X-122.73 Y-12.179 I-1.75 J1.16 F900.
G01 X-122.649 Y-12.186
G03 X-121.383 Y-10.493 I-6.438 J6.132
X-120.196 Y-6.054 I-7.703 J4.438 F1200.
G01 Y-6.05
Y12.952
Y13.031
G03 X-120.408 Y14.94 I-8.676 J0.0
X-121.158 Y17.002 I-8.463 J-1.909 F1050.
X-122.401 Y18.81 I-7.714 J-3.971 F900.
G02 X-121.779 Y19.027 I.622 J-.783 F2000.
X-121.106 Y18.767 I0.0 J-1.
G03 X-119.721 Y18.231 I1.386 J1.524
G01 X-119.675 Y18.232
X-119.725 Y20.481
Z-7.2
G00 Z-7.
G01 Z-7.4
Z-8.4 F800.
X-119.675 Y18.232
G03 X-118.335 Y18.767 I-.045 J2.06 F2000.
G02 X-117.663 Y19.027 I.672 J-.74
X-117.042 Y18.811 I0.0 J-1.
G03 X-117.953 Y17.584 I6.486 J-5.772 F1200.
X-118.857 Y15.585 I7.398 J-4.545 F1050.
X-119.227 Y13.479 I8.301 J-2.546 F900.
G01 X-119.188 Y13.439
G03 X-119.245 Y12.951 I2.043 J-.488
G01 Y11.243
Y-7.38 F1200.
G03 X-119.138 Y-8.749 I8.852 J0.0
X-118.533 Y-10.858 I8.746 J1.369 F1050.
X-118.333 Y-11.293 I8.14 J3.478 F900.
G01 X-118.248 Y-11.466
G03 X-117.457 Y-12.77 I6.718 J3.184
G02 X-118.005 Y-12.934 I-.549 J.836 F2000.
X-118.739 Y-12.613 I0.0 J1.
G03 X-120.252 Y-11.952 I-1.512 J-1.399
X-121.3 Y-12.238 I0.0 J-2.06
G02 X-121.396 Y-12.292 I-1.526 J2.583
G03 X-121.546 Y-12.382 I.982 J-1.811
G02 X-122.095 Y-12.547 I-.55 J.835
X-122.788 Y-12.268 I0.0 J1.
G01 X-122.769 Y-12.239 F1050.
X-122.75 Y-12.21 F900.
X-122.713 Y-12.219 F1200.
G03 X-122.649 Y-12.186 I0.0 J.079
X-121.343 Y-10.422 I-6.438 J6.132 F900.
X-120.196 Y-6.054 I-7.744 J4.368 F1200.
G01 Y-6.05
Y12.952
Y13.03
G03 X-120.409 Y14.94 I-8.677 J0.0
X-121.158 Y17.002 I-8.464 J-1.91 F1050.
X-122.401 Y18.81 I-7.715 J-3.972 F900.
G02 X-121.779 Y19.027 I.622 J-.783 F2000.
X-121.106 Y18.767 I0.0 J-1.
G03 X-119.721 Y18.231 I1.386 J1.524
G01 X-119.675 Y18.232
X-119.725 Y20.481
Z-7.4
G00 Z-7.2
G01 Z-7.6
Z-8.6 F800.
X-119.675 Y18.232
G03 X-118.335 Y18.767 I-.045 J2.06 F2000.
G02 X-117.663 Y19.027 I.672 J-.74
X-117.042 Y18.811 I0.0 J-1.
G03 X-117.953 Y17.584 I6.486 J-5.771 F1200.
X-118.857 Y15.585 I7.397 J-4.545 F1050.
X-119.227 Y13.479 I8.3 J-2.545 F900.
G01 X-119.188 Y13.439
G03 X-119.245 Y12.951 I2.043 J-.488
G01 Y11.243
Y-7.38 F1200.
G03 X-119.138 Y-8.749 I8.853 J0.0
X-118.533 Y-10.858 I8.746 J1.369 F1050.
X-118.333 Y-11.293 I8.141 J3.478 F900.
G01 X-118.248 Y-11.466
G03 X-117.456 Y-12.77 I6.717 J3.183
G02 X-118.005 Y-12.934 I-.549 J.836 F2000.
X-118.739 Y-12.613 I0.0 J1.
G03 X-120.252 Y-11.952 I-1.513 J-1.398
X-121.299 Y-12.238 I0.0 J-2.06
G02 X-121.395 Y-12.292 I-1.524 J2.584
G03 X-121.546 Y-12.382 I.981 J-1.811
G02 X-122.095 Y-12.547 I-.55 J.835
X-122.788 Y-12.267 I0.0 J1.
G01 X-122.769 Y-12.239 F1050.
X-122.75 Y-12.21 F900.
X-122.712 Y-12.221 F1200.
G03 X-122.649 Y-12.186 I0.0 J.075
X-121.343 Y-10.422 I-6.439 J6.132 F900.
X-120.196 Y-6.054 I-7.744 J4.368 F1200.
G01 Y-6.05
Y12.952
Y13.03
G03 X-120.409 Y14.941 I-8.678 J0.0
X-121.159 Y17.003 I-8.465 J-1.911 F1050.
X-122.402 Y18.811 I-7.716 J-3.973 F900.
G02 X-121.78 Y19.028 I.622 J-.783 F2000.
X-121.107 Y18.768 I0.0 J-1.
G03 X-119.721 Y18.231 I1.386 J1.524
G01 X-119.675 Y18.232
X-119.725 Y20.481
Z-7.6
G00 Z-7.4
G01 Z-7.8
Z-8.8 F800.
X-119.675 Y18.232
G03 X-118.335 Y18.767 I-.045 J2.06 F2000.
G02 X-117.663 Y19.026 I.672 J-.74
X-117.042 Y18.811 I0.0 J-1.
G03 X-117.954 Y17.584 I6.485 J-5.771 F1200.
X-118.857 Y15.585 I7.396 J-4.544 F1050.
X-119.227 Y13.479 I8.299 J-2.545 F900.
G01 X-119.188 Y13.439
G03 X-119.245 Y12.951 I2.043 J-.488
G01 Y11.243
Y-7.38 F1200.
G03 X-119.138 Y-8.749 I8.853 J0.0
X-118.533 Y-10.858 I8.746 J1.37 F1050.
X-118.333 Y-11.293 I8.141 J3.479 F900.
G01 X-118.248 Y-11.466
G03 X-117.456 Y-12.771 I6.715 J3.182
G02 X-118.005 Y-12.935 I-.549 J.836 F2000.
X-118.739 Y-12.614 I0.0 J1.
G03 X-120.252 Y-11.952 I-1.513 J-1.398
X-121.297 Y-12.237 I0.0 J-2.06
G02 X-121.393 Y-12.291 I-1.523 J2.585
G03 X-121.545 Y-12.382 I.98 J-1.812
G02 X-122.095 Y-12.546 I-.549 J.836
X-122.788 Y-12.267 I0.0 J1.
G01 X-122.769 Y-12.239 F1050.
X-122.75 Y-12.21 F900.
X-122.71 Y-12.222 F1200.
G03 X-122.649 Y-12.186 I0.0 J.071
X-121.343 Y-10.423 I-6.439 J6.132 F900.
X-120.196 Y-6.055 I-7.745 J4.368 F1200.
G01 Y-6.05
Y12.952
Y13.029
G03 X-120.409 Y14.941 I-8.68 J0.0
X-121.159 Y17.003 I-8.466 J-1.912 F1050.
X-122.402 Y18.811 I-7.716 J-3.974 F900.
G02 X-121.78 Y19.028 I.622 J-.783 F2000.
X-121.107 Y18.768 I0.0 J-1.
G03 X-119.721 Y18.231 I1.386 J1.524
G01 X-119.675 Y18.232
X-119.725 Y20.481
Z-7.8
G00 Z1.
X-108.668 Y-5.389
G01 Z.1
Y-7.358 Z.031 F800.
Y-7.747 Z.018
X-108.929 Y-8.538 Z-.011
X-109.392 Y-9.163 Z-.039
X-110.298 Y-9.738 Z-.076
X-111.36 Y-9.887 Z-.114
X-112.39 Y-9.584 Z-.151
X-113.201 Y-8.882 Z-.188
X-113.568 Y-8.196 Z-.216
X-113.68 Y-7.747 Z-.232
Y-7.358 Z-.245
Y2.797 Z-.6
Y12.953 F1200.
G02 X-111.174 Y15.459 I2.506 J0.0
X-108.668 Y12.953 I0.0 J-2.506
G01 Y-7.358
G02 X-111.174 Y-9.864 I-2.506 J0.0
X-113.68 Y-7.358 I0.0 J2.506
G01 Y2.797
X-111.88 F2000.
Y12.953
G02 X-111.174 Y13.659 I.706 J0.0
X-110.468 Y12.953 I0.0 J-.706
G01 Y-7.358
G02 X-111.174 Y-8.064 I-.706 J0.0
X-111.88 Y-7.358 I0.0 J.706
G01 Y2.797
X-112.054 Y4.79
Z.4
G00 Z1.
X-113.662 Y-5.794
G01 Z-.5
Y2.797 Z-.8 F800.
Y12.953 F1200.
G02 X-111.174 Y15.441 I2.488 J0.0
X-108.685 Y12.953 I0.0 J-2.488
G01 Y-7.358
G02 X-111.174 Y-9.847 I-2.488 J0.0
X-113.662 Y-7.358 I0.0 J2.488
G01 Y2.797
X-111.862 F2000.
Y12.953
G02 X-111.174 Y13.641 I.688 J0.0
X-110.485 Y12.953 I0.0 J-.688
G01 Y-7.358
G02 X-111.174 Y-8.047 I-.688 J0.0
X-111.862 Y-7.358 I0.0 J.688
G01 Y2.797
X-112.036 Y4.79
Z.2
G00 Z.4
X-113.662 Y-5.794
G01 Z-.7
Y2.797 Z-1. F800.
Y12.953 F1200.
G02 X-111.174 Y15.441 I2.488 J0.0
X-108.685 Y12.953 I0.0 J-2.488
G01 Y-7.358
G02 X-111.174 Y-9.847 I-2.488 J0.0
X-113.662 Y-7.358 I0.0 J2.488
G01 Y2.797
X-111.862 F2000.
Y12.953
G02 X-111.174 Y13.641 I.688 J0.0
X-110.485 Y12.953 I0.0 J-.688
G01 Y-7.358
G02 X-111.174 Y-8.047 I-.688 J0.0
X-111.862 Y-7.358 I0.0 J.688
G01 Y2.797
X-112.036 Y4.79
Z0.0
G00 Z.2
X-113.662 Y-5.794
G01 Z-.9
Y2.797 Z-1.2 F800.
Y12.953 F1200.
G02 X-111.174 Y15.441 I2.488 J0.0
X-108.685 Y12.953 I0.0 J-2.488
G01 Y-7.358
G02 X-111.174 Y-9.847 I-2.488 J0.0
X-113.662 Y-7.358 I0.0 J2.488
G01 Y2.797
X-111.862 F2000.
Y12.953
G02 X-111.174 Y13.641 I.688 J0.0
X-110.485 Y12.953 I0.0 J-.688
G01 Y-7.358
