%
G40 G17 G49 G54 G80
G91 G28 Z0.0
( NAME: Capful-PC )
( PART: H:\CNC-File\2018-8\²ÓÀ¤\2061\2061-µç¼«-±à³Ì.prt )
( DATE: Fri Sep  7 18:04:56 2018 )
( D10 ---> D=10.00 R=0.00 )
S9000 M03
G00 G90 X-5. Y20.58
Z14.6
G17 G01 Z-34.787 F800.
Z-35.787 F320.
Y19.08
G40 G03 X0.0 Y14.08 I5. J0.0
G01 X115. F800.
G02 X121.08 Y8. I0.0 J-6.08
G01 Y-8.
G02 X115. Y-14.08 I-6.08 J0.0
G01 X-112.
G02 X-115.592 Y-12.592 I0.0 J5.08
G01 X-119.592 Y-8.592
G02 X-121.08 Y-5. I3.592 J3.592
G01 Y8.
G02 X-115. Y14.08 I6.08 J0.0
G01 X0.0
X3.
G03 X8. Y19.08 I0.0 J5.
G01 X-5. Y19.04
G03 X0.0 Y14.04 I5. J0.0 F320.
G01 X115. F800.
G02 X121.04 Y8. I0.0 J-6.04
G01 Y-8.
G02 X115. Y-14.04 I-6.04 J0.0
G01 X-112.
G02 X-115.564 Y-12.564 I0.0 J5.04
G01 X-119.564 Y-8.564
G02 X-121.04 Y-5. I3.564 J3.564
G01 Y8.
G02 X-115. Y14.04 I6.04 J0.0
G01 X0.0
X3.
G03 X8. Y19.04 I0.0 J5.
G01 X-5. Y19.
G03 X0.0 Y14. I5. J0.0 F320.
G01 X115. F800.
G02 X121. Y8. I0.0 J-6.
G01 Y-8.
G02 X115. Y-14. I-6. J0.0
G01 X-112.
G02 X-115.536 Y-12.536 I0.0 J5.
G01 X-119.536 Y-8.536
G02 X-121. Y-5. I3.536 J3.536
G01 Y8.
G02 X-115. Y14. I6. J0.0
G01 X0.0
X3.
G03 X8. Y19. I0.0 J5.
G01 Y20.54
Z-34.787
G00 Z14.6
M09
M05
G91 G28 Z0.0
G28 Y0.0
M30
%
(TOTAL Machine Time: 2.4 min)
