%
G40 G17 G49 G54 G80
G91 G28 Z0.0
( NAME: Administrator )
( PART: H:\CNC-File\2019-1\永盛杰\LF-面环\LF-后模仁.prt )
( DATE: Mon Jan 21 09:58:42 2019 )
( Z6 ---> D=6.00 R=0.00 )
S1000 M03
G00 G90 X190. Y-105.
Z5.
G17 G01 Z-1.5 F120.
G00 Z5.
X103. Y-47.5
G01 Z-1.5
G00 Z5.
X150.5 Y-22.
G01 Z-1.5
G00 Z5.
X176. Y-19.
G01 Z-1.5
G00 Z5.
X190. Y105.
G01 Z-1.5
G00 Z5.
X164. Y62.
G01 Z-1.5
G00 Z5.
X144. Y50.
G01 Z-1.5
G00 Z5.
X103. Y67.5
G01 Z-1.5
G00 Z5.
X84. Y90.
G01 Z-1.5
G00 Z5.
X52. Y36.5
G01 Z-1.5
G00 Z5.
X52.5 Y-17.
G01 Z-1.5
G00 Z5.
X36.1 Y-38.5
G01 Z-1.5
G00 Z5.
X0.0 Y-100.
G01 Z-1.5
G00 Z5.
X-36.1 Y-38.5
G01 Z-1.5
G00 Z5.
X-52.5 Y-17.
G01 Z-1.5
G00 Z5.
X-52. Y36.5
G01 Z-1.5
G00 Z5.
X0.0 Y105.
G01 Z-1.5
G00 Z5.
X-84. Y90.
G01 Z-1.5
G00 Z5.
X-103. Y67.5
G01 Z-1.5
G00 Z5.
X-190. Y105.
G01 Z-1.5
G00 Z5.
X-164. Y62.
G01 Z-1.5
G00 Z5.
X-153. Y38.5
G01 Z-1.5
G00 Z5.
X-176. Y-19.
G01 Z-1.5
G00 Z5.
X-144. Y-30.
G01 Z-1.5
G00 Z5.
X-103. Y-47.5
G01 Z-1.5
G00 Z5.
X-190. Y-105.
G01 Z-1.5
G00 Z5.
( Z6 ---> D=6.00 R=0.00 )
S1000 M03
G00 X-103. Y40.
Z6.
G01 Z-10.5 F120.
G00 Z6.
Y-20.
G01 Z-10.5
G00 Z6.
X103.
G01 Z-10.5
G00 Z6.
Y40.
G01 Z-10.5
G00 Z6.
M09
M05
G91 G28 Z0.0
G28 Y0.0
M30
%
(TOTAL Machine Time: 2.3 min)
