%
G40 G17 G49 G54 G80
G91 G28 Z0.0
( NAME: Administrator )
( PART: H:\CNC-File\2018-12\ÓÀÊ¢½Ü\M500LT\M500LT-Ç°Ä£ÈÊµæ°å.prt )
( DATE: Sat Dec 29 15:48:39 2018 )
( R3 ---> D=6.00 R=3.00 )
S2000 M03
G00 G90 X135. Y-95.
Z5.
G17 G01 Z-1.5 F100.
G00 Z5.
X-135.
G01 Z-1.5
G00 Z5.
Y95.
G01 Z-1.5
G00 Z5.
X135.
G01 Z-1.5
G00 Z5.
M09
M05
G91 G28 Z0.0
G28 Y0.0
M30
%
(TOTAL Machine Time: 0.5 min)
