%
G40 G17 G49 G54 G80
G91 G28 Z0.0
( NAME: Administrator )
( PART: H:\CNC-File\2018-10\²ÓÀ¤\2488\2488-»¬¿é-¸Ä.prt )
( DATE: Thu Nov 29 09:45:16 2018 )
( D6 ---> D=6.00 R=0.00 )
S6500 M03
G00 G90 X2. Y1.5
Z10.
G17 G01 Z-7. F300.
Z-8. F240.
Y2.5
G40 G03 X0.0 Y4.5 I-2. J0.0 F96.
X-4.5 Y0.0 I0.0 J-4.5 F360.
X0.0 Y-4.5 I4.5 J0.0
X4.5 Y0.0 I0.0 J4.5
X0.0 Y4.5 I-4.5 J0.0
X-2. Y2.5 I0.0 J-2. F240.
G01 Y1.5 F600.
Z-7.
G00 Z10.
X-33.193
G01 Z-7. F300.
Z-8. F240.
Y2.5
G03 X-35.193 Y4.5 I-2. J0.0 F96.
X-39.693 Y0.0 I0.0 J-4.5 F360.
X-35.193 Y-4.5 I4.5 J0.0
X-30.693 Y0.0 I0.0 J4.5
X-35.193 Y4.5 I-4.5 J0.0
X-37.193 Y2.5 I0.0 J-2. F240.
G01 Y1.5 F600.
Z-7.
G00 Z10.
X-19.596 Y-1.25
G01 Z-7. F300.
Z-8. F240.
G03 X-17.596 Y-3.25 I2. J0.0 F96.
G01 X-15.696 F450.
X-13.797 F300.
G03 X-12.602 Y-.238 I-3.8 J3.25 F188.
X-12.596 Y0.0 I-4.994 J.238 F375.
X-17.596 Y5. I-5. J0.0
X-21.688 Y2.874 I0.0 J-5.
X-22.596 Y0.0 I4.091 J-2.874 F281.
X-22.591 Y-.238 I5. J0.0
X-21.396 Y-3.25 I4.994 J.238 F188.
G01 X-18.096 F300.
X-17.596 F600.
G03 X-15.596 Y-1.25 I0.0 J2. F240.
G01 Z-7. F600.
G00 Z10.
M09
M05
G91 G28 Z0.0
G28 Y0.0
M30
%
(TOTAL Machine Time: 0.8 min)
