%
G40 G17 G49 G54 G80
G91 G28 Z0.0
( NAME: Capful-PC )
( PART: H:\CNC-File\2018-8\²ÓÀ¤\2126\2126-BWDOWN\2126-B-µç¼«-±à³Ì.prt )
( DATE: Thu Sep 13 12:05:27 2018 )
( D10 ---> D=10.00 R=0.00 )
S9000 M03
G00 G90 X20.58 Y5.
Z14.597
G17 G01 Z-32.597 F800.
Z-33.597 F320.
X19.08
G40 G03 X14.08 Y0.0 I0.0 J-5.
G01 Y-8. F800.
G02 X8. Y-14.08 I-6.08 J0.0
G01 X-5.
G02 X-8.592 Y-12.592 I0.0 J5.08
G01 X-12.592 Y-8.592
G02 X-14.08 Y-5. I3.592 J3.592
G01 Y4.
G02 X-4. Y14.08 I10.08 J0.0
G01 X8.
G02 X14.08 Y8. I0.0 J-6.08
G01 Y0.0
Y-3.
G03 X19.08 Y-8. I5. J0.0
G01 X19.04 Y5.
G03 X14.04 Y0.0 I0.0 J-5. F320.
G01 Y-8. F800.
G02 X8. Y-14.04 I-6.04 J0.0
G01 X-5.
G02 X-8.564 Y-12.564 I0.0 J5.04
G01 X-12.564 Y-8.564
G02 X-14.04 Y-5. I3.564 J3.564
G01 Y4.
G02 X-4. Y14.04 I10.04 J0.0
G01 X8.
G02 X14.04 Y8. I0.0 J-6.04
G01 Y0.0
Y-3.
G03 X19.04 Y-8. I5. J0.0
G01 X19. Y5.
G03 X14. Y0.0 I0.0 J-5. F320.
G01 Y-8. F800.
G02 X8. Y-14. I-6. J0.0
G01 X-5.
G02 X-8.536 Y-12.536 I0.0 J5.
G01 X-12.536 Y-8.536
G02 X-14. Y-5. I3.536 J3.536
G01 Y4.
G02 X-4. Y14. I10. J0.0
G01 X8.
G02 X14. Y8. I0.0 J-6.
G01 Y0.0
Y-3.
G03 X19. Y-8. I5. J0.0
G01 X20.54
Z-32.597
G00 Z14.597
M09
M05
G91 G28 Z0.0
G28 Y0.0
M30
%
(TOTAL Machine Time: 0.8 min)
