%
G40 G17 G49 G54 G80
G91 G28 Z0.0
( NAME: Capful-PC )
( PART: H:\CNC-File\2019-1\灿坤\U型电热盘\U-后模框.prt )
( DATE: Sat Feb 16 18:46:49 2019 )
( Z6 ---> D=6.00 R=0.00 )
S1000 M03
G00 G90 X65. Y0.0
Z5.
G17 G01 Z-1.5 F120.
G00 Z5.
X17. Y15.
G01 Z-1.5
G00 Z5.
X-.83 Y19.095
G01 Z-1.5
G00 Z5.
X-16.508 Y32.16
G01 Z-1.5
G00 Z5.
X-17.413 Y5.025
G01 Z-1.5
G00 Z5.
X-52.588
G01 Z-1.5
G00 Z5.
X-53.492 Y32.16
G01 Z-1.5
G00 Z5.
X-69.17 Y19.095
G01 Z-1.5
G00 Z5.
X-90. Y12.
G01 Z-1.5
G00 Z5.
Y-12.
G01 Z-1.5
G00 Z5.
X-68.165 Y-25.125
G01 Z-1.5
G00 Z5.
X-50.075 Y-40.703
G01 Z-1.5
G00 Z5.
X-19.925
G01 Z-1.5
G00 Z5.
X-1.835 Y-25.125
G01 Z-1.5
G00 Z5.
X17. Y-15.
G01 Z-1.5
G00 Z5.
( Z6 ---> D=6.00 R=0.00 )
S1000 M03
G00 X95. Y32.5
Z5.
G01 Z-14.5 F120.
G00 Z5.
Y-32.5
G01 Z-14.5
G00 Z5.
X45. Y-70.
G01 Z-14.5
G00 Z5.
X-95.
G01 Z-14.5
G00 Z5.
Y70.
G01 Z-14.5
G00 Z5.
X45.
G01 Z-14.5
G00 Z5.
M09
M05
G91 G28 Z0.0
G28 Y0.0
M30
%
(TOTAL Machine Time: 2.1 min)
