%
G40 G17 G49 G54 G80
G91 G28 Z0.0
( NAME: Administrator )
( PART: H:\CNC-File\2018-7\ÐË¶¦½Ü\030\030-Ç°Ä£¿ò.prt )
( DATE: Tue Jul 24 12:44:23 2018 )
( Z6 ---> D=6.00 R=0.00 )
S1000 M03
G00 G90 X-140. Y-140.
Z5.
G17 G01 Z-1.5 F120.
G00 Z5.
Y140.
G01 Z-1.5
G00 Z5.
X140.
G01 Z-1.5
G00 Z5.
Y-140.
G01 Z-1.5
G00 Z5.
( Z6 ---> D=6.00 R=0.00 )
S1000 M03
G00 X-190. Y-145.
Z5.
G01 Z-14.5 F120.
G00 Z5.
Y0.0
G01 Z-14.5
G00 Z5.
Y145.
G01 Z-14.5
G00 Z5.
X0.0
G01 Z-14.5
G00 Z5.
X190.
G01 Z-14.5
G00 Z5.
Y0.0
G01 Z-14.5
G00 Z5.
Y-145.
G01 Z-14.5
G00 Z5.
X0.0 Y-90.
G01 Z-14.5
G00 Z5.
M09
M05
G91 G28 Z0.0
G28 Y0.0
M30
%
(TOTAL Machine Time: 1.9 min)
