%
G40 G17 G49 G54 G80
G91 G28 Z0.0
( NAME: HZK-PC )
( PART: H:\CNC-File\2019-3\ºÀÌ©\HT-2019-06\HT-2019-06-Ç°Ä£ÈÊ.prt )
( DATE: Sun Mar 31 10:10:32 2019 )
( Z6 ---> D=6.00 R=0.00 )
S1000 M03
G00 G90 X-190. Y160.
Z5.
G17 G01 Z-1.5 F120.
G00 Z5.
Y-160.
G01 Z-1.5
G00 Z5.
X190.
G01 Z-1.5
G00 Z5.
Y160.
G01 Z-1.5
G00 Z5.
( Z6 ---> D=6.00 R=0.00 )
S1000 M03
G00 X-85. Y95.004
Z2.
G01 Z-14.5 F120.
G00 Z2.
X45.
G01 Z-14.5
G00 Z2.
Y-94.996
G01 Z-14.5
G00 Z2.
X-85.
G01 Z-14.5
G00 Z2.
M09
M05
G91 G28 Z0.0
G28 Y0.0
M30
%
(TOTAL Machine Time: 1.1 min)
