%
G40 G17 G49 G54 G80
G91 G28 Z0.0
( NAME: Capful-PC )
( PART: H:\CNC-File\2019-1\²ÓÀ¤\YD-ìÙ¶·\YD-A-Ç°Ä£¿ò.prt )
( DATE: Thu Feb 14 20:51:55 2019 )
( E21R0.8 ---> D=21.00 R=0.80 )
S2700 M03
G00 G90 X-17.362 Y.05
Z22.
G17 G01 Z-41.898 F500.
X-25. Z-42.098 F400.
X-80.05 F600.
Y-.05
X30.05
Y.05
X-25.
Y9.75 F1000.
X-89.75
Y-9.75
X39.75
Y9.75
X-25.
Y19.45
X-99.45
Y-19.45
X49.45
Y19.45
X-25.
Y29.15
X-109.15
Y-29.15
X59.15
Y29.15
X-25.
Y38.85
X-118.85
Y-38.85
X68.85
Y38.85
X-25.
Y48.55
X-128.55
Y-48.55
X78.55
Y48.55
X-25.
Y58.25
X-138.25
Y-58.25
X88.25
Y58.25
X-25.
Y67.95
X-147.95
Y-67.95
X97.95
Y67.95
X-25.
Y77.65
X-150.15
G40 G03 X-157.65 Y70.15 I0.0 J-7.5
G01 Y-70.15
G03 X-150.15 Y-77.65 I7.5 J0.0
G01 X100.15
G03 X107.65 Y-70.15 I0.0 J7.5
G01 Y70.15
G03 X100.15 Y77.65 I-7.5 J0.0
G01 X-25.
Y74.65
Z-39.098
G00 Z-38.948
X-17.362 Y.05
G01 Z-42.048 F500.
X-25. Z-42.248 F400.
X-80.05 F600.
Y-.05
X30.05
Y.05
X-25.
Y9.75 F1000.
X-89.75
Y-9.75
X39.75
Y9.75
X-25.
Y19.45
X-99.45
Y-19.45
X49.45
Y19.45
X-25.
Y29.15
X-109.15
Y-29.15
X59.15
Y29.15
X-25.
Y38.85
X-118.85
Y-38.85
X68.85
Y38.85
X-25.
Y48.55
X-128.55
Y-48.55
X78.55
Y48.55
X-25.
Y58.25
X-138.25
Y-58.25
X88.25
Y58.25
X-25.
Y67.95
X-147.95
Y-67.95
X97.95
Y67.95
X-25.
Y77.65
X-150.15
G03 X-157.65 Y70.15 I0.0 J-7.5
G01 Y-70.15
G03 X-150.15 Y-77.65 I7.5 J0.0
G01 X100.15
G03 X107.65 Y-70.15 I0.0 J7.5
G01 Y70.15
G03 X100.15 Y77.65 I-7.5 J0.0
G01 X-25.
Y74.65
Z-39.248
G00 Z22.
M09
M05
G91 G28 Z0.0
G28 Y0.0
M30
%
(TOTAL Machine Time: 10.4 min)
