%
G40 G17 G49 G54 G80
G91 G28 Z0.0
( NAME: Capful-PC )
( PART: H:\CNC-File\2018-8\宏鑫洋\338\338A-前模仁-电极-编程.prt )
( DATE: Wed Sep  5 19:50:36 2018 )
( D10 ---> D=10.00 R=0.00 )
S9000 M03
G00 G90 X-5. Y23.05
Z-.747
G17 G01 Z-22.747 F800.
Z-23.747 F320.
Y21.55
G40 G03 X0.0 Y16.55 I5. J0.0
G01 X18. F800.
G02 X24.05 Y10.5 I0.0 J-6.05
G01 Y-10.5
G02 X18. Y-16.55 I-6.05 J0.0
G01 X-15.
G02 X-18.571 Y-15.071 I0.0 J5.05
G01 X-22.571 Y-11.071
G02 X-24.05 Y-7.5 I3.571 J3.571
G01 Y10.5
G02 X-18. Y16.55 I6.05 J0.0
G01 X0.0
X3.
G03 X8. Y21.55 I0.0 J5.
G01 X-5. Y21.5
G03 X0.0 Y16.5 I5. J0.0 F320.
G01 X18. F800.
G02 X24. Y10.5 I0.0 J-6.
G01 Y-10.5
G02 X18. Y-16.5 I-6. J0.0
G01 X-15.
G02 X-18.536 Y-15.036 I0.0 J5.
G01 X-22.536 Y-11.036
G02 X-24. Y-7.5 I3.536 J3.536
G01 Y10.5
G02 X-18. Y16.5 I6. J0.0
G01 X0.0
X3.
G03 X8. Y21.5 I0.0 J5.
G01 Y23.05
Z-22.747
G00 Z-.747
( D10 ---> D=10.00 R=0.00 )
S9000 M03
G00 X-.223 Y19.5
Z15.
G01 Z-12.697 F1300.
Z-15.697 F520.
Y11.252
X17.899 F1300.
Y-10.238
X-18.344
Y11.252
X-.223
Y19.5
Z-12.697
G00 Z-12.647
G01 Z-12.747
Z-15.747 F520.
Y11.252
X17.899 F1300.
Y-10.238
X-18.344
Y11.252
X-.223
Y19.5
Z-12.747
G00 Z15.
M09
M05
G91 G28 Z0.0
G28 Y0.0
M30
%
(TOTAL Machine Time: 1.0 min)
