%
G40 G17 G49 G54 G80
G91 G28 Z0.0
( NAME: Capful-PC )
( PART: H:\CNC-File\2018-8\宏鑫洋\338\338A-前模仁-电极-编程.prt )
( DATE: Wed Sep  5 12:06:40 2018 )
( D10 ---> D=10.00 R=0.00 )
S9000 M03
G00 G90 X16. Y23.05
Z23.
G17 G01 Z1. F800.
Z0.0 F320.
Y21.55
G40 G03 X21. Y16.55 I5. J0.0
G01 X39. F800.
G02 X45.05 Y10.5 I0.0 J-6.05
G01 Y-10.5
G02 X39. Y-16.55 I-6.05 J0.0
G01 X6.
G02 X2.429 Y-15.071 I0.0 J5.05
G01 X-1.571 Y-11.071
G02 X-3.05 Y-7.5 I3.571 J3.571
G01 Y10.5
G02 X3. Y16.55 I6.05 J0.0
G01 X21.
X24.
G03 X29. Y21.55 I0.0 J5.
G01 X16. Y21.5
G03 X21. Y16.5 I5. J0.0 F320.
G01 X39. F800.
G02 X45. Y10.5 I0.0 J-6.
G01 Y-10.5
G02 X39. Y-16.5 I-6. J0.0
G01 X6.
G02 X2.464 Y-15.036 I0.0 J5.
G01 X-1.536 Y-11.036
G02 X-3. Y-7.5 I3.536 J3.536
G01 Y10.5
G02 X3. Y16.5 I6. J0.0
G01 X21.
X24.
G03 X29. Y21.5 I0.0 J5.
G01 Y23.05
Z1.
G00 Z23.
( D10 ---> D=10.00 R=0.00 )
S9000 M03
G00 X-.223 Y19.5
Z15.
G01 Z-12.697 F1300.
Z-15.697 F520.
Y11.252
X17.899 F1300.
Y-10.238
X-18.344
Y11.252
X-.223
Y19.5
Z-12.697
G00 Z-12.647
G01 Z-12.747
Z-15.747 F520.
Y11.252
X17.899 F1300.
Y-10.238
X-18.344
Y11.252
X-.223
Y19.5
Z-12.747
G00 Z15.
M09
M05
G91 G28 Z0.0
G28 Y0.0
M30
%
(TOTAL Machine Time: 1.0 min)
