%
G40 G17 G49 G54 G80
G91 G28 Z0.0
( NAME: Administrator )
( PART: H:\CNC-File\2018-7\ÐË¶¦½Ü\027\027-Ç°Ä£¿ò.prt )
( DATE: Tue Jul 17 19:42:10 2018 )
( Z6 ---> D=6.00 R=0.00 )
S1000 M03
G00 G90 X-85. Y125.
Z5.
G17 G01 Z-1.5 F120.
G00 Z5.
X115.
G01 Z-1.5
G00 Z5.
Y-125.
G01 Z-1.5
G00 Z5.
X-85.
G01 Z-1.5
G00 Z5.
( Z6 ---> D=6.00 R=0.00 )
S1000 M03
G00 X-125. Y125.
Z5.
G01 Z-14.5 F120.
G00 Z5.
X15.
G01 Z-14.5
G00 Z5.
X155.
G01 Z-14.5
G00 Z5.
Y-125.
G01 Z-14.5
G00 Z5.
X15.
G01 Z-14.5
G00 Z5.
X-125.
G01 Z-14.5
G00 Z5.
M09
M05
G91 G28 Z0.0
G28 Y0.0
M30
%
(TOTAL Machine Time: 1.5 min)
