%
G40 G17 G49 G54 G80
G91 G28 Z0.0
( NAME: Capful )
( PART: C:\Users\Capful\Desktop\HM-电极\HM-电极编程.prt )
( DATE: Sun May 27 13:29:49 2018 )
( D10 ---> D=10.00 R=0.00 )
S8000 M03
G00 G90 X-5. Y23.1
Z14.5
G17 G01 Z-32.132 F1000.
Z-33.132 F400.
Y21.6
G40 G03 X0.0 Y16.6 I5. J0.0
G01 X40.5 F1000.
G02 X46.6 Y10.5 I0.0 J-6.1
G01 Y-7.5
G02 X45.106 Y-11.106 I-5.1 J0.0
G01 X41.106 Y-15.106
G02 X37.5 Y-16.6 I-3.606 J3.606
G01 X-40.5
G02 X-46.6 Y-10.5 I0.0 J6.1
G01 Y10.5
G02 X-40.5 Y16.6 I6.1 J0.0
G01 X0.0
X3.
G03 X8. Y21.6 I0.0 J5.
G01 X-5. Y21.55
G03 X0.0 Y16.55 I5. J0.0 F400.
G01 X40.5 F1000.
G02 X46.55 Y10.5 I0.0 J-6.05
G01 Y-7.5
G02 X45.071 Y-11.071 I-5.05 J0.0
G01 X41.071 Y-15.071
G02 X37.5 Y-16.55 I-3.571 J3.571
G01 X-40.5
G02 X-46.55 Y-10.5 I0.0 J6.05
G01 Y10.5
G02 X-40.5 Y16.55 I6.05 J0.0
G01 X0.0
X3.
G03 X8. Y21.55 I0.0 J5.
G01 X-5. Y21.5
G03 X0.0 Y16.5 I5. J0.0 F400.
G01 X40.5 F1000.
G02 X46.5 Y10.5 I0.0 J-6.
G01 Y-7.5
G02 X45.036 Y-11.036 I-5. J0.0
G01 X41.036 Y-15.036
G02 X37.5 Y-16.5 I-3.536 J3.536
G01 X-40.5
G02 X-46.5 Y-10.5 I0.0 J6.
G01 Y10.5
G02 X-40.5 Y16.5 I6. J0.0
G01 X0.0
X3.
G03 X8. Y21.5 I0.0 J5.
G01 Y23.05
Z-32.132
G00 Z14.5
M09
M05
G91 G28 Z0.0
G28 Y0.0
M30
%
(TOTAL Machine Time: 1.1 min)
