%
G40 G17 G49 G54 G80
G91 G28 Z0.0
( NAME: Administrator )
( PART: H:\CNC-File\2019-2\灿坤\改模-电极.prt )
( DATE: Wed Feb 27 15:28:58 2019 )
( D10 ---> D=10.00 R=0.00 )
S9000 M03
G00 G90 X-20.55 Y-4.
Z14.6
G17 G01 Z-22.33 F800.
Z-23.33 F320.
X-19.05
G40 G03 X-14.05 Y1. I0.0 J5.
G01 Y8. F800.
G02 X-8. Y14.05 I6.05 J0.0
G01 X8.
G02 X14.05 Y8. I0.0 J-6.05
G01 Y-8.
G02 X8. Y-14.05 I-6.05 J0.0
G01 X-6.
G02 X-9.571 Y-12.571 I0.0 J5.05
G01 X-12.571 Y-9.571
G02 X-14.05 Y-6. I3.571 J3.571
G01 Y1.
Y4.
G03 X-19.05 Y9. I-5. J0.0
G01 X-19. Y-4.
G03 X-14. Y1. I0.0 J5. F320.
G01 Y8. F800.
G02 X-8. Y14. I6. J0.0
G01 X8.
G02 X14. Y8. I0.0 J-6.
G01 Y-8.
G02 X8. Y-14. I-6. J0.0
G01 X-6.
G02 X-9.536 Y-12.536 I0.0 J5.
G01 X-12.536 Y-9.536
G02 X-14. Y-6. I3.536 J3.536
G01 Y1.
Y4.
G03 X-19. Y9. I-5. J0.0
G01 X-20.51
Z-22.33
G00 Z14.6
( D10 ---> D=10.00 R=0.00 )
S9000 M03
G00 X11.5 Y0.0
Z15.
G01 Z2.65 F1300.
Z-.35 F520.
X5.
Y-6.43 F1300.
X-5.
Y6.43
X5.
Y0.0
X2.
Y-3.43
X-2.
Y3.43
X2.
Y0.0
X11.5
Z2.65
G00 Z2.7
G01 Z2.6
Z-.4 F520.
X5.
Y-6.43 F1300.
X-5.
Y6.43
X5.
Y0.0
X2.
Y-3.43
X-2.
Y3.43
X2.
Y0.0
X11.5
Z2.6
G00 Z15.
M09
M05
G91 G28 Z0.0
G28 Y0.0
M30
%
(TOTAL Machine Time: 0.8 min)
