%
G40 G17 G49 G54 G80
G91 G28 Z0.0
( NAME: Administrator )
( PART: H:\CNC-File\2018-10\²ÓÀ¤\C266\C266-D\C266-D-ºóÄ£ÈÊ-¸Ä-190122.prt )
( DATE: Tue Jan 22 18:11:40 2019 )
( D8 ---> D=8.00 R=0.00 )
S3000 M03
G00 G90 X-7.638 Y35.647
Z19.015
G17 G01 Z-7.137 F500.
X0.0 Z-7.337 F400.
X16.351 F600.
Y18.523
X-16.351
Y35.647
X0.0
Y32.447 F1000.
X13.151
Y21.723
X-13.151
Y32.447
X0.0
Y29.247
X9.951
Y24.923
X-9.951
Y29.247
X0.0
Y32.247
Z-4.337
G00 Z-4.287
X-7.638 Y35.647
G01 Z-7.187 F500.
X0.0 Z-7.387 F400.
X16.351 F600.
Y18.523
X-16.351
Y35.647
X0.0
Y32.447 F1000.
X13.151
Y21.723
X-13.151
Y32.447
X0.0
Y29.247
X9.951
Y24.923
X-9.951
Y29.247
X0.0
Y32.247
Z-4.387
G00 Z19.015
M09
M05
G91 G28 Z0.0
G28 Y0.0
M30
%
(TOTAL Machine Time: 0.9 min)
