%
G40 G17 G49 G54 G80
G91 G28 Z0.0
( NAME: Capful-PC )
( PART: D:\ºãÔóÀ¤\CNC-File\2018-8\²ÓÀ¤\2126\2126-WUPPER\2126-W-Ç°Ä£¿ò.prt )
( DATE: Sun Aug 26 19:53:26 2018 )
( Z6 ---> D=6.00 R=0.00 )
S1000 M03
G00 G90 X102.97 Y128.46
Z5.
G17 G01 Z-1.5 F120.
G00 Z5.
X25. Y105.951
G01 Z-1.5
G00 Z5.
X-62.97 Y128.46
G01 Z-1.5
G00 Z5.
X-61.758 Y52.992
G01 Z-1.5
G00 Z5.
Y-53.008
G01 Z-1.5
G00 Z5.
X-62.97 Y-128.46
G01 Z-1.5
G00 Z5.
X-15.2 Y-75.401
G01 Z-1.5
G00 Z5.
X25. Y-60.928
G01 Z-1.5
G00 Z5.
Y-50.428
G01 Z-1.5
G00 Z5.
X42.7 Y-63.328
G01 Z-1.5
G00 Z5.
X66.205 Y-56.306
G01 Z-1.5
G00 Z5.
X65.2 Y-75.401
G01 Z-1.5
G00 Z5.
X50.125 Y-81.961
G01 Z-1.5
G00 Z5.
X102.97 Y-128.46
G01 Z-1.5
G00 Z5.
( Z6 ---> D=6.00 R=0.00 )
S1000 M03
G00 X-98.03 Y128.46
Z5.
G01 Z-19.5 F120.
G00 Z5.
X137.97
G01 Z-19.5
G00 Z5.
Y-128.46
G01 Z-19.5
G00 Z5.
X-98.03
G01 Z-19.5
G00 Z5.
M09
M05
G91 G28 Z0.0
G28 Y0.0
M30
%
(TOTAL Machine Time: 1.9 min)
