%
G40 G17 G49 G54 G80
G91 G28 Z0.0
( NAME: Administrator )
( PART: H:\CNC-File\2018-10\²ÓÀ¤\C266\C266-U\C266-U-ºóÄ£ÈÊ-¸Ä-190122.prt )
( DATE: Tue Jan 22 18:09:50 2019 )
( D8 ---> D=8.00 R=0.00 )
S3000 M03
G00 G90 X7.638 Y-14.882
Z16.
G17 G01 Z-10.152 F500.
X0.0 Z-10.352 F400.
X-10.05 F600.
G40 G02 X-16.289 Y-8.643 I0.0 J6.239
G01 Y-4.12
G02 X-10.05 Y2.119 I6.239 J0.0
G01 X10.05
G02 X16.289 Y-4.12 I0.0 J-6.239
G01 Y-8.643
G02 X10.05 Y-14.882 I-6.239 J0.0
G01 X0.0
Y-11.682 F1000.
X-10.05
G02 X-13.089 Y-8.643 I0.0 J3.039
G01 Y-4.12
G02 X-10.05 Y-1.081 I3.039 J0.0
G01 X10.05
G02 X13.089 Y-4.12 I0.0 J-3.039
G01 Y-8.643
G02 X10.05 Y-11.682 I-3.039 J0.0
G01 X0.0
Y-8.482
X-9.889
Y-4.281
X9.889
Y-8.482
X0.0
Y-11.482
Z-7.352
G00 Z-7.302
X7.638 Y-14.882
G01 Z-10.202 F500.
X0.0 Z-10.402 F400.
X-10.05 F600.
G02 X-16.289 Y-8.643 I0.0 J6.239
G01 Y-4.12
G02 X-10.05 Y2.119 I6.239 J0.0
G01 X10.05
G02 X16.289 Y-4.12 I0.0 J-6.239
G01 Y-8.643
G02 X10.05 Y-14.882 I-6.239 J0.0
G01 X0.0
Y-11.682 F1000.
X-10.05
G02 X-13.089 Y-8.643 I0.0 J3.039
G01 Y-4.12
G02 X-10.05 Y-1.081 I3.039 J0.0
G01 X10.05
G02 X13.089 Y-4.12 I0.0 J-3.039
G01 Y-8.643
G02 X10.05 Y-11.682 I-3.039 J0.0
G01 X0.0
Y-8.482
X-9.889
Y-4.281
X9.889
Y-8.482
X0.0
Y-11.482
Z-7.402
G00 Z16.
M09
M05
G91 G28 Z0.0
G28 Y0.0
M30
%
(TOTAL Machine Time: 0.9 min)
