%
G40 G17 G49 G54 G80
G91 G28 Z0.0
( NAME: Administrator )
( PART: H:\CNC-File\2018-12\永盛杰\760-改模\760-改模.prt )
( DATE: Sat Dec 29 18:11:38 2018 )
( D10 ---> D=10.00 R=0.00 )
S9000 M03
G00 G90 X16.445 Y-9.374
Z15.
G17 G01 Z-7.63 F400.
Z-10.63 F320.
X15.642 Y-8.571
G40 G03 X12.106 Y-7.106 I-3.536 J-3.536
X8.571 Y-8.571 I0.0 J-5.
G01 X7.071 Y-10.071 F800.
G02 X3.5 Y-11.55 I-3.571 J3.571
G01 X-6.
G02 X-11.55 Y-6. I0.0 J5.55
G01 Y6.
G02 X-6. Y11.55 I5.55 J0.0
G01 X6.
G02 X11.55 Y6. I0.0 J-5.55
G01 Y-3.5
G02 X10.071 Y-7.071 I-5.05 J0.0
G01 X8.571 Y-8.571
X7.071 Y-10.071
G02 X6.399 Y-10.635 I-3.571 J3.571
G03 X4.269 Y-14.729 I2.87 J-4.094
X5.175 Y-17.599 I5. J0.0
G01 X15.607 Y-8.536
G03 X12.071 Y-7.071 I-3.536 J-3.536 F320.
X8.536 Y-8.536 I0.0 J-5.
G01 X7.036 Y-10.036 F800.
G02 X3.5 Y-11.5 I-3.536 J3.536
G01 X-6.
G02 X-11.5 Y-6. I0.0 J5.5
G01 Y6.
G02 X-6. Y11.5 I5.5 J0.0
G01 X6.
G02 X11.5 Y6. I0.0 J-5.5
G01 Y-3.5
G02 X10.036 Y-7.036 I-5. J0.0
G01 X8.536 Y-8.536
X7.036 Y-10.036
G02 X6.363 Y-10.599 I-3.536 J3.536
G03 X4.226 Y-14.698 I2.863 J-4.099
X5.127 Y-17.561 I5. J0.0
G01 X5.362 Y-17.899
Z-7.63
G00 Z15.
M09
M05
G91 G28 Z0.0
G28 Y0.0
M30
%
(TOTAL Machine Time: 0.6 min)
