%
G40 G17 G49 G54 G80
G91 G28 Z0.0
( NAME: Administrator )
( PART: H:\CNC-File\2018-7\灿坤\2139\2139-前模仁-电极\2139Q-01,02.prt )
( DATE: Thu Jul 26 15:47:47 2018 )
( D10 ---> D=10.00 R=0.00 )
S5000 M03
G00 G90 X3.5 Y-20.56
Z14.7
G17 G01 Z-16.141 F400.
Z-19.141 F320.
Y-19.06
G40 G03 X-1.5 Y-14.06 I-5. J0.0
G01 X-90.5 F800.
G02 X-96.56 Y-8. I0.0 J6.06
G01 Y8.
G02 X-90.5 Y14.06 I6.06 J0.0
G01 X90.5
G02 X96.56 Y8. I0.0 J-6.06
G01 Y-5.
G02 X95.078 Y-8.578 I-5.06 J0.0
G01 X91.078 Y-12.578
G02 X87.5 Y-14.06 I-3.578 J3.578
G01 X-1.5
X-4.5
G03 X-9.5 Y-19.06 I0.0 J-5.
G01 X3.5 Y-19.03
G03 X-1.5 Y-14.03 I-5. J0.0 F320.
G01 X-90.5 F800.
G02 X-96.53 Y-8. I0.0 J6.03
G01 Y8.
G02 X-90.5 Y14.03 I6.03 J0.0
G01 X90.5
G02 X96.53 Y8. I0.0 J-6.03
G01 Y-5.
G02 X95.057 Y-8.557 I-5.03 J0.0
G01 X91.057 Y-12.557
G02 X87.5 Y-14.03 I-3.557 J3.557
G01 X-1.5
X-4.5
G03 X-9.5 Y-19.03 I0.0 J-5.
G01 X3.5 Y-19.
G03 X-1.5 Y-14. I-5. J0.0 F320.
G01 X-90.5 F800.
G02 X-96.5 Y-8. I0.0 J6.
G01 Y8.
G02 X-90.5 Y14. I6. J0.0
G01 X90.5
G02 X96.5 Y8. I0.0 J-6.
G01 Y-5.
G02 X95.036 Y-8.536 I-5. J0.0
G01 X91.036 Y-12.536
G02 X87.5 Y-14. I-3.536 J3.536
G01 X-1.5
X-4.5
G03 X-9.5 Y-19. I0.0 J-5.
G01 Y-20.53
Z-16.141
G00 Z14.7
M09
M05
G91 G28 Z0.0
G28 Y0.0
M30
%
(TOTAL Machine Time: 2.1 min)
