%
G40 G17 G49 G54 G80
G91 G28 Z0.0
( NAME: Administrator )
( PART: H:\CNC-File\2018-7\ÐË¶¦½Ü\027\027-ºóÄ£¿ò.prt )
( DATE: Wed Jul 18 17:26:05 2018 )
( Z6 ---> D=6.00 R=0.00 )
S1000 M03
G00 G90 X-155. Y125.
Z5.
G17 G01 Z-14.5 F120.
G00 Z5.
X-15.
G01 Z-14.5
G00 Z5.
X125.
G01 Z-14.5
G00 Z5.
X170. Y35.
G01 Z-14.5
G00 Z5.
Y-35.
G01 Z-14.5
G00 Z5.
X125. Y-125.
G01 Z-14.5
G00 Z5.
X-15.
G01 Z-14.5
G00 Z5.
X-155.
G01 Z-14.5
G00 Z5.
( Z6 ---> D=6.00 R=0.00 )
S1000 M03
G00 X180. Y0.0
Z5.
G01 Z-1.5 F120.
G00 Z5.
X135.
G01 Z-1.5
G00 Z5.
X75. Y-43.
G01 Z-1.5
G00 Z5.
X85. Y-125.
G01 Z-1.5
G00 Z5.
X30.56 Y-57.56
G01 Z-1.5
G00 Z5.
X-.537 Y-51.678
G01 Z-1.5
G00 Z5.
X-27. Y-85.92
G01 Z-1.5
G00 Z5.
Y-42.
G01 Z-1.5
G00 Z5.
X-67.395 Y-11.5
G01 Z-1.5
G00 Z5.
Y11.5
G01 Z-1.5
G00 Z5.
X-27. Y0.0
G01 Z-1.5
G00 Z5.
X15.
G01 Z-1.5
G00 Z5.
X58.92
G01 Z-1.5
G00 Z5.
X75. Y43.
G01 Z-1.5
G00 Z5.
X85. Y125.
G01 Z-1.5
G00 Z5.
X30.56 Y57.56
G01 Z-1.5
G00 Z5.
X-27. Y85.92
G01 Z-1.5
G00 Z5.
Y42.
G01 Z-1.5
G00 Z5.
X-84.56 Y57.56
G01 Z-1.5
G00 Z5.
X-97. Y88.
G01 Z-1.5
G00 Z5.
X-115. Y125.
G01 Z-1.5
G00 Z5.
X-128. Y50.
G01 Z-1.5
G00 Z5.
X-112.92 Y0.0
G01 Z-1.5
G00 Z5.
X-140.
G01 Z-1.5
G00 Z5.
X-185.
G01 Z-1.5
G00 Z5.
X-128. Y-50.
G01 Z-1.5
G00 Z5.
X-84.56 Y-57.56
G01 Z-1.5
G00 Z5.
X-97. Y-88.
G01 Z-1.5
G00 Z5.
X-115. Y-125.
G01 Z-1.5
G00 Z5.
M09
M05
G91 G28 Z0.0
G28 Y0.0
M30
%
(TOTAL Machine Time: 3.2 min)
