%
G40 G17 G49 G54 G80
G91 G28 Z0.0
( NAME: Administrator )
( PART: H:\CNC-File\2018-7\²ÓÀ¤\2139\2139-ºóÄ£ÈÊ.prt )
( DATE: Tue Jul 24 08:14:53 2018 )
( D8 ---> D=8.00 R=0.00 )
S8000 M03
G00 G90 X-.169 Y82.954
Z16.847
G17 G01 Z3.05 F1000.
Z.05 F400.
X-.181 Y88.753
G40 G03 X-7.379 Y88.432 I.184 J-84.789 F1000.
G01 X-8.849 Y88.303
X-10.045 Y89.048 F600.
X-11.84 Y88.798
G03 X-18.633 Y87.569 I11.839 J-84.834
G01 X-20.093 Y87.243
X-20.212 Y89.135 F1000.
X21.577 F600.
X21.931 Y85.869 F1000.
X21.275 Y86.048
X19.967 Y87.272 F600.
X18.635 Y87.569
G03 X11.843 Y88.798 I-18.634 J-83.605
G01 X11.275 Y88.877
X8.794 Y88.654
X8.488 Y88.335
X7.38 Y88.432 F1000.
G03 X.002 Y88.754 I-7.377 J-84.468
G01 X-.181 Y88.753
X-.169 Y82.954
Z3.05
G00 Z3.1
G01 Z3.
Z0.0 F400.
X-.181 Y88.753
G03 X-7.379 Y88.432 I.184 J-84.789 F1000.
G01 X-8.849 Y88.303
X-10.045 Y89.048 F600.
X-11.84 Y88.798
G03 X-18.633 Y87.569 I11.839 J-84.834
G01 X-20.093 Y87.243
X-20.212 Y89.135 F1000.
X21.577 F600.
X21.931 Y85.869 F1000.
X21.275 Y86.048
X19.967 Y87.272 F600.
X18.635 Y87.569
G03 X11.843 Y88.798 I-18.634 J-83.605
G01 X11.275 Y88.877
X8.794 Y88.654
X8.488 Y88.335
X7.38 Y88.432 F1000.
G03 X.002 Y88.754 I-7.377 J-84.468
G01 X-.181 Y88.753
X-.169 Y82.954
Z3.
G00 Z16.847
M09
M05
G91 G28 Z0.0
G28 Y0.0
M30
%
(TOTAL Machine Time: 0.6 min)
