%
G40 G17 G49 G54 G80
G91 G28 Z0.0
( NAME: Administrator )
( PART: H:\CNC-File\2019-1\ÓÀÊ¢½Ü\LF-Ãæ»·\LF-¶¥Õë°å.prt )
( DATE: Tue Jan 22 15:03:05 2019 )
( Z6 ---> D=6.00 R=0.00 )
S1000 M03
G00 G90 X100. Y-84.
Z5.97
G17 G01 Z-7.53 F120.
G00 Z5.97
X77.5 Y-103.
G01 Z-7.53
G00 Z5.97
X60. Y-144.
G01 Z-7.53
G00 Z5.97
X72. Y-164.
G01 Z-7.53
G00 Z5.97
X-12. Y-150.5
G01 Z-7.53
G00 Z5.97
X-37.5 Y-103.
G01 Z-7.53
G00 Z5.97
X-7. Y-52.5
G01 Z-7.53
G00 Z5.97
X46.5 Y-52.
G01 Z-7.53
G00 Z5.97
Y52.
G01 Z-7.53
G00 Z5.97
X-7. Y52.5
G01 Z-7.53
G00 Z5.97
X-37.5 Y103.
G01 Z-7.53
G00 Z5.97
X-20. Y144.
G01 Z-7.53
G00 Z5.97
X48.5 Y153.
G01 Z-7.53
G00 Z5.97
X72. Y164.
G01 Z-7.53
G00 Z5.97
X77.5 Y103.
G01 Z-7.53
G00 Z5.97
X100. Y84.
G01 Z-7.53
G00 Z5.97
M09
M05
G91 G28 Z0.0
G28 Y0.0
M30
%
(TOTAL Machine Time: 2.1 min)
