%
G40 G17 G49 G54 G80
G91 G28 Z0.0
( NAME: Administrator )
( PART: H:\CNC-File\2018-11\ÓÀÊ¢½Ü\F1000\f1000-ºóÄ£¿ò.prt )
( DATE: Fri Nov 23 15:13:23 2018 )
( R3 ---> D=6.00 R=3.00 )
S2000 M03
G00 G90 X0.0 Y145.
Z5.
G17 G01 Z-1.5 F120.
G00 Z5.
X-101.371 Y113.569
G01 Z-1.5
G00 Z5.
X-125.5 Y101.
G01 Z-1.5
G00 Z5.
X-59. Y92.
G01 Z-1.5
G00 Z5.
X-81.5 Y68.
G01 Z-1.5
G00 Z5.
X-125.5
G01 Z-1.5
G00 Z5.
X-176. Y54.
G01 Z-1.5
G00 Z5.
X-127. Y28.
G01 Z-1.5
G00 Z5.
X-176. Y-9.
G01 Z-1.5
G00 Z5.
X-136.4 Y-54.7
G01 Z-1.5
G00 Z5.
X-125.5 Y-28.5
G01 Z-1.5
G00 Z5.
X-81.5
G01 Z-1.5
G00 Z5.
X-36.1
G01 Z-1.5
G00 Z5.
X0.0 Y-3.
G01 Z-1.5
G00 Z5.
X36.1 Y-28.5
G01 Z-1.5
G00 Z5.
X81.5
G01 Z-1.5
G00 Z5.
X125.5
G01 Z-1.5
G00 Z5.
X136.4 Y-54.7
G01 Z-1.5
G00 Z5.
X104.688 Y-94.788
G01 Z-1.5
G00 Z5.
X0.0 Y-115.
G01 Z-1.5
G00 Z5.
X13.842 Y-129.194
G01 Z-1.5
G00 Z5.
X0.0 Y-165.
G01 Z-1.5
G00 Z5.
X-24.081 Y-170.476
G01 Z-1.5
G00 Z5.
X176. Y-9.
G01 Z-1.5
G00 Z5.
X127. Y28.
G01 Z-1.5
G00 Z5.
X176. Y54.
G01 Z-1.5
G00 Z5.
X125.5 Y68.
G01 Z-1.5
G00 Z5.
Y101.
G01 Z-1.5
G00 Z5.
X81.5 Y68.
G01 Z-1.5
G00 Z5.
X59. Y92.
G01 Z-1.5
G00 Z5.
( R3 ---> D=6.00 R=3.00 )
S2000 M03
G00 X-190. Y115.
Z7.
G01 Z-14.5 F120.
G00 Z7.
X0.0
G01 Z-14.5
G00 Z7.
X190.
G01 Z-14.5
G00 Z7.
Y-95.
G01 Z-14.5
G00 Z7.
X0.0 Y-90.
G01 Z-14.5
G00 Z7.
X33.997 Y-149.551 Z9.
G01 Z-12.5
G00 Z9.
X-33.997 Y-150.449
G01 Z-12.5
G00 Z9.
X-190. Y-95. Z7.
G01 Z-14.5
G00 Z7.
M09
M05
G91 G28 Z0.0
G28 Y0.0
M30
%
(TOTAL Machine Time: 3.5 min)
