%
G40 G17 G49 G54 G80
G91 G28 Z0.0
( NAME: Administrator )
( PART: H:\CNC-File\2018-8\灿坤\2126\2126-WUPPER\Raw-File\2126上模具图-2018.8.21\2126上模具图\3D\2126后模框_x_t.prt )
( DATE: Sun Aug 26 01:13:54 2018 )
( R3 ---> D=6.00 R=3.00 )
S1500 M03
G00 G90 X-137.97 Y-128.46
Z7.
G17 G01 Z-19.5 F120.
G00 Z7.
X98.03
G01 Z-19.5
G00 Z7.
Y128.46
G01 Z-19.5
G00 Z7.
X-137.97
G01 Z-19.5
G00 Z7.
X177. Y35. Z14.
G01 Z-12.5
G00 Z14.
Y-35.
G01 Z-12.5
G00 Z14.
( R3 ---> D=6.00 R=3.00 )
S1500 M03
G00 X-102.97 Y128.46
Z5.
G01 Z-1.5 F120.
G00 Z5.
X62.97
G01 Z-1.5
G00 Z5.
Y-128.46
G01 Z-1.5
G00 Z5.
X-102.97
G01 Z-1.5
G00 Z5.
X-68. Y-104.996
G01 Z-1.5
G00 Z5.
X-102. Y-82.996
G01 Z-1.5
G00 Z5.
X-131. Y-42.996
G01 Z-1.5
G00 Z5.
X-137. Y0.0
G01 Z-1.5
G00 Z5.
X-131. Y42.996
G01 Z-1.5
G00 Z5.
X-102. Y82.996
G01 Z-1.5
G00 Z5.
X-68. Y104.996
G01 Z-1.5
G00 Z5.
X-25. Y123.001
G01 Z-1.5
G00 Z5.
X36. Y95.996
G01 Z-1.5
G00 Z5.
X88. Y32.
G01 Z-1.5
G00 Z5.
X142. Y0.0
G01 Z-1.5
G00 Z5.
X88. Y-32.
G01 Z-1.5
G00 Z5.
X36. Y-95.996
G01 Z-1.5
G00 Z5.
M09
M05
G91 G28 Z0.0
G28 Y0.0
M30
%
(TOTAL Machine Time: 2.6 min)
