%
G40 G17 G49 G54 G80
G91 G28 Z0.0
( NAME: Administrator )
( PART: H:\CNC-File\2018-7\灿坤\2813\2813-后模仁-电极\2813-后模仁-电极-编程.prt )
( DATE: Fri Aug  3 10:17:10 2018 )
( D10 ---> D=10.00 R=0.00 )
S9000 M03
G00 G90 X-28.08 Y-3.5
Z14.6
G17 G01 Z-22.545 F800.
Z-23.545 F320.
X-26.58
G40 G03 X-21.58 Y1.5 I0.0 J5.
G01 Y15.5 F800.
G02 X-15.5 Y21.58 I6.08 J0.0
G01 X15.5
G02 X21.58 Y15.5 I0.0 J-6.08
G01 Y-15.5
G02 X15.5 Y-21.58 I-6.08 J0.0
G01 X-12.5
G02 X-16.092 Y-20.092 I0.0 J5.08
G01 X-20.092 Y-16.092
G02 X-21.58 Y-12.5 I3.592 J3.592
G01 Y1.5
Y4.5
G03 X-26.58 Y9.5 I-5. J0.0
G01 X-26.54 Y-3.5
G03 X-21.54 Y1.5 I0.0 J5. F320.
G01 Y15.5 F800.
G02 X-15.5 Y21.54 I6.04 J0.0
G01 X15.5
G02 X21.54 Y15.5 I0.0 J-6.04
G01 Y-15.5
G02 X15.5 Y-21.54 I-6.04 J0.0
G01 X-12.5
G02 X-16.064 Y-20.064 I0.0 J5.04
G01 X-20.064 Y-16.064
G02 X-21.54 Y-12.5 I3.564 J3.564
G01 Y1.5
Y4.5
G03 X-26.54 Y9.5 I-5. J0.0
G01 X-26.5 Y-3.5
G03 X-21.5 Y1.5 I0.0 J5. F320.
G01 Y15.5 F800.
G02 X-15.5 Y21.5 I6. J0.0
G01 X15.5
G02 X21.5 Y15.5 I0.0 J-6.
G01 Y-15.5
G02 X15.5 Y-21.5 I-6. J0.0
G01 X-12.5
G02 X-16.036 Y-20.036 I0.0 J5.
G01 X-20.036 Y-16.036
G02 X-21.5 Y-12.5 I3.536 J3.536
G01 Y1.5
Y4.5
G03 X-26.5 Y9.5 I-5. J0.0
G01 X-28.04
Z-22.545
G00 Z14.6
M09
M05
G91 G28 Z0.0
G28 Y0.0
M30
%
(TOTAL Machine Time: 1.0 min)
