%
G40 G17 G49 G54 G80
G91 G28 Z0.0
( NAME: Capful )
( PART: D:\Program Files\Siemens\NX 12.0\UGII\HM-µç¼«±à³Ì.prt )
( DATE: Sun May 27 04:51:35 2018 )
( D4 ---> D=4.00 R=0.00 )
S9000 M03
G00 G90 X142.855 Y8.123
Z15.
G17 G01 Z.1 F2000.
Y13.342 Z-.082 F800.
X143.181 Y14.249 Z-.116
X143.823 Y14.969 Z-.15
X144.687 Y15.398 Z-.183
X145.649 Y15.472 Z-.217
X146.399 Y15.267 Z-.244
X147.096 Y14.802 Z-.273
X147.603 Y14.137 Z-.303
X147.867 Y13.342 Z-.332
Y5.663 Z-.6
Y-1.627 F1200.
G40 G02 X145.361 Y-4.133 I-2.506 J0.0
X142.855 Y-1.627 I0.0 J2.506
G01 Y12.953
G02 X145.361 Y15.459 I2.506 J0.0
X147.867 Y12.953 I0.0 J-2.506
G01 Y5.663
X146.067 F2000.
Y-1.627
G02 X145.361 Y-2.333 I-.706 J0.0
X144.655 Y-1.627 I0.0 J.706
G01 Y12.953
G02 X145.361 Y13.659 I.706 J0.0
X146.067 Y12.953 I0.0 J-.706
G01 Y5.663
X146.241 Y3.67
Z.4
G00 Z1.
X147.54 Y14.196
G01 Z-.5
X147.577 Y14.149 Z-.502 F800.
X147.849 Y13.34 Z-.532
Y5.663 Z-.8
Y-1.627 F1200.
G02 X145.361 Y-4.115 I-2.488 J0.0
X142.872 Y-1.627 I0.0 J2.488
G01 Y12.953
G02 X145.361 Y15.441 I2.488 J0.0
X147.849 Y12.953 I0.0 J-2.488
G01 Y5.663
X146.049 F2000.
Y-1.627
G02 X145.361 Y-2.315 I-.688 J0.0
X144.672 Y-1.627 I0.0 J.688
G01 Y12.953
G02 X145.361 Y13.641 I.688 J0.0
X146.049 Y12.953 I0.0 J-.688
G01 Y5.663
X146.223 Y3.67
Z.2
G00 Z.4
X147.54 Y14.196
G01 Z-.7
X147.577 Y14.149 Z-.702 F800.
X147.849 Y13.34 Z-.732
Y5.663 Z-1.
Y-1.627 F1200.
G02 X145.361 Y-4.115 I-2.488 J0.0
X142.872 Y-1.627 I0.0 J2.488
G01 Y12.953
G02 X145.361 Y15.441 I2.488 J0.0
X147.849 Y12.953 I0.0 J-2.488
G01 Y5.663
X146.049 F2000.
Y-1.627
G02 X145.361 Y-2.315 I-.688 J0.0
X144.672 Y-1.627 I0.0 J.688
G01 Y12.953
G02 X145.361 Y13.641 I.688 J0.0
X146.049 Y12.953 I0.0 J-.688
G01 Y5.663
X146.223 Y3.67
Z0.0
G00 Z.4
X147.54 Y14.196
G01 Z-.9
X147.577 Y14.149 Z-.902 F800.
X147.849 Y13.34 Z-.932
Y5.663 Z-1.2
Y-1.627 F1200.
G02 X145.361 Y-4.115 I-2.488 J0.0
X142.872 Y-1.627 I0.0 J2.488
G01 Y12.953
G02 X145.361 Y15.441 I2.488 J0.0
X147.849 Y12.953 I0.0 J-2.488
G01 Y5.663
X146.049 F2000.
Y-1.627
G02 X145.361 Y-2.315 I-.688 J0.0
X144.672 Y-1.627 I0.0 J.688
G01 Y12.953
G02 X145.361 Y13.641 I.688 J0.0
X146.049 Y12.953 I0.0 J-.688
G01 Y5.663
X146.223 Y3.67
Z-.2
G00 Z.4
X147.54 Y14.196
G01 Z-1.1
X147.577 Y14.149 Z-1.102 F800.
X147.849 Y13.34 Z-1.132
Y5.663 Z-1.4
Y-1.627 F1200.
G02 X145.361 Y-4.115 I-2.488 J0.0
X142.872 Y-1.627 I0.0 J2.488
G01 Y12.953
G02 X145.361 Y15.441 I2.488 J0.0
X147.849 Y12.953 I0.0 J-2.488
G01 Y5.663
X146.049 F2000.
Y-1.627
G02 X145.361 Y-2.315 I-.688 J0.0
X144.672 Y-1.627 I0.0 J.688
G01 Y12.953
G02 X145.361 Y13.641 I.688 J0.0
X146.049 Y12.953 I0.0 J-.688
G01 Y5.663
X146.223 Y3.67
Z-.4
G00 Z.4
X147.54 Y14.196
G01 Z-1.3
X147.577 Y14.149 Z-1.302 F800.
X147.849 Y13.34 Z-1.332
Y5.663 Z-1.6
Y-1.627 F1200.
G02 X145.361 Y-4.115 I-2.488 J0.0
X142.872 Y-1.627 I0.0 J2.488
G01 Y12.953
G02 X145.361 Y15.441 I2.488 J0.0
X147.849 Y12.953 I0.0 J-2.488
G01 Y5.663
X146.049 F2000.
Y-1.627
G02 X145.361 Y-2.315 I-.688 J0.0
X144.672 Y-1.627 I0.0 J.688
G01 Y12.953
G02 X145.361 Y13.641 I.688 J0.0
X146.049 Y12.953 I0.0 J-.688
G01 Y5.663
X146.223 Y3.67
Z-.6
G00 Z.4
X147.54 Y14.196
G01 Z-1.5
X147.577 Y14.149 Z-1.502 F800.
X147.849 Y13.34 Z-1.532
Y5.663 Z-1.8
Y-1.627 F1200.
G02 X145.361 Y-4.115 I-2.488 J0.0
X142.872 Y-1.627 I0.0 J2.488
G01 Y12.953
G02 X145.361 Y15.441 I2.488 J0.0
X147.849 Y12.953 I0.0 J-2.488
G01 Y5.663
X146.049 F2000.
Y-1.627
G02 X145.361 Y-2.315 I-.688 J0.0
X144.672 Y-1.627 I0.0 J.688
G01 Y12.953
G02 X145.361 Y13.641 I.688 J0.0
X146.049 Y12.953 I0.0 J-.688
G01 Y5.663
X146.223 Y3.67
Z-.8
G00 Z1.
X136.338 Y20.131
G01 Z.4
Z-.6 F800.
X138.204 Y18.091
G02 X138.879 Y18.353 I.675 J-.738 F2000.
X139.492 Y18.143 I0.0 J-1.
G03 X137.526 Y12.953 I5.869 J-5.19 F1200.
G01 Y-1.627
G03 X138.063 Y-4.477 I7.835 J0.0
X139.138 Y-6.388 I7.298 J2.85 F1050.
X140.701 Y-7.926 I6.222 J4.761 F900.
G02 X139.937 Y-8.281 I-.764 J.645 F2000.
X139.431 Y-8.143 I0.0 J1.
G03 X138.388 Y-7.86 I-1.043 J-1.776
X136.614 Y-8.872 I0.0 J-2.06
G02 X135.753 Y-9.364 I-.861 J.508
X135.397 Y-9.298 I0.0 J1.
G03 X136.102 Y-6.051 I-7.13 J3.247 F1200.
G01 Y12.953
G03 X135.999 Y14.221 I-7.835 J0.0
X135.344 Y16.313 I-7.731 J-1.268 F1050.
X134.136 Y18.143 I-7.077 J-3.361 F900.
G02 X134.749 Y18.353 I.613 J-.79 F2000.
X135.424 Y18.091 I0.0 J-1.
G03 X136.814 Y17.552 I1.39 J1.52
X138.204 Y18.091 I0.0 J2.06
G01 X136.341 Y20.13
Z.4
G00 Z1.
X136.371 Y20.151
G01 Z.2
Z-.8 F800.
X138.184 Y18.114
X138.199 Y18.128 F2000.
G02 X138.872 Y18.388 I.673 J-.74
X139.488 Y18.176 I0.0 J-1.
G03 X137.501 Y12.953 I5.873 J-5.223 F1200.
G01 Y-1.627
G03 X138.056 Y-4.528 I7.86 J0.0
X139.141 Y-6.433 I7.305 J2.901 F1050.
X140.711 Y-7.964 I6.219 J4.806 F900.
G02 X139.944 Y-8.322 I-.767 J.642 F2000.
X139.441 Y-8.187 I0.0 J1.
G03 X139.139 Y-8.043 I-1.036 J-1.781
X138.398 Y-7.904 I-.742 J-1.922
X136.627 Y-8.911 I0.0 J-2.06
G02 X135.768 Y-9.399 I-.859 J.512
X135.409 Y-9.333 I0.0 J1.
G03 X136.127 Y-6.051 I-7.142 J3.281 F1200.
G01 Y12.953
G03 X136.018 Y14.26 I-7.86 J0.0
X135.355 Y16.35 I-7.75 J-1.307 F1050.
X134.14 Y18.176 I-7.088 J-3.397 F900.
G02 X134.756 Y18.388 I.616 J-.788 F2000.
X135.429 Y18.128 I0.0 J-1.
G03 X136.814 Y17.593 I1.385 J1.525
X138.184 Y18.114 I0.0 J2.06
G01 X136.371 Y20.151
Z.2
G00 Z.4
X136.386 Y20.166
G01 Z0.0
Z-1. F800.
X138.172 Y18.127
X138.197 Y18.149 F2000.
G02 X138.869 Y18.408 I.671 J-.741
X139.484 Y18.196 I0.0 J-1.
G03 X139.411 Y18.11 I5.955 J-5.17 F1200.
X137.487 Y12.953 I5.95 J-5.157
G01 Y-1.627
G03 X138.085 Y-4.637 I7.874 J0.0
X139.197 Y-6.527 I7.276 J3.01 F1050.
X139.245 Y-6.587 I6.164 J4.9 F900.
X140.634 Y-7.953 I6.183 J4.895
X140.771 Y-8.053 I4.727 J6.326
G02 X140.002 Y-8.414 I-.769 J.639 F2000.
X139.476 Y-8.265 I0.0 J1.
G03 X138.392 Y-7.957 I-1.084 J-1.752
X136.627 Y-8.955 I0.0 J-2.06
G02 X135.77 Y-9.439 I-.857 J.516
X135.407 Y-9.371 I0.0 J1.
G03 X136.141 Y-6.051 I-7.14 J3.319 F1200.
G01 Y12.953
G03 X136.027 Y14.287 I-7.874 J0.0
X135.358 Y16.375 I-7.76 J-1.334 F1050.
X134.22 Y18.106 I-7.091 J-3.423 F900.
X134.141 Y18.199 I-6.032 J-5.08
G02 X134.757 Y18.412 I.616 J-.788 F2000.
X135.429 Y18.152 I0.0 J-1.
G03 X136.815 Y17.616 I1.385 J1.525
X138.172 Y18.127 I0.0 J2.06
G01 X136.386 Y20.166
Z0.0
G00 Z.2
X136.399 Y20.27
G01 Z-.2
Z-1.2 F800.
X138.124 Y18.185
G03 X138.244 Y18.292 I-1.313 J1.587 F2000.
G02 X138.939 Y18.574 I.695 J-.719
X139.523 Y18.386 I0.0 J-1.
G03 X138.778 Y17.299 I5.478 J-4.55 F1200.
X137.473 Y12.953 I6.582 J-4.346
G01 Y-1.627
G03 X138.133 Y-4.786 I7.888 J0.0
X138.775 Y-5.969 I7.228 J3.159 F1050.
X139.244 Y-6.681 I6.889 J4.02
X140.548 Y-8.068 I6.421 J4.732 F900.
X140.784 Y-8.238 I4.813 J6.441
G02 X140.024 Y-8.588 I-.76 J.649 F2000.
X139.478 Y-8.426 I0.0 J1.
G03 X138.353 Y-8.092 I-1.125 J-1.726
X136.602 Y-9.067 I0.0 J-2.06
G02 X135.752 Y-9.541 I-.85 J.527
X135.377 Y-9.468 I0.0 J1.
G03 X136.155 Y-6.051 I-7.11 J3.416 F1200.
G01 Y12.953
G03 X136.011 Y14.452 I-7.888 J0.0
X135.299 Y16.526 I-7.744 J-1.499 F1050.
X134.853 Y17.294 I-7.032 J-3.573 F900.
X134.113 Y18.374 I-6.301 J-3.523
G02 X134.696 Y18.562 I.583 J-.813 F2000.
X135.387 Y18.284 I0.0 J-1.
G03 X136.811 Y17.713 I1.424 J1.488
X138.124 Y18.185 I0.0 J2.06
G01 X136.399 Y20.27
Z-.2
G00 Z0.0
X136.814 Y20.428
G01 Z-.4
Z-1.4 F800.
Y18.163
G03 X138.348 Y18.848 I0.0 J2.06 F2000.
G02 X139.093 Y19.181 I.745 J-.667
X139.669 Y18.998 I0.0 J-1.
G03 X139.107 Y18.207 I3.777 J-3.273 F1050.
X138.709 Y17.321 I4.339 J-2.481 F900.
X138.224 Y16.345 I21.308 J-11.202
X137.82 Y15.313 I7.136 J-3.393
X137.459 Y12.953 I7.541 J-2.36 F1200.
G01 Y-1.627
G03 X138.189 Y-4.944 I7.902 J0.0
X138.274 Y-5.123 I7.172 J3.317 F1050.
G01 X138.908 Y-6.483
G03 X139.142 Y-6.926 I4.631 J2.158
X140.629 Y-8.524 I4.398 J2.601 F900.
G02 X139.867 Y-8.877 I-.762 J.647 F2000.
X139.334 Y-8.723 I0.0 J1.
G03 X138.235 Y-8.406 I-1.098 J-1.743
X136.518 Y-9.328 I0.0 J-2.06
G02 X135.685 Y-9.775 I-.834 J.553
X135.281 Y-9.69 I0.0 J1.
G03 X136.169 Y-6.051 I-7.014 J3.639 F1200.
G01 Y12.953
G03 X135.881 Y15.066 I-7.902 J0.0
X135.404 Y16.345 I-7.614 J-2.114 F1050.
G01 X135.043 Y17.096
X134.7 Y17.809 F900.
X134.615 Y18.033
G03 X133.961 Y18.999 I-4.298 J-2.201
G02 X134.536 Y19.181 I.574 J-.819 F2000.
X135.28 Y18.848 I0.0 J-1.
G03 X136.814 Y18.163 I1.534 J1.375
G01 Y20.428
Z-.4
G00 Z-.2
Y20.477
G01 Z-.6
Z-1.6 F800.
Y18.23
G03 X138.211 Y18.777 I-.001 J2.06 F2000.
G02 X138.89 Y19.042 I.679 J-.735
X139.5 Y18.834 I0.0 J-1.
G03 X138.531 Y17.443 I5.449 J-4.828 F1200.
G01 X137.985 Y15.826
G03 X137.445 Y12.953 I7.376 J-2.873
G01 Y-1.627
G03 X137.986 Y-4.504 I7.916 J0.0
G02 X138.16 Y-4.997 I-31.672 J-11.468
X138.519 Y-6.099 I-31.846 J-10.976 F1050.
G03 X139.073 Y-6.979 I6.479 J3.464
X140.359 Y-8.332 I5.925 J4.344 F900.
X140.626 Y-8.523 I5.001 J6.705
G02 X139.857 Y-8.884 I-.769 J.639 F2000.
X139.335 Y-8.736 I0.0 J1.
G03 X138.259 Y-8.433 I-1.076 J-1.756
X136.512 Y-9.4 I0.0 J-2.06
G02 X135.664 Y-9.87 I-.848 J.53
X135.339 Y-9.816 I0.0 J1.
X135.638 Y-8.938 I29.788 J-9.642 F1200.
G03 X136.183 Y-6.051 I-7.371 J2.886
G01 Y12.953
G03 X135.948 Y14.866 I-7.916 J0.0
X135.642 Y15.83 I-7.681 J-1.914 F1050.
G01 X135.258 Y16.954
X135.104 Y17.405 F900.
G03 X134.144 Y18.831 I-5.923 J-2.952
G02 X134.747 Y19.033 I.603 J-.798 F2000.
X135.422 Y18.771 I0.0 J-1.
G03 X136.814 Y18.23 I1.391 J1.519
G01 Y20.477
Z-.6
G00 Z-.4
Y20.475
G01 Z-.8
Z-1.8 F800.
Y18.23
G03 X138.183 Y18.751 I-.001 J2.06 F2000.
G02 X138.847 Y19.004 I.665 J-.747
X139.461 Y18.794 I0.0 J-1.
G03 X138.041 Y16.47 I5.814 J-5.147 F1200.
G02 X137.669 Y14.882 I-25.923 J5.236
G03 X137.431 Y12.953 I7.692 J-1.929
G01 Y-1.627
G03 X137.696 Y-3.659 I7.93 J0.0
G01 X138.032 Y-5.123
G03 X138.059 Y-5.192 I7.28 J2.831
X139.151 Y-7.093 I7.253 J2.899 F1050.
X140.359 Y-8.332 I6.161 J4.801 F900.
X140.741 Y-8.6 I5.001 J6.705
G02 X139.957 Y-8.979 I-.783 J.622 F2000.
X139.451 Y-8.841 I0.0 J1.
G03 X138.408 Y-8.558 I-1.043 J-1.777
X136.548 Y-9.733 I0.0 J-2.06
G02 X135.645 Y-10.304 I-.903 J.429
X135.29 Y-10.239 I0.0 J1.
G03 X135.603 Y-9.514 I-6.937 J3.436 F1200.
G02 X135.941 Y-8.051 I19.213 J-3.658
G03 X136.197 Y-6.051 I-7.674 J1.999
G01 Y12.953
G03 X135.959 Y14.882 I-7.93 J0.0
G01 X135.715 Y15.857 F1050.
X135.619 Y16.345
G03 X135.451 Y16.833 I-17.512 J-5.747
X135.378 Y16.983 I-7.553 J-3.58
X134.15 Y18.801 I-7.48 J-3.73 F900.
G02 X134.768 Y19.014 I.618 J-.786 F2000.
X135.436 Y18.758 I0.0 J-1.
G03 X136.814 Y18.23 I1.377 J1.532
G01 Y20.475
Z-.8
G00 Z-.6
G01 Z-1.
Z-2. F800.
Y18.23
G03 X138.192 Y18.759 I-.001 J2.06 F2000.
G02 X138.861 Y19.016 I.669 J-.743
X139.48 Y18.802 I0.0 J-1.
G03 X137.779 Y15.857 I6.323 J-5.616 F1200.
X137.452 Y13.703 I20.762 J-4.25
X137.417 Y12.953 I7.908 J-.75
G01 Y-1.627
G03 X137.811 Y-4.635 I15.603 J.514
X138.044 Y-5.228 I8.045 J2.819
X139.173 Y-7.109 I7.812 J3.411 F1050.
X140.359 Y-8.332 I6.682 J5.292 F900.
X140.763 Y-8.615 I5.001 J6.705
G02 X139.98 Y-8.993 I-.783 J.622 F2000.
X139.472 Y-8.854 I0.0 J1.
G03 X138.424 Y-8.567 I-1.048 J-1.774
X136.68 Y-9.53 I0.0 J-2.06
G02 X135.834 Y-9.997 I-.846 J.533
X135.46 Y-9.925 I0.0 J1.
G03 X135.827 Y-9.027 I-7.895 J3.753 F1200.
X136.211 Y-6.051 I-15.062 J3.455
G01 Y12.953
G03 X136.165 Y13.81 I-7.944 J0.0
X136.021 Y14.896 I-23.516 J-2.553
X135.851 Y15.857 I-23.373 J-3.639 F1050.
X135.381 Y16.986 I-8.052 J-2.694
X134.149 Y18.801 I-7.582 J-3.822 F900.
G02 X134.767 Y19.015 I.619 J-.786 F2000.
X135.436 Y18.758 I0.0 J-1.
G03 X136.814 Y18.23 I1.378 J1.532
G01 Y20.475
Z-1.
G00 Z-.8
G01 Y20.476 Z-1.2
Z-2.2 F800.
Y18.23
G03 X138.197 Y18.764 I-.001 J2.06 F2000.
G02 X138.868 Y19.023 I.671 J-.741
X139.488 Y18.807 I0.0 J-1.
G03 X137.501 Y14.882 I6.44 J-5.725 F1200.
X137.375 Y13.187 I11.28 J-1.694
X137.377 Y12.953 I11.406 J0.0
G01 Y2.773
Y.573 F1050.
Y-1.627 F900.
X137.359 Y-1.672
X137.423 Y-2.889
G03 X137.552 Y-3.776 I4.863 J.254
X138.044 Y-5.232 I8.377 J2.02 F1200.
X139.177 Y-7.111 I7.885 J3.475 F1050.
X140.359 Y-8.332 I6.752 J5.354 F900.
X140.767 Y-8.617 I5.001 J6.705
G02 X139.984 Y-8.995 I-.783 J.623 F2000.
X139.474 Y-8.855 I0.0 J1.
G03 X138.424 Y-8.567 I-1.05 J-1.772
X136.692 Y-9.511 I0.0 J-2.06
G02 X135.852 Y-9.97 I-.841 J.542
X135.474 Y-9.896 I0.0 J1.
G03 X136.113 Y-8.051 I-8.033 J3.814 F1200.
X136.252 Y-6.236 I-11.769 J1.815
X136.251 Y-6.051 I-11.908 J0.0
G01 Y12.953
G03 X136.253 Y13.204 I-11.173 J.251
X136.127 Y14.882 I-11.176 J0.0
X135.376 Y16.995 I-8.44 J-1.808 F1050.
X134.139 Y18.807 I-7.69 J-3.921 F900.
G02 X134.759 Y19.023 I.62 J-.785 F2000.
X135.43 Y18.764 I0.0 J-1.
G03 X136.814 Y18.23 I1.383 J1.527
G01 Y20.476
Z-1.2
G00 Z-1.
Y20.477
G01 Z-1.4
Z-2.4 F800.
Y18.23
G03 X138.207 Y18.773 I-.001 J2.06 F2000.
G02 X138.884 Y19.037 I.676 J-.736
X139.505 Y18.82 I0.0 J-1.
G03 X137.289 Y12.999 I6.542 J-5.821 F1200.
G01 X137.29 Y12.951
Y-1.626
X137.289 Y-1.678
G03 X138.051 Y-5.246 I8.74 J0.0
X139.191 Y-7.121 I7.978 J3.568 F1050.
X140.391 Y-8.356 I6.838 J5.443 F900.
X140.781 Y-8.627 I4.97 J6.729
G02 X139.999 Y-9.004 I-.782 J.623 F2000.
X139.484 Y-8.861 I0.0 J1.
G03 X138.424 Y-8.567 I-1.06 J-1.766
X136.69 Y-9.514 I0.0 J-2.06
G02 X135.849 Y-9.974 I-.841 J.54
X135.47 Y-9.9 I0.0 J1.
G03 X136.338 Y-6.056 I-8.074 J3.843 F1200.
G01 Y-6.05
Y12.952
X136.339 Y13.
G03 X136.119 Y14.947 I-8.753 J0.0
X135.367 Y17.008 I-8.534 J-1.946 F1050.
X134.126 Y18.818 I-7.782 J-4.008 F900.
G02 X134.747 Y19.034 I.621 J-.784 F2000.
X135.422 Y18.771 I0.0 J-1.
G03 X136.814 Y18.23 I1.391 J1.519
G01 Y20.477
Z-1.4
G00 Z-1.2
G01 Z-1.6
Z-2.6 F800.
Y18.23
G03 X138.207 Y18.773 I-.001 J2.06 F2000.
G02 X138.884 Y19.037 I.676 J-.736
X139.505 Y18.82 I0.0 J-1.
G03 X137.289 Y12.999 I6.541 J-5.821 F1200.
G01 X137.29 Y12.951
Y-1.626
X137.289 Y-1.679
G03 X138.051 Y-5.246 I8.737 J0.0
X139.191 Y-7.121 I7.975 J3.567 F1050.
X140.391 Y-8.356 I6.835 J5.442 F900.
X140.781 Y-8.627 I4.97 J6.729
G02 X139.999 Y-9.004 I-.782 J.623 F2000.
X139.484 Y-8.861 I0.0 J1.
G03 X138.424 Y-8.567 I-1.06 J-1.766
X136.69 Y-9.514 I0.0 J-2.06
G02 X135.849 Y-9.974 I-.841 J.54
X135.47 Y-9.9 I0.0 J1.
G03 X136.338 Y-6.056 I-8.074 J3.843 F1200.
G01 Y-6.05
Y12.952
X136.339 Y13.002
G03 X136.119 Y14.947 I-8.749 J0.0
X135.367 Y17.008 I-8.53 J-1.946 F1050.
X134.126 Y18.818 I-7.778 J-4.007 F900.
G02 X134.747 Y19.034 I.621 J-.784 F2000.
X135.422 Y18.771 I0.0 J-1.
G03 X136.814 Y18.23 I1.391 J1.519
G01 Y20.477
Z-1.6
G00 Z-1.4
G01 Z-1.8
Z-2.8 F800.
Y18.23
G03 X138.207 Y18.773 I-.001 J2.06 F2000.
G02 X138.884 Y19.037 I.676 J-.736
X139.505 Y18.82 I0.0 J-1.
G03 X137.289 Y12.999 I6.541 J-5.821 F1200.
G01 X137.29 Y12.951
Y-1.626
X137.289 Y-1.68
G03 X138.051 Y-5.246 I8.735 J0.0
X139.191 Y-7.121 I7.974 J3.567 F1050.
X140.391 Y-8.356 I6.834 J5.441 F900.
X140.781 Y-8.627 I4.97 J6.729
G02 X139.999 Y-9.004 I-.782 J.623 F2000.
X139.484 Y-8.861 I0.0 J1.
G03 X138.424 Y-8.568 I-1.06 J-1.766
X136.69 Y-9.515 I0.0 J-2.06
G02 X135.849 Y-9.974 I-.841 J.54
X135.47 Y-9.9 I0.0 J1.
G03 X136.338 Y-6.057 I-8.073 J3.843 F1200.
G01 Y-6.05
Y12.952
X136.339 Y13.002
G03 X136.12 Y14.947 I-8.749 J0.0
X135.367 Y17.008 I-8.53 J-1.945 F1050.
X134.126 Y18.818 I-7.778 J-4.007 F900.
G02 X134.747 Y19.034 I.621 J-.784 F2000.
X135.422 Y18.771 I0.0 J-1.
G03 X136.814 Y18.23 I1.391 J1.519
G01 Y20.477
Z-1.8
G00 Z-1.6
G01 Z-2.
Z-3. F800.
Y18.23
G03 X138.207 Y18.773 I-.001 J2.06 F2000.
G02 X138.884 Y19.037 I.676 J-.736
X139.505 Y18.82 I0.0 J-1.
G03 X137.289 Y12.999 I6.541 J-5.821 F1200.
G01 X137.29 Y12.951
Y-1.626
X137.289 Y-1.68
G03 X138.051 Y-5.247 I8.734 J0.0
X139.191 Y-7.121 I7.973 J3.566 F1050.
X140.391 Y-8.356 I6.832 J5.441 F900.
X140.781 Y-8.627 I4.97 J6.729
G02 X139.999 Y-9.004 I-.782 J.623 F2000.
X139.484 Y-8.862 I0.0 J1.
G03 X138.424 Y-8.568 I-1.06 J-1.766
X136.691 Y-9.514 I0.0 J-2.06
G02 X135.85 Y-9.973 I-.841 J.541
X135.471 Y-9.899 I0.0 J1.
G03 X136.338 Y-6.059 I-8.069 J3.84 F1200.
G01 Y-6.05
Y12.952
X136.339 Y13.002
G03 X136.12 Y14.947 I-8.749 J0.0
X135.367 Y17.008 I-8.53 J-1.945 F1050.
X134.126 Y18.818 I-7.777 J-4.007 F900.
G02 X134.747 Y19.034 I.621 J-.784 F2000.
X135.422 Y18.771 I0.0 J-1.
G03 X136.814 Y18.23 I1.391 J1.519
G01 Y20.477
Z-2.
G00 Z-1.8
G01 Z-2.2
Z-3.2 F800.
Y18.23
G03 X138.207 Y18.773 I-.001 J2.06 F2000.
G02 X138.884 Y19.037 I.676 J-.736
X139.505 Y18.82 I0.0 J-1.
G03 X137.289 Y13. I6.54 J-5.821 F1200.
G01 X137.29 Y12.951
Y-1.626
X137.289 Y-1.676
G03 X138.052 Y-5.247 I8.743 J0.0
X139.193 Y-7.122 I7.981 J3.571 F1050.
X140.391 Y-8.356 I6.84 J5.446 F900.
X140.783 Y-8.628 I4.97 J6.729
G02 X140. Y-9.005 I-.782 J.623 F2000.
X139.485 Y-8.862 I0.0 J1.
G03 X138.424 Y-8.568 I-1.061 J-1.766
X136.691 Y-9.514 I0.0 J-2.06
G02 X135.85 Y-9.973 I-.841 J.541
X135.471 Y-9.899 I0.0 J1.
G03 X136.338 Y-6.059 I-8.068 J3.839 F1200.
G01 Y-6.05
Y12.952
X136.339 Y13.002
G03 X136.12 Y14.947 I-8.748 J0.0
X135.367 Y17.009 I-8.529 J-1.945 F1050.
X134.126 Y18.818 I-7.777 J-4.006 F900.
G02 X134.747 Y19.034 I.621 J-.784 F2000.
X135.422 Y18.771 I0.0 J-1.
G03 X136.814 Y18.23 I1.391 J1.519
G01 Y20.477
Z-2.2
G00 Z-2.
G01 Z-2.4
Z-3.4 F800.
Y18.23
G03 X138.207 Y18.773 I-.001 J2.06 F2000.
G02 X138.884 Y19.037 I.676 J-.736
X139.505 Y18.82 I0.0 J-1.
G03 X137.289 Y13. I6.54 J-5.821 F1200.
G01 X137.29 Y12.951
Y-1.626
X137.289 Y-1.677
G03 X138.052 Y-5.248 I8.742 J0.0
X139.193 Y-7.122 I7.98 J3.571 F1050.
X140.391 Y-8.356 I6.839 J5.446 F900.
X140.783 Y-8.628 I4.97 J6.729
G02 X140.001 Y-9.005 I-.782 J.623 F2000.
X139.485 Y-8.862 I0.0 J1.
G03 X138.424 Y-8.568 I-1.061 J-1.766
X136.691 Y-9.514 I0.0 J-2.06
G02 X135.85 Y-9.973 I-.841 J.541
X135.471 Y-9.899 I0.0 J1.
G03 X136.338 Y-6.06 I-8.067 J3.839 F1200.
G01 Y-6.05
Y12.952
X136.339 Y13.002
G03 X136.12 Y14.947 I-8.748 J0.0
X135.367 Y17.009 I-8.529 J-1.945 F1050.
X134.126 Y18.818 I-7.777 J-4.006 F900.
G02 X134.747 Y19.034 I.621 J-.784 F2000.
X135.422 Y18.771 I0.0 J-1.
G03 X136.814 Y18.23 I1.391 J1.519
G01 Y20.477
Z-2.4
G00 Z-2.2
G01 Z-2.6
Z-3.6 F800.
Y18.23
G03 X138.207 Y18.773 I-.001 J2.06 F2000.
G02 X138.883 Y19.037 I.676 J-.736
X139.505 Y18.82 I0.0 J-1.
G03 X137.289 Y13. I6.54 J-5.821 F1200.
G01 X137.29 Y12.951
Y-1.626
X137.289 Y-1.677
G03 X138.052 Y-5.248 I8.741 J0.0
X139.193 Y-7.122 I7.978 J3.571 F1050.
X140.391 Y-8.356 I6.837 J5.445 F900.
X140.783 Y-8.628 I4.97 J6.729
G02 X140.001 Y-9.005 I-.782 J.623 F2000.
X139.485 Y-8.863 I0.0 J1.
G03 X138.424 Y-8.568 I-1.061 J-1.766
X136.691 Y-9.514 I0.0 J-2.06
G02 X135.85 Y-9.973 I-.841 J.541
X135.472 Y-9.899 I0.0 J1.
G03 X136.338 Y-6.06 I-8.066 J3.839 F1200.
G01 Y-6.05
Y12.952
X136.339 Y13.002
G03 X136.12 Y14.947 I-8.748 J0.0
X135.367 Y17.009 I-8.529 J-1.945 F1050.
X134.126 Y18.818 I-7.776 J-4.006 F900.
G02 X134.747 Y19.034 I.621 J-.784 F2000.
X135.422 Y18.771 I0.0 J-1.
G03 X136.814 Y18.23 I1.391 J1.519
G01 Y20.477
Z-2.6
G00 Z-2.4
G01 Z-2.8
Z-3.8 F800.
Y18.23
G03 X138.207 Y18.773 I-.001 J2.06 F2000.
G02 X138.883 Y19.037 I.676 J-.736
X139.505 Y18.82 I0.0 J-1.
G03 X137.289 Y13. I6.539 J-5.82 F1200.
G01 X137.29 Y12.951
Y-1.626
X137.289 Y-1.678
G03 X138.052 Y-5.248 I8.739 J0.0
X139.193 Y-7.123 I7.976 J3.57 F1050.
X140.391 Y-8.356 I6.836 J5.444 F900.
X140.783 Y-8.628 I4.97 J6.729
G02 X140.001 Y-9.006 I-.782 J.623 F2000.
X139.486 Y-8.863 I0.0 J1.
G03 X138.424 Y-8.568 I-1.061 J-1.765
X136.691 Y-9.514 I0.0 J-2.06
G02 X135.85 Y-9.973 I-.841 J.541
X135.472 Y-9.899 I0.0 J1.
G03 X136.338 Y-6.06 I-8.066 J3.839 F1200.
G01 Y-6.05
Y12.952
X136.339 Y13.003
G03 X136.12 Y14.947 I-8.747 J0.0
X135.367 Y17.009 I-8.528 J-1.945 F1050.
X134.126 Y18.818 I-7.776 J-4.006 F900.
G02 X134.747 Y19.034 I.621 J-.784 F2000.
X135.422 Y18.771 I0.0 J-1.
G03 X136.814 Y18.23 I1.391 J1.519
G01 Y20.477
Z-2.8
G00 Z-2.6
G01 Z-3.
Z-4. F800.
Y18.23
G03 X138.207 Y18.773 I-.001 J2.06 F2000.
G02 X138.883 Y19.037 I.676 J-.737
X139.505 Y18.82 I0.0 J-1.
G03 X137.289 Y13. I6.539 J-5.82 F1200.
G01 X137.29 Y12.951
Y-1.626
X137.289 Y-1.679
G03 X138.052 Y-5.248 I8.737 J0.0
X139.193 Y-7.123 I7.975 J3.57 F1050.
X140.391 Y-8.356 I6.834 J5.444 F900.
X140.783 Y-8.628 I4.97 J6.729
G02 X140.001 Y-9.006 I-.782 J.623 F2000.
X139.486 Y-8.863 I0.0 J1.
G03 X138.424 Y-8.568 I-1.061 J-1.765
X136.691 Y-9.514 I0.0 J-2.06
G02 X135.85 Y-9.974 I-.841 J.541
X135.472 Y-9.899 I0.0 J1.
G03 X136.338 Y-6.061 I-8.065 J3.838 F1200.
G01 Y-6.05
Y12.952
X136.339 Y13.003
G03 X136.12 Y14.947 I-8.747 J0.0
X135.367 Y17.009 I-8.528 J-1.945 F1050.
X134.126 Y18.818 I-7.776 J-4.006 F900.
G02 X134.747 Y19.034 I.621 J-.784 F2000.
X135.422 Y18.771 I0.0 J-1.
G03 X136.814 Y18.23 I1.391 J1.519
G01 Y20.477
Z-3.
G00 Z-2.8
G01 Z-3.2
Z-4.2 F800.
Y18.231
G03 X138.207 Y18.773 I-.001 J2.06 F2000.
G02 X138.883 Y19.037 I.676 J-.737
X139.505 Y18.821 I0.0 J-1.
G03 X137.289 Y13. I6.539 J-5.82 F1200.
G01 X137.29 Y12.951
Y-1.626
X137.289 Y-1.68
G03 X138.052 Y-5.249 I8.735 J0.0
X139.193 Y-7.123 I7.973 J3.569 F1050.
X140.391 Y-8.356 I6.832 J5.443 F900.
X140.783 Y-8.629 I4.97 J6.729
G02 X140.001 Y-9.006 I-.783 J.623 F2000.
X139.486 Y-8.863 I0.0 J1.
G03 X138.424 Y-8.568 I-1.062 J-1.765
X136.691 Y-9.514 I0.0 J-2.06
G02 X135.85 Y-9.974 I-.841 J.541
X135.472 Y-9.899 I0.0 J1.
G03 X136.338 Y-6.061 I-8.064 J3.838 F1200.
G01 Y-6.05
Y12.952
X136.339 Y13.003
G03 X136.12 Y14.947 I-8.747 J0.0
X135.367 Y17.009 I-8.528 J-1.945 F1050.
X134.126 Y18.818 I-7.776 J-4.006 F900.
G02 X134.747 Y19.034 I.621 J-.784 F2000.
X135.422 Y18.771 I0.0 J-1.
G03 X136.814 Y18.231 I1.391 J1.519
G01 Y20.477
Z-3.2
G00 Z-3.
G01 Z-3.4
Z-4.4 F800.
Y18.231
G03 X138.207 Y18.773 I-.001 J2.06 F2000.
G02 X138.883 Y19.037 I.676 J-.737
X139.505 Y18.821 I0.0 J-1.
G03 X137.289 Y13.001 I6.538 J-5.82 F1200.
G01 X137.29 Y12.951
Y-1.626
X137.289 Y-1.681
G03 X138.052 Y-5.249 I8.734 J0.0
X139.193 Y-7.123 I7.971 J3.569 F1050.
X140.391 Y-8.356 I6.83 J5.443 F900.
X140.784 Y-8.629 I4.97 J6.729
G02 X140.001 Y-9.006 I-.783 J.623 F2000.
X139.486 Y-8.863 I0.0 J1.
G03 X138.424 Y-8.568 I-1.062 J-1.765
X136.69 Y-9.516 I0.0 J-2.06
G02 X135.848 Y-9.976 I-.842 J.54
X135.47 Y-9.902 I0.0 J1.
G03 X136.338 Y-6.058 I-8.07 J3.844 F1200.
G01 Y-6.05
Y12.952
X136.339 Y13.003
G03 X136.12 Y14.947 I-8.746 J0.0
X135.367 Y17.009 I-8.527 J-1.944 F1050.
X134.126 Y18.818 I-7.775 J-4.006 F900.
G02 X134.747 Y19.034 I.621 J-.784 F2000.
X135.422 Y18.771 I0.0 J-1.
G03 X136.814 Y18.231 I1.391 J1.519
G01 Y20.477
Z-3.4
G00 Z-3.2
G01 Z-3.6
Z-4.6 F800.
Y18.231
G03 X138.207 Y18.773 I-.001 J2.06 F2000.
G02 X138.883 Y19.037 I.676 J-.737
X139.504 Y18.821 I0.0 J-1.
G03 X137.289 Y13.001 I6.538 J-5.82 F1200.
G01 X137.29 Y12.951
Y-1.626
X137.289 Y-1.681
G03 X138.052 Y-5.249 I8.732 J0.0
X139.193 Y-7.123 I7.97 J3.568 F1050.
X140.391 Y-8.356 I6.829 J5.442 F900.
X140.784 Y-8.629 I4.97 J6.729
G02 X140.001 Y-9.006 I-.783 J.623 F2000.
X139.486 Y-8.863 I0.0 J1.
G03 X138.424 Y-8.569 I-1.062 J-1.765
X136.69 Y-9.516 I0.0 J-2.06
G02 X135.848 Y-9.977 I-.842 J.54
X135.47 Y-9.902 I0.0 J1.
G03 X136.338 Y-6.058 I-8.07 J3.844 F1200.
G01 Y-6.05
Y12.952
X136.339 Y13.003
G03 X136.12 Y14.948 I-8.746 J0.0
X135.367 Y17.009 I-8.527 J-1.944 F1050.
X134.126 Y18.818 I-7.775 J-4.006 F900.
G02 X134.747 Y19.034 I.621 J-.784 F2000.
X135.422 Y18.771 I0.0 J-1.
G03 X136.814 Y18.231 I1.391 J1.519
G01 Y20.477
Z-3.6
G00 Z-3.4
G01 Z-3.8
Z-4.8 F800.
Y18.231
G03 X138.207 Y18.773 I-.001 J2.06 F2000.
G02 X138.883 Y19.037 I.676 J-.737
X139.504 Y18.821 I0.0 J-1.
G03 X137.289 Y13.001 I6.537 J-5.82 F1200.
G01 X137.29 Y12.951
Y-1.626
X137.289 Y-1.682
G03 X138.052 Y-5.25 I8.73 J0.0
X139.193 Y-7.124 I7.968 J3.567 F1050.
X140.391 Y-8.356 I6.827 J5.442 F900.
X140.784 Y-8.629 I4.97 J6.729
G02 X140.001 Y-9.006 I-.783 J.622 F2000.
X139.486 Y-8.863 I0.0 J1.
G03 X138.424 Y-8.569 I-1.062 J-1.765
X136.69 Y-9.517 I0.0 J-2.06
G02 X135.848 Y-9.977 I-.842 J.54
X135.47 Y-9.902 I0.0 J1.
G03 X136.338 Y-6.058 I-8.069 J3.844 F1200.
G01 Y-6.05
Y12.952
X136.339 Y13.003
G03 X136.12 Y14.948 I-8.746 J0.0
X135.367 Y17.009 I-8.527 J-1.944 F1050.
X134.126 Y18.818 I-7.775 J-4.005 F900.
G02 X134.747 Y19.034 I.621 J-.784 F2000.
X135.422 Y18.772 I0.0 J-1.
G03 X136.814 Y18.231 I1.391 J1.519
G01 Y20.477
Z-3.8
G00 Z-3.6
G01 Z-4.
Z-5. F800.
Y18.231
G03 X138.207 Y18.773 I-.001 J2.06 F2000.
G02 X138.883 Y19.037 I.676 J-.737
X139.504 Y18.821 I0.0 J-1.
G03 X137.289 Y13.001 I6.537 J-5.819 F1200.
G01 X137.29 Y12.951
Y-1.626
X137.289 Y-1.683
G03 X138.052 Y-5.25 I8.729 J0.0
X139.193 Y-7.124 I7.967 J3.567 F1050.
X140.391 Y-8.356 I6.825 J5.441 F900.
X140.784 Y-8.629 I4.97 J6.729
G02 X140.001 Y-9.007 I-.783 J.622 F2000.
X139.486 Y-8.863 I0.0 J1.
G03 X138.424 Y-8.569 I-1.062 J-1.765
X136.69 Y-9.517 I0.0 J-2.06
G02 X135.848 Y-9.977 I-.842 J.54
X135.47 Y-9.902 I0.0 J1.
G03 X136.338 Y-6.058 I-8.068 J3.844 F1200.
G01 Y-6.05
Y12.952
X136.339 Y13.003
G03 X136.12 Y14.948 I-8.745 J0.0
X135.367 Y17.009 I-8.527 J-1.944 F1050.
X134.126 Y18.818 I-7.774 J-4.005 F900.
G02 X134.747 Y19.034 I.621 J-.784 F2000.
X135.422 Y18.772 I0.0 J-1.
G03 X136.814 Y18.231 I1.391 J1.519
G01 Y20.477
Z-4.
G00 Z-3.8
G01 Z-4.2
Z-5.2 F800.
Y18.231
G03 X138.207 Y18.773 I-.001 J2.06 F2000.
G02 X138.883 Y19.037 I.676 J-.737
X139.504 Y18.821 I0.0 J-1.
G03 X137.289 Y13.001 I6.537 J-5.819 F1200.
G01 X137.29 Y12.951
Y-1.626
X137.289 Y-1.679
G03 X138.053 Y-5.251 I8.738 J0.0
X139.194 Y-7.125 I7.974 J3.572 F1050.
X140.391 Y-8.356 I6.833 J5.446 F900.
X140.785 Y-8.63 I4.97 J6.729
G02 X140.003 Y-9.007 I-.783 J.622 F2000.
X139.487 Y-8.864 I0.0 J1.
G03 X138.424 Y-8.569 I-1.062 J-1.765
X136.69 Y-9.517 I0.0 J-2.06
G02 X135.848 Y-9.977 I-.842 J.54
X135.469 Y-9.903 I0.0 J1.
G03 X136.338 Y-6.059 I-8.068 J3.844 F1200.
G01 Y-6.05
Y12.952
X136.339 Y13.004
G03 X136.12 Y14.948 I-8.745 J0.0
X135.367 Y17.009 I-8.526 J-1.944 F1050.
X134.126 Y18.818 I-7.774 J-4.005 F900.
G02 X134.747 Y19.034 I.621 J-.784 F2000.
X135.422 Y18.772 I0.0 J-1.
G03 X136.814 Y18.231 I1.391 J1.519
G01 Y20.477
Z-4.2
G00 Z-4.
G01 Z-4.4
Z-5.4 F800.
Y18.231
G03 X138.207 Y18.773 I-.001 J2.06 F2000.
G02 X138.883 Y19.037 I.676 J-.737
X139.504 Y18.821 I0.0 J-1.
G03 X137.289 Y13.001 I6.536 J-5.819 F1200.
G01 X137.29 Y12.951
Y-1.626
X137.289 Y-1.679
G03 X138.053 Y-5.251 I8.736 J0.0
X139.194 Y-7.125 I7.973 J3.571 F1050.
X140.391 Y-8.356 I6.832 J5.445 F900.
X140.785 Y-8.63 I4.97 J6.729
G02 X140.003 Y-9.007 I-.783 J.622 F2000.
X139.487 Y-8.864 I0.0 J1.
G03 X138.424 Y-8.569 I-1.063 J-1.765
X136.69 Y-9.517 I0.0 J-2.06
G02 X135.848 Y-9.977 I-.842 J.54
X135.469 Y-9.903 I0.0 J1.
G03 X136.338 Y-6.059 I-8.067 J3.844 F1200.
G01 Y-6.05
Y12.952
X136.339 Y13.004
G03 X136.12 Y14.948 I-8.745 J0.0
X135.367 Y17.009 I-8.526 J-1.944 F1050.
X134.126 Y18.818 I-7.774 J-4.005 F900.
G02 X134.747 Y19.034 I.621 J-.784 F2000.
X135.422 Y18.772 I0.0 J-1.
G03 X136.814 Y18.231 I1.391 J1.519
G01 Y20.477
Z-4.4
G00 Z-4.2
G01 Z-4.6
Z-5.6 F800.
Y18.231
G03 X138.207 Y18.773 I-.001 J2.06 F2000.
G02 X138.883 Y19.037 I.676 J-.737
X139.504 Y18.821 I0.0 J-1.
G03 X137.289 Y13.002 I6.536 J-5.819 F1200.
G01 X137.29 Y12.951
Y-1.626
X137.289 Y-1.68
G03 X138.053 Y-5.251 I8.735 J0.0
X139.194 Y-7.125 I7.971 J3.571 F1050.
X140.391 Y-8.356 I6.83 J5.445 F900.
X140.786 Y-8.63 I4.97 J6.729
G02 X140.003 Y-9.008 I-.783 J.622 F2000.
X139.487 Y-8.864 I0.0 J1.
G03 X138.424 Y-8.569 I-1.063 J-1.765
X136.69 Y-9.517 I0.0 J-2.06
G02 X135.848 Y-9.977 I-.842 J.54
X135.469 Y-9.903 I0.0 J1.
G03 X136.338 Y-6.059 I-8.067 J3.844 F1200.
G01 Y-6.05
Y12.952
X136.339 Y13.004
G03 X136.12 Y14.948 I-8.745 J0.0
X135.367 Y17.009 I-8.526 J-1.944 F1050.
X134.126 Y18.818 I-7.774 J-4.005 F900.
G02 X134.747 Y19.034 I.621 J-.784 F2000.
X135.422 Y18.772 I0.0 J-1.
G03 X136.814 Y18.231 I1.391 J1.519
G01 Y20.477
Z-4.6
G00 Z-4.4
G01 Y20.478 Z-4.8
Z-5.8 F800.
Y18.231
G03 X138.207 Y18.774 I-.001 J2.06 F2000.
G02 X138.883 Y19.037 I.676 J-.737
X139.504 Y18.821 I0.0 J-1.
G03 X137.289 Y13.002 I6.536 J-5.819 F1200.
G01 X137.29 Y12.951
Y-1.626
X137.289 Y-1.681
G03 X138.053 Y-5.251 I8.733 J0.0
X139.194 Y-7.125 I7.97 J3.571 F1050.
X140.391 Y-8.356 I6.828 J5.444 F900.
X140.786 Y-8.63 I4.97 J6.729
G02 X140.003 Y-9.008 I-.783 J.622 F2000.
X139.487 Y-8.864 I0.0 J1.
G03 X138.424 Y-8.569 I-1.063 J-1.765
X136.69 Y-9.517 I0.0 J-2.06
G02 X135.848 Y-9.978 I-.842 J.54
X135.469 Y-9.903 I0.0 J1.
G03 X136.338 Y-6.059 I-8.066 J3.844 F1200.
G01 Y-6.05
Y12.952
X136.339 Y13.004
G03 X136.12 Y14.948 I-8.744 J0.0
X135.367 Y17.009 I-8.526 J-1.944 F1050.
X134.126 Y18.818 I-7.773 J-4.005 F900.
G02 X134.747 Y19.034 I.621 J-.784 F2000.
X135.422 Y18.772 I0.0 J-1.
G03 X136.814 Y18.231 I1.391 J1.519
G01 Y20.478
Z-4.8
G00 Z-4.6
G01 Z-5.
Z-6. F800.
Y18.231
G03 X138.207 Y18.774 I-.001 J2.06 F2000.
G02 X138.883 Y19.037 I.676 J-.737
X139.504 Y18.821 I0.0 J-1.
G03 X137.289 Y13.002 I6.535 J-5.819 F1200.
G01 X137.29 Y12.951
Y-1.626
X137.289 Y-1.682
G03 X138.053 Y-5.252 I8.732 J0.0
X139.194 Y-7.125 I7.968 J3.57 F1050.
X140.391 Y-8.356 I6.827 J5.444 F900.
X140.786 Y-8.63 I4.97 J6.729
G02 X140.003 Y-9.008 I-.783 J.622 F2000.
X139.487 Y-8.865 I0.0 J1.
G03 X138.424 Y-8.569 I-1.063 J-1.765
X136.69 Y-9.518 I0.0 J-2.06
G02 X135.848 Y-9.978 I-.842 J.54
X135.469 Y-9.903 I0.0 J1.
G03 X136.338 Y-6.06 I-8.065 J3.844 F1200.
G01 Y-6.05
Y12.952
X136.339 Y13.004
G03 X136.12 Y14.948 I-8.744 J0.0
X135.367 Y17.009 I-8.525 J-1.944 F1050.
X134.126 Y18.818 I-7.773 J-4.005 F900.
G02 X134.747 Y19.034 I.621 J-.784 F2000.
X135.422 Y18.772 I0.0 J-1.
G03 X136.814 Y18.231 I1.391 J1.519
G01 Y20.478
Z-5.
G00 Z-4.8
G01 Z-5.2
Z-6.2 F800.
Y18.231
G03 X138.207 Y18.774 I-.001 J2.06 F2000.
G02 X138.883 Y19.037 I.676 J-.737
X139.504 Y18.821 I0.0 J-1.
G03 X137.289 Y13.002 I6.535 J-5.818 F1200.
G01 X137.29 Y12.951
Y-1.626
X137.289 Y-1.682
G03 X138.053 Y-5.252 I8.73 J0.0
X139.194 Y-7.126 I7.967 J3.57 F1050.
X140.391 Y-8.356 I6.825 J5.443 F900.
X140.786 Y-8.63 I4.97 J6.729
G02 X140.003 Y-9.008 I-.783 J.622 F2000.
X139.487 Y-8.865 I0.0 J1.
G03 X138.424 Y-8.569 I-1.063 J-1.765
X136.69 Y-9.518 I0.0 J-2.06
G02 X135.848 Y-9.978 I-.842 J.54
X135.469 Y-9.903 I0.0 J1.
G03 X136.338 Y-6.06 I-8.065 J3.844 F1200.
G01 Y-6.05
Y12.952
X136.339 Y13.004
G03 X136.12 Y14.948 I-8.744 J0.0
X135.367 Y17.009 I-8.525 J-1.944 F1050.
X134.126 Y18.818 I-7.773 J-4.005 F900.
G02 X134.747 Y19.034 I.621 J-.784 F2000.
X135.422 Y18.772 I0.0 J-1.
G03 X136.814 Y18.231 I1.391 J1.519
G01 Y20.478
Z-5.2
G00 Z-5.
G01 Z-5.4
Z-6.4 F800.
Y18.231
G03 X138.207 Y18.774 I-.001 J2.06 F2000.
G02 X138.883 Y19.037 I.676 J-.737
X139.504 Y18.821 I0.0 J-1.
G03 X137.289 Y13.002 I6.534 J-5.818 F1200.
G01 X137.29 Y12.951
Y-1.626
X137.289 Y-1.683
G03 X138.052 Y-5.252 I8.728 J0.0
X139.194 Y-7.126 I7.965 J3.569 F1050.
X140.391 Y-8.356 I6.823 J5.443 F900.
X140.786 Y-8.63 I4.97 J6.729
G02 X140.003 Y-9.008 I-.783 J.622 F2000.
X139.487 Y-8.865 I0.0 J1.
G03 X138.424 Y-8.57 I-1.063 J-1.765
X136.69 Y-9.518 I0.0 J-2.06
G02 X135.848 Y-9.978 I-.842 J.54
X135.469 Y-9.904 I0.0 J1.
G03 X136.338 Y-6.06 I-8.064 J3.843 F1200.
G01 Y-6.05
Y12.952
X136.339 Y13.004
G03 X136.12 Y14.948 I-8.744 J0.0
X135.367 Y17.009 I-8.525 J-1.944 F1050.
X134.126 Y18.818 I-7.773 J-4.005 F900.
G02 X134.747 Y19.035 I.621 J-.784 F2000.
X135.422 Y18.772 I0.0 J-1.
G03 X136.814 Y18.231 I1.391 J1.519
G01 Y20.478
Z-5.4
G00 Z-5.2
G01 Z-5.6
Z-6.6 F800.
Y18.231
G03 X138.207 Y18.774 I-.001 J2.06 F2000.
G02 X138.883 Y19.037 I.676 J-.737
X139.504 Y18.821 I0.0 J-1.
G03 X137.289 Y13.003 I6.534 J-5.818 F1200.
G01 X137.29 Y12.951
Y-1.626
X137.289 Y-1.684
G03 X138.052 Y-5.252 I8.727 J0.0
X139.194 Y-7.126 I7.964 J3.569 F1050.
X140.391 Y-8.356 I6.822 J5.442 F900.
X140.786 Y-8.63 I4.97 J6.729
G02 X140.003 Y-9.008 I-.783 J.622 F2000.
X139.487 Y-8.865 I0.0 J1.
G03 X138.425 Y-8.57 I-1.063 J-1.765
X136.69 Y-9.518 I0.0 J-2.06
G02 X135.848 Y-9.978 I-.842 J.54
X135.469 Y-9.904 I0.0 J1.
G03 X136.338 Y-6.06 I-8.064 J3.843 F1200.
G01 Y-6.05
Y12.952
X136.339 Y13.004
G03 X136.12 Y14.948 I-8.744 J0.0
X135.367 Y17.009 I-8.525 J-1.944 F1050.
X134.126 Y18.818 I-7.772 J-4.005 F900.
G02 X134.747 Y19.035 I.621 J-.784 F2000.
X135.422 Y18.772 I0.0 J-1.
G03 X136.814 Y18.231 I1.391 J1.519
G01 Y20.478
Z-5.6
G00 Z-5.4
G01 Z-5.8
Z-6.8 F800.
Y18.231
G03 X138.207 Y18.774 I-.001 J2.06 F2000.
G02 X138.883 Y19.037 I.676 J-.737
X139.504 Y18.821 I0.0 J-1.
G03 X137.289 Y13.003 I6.534 J-5.818 F1200.
G01 X137.29 Y12.951
Y-1.626
X137.289 Y-1.684
G03 X138.052 Y-5.253 I8.725 J0.0
X139.194 Y-7.126 I7.962 J3.568 F1050.
X140.391 Y-8.356 I6.82 J5.442 F900.
X140.786 Y-8.63 I4.97 J6.729
G02 X140.003 Y-9.009 I-.783 J.622 F2000.
X139.487 Y-8.865 I0.0 J1.
G03 X138.425 Y-8.57 I-1.063 J-1.765
X136.69 Y-9.518 I0.0 J-2.06
G02 X135.849 Y-9.978 I-.842 J.54
X135.469 Y-9.904 I0.0 J1.
G03 X136.338 Y-6.061 I-8.06 J3.842 F1200.
G01 Y-6.05
Y12.952
X136.339 Y13.004
G03 X136.12 Y14.948 I-8.743 J0.0
X135.367 Y17.009 I-8.525 J-1.944 F1050.
X134.126 Y18.818 I-7.772 J-4.005 F900.
G02 X134.747 Y19.035 I.621 J-.784 F2000.
X135.422 Y18.772 I0.0 J-1.
G03 X136.814 Y18.231 I1.391 J1.519
G01 Y20.478
Z-5.8
G00 Z-5.6
G01 Z-6.
Z-7. F800.
Y18.231
G03 X138.207 Y18.774 I-.001 J2.06 F2000.
G02 X138.883 Y19.037 I.676 J-.737
X139.504 Y18.821 I0.0 J-1.
G03 X137.289 Y13.003 I6.533 J-5.818 F1200.
G01 X137.29 Y12.951
Y-1.626
X137.289 Y-1.685
G03 X138.052 Y-5.253 I8.724 J0.0
X139.194 Y-7.127 I7.961 J3.568 F1050.
X140.391 Y-8.356 I6.819 J5.441 F900.
X140.787 Y-8.631 I4.97 J6.729
G02 X140.003 Y-9.009 I-.783 J.622 F2000.
X139.487 Y-8.865 I0.0 J1.
G03 X138.425 Y-8.57 I-1.063 J-1.765
X136.69 Y-9.518 I0.0 J-2.06
G02 X135.849 Y-9.978 I-.842 J.54
X135.469 Y-9.904 I0.0 J1.
G03 X136.338 Y-6.062 I-8.06 J3.842 F1200.
G01 Y-6.05
Y12.952
X136.339 Y13.005
G03 X136.12 Y14.948 I-8.743 J0.0
X135.367 Y17.009 I-8.524 J-1.944 F1050.
X134.126 Y18.818 I-7.772 J-4.005 F900.
G02 X134.747 Y19.035 I.621 J-.784 F2000.
X135.422 Y18.772 I0.0 J-1.
G03 X136.814 Y18.231 I1.391 J1.519
G01 Y20.478
Z-6.
G00 Z-5.8
G01 Z-6.2
Z-7.2 F800.
Y18.231
G03 X138.207 Y18.774 I-.001 J2.06 F2000.
G02 X138.883 Y19.037 I.676 J-.737
X139.504 Y18.821 I0.0 J-1.
G03 X137.289 Y13.003 I6.533 J-5.818 F1200.
G01 X137.29 Y12.951
Y-1.626
X137.289 Y-1.686
G03 X138.052 Y-5.253 I8.722 J0.0
X139.194 Y-7.127 I7.959 J3.567 F1050.
X140.391 Y-8.356 I6.817 J5.441 F900.
X140.787 Y-8.631 I4.97 J6.729
G02 X140.004 Y-9.009 I-.783 J.622 F2000.
X139.488 Y-8.865 I0.0 J1.
G03 X138.425 Y-8.57 I-1.063 J-1.765
X136.69 Y-9.518 I0.0 J-2.06
G02 X135.849 Y-9.978 I-.842 J.54
X135.469 Y-9.904 I0.0 J1.
G03 X136.338 Y-6.062 I-8.059 J3.842 F1200.
G01 Y-6.05
Y12.952
X136.339 Y13.005
G03 X136.12 Y14.948 I-8.743 J0.0
X135.367 Y17.009 I-8.524 J-1.944 F1050.
X134.126 Y18.818 I-7.772 J-4.005 F900.
G02 X134.747 Y19.035 I.621 J-.784 F2000.
X135.422 Y18.772 I0.0 J-1.
G03 X136.814 Y18.231 I1.391 J1.519
G01 Y20.478
Z-6.2
G00 Z-6.
G01 Z-6.4
Z-7.4 F800.
Y18.231
G03 X138.207 Y18.774 I-.001 J2.06 F2000.
G02 X138.883 Y19.037 I.676 J-.737
X139.504 Y18.821 I0.0 J-1.
G03 X137.289 Y13.003 I6.533 J-5.817 F1200.
G01 X137.29 Y12.951
Y-1.626
X137.289 Y-1.687
G03 X138.052 Y-5.254 I8.721 J0.0
X139.194 Y-7.127 I7.958 J3.567 F1050.
X140.391 Y-8.356 I6.815 J5.44 F900.
X140.787 Y-8.631 I4.97 J6.729
G02 X140.004 Y-9.009 I-.783 J.622 F2000.
X139.488 Y-8.866 I0.0 J1.
G03 X138.425 Y-8.57 I-1.063 J-1.765
X136.69 Y-9.518 I0.0 J-2.06
G02 X135.849 Y-9.979 I-.842 J.54
X135.469 Y-9.904 I0.0 J1.
G03 X136.338 Y-6.062 I-8.058 J3.842 F1200.
G01 Y-6.05
Y12.952
X136.339 Y13.005
G03 X136.12 Y14.948 I-8.743 J0.0
X135.367 Y17.01 I-8.524 J-1.944 F1050.
X134.125 Y18.818 I-7.771 J-4.005 F900.
G02 X134.747 Y19.035 I.621 J-.784 F2000.
X135.422 Y18.772 I0.0 J-1.
G03 X136.814 Y18.231 I1.391 J1.519
G01 Y20.478
Z-6.4
G00 Z-6.2
G01 Z-6.6
Z-7.6 F800.
Y18.231
G03 X138.207 Y18.774 I-.001 J2.06 F2000.
G02 X138.883 Y19.037 I.676 J-.737
X139.504 Y18.821 I0.0 J-1.
G03 X137.289 Y13.003 I6.532 J-5.817 F1200.
G01 X137.29 Y12.951
Y-1.626
X137.289 Y-1.684
G03 X138.053 Y-5.254 I8.727 J0.0
X139.196 Y-7.128 I7.963 J3.571 F1050.
X140.391 Y-8.356 I6.821 J5.444 F900.
X140.788 Y-8.631 I4.97 J6.729
G02 X140.005 Y-9.01 I-.783 J.622 F2000.
X139.488 Y-8.866 I0.0 J1.
G03 X138.425 Y-8.57 I-1.064 J-1.764
X136.69 Y-9.518 I0.0 J-2.06
G02 X135.849 Y-9.979 I-.842 J.54
X135.469 Y-9.904 I0.0 J1.
G03 X136.338 Y-6.062 I-8.058 J3.842 F1200.
G01 Y-6.05
Y12.952
X136.339 Y13.005
G03 X136.12 Y14.948 I-8.742 J0.0
X135.367 Y17.01 I-8.523 J-1.943 F1050.
X134.125 Y18.818 I-7.771 J-4.005 F900.
G02 X134.747 Y19.035 I.621 J-.784 F2000.
X135.422 Y18.772 I0.0 J-1.
G03 X136.814 Y18.231 I1.391 J1.519
G01 Y20.478
Z-6.6
G00 Z-6.4
G01 Z-6.8
Z-7.8 F800.
Y18.231
G03 X138.207 Y18.774 I-.001 J2.06 F2000.
G02 X138.883 Y19.037 I.676 J-.737
X139.504 Y18.821 I0.0 J-1.
G03 X137.289 Y13.003 I6.532 J-5.817 F1200.
G01 X137.29 Y12.951
Y-1.626
X137.289 Y-1.684
G03 X138.053 Y-5.254 I8.727 J0.0
X139.196 Y-7.128 I7.963 J3.571 F1050.
X140.391 Y-8.356 I6.82 J5.444 F900.
X140.788 Y-8.632 I4.97 J6.729
G02 X140.005 Y-9.01 I-.783 J.622 F2000.
X139.488 Y-8.866 I0.0 J1.
G03 X138.425 Y-8.57 I-1.064 J-1.764
X136.69 Y-9.519 I0.0 J-2.06
G02 X135.849 Y-9.979 I-.842 J.54
X135.47 Y-9.904 I0.0 J1.
G03 X136.338 Y-6.063 I-8.057 J3.841 F1200.
G01 Y-6.05
Y12.952
X136.339 Y13.005
G03 X136.12 Y14.948 I-8.742 J0.0
X135.367 Y17.01 I-8.523 J-1.943 F1050.
X134.125 Y18.818 I-7.771 J-4.005 F900.
G02 X134.747 Y19.035 I.621 J-.784 F2000.
X135.422 Y18.772 I0.0 J-1.
G03 X136.814 Y18.231 I1.391 J1.519
G01 Y20.478
Z-6.8
G00 Z-6.6
G01 Z-7.
Z-8. F800.
Y18.231
G03 X138.207 Y18.774 I-.001 J2.06 F2000.
G02 X138.883 Y19.037 I.676 J-.737
X139.504 Y18.821 I0.0 J-1.
G03 X137.289 Y13.004 I6.532 J-5.817 F1200.
G01 X137.29 Y12.951
Y-1.626
X137.289 Y-1.684
G03 X138.053 Y-5.255 I8.726 J0.0
X139.196 Y-7.128 I7.962 J3.571 F1050.
X140.391 Y-8.356 I6.82 J5.444 F900.
X140.788 Y-8.632 I4.97 J6.729
G02 X140.005 Y-9.01 I-.783 J.622 F2000.
X139.489 Y-8.866 I0.0 J1.
G03 X138.425 Y-8.57 I-1.064 J-1.764
X136.689 Y-9.522 I0.0 J-2.06
G02 X135.846 Y-9.983 I-.843 J.538
X135.466 Y-9.909 I0.0 J1.
G03 X136.338 Y-6.055 I-8.078 J3.854 F1200.
G01 Y12.952
X136.339 Y13.005
G03 X136.12 Y14.948 I-8.742 J0.0
X135.367 Y17.01 I-8.523 J-1.943 F1050.
X134.125 Y18.819 I-7.771 J-4.004 F900.
G02 X134.747 Y19.035 I.621 J-.784 F2000.
X135.422 Y18.772 I0.0 J-1.
G03 X136.814 Y18.231 I1.391 J1.519
G01 Y20.478
Z-7.
G00 Z-6.8
G01 Z-7.2
Z-8.2 F800.
Y18.231
G03 X138.207 Y18.774 I-.001 J2.06 F2000.
G02 X138.883 Y19.037 I.676 J-.737
X139.504 Y18.821 I0.0 J-1.
G03 X137.289 Y13.004 I6.532 J-5.817 F1200.
G01 X137.29 Y12.951
Y-1.626
X137.289 Y-1.684
G03 X138.054 Y-5.255 I8.727 J0.0
X139.196 Y-7.128 I7.962 J3.571 F1050.
X140.391 Y-8.356 I6.82 J5.445 F900.
X140.789 Y-8.632 I4.97 J6.729
G02 X140.005 Y-9.01 I-.783 J.622 F2000.
X139.489 Y-8.867 I0.0 J1.
G03 X138.425 Y-8.571 I-1.064 J-1.764
X136.689 Y-9.522 I0.0 J-2.06
G02 X135.846 Y-9.983 I-.843 J.538
X135.466 Y-9.909 I0.0 J1.
G03 X136.338 Y-6.056 I-8.076 J3.853 F1200.
G01 Y12.952
X136.339 Y13.005
G03 X136.12 Y14.949 I-8.741 J0.0
X135.367 Y17.01 I-8.523 J-1.943 F1050.
X134.125 Y18.819 I-7.77 J-4.004 F900.
G02 X134.747 Y19.035 I.621 J-.784 F2000.
X135.422 Y18.772 I0.0 J-1.
G03 X136.814 Y18.231 I1.391 J1.519
G01 Y20.478
Z-7.2
G00 Z-7.
G01 Z-7.4
Z-8.4 F800.
Y18.231
G03 X138.207 Y18.774 I-.001 J2.06 F2000.
G02 X138.883 Y19.037 I.676 J-.737
X139.504 Y18.821 I0.0 J-1.
G03 X137.289 Y13.004 I6.531 J-5.817 F1200.
G01 X137.29 Y12.951
Y-1.626
X137.289 Y-1.684
G03 X138.054 Y-5.255 I8.726 J0.0
X139.196 Y-7.129 I7.962 J3.571 F1050.
X140.391 Y-8.356 I6.819 J5.445 F900.
X140.789 Y-8.632 I4.97 J6.729
G02 X140.006 Y-9.011 I-.783 J.621 F2000.
X139.489 Y-8.867 I0.0 J1.
G03 X138.425 Y-8.571 I-1.064 J-1.764
X136.689 Y-9.522 I0.0 J-2.06
G02 X135.846 Y-9.983 I-.843 J.538
X135.467 Y-9.908 I0.0 J1.
G03 X136.338 Y-6.056 I-8.075 J3.852 F1200.
G01 Y12.952
X136.339 Y13.005
G03 X136.12 Y14.949 I-8.741 J0.0
X135.367 Y17.01 I-8.522 J-1.943 F1050.
X134.125 Y18.819 I-7.77 J-4.004 F900.
G02 X134.747 Y19.035 I.621 J-.784 F2000.
X135.422 Y18.772 I0.0 J-1.
G03 X136.814 Y18.231 I1.391 J1.519
G01 Y20.478
Z-7.4
G00 Z-7.2
G01 Z-7.6
Z-8.6 F800.
Y18.231
G03 X138.207 Y18.774 I-.001 J2.06 F2000.
G02 X138.883 Y19.037 I.676 J-.737
X139.504 Y18.821 I0.0 J-1.
G03 X137.289 Y13.004 I6.531 J-5.817 F1200.
G01 X137.29 Y12.951
Y-1.626
X137.289 Y-1.684
G03 X138.054 Y-5.256 I8.726 J0.0
X139.196 Y-7.129 I7.961 J3.572 F1050.
X140.391 Y-8.356 I6.819 J5.445 F900.
X140.789 Y-8.632 I4.97 J6.729
G02 X140.006 Y-9.011 I-.783 J.621 F2000.
X139.489 Y-8.867 I0.0 J1.
G03 X138.425 Y-8.571 I-1.064 J-1.764
X136.689 Y-9.522 I0.0 J-2.06
G02 X135.846 Y-9.983 I-.843 J.538
X135.467 Y-9.908 I0.0 J1.
G03 X136.338 Y-6.057 I-8.074 J3.851 F1200.
G01 Y12.952
X136.339 Y13.006
G03 X136.12 Y14.949 I-8.741 J0.0
X135.367 Y17.01 I-8.522 J-1.943 F1050.
X134.125 Y18.819 I-7.77 J-4.004 F900.
G02 X134.747 Y19.035 I.621 J-.784 F2000.
X135.422 Y18.772 I0.0 J-1.
G03 X136.814 Y18.231 I1.391 J1.519
G01 Y20.478
Z-7.6
G00 Z-7.4
G01 Z-7.8
Z-8.8 F800.
Y18.231
G03 X138.206 Y18.774 I-.001 J2.06 F2000.
G02 X138.882 Y19.037 I.676 J-.737
X139.503 Y18.821 I0.0 J-1.
G03 X137.289 Y12.999 I6.551 J-5.822 F1200.
G01 X137.29 Y12.951
Y-1.626
X137.289 Y-1.679
G03 X138.051 Y-5.248 I8.743 J0.0
X139.191 Y-7.123 I7.982 J3.569 F1050.
X140.359 Y-8.332 I6.842 J5.443 F900.
X140.782 Y-8.628 I5.001 J6.705
G02 X139.998 Y-9.006 I-.784 J.621 F2000.
X139.484 Y-8.864 I0.0 J1.
G03 X138.425 Y-8.571 I-1.059 J-1.767
X136.689 Y-9.522 I0.0 J-2.06
G02 X135.846 Y-9.983 I-.843 J.539
X135.467 Y-9.908 I0.0 J1.
G03 X136.338 Y-6.058 I-8.072 J3.851 F1200.
G01 Y12.952
X136.339 Y13.006
G03 X136.12 Y14.949 I-8.741 J0.0
X135.367 Y17.01 I-8.522 J-1.943 F1050.
X134.125 Y18.819 I-7.769 J-4.004 F900.
G02 X134.747 Y19.035 I.621 J-.784 F2000.
X135.422 Y18.772 I0.0 J-1.
G03 X136.814 Y18.231 I1.391 J1.519
G01 Y20.478
Z-7.8
G00 Z1.
X125.761 Y10.335
G01 Z.1
Y12.953 Z.009 F800.
Y13.342 Z-.005
X126.088 Y14.249 Z-.039
X126.729 Y14.969 Z-.072
X127.593 Y15.398 Z-.106
X128.555 Y15.472 Z-.14
X129.305 Y15.267 Z-.167
X130.002 Y14.802 Z-.196
X130.51 Y14.137 Z-.225
X130.773 Y13.342 Z-.255
Y12.953 Z-.268
Y3.451 Z-.6
Y-6.051 F1200.
G02 X128.267 Y-8.557 I-2.506 J0.0
X125.761 Y-6.051 I0.0 J2.506
G01 Y12.953
G02 X128.267 Y15.459 I2.506 J0.0
X130.773 Y12.953 I0.0 J-2.506
G01 Y3.451
X128.973 F2000.
Y-6.051
G02 X128.267 Y-6.757 I-.706 J0.0
X127.561 Y-6.051 I0.0 J.706
G01 Y12.953
G02 X128.267 Y13.659 I.706 J0.0
X128.973 Y12.953 I0.0 J-.706
G01 Y3.451
X129.148 Y1.458
Z.4
G00 Z1.
X130.756 Y12.042
G01 Z-.5
Y3.451 Z-.8 F800.
Y-6.051 F1200.
G02 X128.267 Y-8.54 I-2.488 J0.0
X125.779 Y-6.051 I0.0 J2.488
G01 Y12.953
G02 X128.267 Y15.441 I2.488 J0.0
X130.756 Y12.953 I0.0 J-2.488
G01 Y3.451
X128.956 F2000.
Y-6.051
G02 X128.267 Y-6.74 I-.688 J0.0
X127.579 Y-6.051 I0.0 J.688
G01 Y12.953
G02 X128.267 Y13.641 I.688 J0.0
X128.956 Y12.953 I0.0 J-.688
G01 Y3.451
X129.13 Y1.458
Z.2
G00 Z.4
X130.756 Y12.042
G01 Z-.7
Y3.451 Z-1. F800.
Y-6.051 F1200.
G02 X128.267 Y-8.54 I-2.488 J0.0
X125.779 Y-6.051 I0.0 J2.488
G01 Y12.953
G02 X128.267 Y15.441 I2.488 J0.0
X130.756 Y12.953 I0.0 J-2.488
G01 Y3.451
X128.956 F2000.
Y-6.051
G02 X128.267 Y-6.74 I-.688 J0.0
X127.579 Y-6.051 I0.0 J.688
G01 Y12.953
G02 X128.267 Y13.641 I.688 J0.0
X128.956 Y12.953 I0.0 J-.688
G01 Y3.451
X129.13 Y1.458
Z0.0
G00 Z.2
X130.756 Y12.042
G01 Z-.9
Y3.451 Z-1.2 F800.
Y-6.051 F1200.
G02 X128.267 Y-8.54 I-2.488 J0.0
X125.779 Y-6.051 I0.0 J2.488
G01 Y12.953
G02 X128.267 Y15.441 I2.488 J0.0
X130.756 Y12.953 I0.0 J-2.488
G01 Y3.451
X128.956 F2000.
Y-6.051
G02 X128.267 Y-6.74 I-.688 J0.0
X127.579 Y-6.051 I0.0 J.688
G01 Y12.953
G02 X128.267 Y13.641 I.688 J0.0
X128.956 Y12.953 I0.0 J-.688
G01 Y3.451
X129.13 Y1.458
Z-.2
G00 Z0.0
X130.756 Y12.042
G01 Z-1.1
Y3.451 Z-1.4 F800.
Y-6.051 F1200.
G02 X128.267 Y-8.54 I-2.488 J0.0
X125.779 Y-6.051 I0.0 J2.488
G01 Y12.953
G02 X128.267 Y15.441 I2.488 J0.0
X130.756 Y12.953 I0.0 J-2.488
G01 Y3.451
X128.956 F2000.
Y-6.051
G02 X128.267 Y-6.74 I-.688 J0.0
X127.579 Y-6.051 I0.0 J.688
G01 Y12.953
G02 X128.267 Y13.641 I.688 J0.0
X128.956 Y12.953 I0.0 J-.688
G01 Y3.451
X129.13 Y1.458
Z-.4
G00 Z-.2
X130.756 Y12.042
G01 Z-1.3
Y3.451 Z-1.6 F800.
Y-6.051 F1200.
G02 X128.267 Y-8.54 I-2.488 J0.0
X125.779 Y-6.051 I0.0 J2.488
G01 Y12.953
G02 X128.267 Y15.441 I2.488 J0.0
X130.756 Y12.953 I0.0 J-2.488
G01 Y3.451
X128.956 F2000.
Y-6.051
G02 X128.267 Y-6.74 I-.688 J0.0
X127.579 Y-6.051 I0.0 J.688
G01 Y12.953
G02 X128.267 Y13.641 I.688 J0.0
X128.956 Y12.953 I0.0 J-.688
G01 Y3.451
X129.13 Y1.458
Z-.6
G00 Z-.4
X130.756 Y12.042
G01 Z-1.5
Y3.451 Z-1.8 F800.
Y-6.051 F1200.
G02 X128.267 Y-8.54 I-2.488 J0.0
X125.779 Y-6.051 I0.0 J2.488
G01 Y12.953
G02 X128.267 Y15.441 I2.488 J0.0
X130.756 Y12.953 I0.0 J-2.488
G01 Y3.451
X128.956 F2000.
Y-6.051
G02 X128.267 Y-6.74 I-.688 J0.0
X127.579 Y-6.051 I0.0 J.688
G01 Y12.953
G02 X128.267 Y13.641 I.688 J0.0
X128.956 Y12.953 I0.0 J-.688
G01 Y3.451
X129.13 Y1.458
Z-.8
G00 Z1.
X119.245 Y20.131
G01 Z.4
Z-.6 F800.
X121.11 Y18.091
G02 X121.785 Y18.353 I.675 J-.738 F2000.
X122.399 Y18.143 I0.0 J-1.
G03 X120.433 Y12.953 I5.869 J-5.19 F1200.
G01 Y-6.051
G03 X120.648 Y-7.876 I7.835 J0.0
X121.452 Y-9.916 I7.619 J1.825 F1050.
X122.79 Y-11.653 I6.815 J3.865 F900.
G02 X122.121 Y-11.91 I-.669 J.743 F2000.
X121.502 Y-11.695 I0.0 J1.
G03 X120.226 Y-11.252 I-1.276 J-1.617
X118.719 Y-11.908 I0.0 J-2.06
G02 X117.987 Y-12.226 I-.732 J.682
X117.439 Y-12.063 I0.0 J1.
G03 X119.008 Y-7.358 I-6.265 J4.704 F1200.
G01 Y12.953
G03 X118.905 Y14.221 I-7.835 J0.0
X118.251 Y16.313 I-7.731 J-1.268 F1050.
X117.042 Y18.143 I-7.077 J-3.361 F900.
G02 X117.656 Y18.353 I.613 J-.79 F2000.
X118.33 Y18.091 I0.0 J-1.
G03 X119.721 Y17.552 I1.39 J1.52
X121.11 Y18.091 I0.0 J2.06
G01 X119.247 Y20.13
Z.4
G00 Z1.
X119.277 Y20.151
G01 Z.2
Z-.8 F800.
X121.09 Y18.114
X121.106 Y18.128 F2000.
G02 X121.778 Y18.388 I.673 J-.74
X122.394 Y18.176 I0.0 J-1.
G03 X120.407 Y12.953 I5.873 J-5.223 F1200.
G01 Y-6.051
G03 X120.632 Y-7.917 I7.86 J0.0
X121.445 Y-9.954 I7.635 J1.866 F1050.
X122.788 Y-11.687 I6.823 J3.903 F900.
G02 X122.117 Y-11.945 I-.671 J.741 F2000.
X121.5 Y-11.732 I0.0 J1.
G03 X120.229 Y-11.293 I-1.271 J-1.621
X118.726 Y-11.944 I0.0 J-2.06
G02 X117.997 Y-12.261 I-.73 J.684
X117.446 Y-12.095 I0.0 J1.
G03 X119.034 Y-7.358 I-6.272 J4.737 F1200.
G01 Y12.953
G03 X118.924 Y14.26 I-7.86 J0.0
X118.261 Y16.35 I-7.75 J-1.307 F1050.
X117.047 Y18.176 I-7.088 J-3.397 F900.
G02 X117.663 Y18.388 I.616 J-.788 F2000.
X118.335 Y18.128 I0.0 J-1.
G03 X119.721 Y17.593 I1.385 J1.525
X121.09 Y18.114 I0.0 J2.06
G01 X119.277 Y20.151
Z.2
G00 Z.4
X119.292 Y20.166
G01 Z0.0
Z-1. F800.
X121.079 Y18.127
X121.104 Y18.149 F2000.
G02 X121.775 Y18.408 I.671 J-.741
X122.389 Y18.197 I0.0 J-1.
G03 X122.318 Y18.11 I5.172 J-4.353 F1200.
X120.393 Y12.953 I5.95 J-5.157
G01 Y-6.053
G03 X120.629 Y-7.964 I7.874 J.002
X121.453 Y-9.996 I7.638 J1.913 F1050.
X122.125 Y-10.978 I6.814 J3.945 F900.
X122.79 Y-11.736 I5.568 J4.217
G02 X122.13 Y-11.985 I-.66 J.751 F2000.
X121.508 Y-11.768 I0.0 J1.
G03 X120.227 Y-11.321 I-1.281 J-1.613
X118.728 Y-11.969 I0.0 J-2.06
G02 X118. Y-12.283 I-.728 J.686
X117.447 Y-12.117 I0.0 J1.
G03 X119.048 Y-7.358 I-6.273 J4.758 F1200.
G01 Y12.953
G03 X118.934 Y14.286 I-7.874 J0.0
X118.265 Y16.375 I-7.76 J-1.334 F1050.
X117.127 Y18.106 I-7.091 J-3.422 F900.
X117.048 Y18.199 I-6.032 J-5.08
G02 X117.664 Y18.411 I.616 J-.788 F2000.
X118.336 Y18.151 I0.0 J-1.
G03 X119.721 Y17.616 I1.385 J1.525
X121.079 Y18.127 I0.0 J2.06
G01 X119.292 Y20.166
Z0.0
G00 Z.2
X119.297 Y20.281
G01 Z-.2
Z-1.2 F800.
X121.031 Y18.185
G03 X121.152 Y18.293 I-1.313 J1.587 F2000.
G02 X121.848 Y18.575 I.696 J-.718
X122.432 Y18.386 I0.0 J-1.
G03 X121.685 Y17.3 I5.517 J-4.594 F1200.
X120.379 Y12.953 I6.582 J-4.347
G01 Y-6.051
G03 X120.658 Y-8.129 I7.888 J0.0
X121.524 Y-10.144 I7.609 J2.078 F1050.
X121.681 Y-10.391 I6.743 J4.092 F900.
X122.827 Y-11.909 I6.893 J4.014
G02 X122.18 Y-12.147 I-.647 J.762 F2000.
X121.53 Y-11.907 I0.0 J1.
G03 X120.191 Y-11.412 I-1.339 J-1.565
X118.69 Y-12.062 I0.0 J-2.06
G02 X117.961 Y-12.377 I-.729 J.685
X117.426 Y-12.221 I0.0 J1.
G03 X117.971 Y-11.36 I-15.618 J10.486 F1200.
X119.062 Y-7.358 I-6.798 J4.001
G01 Y12.953
G03 X118.914 Y14.473 I-7.888 J0.0
X118.196 Y16.545 I-7.74 J-1.52 F1050.
X117.759 Y17.294 I-7.022 J-3.592 F900.
X116.995 Y18.384 I-6.889 J-4.02
G02 X117.586 Y18.577 I.591 J-.807 F2000.
X118.283 Y18.295 I0.0 J-1.
G03 X119.718 Y17.712 I1.435 J1.478
X121.031 Y18.185 I0.0 J2.06
G01 X119.297 Y20.281
Z-.2
G00 Z0.0
X119.713 Y20.421
G01 Z-.4
Z-1.4 F800.
X119.725 Y18.156
G03 X121.26 Y18.855 I-.011 J2.06 F2000.
G02 X122.01 Y19.193 I.75 J-.661
X122.588 Y19.009 I0.0 J-1.
G03 X122.021 Y18.212 I3.825 J-3.323 F1050.
X121.618 Y17.321 I4.392 J-2.526 F900.
X121.239 Y16.565 I9.585 J-5.267
X120.726 Y15.313 I7.028 J-3.612
X120.365 Y12.953 I7.541 J-2.361 F1200.
G01 Y-6.051
G03 X120.784 Y-8.588 I7.902 J0.0
X121.165 Y-9.514 I7.484 J2.537 F1050.
G01 X121.677 Y-10.596
X121.888 Y-11.04 F900.
G03 X122.876 Y-12.422 I4.151 J1.924
G02 X122.233 Y-12.656 I-.643 J.766 F2000.
X121.568 Y-12.402 I0.0 J1.
G03 X120.197 Y-11.88 I-1.371 J-1.537
X118.477 Y-12.805 I0.0 J-2.06
G02 X117.643 Y-13.254 I-.835 J.551
X117.158 Y-13.129 I0.0 J1.
G03 X117.68 Y-12.152 I-2.817 J2.131 F1200.
G02 X118.198 Y-10.978 I7.356 J-2.544
G03 X119.076 Y-7.358 I-7.024 J3.62
G01 Y12.953
G03 X118.79 Y15.058 I-7.902 J0.0
X118.31 Y16.345 I-7.616 J-2.105 F1050.
G01 X117.953 Y17.088
X117.607 Y17.809 F900.
G03 X116.879 Y18.999 I-4.055 J-1.663
G02 X117.439 Y19.17 I.56 J-.829 F2000.
X118.183 Y18.839 I0.0 J-1.
G03 X119.714 Y18.156 I1.532 J1.378
G01 X119.725
X119.713 Y20.421
Z-.4
G00 Z-.2
X119.72 Y20.478
G01 Z-.6
Z-1.6 F800.
X119.725 Y18.231
G03 X121.119 Y18.778 I-.004 J2.06 F2000.
G02 X121.798 Y19.044 I.679 J-.734
X122.405 Y18.838 I0.0 J-1.
G03 X121.398 Y17.355 I5.264 J-4.66 F1200.
G02 X120.891 Y15.826 I-23.1 J6.809
G03 X120.351 Y12.953 I7.376 J-2.873
G01 Y-6.051
G03 X120.752 Y-8.539 I7.916 J0.0
G01 X121.412 Y-10.49 F1050.
G03 X121.499 Y-10.654 I6.038 J3.107
X122.503 Y-12.035 I5.95 J3.272 F900.
X122.845 Y-12.384 I6.983 J6.506
G02 X122.167 Y-12.649 I-.678 J.735 F2000.
X121.559 Y-12.444 I0.0 J1.
G03 X120.308 Y-12.02 I-1.251 J-1.637
X120.206 Y-12.023 I0.0 J-2.06
G01 X120.093 Y-12.028
G03 X118.68 Y-12.69 I.102 J-2.057
G02 X117.945 Y-13.012 I-.735 J.678
X117.396 Y-12.848 I0.0 J1.
G03 X117.977 Y-11.954 I-5.46 J4.18 F1200.
G02 X118.635 Y-10.002 I46.57 J-14.617
G03 X119.09 Y-7.358 I-7.461 J2.644
G01 Y12.953
G03 X118.852 Y14.877 I-7.916 J0.0
X118.624 Y15.627 I-7.678 J-1.924 F1050.
G01 X118.159 Y16.964
X117.971 Y17.505 F900.
G03 X117.036 Y18.832 I-6.384 J-3.506
G02 X117.647 Y19.041 I.611 J-.792 F2000.
X118.324 Y18.776 I0.0 J-1.
G03 X119.72 Y18.231 I1.396 J1.515
G01 X119.725
X119.72 Y20.478
Z-.6
G00 Z-.4
Y20.476
G01 Z-.8
Z-1.8 F800.
X119.725 Y18.231
G03 X121.108 Y18.768 I-.004 J2.06 F2000.
G02 X121.781 Y19.028 I.673 J-.739
X122.397 Y18.817 I0.0 J-1.
G03 X121.888 Y18.183 I6.035 J-5.368 F1200.
G01 X121.56 Y17.707
G03 X120.844 Y16.02 I3.763 J-2.591
G02 X120.576 Y14.882 I-17.458 J3.522
G03 X120.337 Y12.953 I7.692 J-1.929
G01 Y-6.051
G03 X120.582 Y-8.006 I7.93 J0.0
X120.715 Y-8.637 I13.154 J2.437
X121.114 Y-10.002 I13.021 J3.068 F1050.
X121.49 Y-10.682 I8.046 J4.007
X122.503 Y-12.035 I7.67 J4.687 F900.
X122.859 Y-12.397 I6.983 J6.506
G02 X122.182 Y-12.661 I-.677 J.736 F2000.
X121.57 Y-12.451 I0.0 J1.
G03 X120.308 Y-12.02 I-1.261 J-1.629
X120.203 Y-12.023 I0.0 J-2.06
G01 X120.09 Y-12.029
G03 X118.702 Y-12.667 I.105 J-2.057
G02 X117.977 Y-12.978 I-.725 J.689
X117.422 Y-12.81 I0.0 J1.
G03 X118.463 Y-10.978 I-6.167 J4.72 F1200.
G01 X118.95 Y-8.909
G03 X119.104 Y-7.358 I-7.777 J1.551
G01 Y12.953
G03 X118.865 Y14.882 I-7.93 J0.0
G01 X118.461 Y16.552 F1050.
G03 X118.281 Y16.964 I-7.199 J-2.906
X117.073 Y18.794 I-7.018 J-3.318 F900.
G02 X117.686 Y19.004 I.614 J-.79 F2000.
X118.351 Y18.752 I0.0 J-1.
G03 X119.72 Y18.231 I1.369 J1.539
G01 X119.725
X119.72 Y20.476
Z-.8
G00 Z-.6
G01 Z-1.
Z-2. F800.
X119.725 Y18.231
G03 X121.098 Y18.759 I-.004 J2.06 F2000.
G02 X121.767 Y19.015 I.669 J-.744
X122.385 Y18.801 I0.0 J-1.
G03 X120.691 Y15.857 I6.268 J-5.566 F1200.
X120.323 Y12.953 I15.163 J-3.393
G01 Y-6.051
G03 X120.624 Y-8.668 I15.203 J.42
X120.696 Y-9.004 I14.903 J3.036 F1050.
X121.487 Y-10.679 I8.308 J2.898
X122.503 Y-12.035 I7.517 J4.574 F900.
X122.856 Y-12.394 I6.983 J6.506
G02 X122.178 Y-12.658 I-.677 J.736 F2000.
X121.567 Y-12.45 I0.0 J1.
G03 X120.308 Y-12.02 I-1.259 J-1.63
X120.2 Y-12.023 I0.0 J-2.06
G01 X120.087 Y-12.029
G03 X118.703 Y-12.666 I.108 J-2.057
G02 X117.979 Y-12.976 I-.724 J.69
X117.42 Y-12.805 I0.0 J1.
G03 X118.818 Y-10.002 I-6.549 J5.018 F1200.
X119.118 Y-7.075 I-16.176 J3.132
G01 Y12.953
G03 X118.935 Y14.903 I-16.083 J-.519
X118.757 Y15.857 I-15.901 J-2.469 F1050.
X118.284 Y16.99 I-8.124 J-2.732
X117.052 Y18.806 I-7.651 J-3.865 F900.
G02 X117.67 Y19.019 I.618 J-.786 F2000.
X118.34 Y18.762 I0.0 J-1.
G03 X119.72 Y18.231 I1.38 J1.529
G01 X119.725
X119.72 Y20.476
Z-1.
G00 Z-.8
G01 Y20.477 Z-1.2
Z-2.2 F800.
X119.725 Y18.231
G03 X121.104 Y18.764 I-.004 J2.06 F2000.
G02 X121.775 Y19.023 I.671 J-.741
X122.395 Y18.808 I0.0 J-1.
G03 X120.408 Y14.882 I6.44 J-5.725 F1200.
X120.282 Y13.166 I11.622 J-1.716
X120.284 Y12.953 I11.748 J0.0
G01 Y-6.051
X120.283 Y-6.175
G03 X120.419 Y-8.024 I12.657 J0.0
X120.589 Y-8.674 I8.523 J1.882
X121.484 Y-10.677 I8.353 J2.532 F1050.
X122.503 Y-12.035 I7.458 J4.535 F900.
X122.853 Y-12.392 I6.983 J6.506
G02 X122.176 Y-12.656 I-.677 J.736 F2000.
X121.566 Y-12.448 I0.0 J1.
G03 X120.308 Y-12.02 I-1.257 J-1.632
X120.197 Y-12.023 I0.0 J-2.06
G01 X120.084 Y-12.029
G03 X118.694 Y-12.675 I.111 J-2.057
G02 X117.966 Y-12.99 I-.729 J.685
X117.403 Y-12.817 I0.0 J1.
G03 X119.077 Y-9.027 I-6.951 J5.335 F1200.
G01 X119.159 Y-7.563
X119.157 Y-7.358
Y12.953
G03 X119.159 Y13.139 I-12.204 J.186
X119.034 Y14.882 I-12.206 J0.0
X118.282 Y16.995 I-8.492 J-1.829 F1050.
X117.047 Y18.809 I-7.74 J-3.942 F900.
G02 X117.666 Y19.023 I.618 J-.786 F2000.
X118.337 Y18.764 I0.0 J-1.
G03 X119.72 Y18.231 I1.383 J1.526
G01 X119.725
X119.72 Y20.477
Z-1.2
G00 Z-1.
G01 Z-1.4
Z-2.4 F800.
X119.725 Y18.231
G03 X121.112 Y18.772 I-.004 J2.06 F2000.
G02 X121.788 Y19.035 I.676 J-.737
X122.409 Y18.819 I0.0 J-1.
G03 X120.198 Y13.042 I6.531 J-5.812 F1200.
X120.196 Y12.922 I4.098 J-.12
G01 Y-6.049
Y-6.061
G03 X120.591 Y-8.68 I8.888 J0.0
X121.491 Y-10.681 I8.493 J2.619 F1050.
X122.503 Y-12.035 I7.592 J4.62 F900.
X122.859 Y-12.397 I6.983 J6.506
G02 X122.182 Y-12.661 I-.677 J.736 F2000.
X121.57 Y-12.451 I0.0 J1.
G03 X120.308 Y-12.02 I-1.261 J-1.629
X120.194 Y-12.023 I0.0 J-2.06
G01 X120.081 Y-12.03
G03 X118.697 Y-12.672 I.114 J-2.057
G02 X117.97 Y-12.985 I-.727 J.687
X117.417 Y-12.818 I0.0 J1.
G03 X119.245 Y-7.358 I-7.405 J5.514 F1200.
G01 Y12.996
Y13.013
G03 X119.032 Y14.93 I-8.743 J0.0
X118.286 Y16.993 I-8.53 J-1.917 F1050.
X117.05 Y18.806 I-7.784 J-3.981 F900.
G02 X117.669 Y19.021 I.619 J-.786 F2000.
X118.339 Y18.762 I0.0 J-1.
G03 X119.72 Y18.231 I1.381 J1.528
G01 X119.725
X119.72 Y20.477
Z-1.4
G00 Z-1.2
G01 Z-1.6
Z-2.6 F800.
X119.725 Y18.231
G03 X121.112 Y18.772 I-.004 J2.06 F2000.
G02 X121.788 Y19.035 I.676 J-.737
X122.409 Y18.819 I0.0 J-1.
G03 X120.198 Y13.042 I6.53 J-5.811 F1200.
X120.196 Y12.922 I4.098 J-.12
G01 Y-6.049
Y-6.062
G03 X120.591 Y-8.68 I8.887 J0.0
X121.491 Y-10.681 I8.492 J2.619 F1050.
X122.503 Y-12.035 I7.591 J4.62 F900.
X122.859 Y-12.397 I6.983 J6.506
G02 X122.182 Y-12.661 I-.677 J.736 F2000.
X121.57 Y-12.451 I0.0 J1.
G03 X120.308 Y-12.02 I-1.261 J-1.629
X120.192 Y-12.023 I0.0 J-2.06
G01 X120.078 Y-12.03
G03 X118.697 Y-12.672 I.117 J-2.057
G02 X117.97 Y-12.985 I-.727 J.687
X117.417 Y-12.818 I0.0 J1.
G03 X119.245 Y-7.358 I-7.402 J5.513 F1200.
G01 Y12.996
Y13.013
G03 X119.032 Y14.93 I-8.743 J0.0
X118.286 Y16.993 I-8.53 J-1.917 F1050.
X117.05 Y18.806 I-7.784 J-3.981 F900.
G02 X117.669 Y19.021 I.619 J-.786 F2000.
X118.339 Y18.762 I0.0 J-1.
G03 X119.72 Y18.231 I1.381 J1.528
G01 X119.725
X119.72 Y20.477
Z-1.6
G00 Z-1.4
G01 Z-1.8
Z-2.8 F800.
X119.725 Y18.231
G03 X121.112 Y18.772 I-.004 J2.06 F2000.
G02 X121.788 Y19.035 I.676 J-.737
X122.409 Y18.818 I0.0 J-1.
G03 X120.198 Y13.042 I6.529 J-5.81 F1200.
X120.196 Y12.922 I4.098 J-.12
G01 Y-6.049
Y-6.064
G03 X120.59 Y-8.68 I8.88 J0.0
X121.491 Y-10.681 I8.486 J2.616 F1050.
X122.503 Y-12.035 I7.586 J4.617 F900.
X122.858 Y-12.397 I6.983 J6.506
G02 X122.181 Y-12.66 I-.677 J.736 F2000.
X121.569 Y-12.451 I0.0 J1.
G03 X120.308 Y-12.02 I-1.261 J-1.629
X120.188 Y-12.024 I0.0 J-2.06
G01 X120.076 Y-12.03
G03 X118.697 Y-12.672 I.119 J-2.057
G02 X117.971 Y-12.985 I-.727 J.687
X117.418 Y-12.818 I0.0 J1.
G03 X119.245 Y-7.358 I-7.4 J5.513 F1200.
G01 Y12.996
Y13.013
G03 X119.032 Y14.93 I-8.743 J0.0
X118.286 Y16.994 I-8.53 J-1.917 F1050.
X117.05 Y18.806 I-7.784 J-3.981 F900.
G02 X117.668 Y19.021 I.619 J-.786 F2000.
X118.339 Y18.763 I0.0 J-1.
G03 X119.72 Y18.231 I1.381 J1.528
G01 X119.725
X119.72 Y20.477
Z-1.8
G00 Z-1.6
G01 Z-2.
Z-3. F800.
X119.725 Y18.231
G03 X121.112 Y18.772 I-.004 J2.06 F2000.
G02 X121.787 Y19.034 I.676 J-.737
X122.408 Y18.818 I0.0 J-1.
G03 X120.198 Y13.042 I6.528 J-5.81 F1200.
X120.196 Y12.922 I4.098 J-.12
G01 Y-6.049
Y-6.06
G03 X120.591 Y-8.68 I8.89 J0.0
X121.492 Y-10.682 I8.495 J2.62 F1050.
X122.503 Y-12.035 I7.595 J4.621 F900.
X122.859 Y-12.397 I6.983 J6.506
G02 X122.182 Y-12.661 I-.677 J.736 F2000.
X121.57 Y-12.452 I0.0 J1.
G03 X120.308 Y-12.02 I-1.262 J-1.629
X120.186 Y-12.024 I0.0 J-2.06
G01 X120.073 Y-12.03
G03 X118.698 Y-12.672 I.122 J-2.056
G02 X117.971 Y-12.985 I-.727 J.687
X117.418 Y-12.818 I0.0 J1.
G03 X119.245 Y-7.358 I-7.398 J5.512 F1200.
G01 Y12.996
Y13.013
G03 X119.032 Y14.93 I-8.743 J0.0
X118.286 Y16.994 I-8.53 J-1.918 F1050.
X117.05 Y18.806 I-7.784 J-3.981 F900.
G02 X117.668 Y19.021 I.619 J-.786 F2000.
X118.339 Y18.763 I0.0 J-1.
G03 X119.72 Y18.231 I1.381 J1.528
G01 X119.725
X119.72 Y20.477
Z-2.
G00 Z-1.8
G01 Z-2.2
Z-3.2 F800.
X119.725 Y18.231
G03 X121.112 Y18.772 I-.004 J2.06 F2000.
G02 X121.787 Y19.034 I.675 J-.737
X122.408 Y18.818 I0.0 J-1.
G03 X120.198 Y13.042 I6.528 J-5.809 F1200.
X120.196 Y12.922 I4.098 J-.12
G01 Y-6.049
Y-6.064
G03 X120.59 Y-8.68 I8.88 J0.0
X121.491 Y-10.681 I8.486 J2.616 F1050.
X122.503 Y-12.035 I7.585 J4.617 F900.
X122.858 Y-12.397 I6.983 J6.506
G02 X122.181 Y-12.66 I-.677 J.736 F2000.
X121.569 Y-12.451 I0.0 J1.
G03 X120.308 Y-12.02 I-1.261 J-1.629
X120.183 Y-12.024 I0.0 J-2.06
G01 X120.07 Y-12.031
G03 X118.696 Y-12.673 I.125 J-2.056
G02 X117.969 Y-12.987 I-.727 J.686
X117.416 Y-12.82 I0.0 J1.
G03 X119.245 Y-7.358 I-7.41 J5.518 F1200.
G01 Y12.996
Y13.013
G03 X119.032 Y14.93 I-8.743 J0.0
X118.286 Y16.994 I-8.53 J-1.918 F1050.
X117.05 Y18.806 I-7.784 J-3.981 F900.
G02 X117.668 Y19.021 I.619 J-.786 F2000.
X118.339 Y18.763 I0.0 J-1.
G03 X119.72 Y18.231 I1.381 J1.528
G01 X119.725
X119.72 Y20.477
Z-2.2
G00 Z-2.
G01 Z-2.4
Z-3.4 F800.
X119.725 Y18.231
G03 X121.111 Y18.771 I-.004 J2.06 F2000.
G02 X121.786 Y19.034 I.675 J-.738
X122.407 Y18.817 I0.0 J-1.
G03 X120.199 Y13.089 I6.522 J-5.803 F1200.
X120.196 Y12.922 I4.097 J-.167
G01 Y-6.049
Y-6.063
G03 X120.59 Y-8.68 I8.883 J0.0
X121.491 Y-10.681 I8.489 J2.617 F1050.
X122.503 Y-12.035 I7.588 J4.618 F900.
X122.859 Y-12.397 I6.983 J6.506
G02 X122.182 Y-12.661 I-.677 J.736 F2000.
X121.569 Y-12.451 I0.0 J1.
G03 X120.308 Y-12.02 I-1.261 J-1.629
X120.18 Y-12.024 I0.0 J-2.06
G01 X120.067 Y-12.031
G03 X118.697 Y-12.673 I.128 J-2.056
G02 X117.969 Y-12.987 I-.727 J.686
X117.416 Y-12.82 I0.0 J1.
G03 X119.245 Y-7.358 I-7.408 J5.518 F1200.
G01 Y12.996
Y13.013
G03 X119.032 Y14.93 I-8.743 J0.0
X118.286 Y16.994 I-8.53 J-1.918 F1050.
X117.05 Y18.806 I-7.784 J-3.981 F900.
G02 X117.668 Y19.021 I.619 J-.786 F2000.
X118.339 Y18.763 I0.0 J-1.
G03 X119.72 Y18.231 I1.382 J1.528
G01 X119.725
X119.72 Y20.477
Z-2.4
G00 Z-2.2
G01 Z-2.6
Z-3.6 F800.
X119.725 Y18.231
G03 X121.111 Y18.771 I-.004 J2.06 F2000.
G02 X121.786 Y19.033 I.675 J-.738
X122.407 Y18.817 I0.0 J-1.
G03 X120.199 Y13.087 I6.521 J-5.803 F1200.
X120.196 Y12.922 I4.097 J-.165
G01 Y-6.049
Y-6.063
G03 X120.59 Y-8.68 I8.882 J0.0
X121.491 Y-10.681 I8.488 J2.617 F1050.
X122.503 Y-12.035 I7.588 J4.618 F900.
X122.858 Y-12.397 I6.983 J6.506
G02 X122.182 Y-12.661 I-.677 J.736 F2000.
X121.569 Y-12.451 I0.0 J1.
G03 X120.308 Y-12.02 I-1.261 J-1.629
X120.177 Y-12.024 I0.0 J-2.06
G01 X120.064 Y-12.031
G03 X118.695 Y-12.675 I.131 J-2.056
G02 X117.967 Y-12.989 I-.728 J.686
X117.404 Y-12.815 I0.0 J1.
G03 X119.245 Y-7.395 I-7.056 J5.42 F1200.
G01 Y-7.358
Y12.996
Y13.013
G03 X119.032 Y14.93 I-8.743 J0.0
X118.286 Y16.994 I-8.53 J-1.918 F1050.
X117.049 Y18.807 I-7.784 J-3.981 F900.
G02 X117.668 Y19.021 I.619 J-.786 F2000.
X118.339 Y18.763 I0.0 J-1.
G03 X119.72 Y18.231 I1.382 J1.528
G01 X119.725
X119.72 Y20.477
Z-2.6
G00 Z-2.4
G01 Z-2.8
Z-3.8 F800.
X119.725 Y18.231
G03 X121.111 Y18.771 I-.004 J2.06 F2000.
G02 X121.786 Y19.033 I.675 J-.738
X122.407 Y18.817 I0.0 J-1.
G03 X120.199 Y13.086 I6.52 J-5.802 F1200.
X120.196 Y12.922 I4.097 J-.164
G01 Y-6.049
Y-6.064
G03 X120.59 Y-8.68 I8.882 J0.0
X121.491 Y-10.681 I8.487 J2.617 F1050.
X122.503 Y-12.035 I7.587 J4.618 F900.
X122.858 Y-12.397 I6.983 J6.506
G02 X122.182 Y-12.661 I-.677 J.736 F2000.
X121.569 Y-12.451 I0.0 J1.
G03 X120.308 Y-12.02 I-1.261 J-1.629
X120.175 Y-12.024 I0.0 J-2.06
G01 X120.061 Y-12.032
G03 X118.695 Y-12.675 I.134 J-2.056
G02 X117.967 Y-12.99 I-.728 J.686
X117.403 Y-12.816 I0.0 J1.
G03 X119.245 Y-7.395 I-7.056 J5.42 F1200.
G01 Y-7.358
Y12.996
Y13.013
G03 X119.032 Y14.93 I-8.743 J0.0
X118.286 Y16.994 I-8.53 J-1.918 F1050.
X117.049 Y18.807 I-7.784 J-3.981 F900.
G02 X117.668 Y19.021 I.619 J-.786 F2000.
X118.339 Y18.763 I0.0 J-1.
G03 X119.72 Y18.231 I1.382 J1.528
G01 X119.725
X119.72 Y20.477
Z-2.8
G00 Z-2.6
G01 Z-3.
Z-4. F800.
X119.725 Y18.231
G03 X121.111 Y18.771 I-.004 J2.06 F2000.
G02 X121.786 Y19.033 I.675 J-.738
X122.407 Y18.817 I0.0 J-1.
G03 X120.199 Y13.085 I6.52 J-5.802 F1200.
X120.196 Y12.922 I4.097 J-.163
G01 Y-6.049
Y-6.064
G03 X120.59 Y-8.68 I8.881 J0.0
X121.491 Y-10.681 I8.487 J2.616 F1050.
X122.503 Y-12.035 I7.586 J4.617 F900.
X122.858 Y-12.397 I6.983 J6.506
G02 X122.181 Y-12.661 I-.677 J.736 F2000.
X121.569 Y-12.451 I0.0 J1.
G03 X120.308 Y-12.02 I-1.261 J-1.629
X120.172 Y-12.025 I0.0 J-2.06
G01 X120.058 Y-12.032
G03 X118.695 Y-12.675 I.136 J-2.055
G02 X117.967 Y-12.99 I-.728 J.686
X117.403 Y-12.816 I0.0 J1.
G03 X119.245 Y-7.396 I-7.055 J5.42 F1200.
G01 Y-7.358
Y12.996
Y13.013
G03 X119.032 Y14.931 I-8.743 J0.0
X118.286 Y16.994 I-8.53 J-1.918 F1050.
X117.049 Y18.807 I-7.784 J-3.981 F900.
G02 X117.668 Y19.021 I.619 J-.786 F2000.
X118.339 Y18.763 I0.0 J-1.
G03 X119.72 Y18.231 I1.382 J1.528
G01 X119.725
X119.72 Y20.477
Z-3.
G00 Z-2.8
G01 Z-3.2
Z-4.2 F800.
X119.725 Y18.231
G03 X121.111 Y18.771 I-.004 J2.06 F2000.
G02 X121.786 Y19.033 I.675 J-.738
X122.407 Y18.817 I0.0 J-1.
G03 X120.199 Y13.084 I6.52 J-5.802 F1200.
X120.196 Y12.922 I4.097 J-.162
G01 Y-6.049
Y-6.065
G03 X120.59 Y-8.68 I8.879 J0.0
X121.491 Y-10.681 I8.485 J2.615 F1050.
X122.503 Y-12.035 I7.585 J4.617 F900.
X122.858 Y-12.396 I6.983 J6.506
G02 X122.181 Y-12.66 I-.677 J.736 F2000.
X121.569 Y-12.451 I0.0 J1.
G03 X120.308 Y-12.02 I-1.261 J-1.629
X120.169 Y-12.025 I0.0 J-2.06
G01 X120.055 Y-12.033
G03 X118.695 Y-12.676 I.139 J-2.055
G02 X117.967 Y-12.99 I-.728 J.686
X117.403 Y-12.816 I0.0 J1.
G03 X119.245 Y-7.396 I-7.054 J5.42 F1200.
G01 Y-7.358
Y12.996
Y13.013
G03 X119.032 Y14.931 I-8.743 J0.0
X118.286 Y16.994 I-8.53 J-1.918 F1050.
X117.049 Y18.807 I-7.784 J-3.981 F900.
G02 X117.668 Y19.021 I.619 J-.786 F2000.
X118.339 Y18.763 I0.0 J-1.
G03 X119.72 Y18.231 I1.382 J1.528
G01 X119.725
X119.72 Y20.477
Z-3.2
G00 Z-3.
G01 Z-3.4
Z-4.4 F800.
X119.725 Y18.231
G03 X121.111 Y18.771 I-.004 J2.06 F2000.
G02 X121.786 Y19.033 I.675 J-.738
X122.407 Y18.817 I0.0 J-1.
G03 X120.199 Y13.083 I6.52 J-5.802 F1200.
X120.196 Y12.922 I4.097 J-.161
G01 Y-6.049
Y-6.066
G03 X120.59 Y-8.68 I8.876 J0.0
X121.49 Y-10.681 I8.482 J2.614 F1050.
X122.503 Y-12.035 I7.582 J4.615 F900.
X122.858 Y-12.396 I6.983 J6.506
G02 X122.181 Y-12.66 I-.677 J.736 F2000.
X121.569 Y-12.451 I0.0 J1.
G03 X120.308 Y-12.02 I-1.261 J-1.629
X120.166 Y-12.025 I0.0 J-2.06
G01 X120.052 Y-12.033
G03 X118.695 Y-12.676 I.142 J-2.055
G02 X117.967 Y-12.99 I-.728 J.685
X117.403 Y-12.816 I0.0 J1.
G03 X119.245 Y-7.396 I-7.054 J5.42 F1200.
G01 Y-7.358
Y12.996
Y13.013
G03 X119.032 Y14.931 I-8.743 J0.0
X118.286 Y16.994 I-8.53 J-1.918 F1050.
X117.049 Y18.807 I-7.784 J-3.981 F900.
G02 X117.668 Y19.021 I.619 J-.786 F2000.
X118.339 Y18.763 I0.0 J-1.
G03 X119.72 Y18.231 I1.382 J1.528
G01 X119.725
X119.72 Y20.477
Z-3.4
G00 Z-3.2
G01 Z-3.6
Z-4.6 F800.
X119.725 Y18.231
G03 X121.111 Y18.771 I-.004 J2.06 F2000.
G02 X121.786 Y19.033 I.675 J-.738
X122.407 Y18.817 I0.0 J-1.
G03 X120.199 Y13.081 I6.52 J-5.802 F1200.
X120.196 Y12.922 I4.097 J-.159
G01 Y-6.049
Y-6.112
G03 X120.579 Y-8.675 I8.757 J0.0
X121.479 Y-10.676 I8.374 J2.563 F1050.
X122.503 Y-12.035 I7.473 J4.564 F900.
X122.85 Y-12.389 I6.983 J6.506
G02 X122.173 Y-12.654 I-.678 J.735 F2000.
X121.563 Y-12.447 I0.0 J1.
G03 X120.308 Y-12.02 I-1.255 J-1.633
X120.163 Y-12.025 I0.0 J-2.06
G01 X120.05 Y-12.033
G03 X118.695 Y-12.676 I.145 J-2.055
G02 X117.967 Y-12.991 I-.728 J.685
X117.403 Y-12.817 I0.0 J1.
G03 X119.245 Y-7.396 I-7.053 J5.42 F1200.
G01 Y-7.358
Y12.996
Y13.013
G03 X119.032 Y14.931 I-8.743 J0.0
X118.286 Y16.994 I-8.53 J-1.918 F1050.
X117.049 Y18.807 I-7.784 J-3.982 F900.
G02 X117.668 Y19.021 I.619 J-.786 F2000.
X118.339 Y18.763 I0.0 J-1.
G03 X119.72 Y18.231 I1.382 J1.528
G01 X119.725
X119.72 Y20.477
Z-3.6
G00 Z-3.4
G01 Z-3.8
Z-4.8 F800.
X119.725 Y18.231
G03 X121.111 Y18.771 I-.004 J2.06 F2000.
G02 X121.786 Y19.033 I.675 J-.738
X122.407 Y18.817 I0.0 J-1.
G03 X120.199 Y13.08 I6.52 J-5.802 F1200.
X120.196 Y12.922 I4.097 J-.158
G01 Y-6.049
Y-6.112
G03 X120.579 Y-8.675 I8.757 J0.0
X121.479 Y-10.676 I8.374 J2.563 F1050.
X122.503 Y-12.035 I7.473 J4.564 F900.
X122.85 Y-12.389 I6.983 J6.506
G02 X122.173 Y-12.654 I-.678 J.735 F2000.
X121.563 Y-12.447 I0.0 J1.
G03 X120.308 Y-12.02 I-1.255 J-1.633
X120.161 Y-12.025 I0.0 J-2.06
G01 X120.047 Y-12.034
G03 X118.695 Y-12.676 I.148 J-2.055
G02 X117.966 Y-12.991 I-.728 J.685
X117.403 Y-12.817 I0.0 J1.
G03 X119.245 Y-7.396 I-7.053 J5.421 F1200.
G01 Y-7.358
Y12.996
Y13.013
G03 X119.032 Y14.931 I-8.743 J0.0
X118.286 Y16.994 I-8.53 J-1.918 F1050.
X117.049 Y18.807 I-7.784 J-3.982 F900.
G02 X117.668 Y19.021 I.619 J-.786 F2000.
X118.339 Y18.763 I0.0 J-1.
G03 X119.72 Y18.231 I1.382 J1.528
G01 X119.725
X119.72 Y20.477
Z-3.8
G00 Z-3.6
G01 Z-4.
Z-5. F800.
X119.725 Y18.231
G03 X121.112 Y18.772 I-.004 J2.06 F2000.
G02 X121.788 Y19.035 I.676 J-.737
X122.409 Y18.819 I0.0 J-1.
G03 X120.199 Y13.079 I6.525 J-5.807 F1200.
X120.196 Y12.922 I4.097 J-.157
G01 Y-6.049
Y-6.112
G03 X120.579 Y-8.675 I8.757 J0.0
X121.479 Y-10.676 I8.374 J2.563 F1050.
X122.503 Y-12.035 I7.473 J4.564 F900.
X122.85 Y-12.389 I6.983 J6.506
G02 X122.173 Y-12.654 I-.678 J.735 F2000.
X121.563 Y-12.447 I0.0 J1.
G03 X120.308 Y-12.02 I-1.255 J-1.633
X120.158 Y-12.026 I0.0 J-2.06
G01 X120.044 Y-12.034
G03 X118.695 Y-12.677 I.15 J-2.054
G02 X117.966 Y-12.991 I-.728 J.685
X117.402 Y-12.817 I0.0 J1.
G03 X119.245 Y-7.396 I-7.052 J5.421 F1200.
G01 Y-7.358
Y12.996
Y13.013
G03 X119.032 Y14.931 I-8.743 J0.0
X118.286 Y16.994 I-8.53 J-1.918 F1050.
X117.049 Y18.807 I-7.784 J-3.982 F900.
G02 X117.668 Y19.021 I.619 J-.786 F2000.
X118.339 Y18.763 I0.0 J-1.
G03 X119.72 Y18.231 I1.382 J1.528
G01 X119.725
X119.72 Y20.477
Z-4.
G00 Z-3.8
G01 Z-4.2
Z-5.2 F800.
X119.725 Y18.231
G03 X121.112 Y18.772 I-.004 J2.06 F2000.
G02 X121.788 Y19.035 I.676 J-.737
X122.409 Y18.819 I0.0 J-1.
G03 X120.199 Y13.077 I6.525 J-5.807 F1200.
X120.196 Y12.922 I4.097 J-.155
G01 Y-6.049
Y-6.112
G03 X120.579 Y-8.675 I8.757 J0.0
X121.479 Y-10.676 I8.374 J2.563 F1050.
X122.503 Y-12.035 I7.473 J4.564 F900.
X122.85 Y-12.389 I6.983 J6.506
G02 X122.173 Y-12.654 I-.678 J.735 F2000.
X121.563 Y-12.447 I0.0 J1.
G03 X120.308 Y-12.02 I-1.255 J-1.633
X120.155 Y-12.026 I0.0 J-2.06
G01 X120.041 Y-12.034
G03 X118.694 Y-12.677 I.153 J-2.054
G02 X117.966 Y-12.991 I-.728 J.685
X117.402 Y-12.817 I0.0 J1.
G03 X119.245 Y-7.397 I-7.052 J5.421 F1200.
G01 Y-7.358
Y12.996
Y13.013
G03 X119.032 Y14.931 I-8.743 J0.0
X118.286 Y16.994 I-8.53 J-1.918 F1050.
X117.049 Y18.807 I-7.783 J-3.982 F900.
G02 X117.668 Y19.022 I.619 J-.786 F2000.
X118.339 Y18.763 I0.0 J-1.
G03 X119.72 Y18.231 I1.382 J1.528
G01 X119.725
X119.72 Y20.477
Z-4.2
G00 Z-4.
G01 Z-4.4
Z-5.4 F800.
X119.725 Y18.231
G03 X121.112 Y18.772 I-.004 J2.06 F2000.
G02 X121.788 Y19.035 I.676 J-.737
X122.409 Y18.819 I0.0 J-1.
G03 X120.199 Y13.076 I6.524 J-5.807 F1200.
X120.196 Y12.922 I4.097 J-.154
G01 Y-6.049
Y-6.112
G03 X120.579 Y-8.675 I8.757 J0.0
X121.479 Y-10.676 I8.374 J2.563 F1050.
X122.503 Y-12.035 I7.473 J4.564 F900.
X122.85 Y-12.389 I6.983 J6.506
G02 X122.173 Y-12.654 I-.678 J.735 F2000.
X121.563 Y-12.447 I0.0 J1.
G03 X120.308 Y-12.02 I-1.255 J-1.633
X120.152 Y-12.026 I0.0 J-2.06
G01 X120.038 Y-12.035
G03 X118.694 Y-12.677 I.156 J-2.054
G02 X117.966 Y-12.992 I-.728 J.685
X117.402 Y-12.817 I0.0 J1.
G03 X119.245 Y-7.397 I-7.051 J5.421 F1200.
G01 Y-7.358
Y12.996
Y13.013
G03 X119.032 Y14.931 I-8.743 J0.0
X118.286 Y16.995 I-8.53 J-1.918 F1050.
X117.049 Y18.807 I-7.783 J-3.982 F900.
G02 X117.668 Y19.022 I.619 J-.786 F2000.
X118.339 Y18.763 I0.0 J-1.
G03 X119.72 Y18.231 I1.382 J1.528
G01 X119.725
X119.72 Y20.477
Z-4.4
G00 Z-4.2
G01 Z-4.6
Z-5.6 F800.
X119.725 Y18.231
G03 X121.112 Y18.772 I-.004 J2.06 F2000.
G02 X121.788 Y19.035 I.676 J-.737
X122.409 Y18.819 I0.0 J-1.
G03 X120.199 Y13.074 I6.524 J-5.807 F1200.
X120.196 Y12.922 I4.097 J-.152
G01 Y-6.049
Y-6.112
G03 X120.579 Y-8.675 I8.757 J0.0
X121.479 Y-10.676 I8.374 J2.563 F1050.
X122.503 Y-12.035 I7.473 J4.564 F900.
X122.85 Y-12.389 I6.983 J6.506
G02 X122.173 Y-12.654 I-.678 J.735 F2000.
X121.563 Y-12.447 I0.0 J1.
G03 X120.308 Y-12.02 I-1.255 J-1.633
X120.149 Y-12.026 I0.0 J-2.06
G01 X120.036 Y-12.035
G03 X118.694 Y-12.677 I.159 J-2.054
G02 X117.966 Y-12.992 I-.728 J.685
X117.402 Y-12.818 I0.0 J1.
G03 X119.245 Y-7.397 I-7.051 J5.421 F1200.
G01 Y-7.358
Y12.996
Y13.013
G03 X119.032 Y14.931 I-8.743 J0.0
X118.286 Y16.995 I-8.53 J-1.919 F1050.
X117.049 Y18.807 I-7.783 J-3.982 F900.
G02 X117.668 Y19.022 I.619 J-.786 F2000.
X118.339 Y18.763 I0.0 J-1.
G03 X119.72 Y18.231 I1.382 J1.528
G01 X119.725
X119.72 Y20.477
Z-4.6
G00 Z-4.4
G01 Z-4.8
Z-5.8 F800.
X119.725 Y18.231
G03 X121.112 Y18.772 I-.004 J2.06 F2000.
G02 X121.788 Y19.035 I.676 J-.737
X122.409 Y18.819 I0.0 J-1.
G03 X120.199 Y13.072 I6.524 J-5.807 F1200.
X120.196 Y12.922 I4.097 J-.15
G01 Y-6.049
Y-6.112
G03 X120.579 Y-8.675 I8.757 J0.0
X121.479 Y-10.676 I8.374 J2.563 F1050.
X122.503 Y-12.035 I7.473 J4.564 F900.
X122.85 Y-12.389 I6.983 J6.506
G02 X122.173 Y-12.654 I-.678 J.735 F2000.
X121.563 Y-12.447 I0.0 J1.
G03 X120.308 Y-12.02 I-1.255 J-1.633
X120.146 Y-12.027 I0.0 J-2.06
G01 X120.033 Y-12.035
G03 X118.694 Y-12.677 I.162 J-2.054
G02 X117.966 Y-12.992 I-.728 J.685
X117.402 Y-12.818 I0.0 J1.
G03 X119.245 Y-7.397 I-7.05 J5.421 F1200.
G01 Y-7.358
Y12.996
Y13.013
G03 X119.032 Y14.931 I-8.743 J0.0
X118.285 Y16.995 I-8.53 J-1.919 F1050.
X117.049 Y18.807 I-7.783 J-3.982 F900.
G02 X117.668 Y19.022 I.619 J-.785 F2000.
X118.339 Y18.763 I0.0 J-1.
G03 X119.72 Y18.231 I1.382 J1.528
G01 X119.725
X119.72 Y20.477
Z-4.8
G00 Z-4.6
G01 Z-5.
Z-6. F800.
X119.725 Y18.231
G03 X121.112 Y18.772 I-.004 J2.06 F2000.
G02 X121.788 Y19.035 I.676 J-.737
X122.409 Y18.819 I0.0 J-1.
G03 X120.199 Y13.07 I6.524 J-5.807 F1200.
X120.196 Y12.922 I4.097 J-.148
G01 Y-6.049
Y-6.112
G03 X120.579 Y-8.675 I8.757 J0.0
X121.479 Y-10.676 I8.374 J2.563 F1050.
X122.503 Y-12.035 I7.473 J4.564 F900.
X122.85 Y-12.389 I6.983 J6.506
G02 X122.173 Y-12.654 I-.678 J.735 F2000.
X121.563 Y-12.447 I0.0 J1.
G03 X120.308 Y-12.02 I-1.255 J-1.633
X120.144 Y-12.027 I0.0 J-2.06
G01 X120.03 Y-12.036
G03 X118.694 Y-12.678 I.165 J-2.053
G02 X117.966 Y-12.992 I-.728 J.685
X117.402 Y-12.818 I0.0 J1.
G03 X119.245 Y-7.397 I-7.05 J5.421 F1200.
G01 Y-7.358
Y12.996
Y13.013
G03 X119.032 Y14.931 I-8.743 J0.0
X118.285 Y16.995 I-8.53 J-1.919 F1050.
X117.049 Y18.807 I-7.783 J-3.982 F900.
G02 X117.668 Y19.022 I.619 J-.785 F2000.
X118.339 Y18.763 I0.0 J-1.
G03 X119.72 Y18.231 I1.382 J1.528
G01 X119.725
X119.72 Y20.477
Z-5.
G00 Z-4.8
G01 Z-5.2
Z-6.2 F800.
X119.725 Y18.231
G03 X121.112 Y18.772 I-.004 J2.06 F2000.
G02 X121.788 Y19.035 I.676 J-.737
X122.409 Y18.819 I0.0 J-1.
G03 X120.199 Y13.068 I6.524 J-5.807 F1200.
X120.196 Y12.922 I4.097 J-.146
G01 Y-6.049
Y-6.112
G03 X120.579 Y-8.675 I8.757 J0.0
X121.479 Y-10.676 I8.374 J2.563 F1050.
X122.503 Y-12.035 I7.473 J4.564 F900.
X122.85 Y-12.389 I6.983 J6.506
G02 X122.173 Y-12.654 I-.678 J.735 F2000.
X121.563 Y-12.447 I0.0 J1.
G03 X120.308 Y-12.02 I-1.255 J-1.633
X120.14 Y-12.027 I0.0 J-2.06
G01 X120.027 Y-12.036
G03 X118.694 Y-12.678 I.167 J-2.053
G02 X117.966 Y-12.993 I-.728 J.685
X117.402 Y-12.818 I0.0 J1.
G03 X119.245 Y-7.397 I-7.049 J5.421 F1200.
G01 Y-7.358
Y12.996
Y13.013
G03 X119.032 Y14.931 I-8.743 J0.0
X118.285 Y16.995 I-8.53 J-1.919 F1050.
X117.049 Y18.807 I-7.783 J-3.982 F900.
G02 X117.668 Y19.022 I.619 J-.785 F2000.
X118.339 Y18.763 I0.0 J-1.
G03 X119.72 Y18.231 I1.382 J1.528
G01 X119.725
X119.72 Y20.477
Z-5.2
G00 Z-5.
G01 Z-5.4
Z-6.4 F800.
X119.725 Y18.231
G03 X121.112 Y18.772 I-.004 J2.06 F2000.
G02 X121.788 Y19.035 I.676 J-.737
X122.409 Y18.819 I0.0 J-1.
G03 X120.199 Y13.066 I6.524 J-5.807 F1200.
X120.196 Y12.922 I4.097 J-.144
G01 Y-6.049
Y-6.112
G03 X120.579 Y-8.675 I8.757 J0.0
X121.479 Y-10.676 I8.374 J2.563 F1050.
X122.503 Y-12.035 I7.473 J4.564 F900.
X122.85 Y-12.389 I6.983 J6.506
G02 X122.173 Y-12.654 I-.678 J.735 F2000.
X121.563 Y-12.447 I0.0 J1.
G03 X120.308 Y-12.02 I-1.255 J-1.633
X120.138 Y-12.027 I0.0 J-2.06
G01 X120.024 Y-12.037
G03 X118.694 Y-12.678 I.17 J-2.053
G02 X117.966 Y-12.993 I-.728 J.685
X117.401 Y-12.819 I0.0 J1.
G03 X119.245 Y-7.398 I-7.048 J5.421 F1200.
G01 Y-7.358
Y12.996
Y13.013
G03 X119.032 Y14.932 I-8.743 J0.0
X118.285 Y16.995 I-8.53 J-1.919 F1050.
X117.049 Y18.807 I-7.783 J-3.982 F900.
G02 X117.668 Y19.022 I.619 J-.785 F2000.
X118.338 Y18.764 I0.0 J-1.
G03 X119.72 Y18.231 I1.382 J1.528
G01 X119.725
X119.72 Y20.477
Z-5.4
G00 Z-5.2
G01 Z-5.6
Z-6.6 F800.
X119.725 Y18.231
G03 X121.112 Y18.772 I-.004 J2.06 F2000.
G02 X121.788 Y19.035 I.676 J-.737
X122.409 Y18.819 I0.0 J-1.
G03 X120.199 Y13.064 I6.524 J-5.807 F1200.
X120.196 Y12.922 I4.098 J-.142
G01 Y-6.049
Y-6.112
G03 X120.579 Y-8.675 I8.757 J0.0
X121.479 Y-10.676 I8.374 J2.563 F1050.
X122.503 Y-12.035 I7.473 J4.564 F900.
X122.85 Y-12.389 I6.983 J6.506
G02 X122.173 Y-12.654 I-.678 J.735 F2000.
X121.563 Y-12.447 I0.0 J1.
G03 X120.308 Y-12.02 I-1.255 J-1.633
X120.135 Y-12.027 I0.0 J-2.06
G01 X120.021 Y-12.037
G03 X118.694 Y-12.678 I.173 J-2.053
G02 X117.965 Y-12.993 I-.728 J.685
X117.401 Y-12.819 I0.0 J1.
G03 X119.245 Y-7.398 I-7.048 J5.421 F1200.
G01 Y-7.358
Y12.996
Y13.013
G03 X119.032 Y14.932 I-8.743 J0.0
X118.285 Y16.995 I-8.53 J-1.919 F1050.
X117.049 Y18.807 I-7.783 J-3.982 F900.
G02 X117.668 Y19.022 I.619 J-.785 F2000.
X118.338 Y18.764 I0.0 J-1.
G03 X119.72 Y18.231 I1.382 J1.528
G01 X119.725
X119.72 Y20.477
Z-5.6
G00 Z-5.4
G01 Z-5.8
Z-6.8 F800.
X119.725 Y18.231
G03 X121.112 Y18.772 I-.004 J2.06 F2000.
G02 X121.788 Y19.035 I.676 J-.737
X122.409 Y18.819 I0.0 J-1.
G03 X120.198 Y13.061 I6.524 J-5.807 F1200.
X120.196 Y12.922 I4.098 J-.139
G01 Y-6.049
Y-6.112
G03 X120.579 Y-8.675 I8.757 J0.0
X121.479 Y-10.676 I8.374 J2.563 F1050.
X122.503 Y-12.035 I7.473 J4.564 F900.
X122.85 Y-12.389 I6.983 J6.506
G02 X122.173 Y-12.654 I-.678 J.735 F2000.
X121.563 Y-12.447 I0.0 J1.
G03 X120.308 Y-12.02 I-1.255 J-1.633
X120.133 Y-12.028 I0.0 J-2.06
G01 X120.019 Y-12.037
G03 X118.693 Y-12.679 I.176 J-2.052
G02 X117.964 Y-12.994 I-.729 J.685
X117.4 Y-12.82 I0.0 J1.
G03 X119.245 Y-7.395 I-7.054 J5.425 F1200.
G01 Y-7.358
Y12.996
Y13.013
G03 X119.032 Y14.932 I-8.743 J0.0
X118.285 Y16.995 I-8.53 J-1.919 F1050.
X117.049 Y18.808 I-7.783 J-3.982 F900.
G02 X117.668 Y19.022 I.619 J-.785 F2000.
X118.338 Y18.764 I0.0 J-1.
G03 X119.72 Y18.231 I1.382 J1.528
G01 X119.725
X119.72 Y20.477
Z-5.8
G00 Z-5.6
G01 Z-6.
Z-7. F800.
X119.725 Y18.231
G03 X121.112 Y18.772 I-.004 J2.06 F2000.
G02 X121.788 Y19.035 I.676 J-.737
X122.409 Y18.819 I0.0 J-1.
G03 X120.198 Y13.058 I6.524 J-5.807 F1200.
X120.196 Y12.922 I4.098 J-.136
G01 Y-6.049
Y-6.112
G03 X120.579 Y-8.675 I8.757 J0.0
X121.479 Y-10.676 I8.374 J2.563 F1050.
X122.503 Y-12.035 I7.473 J4.564 F900.
X122.85 Y-12.389 I6.983 J6.506
G02 X122.173 Y-12.654 I-.678 J.735 F2000.
X121.563 Y-12.447 I0.0 J1.
G03 X120.308 Y-12.02 I-1.255 J-1.633
X120.13 Y-12.028 I0.0 J-2.06
G01 X120.016 Y-12.038
G03 X118.693 Y-12.679 I.178 J-2.052
G02 X117.964 Y-12.995 I-.729 J.685
X117.4 Y-12.82 I0.0 J1.
G03 X119.245 Y-7.395 I-7.054 J5.425 F1200.
G01 Y-7.358
Y12.996
Y13.013
G03 X119.032 Y14.932 I-8.743 J0.0
X118.285 Y16.995 I-8.53 J-1.919 F1050.
X117.049 Y18.808 I-7.783 J-3.982 F900.
G02 X117.667 Y19.022 I.619 J-.785 F2000.
X118.338 Y18.764 I0.0 J-1.
G03 X119.72 Y18.231 I1.382 J1.528
G01 X119.725
X119.72 Y20.477
Z-6.
G00 Z-5.8
G01 Z-6.2
Z-7.2 F800.
X119.725 Y18.231
G03 X121.112 Y18.772 I-.004 J2.06 F2000.
G02 X121.788 Y19.035 I.676 J-.737
X122.409 Y18.819 I0.0 J-1.
G03 X120.198 Y13.053 I6.524 J-5.808 F1200.
X120.196 Y12.922 I4.098 J-.131
G01 Y-6.049
Y-6.112
G03 X120.579 Y-8.675 I8.757 J0.0
X121.479 Y-10.676 I8.374 J2.563 F1050.
X122.503 Y-12.035 I7.473 J4.564 F900.
X122.85 Y-12.389 I6.983 J6.506
G02 X122.173 Y-12.654 I-.678 J.735 F2000.
X121.563 Y-12.447 I0.0 J1.
G03 X120.308 Y-12.02 I-1.255 J-1.633
X120.127 Y-12.028 I0.0 J-2.06
G01 X120.013 Y-12.038
G03 X118.693 Y-12.68 I.181 J-2.052
G02 X117.964 Y-12.995 I-.729 J.685
X117.4 Y-12.821 I0.0 J1.
G03 X119.245 Y-7.395 I-7.053 J5.425 F1200.
G01 Y-7.358
Y12.996
Y13.013
G03 X119.032 Y14.932 I-8.743 J0.0
X118.285 Y16.995 I-8.53 J-1.919 F1050.
X117.048 Y18.808 I-7.783 J-3.983 F900.
G02 X117.667 Y19.022 I.619 J-.785 F2000.
X118.338 Y18.764 I0.0 J-1.
G03 X119.72 Y18.231 I1.382 J1.528
G01 X119.725
X119.72 Y20.477
Z-6.2
G00 Z-6.
G01 Z-6.4
Z-7.4 F800.
X119.725 Y18.231
G03 X121.112 Y18.772 I-.004 J2.06 F2000.
G02 X121.788 Y19.035 I.676 J-.737
X122.409 Y18.819 I0.0 J-1.
G03 X120.198 Y13.042 I6.525 J-5.809 F1200.
X120.196 Y12.922 I4.098 J-.12
G01 Y-6.049
Y-6.112
G03 X120.579 Y-8.675 I8.757 J0.0
X121.479 Y-10.676 I8.374 J2.563 F1050.
X122.503 Y-12.035 I7.473 J4.564 F900.
X122.85 Y-12.389 I6.983 J6.506
G02 X122.173 Y-12.654 I-.678 J.735 F2000.
X121.563 Y-12.447 I0.0 J1.
G03 X120.308 Y-12.02 I-1.255 J-1.633
X120.124 Y-12.028 I0.0 J-2.06
G01 X120.01 Y-12.039
G03 X118.693 Y-12.68 I.184 J-2.052
G02 X117.964 Y-12.995 I-.729 J.685
X117.4 Y-12.821 I0.0 J1.
G03 X119.245 Y-7.396 I-7.053 J5.425 F1200.
G01 Y-7.358
Y12.996
Y13.013
G03 X119.032 Y14.932 I-8.743 J0.0
X118.285 Y16.995 I-8.53 J-1.919 F1050.
X117.048 Y18.808 I-7.783 J-3.983 F900.
G02 X117.667 Y19.022 I.619 J-.785 F2000.
X118.338 Y18.764 I0.0 J-1.
G03 X119.72 Y18.231 I1.382 J1.528
G01 X119.725
X119.72 Y20.477
Z-6.4
G00 Z-6.2
G01 Z-6.6
Z-7.6 F800.
X119.725 Y18.231
G03 X121.112 Y18.772 I-.004 J2.06 F2000.
G02 X121.788 Y19.035 I.676 J-.737
X122.409 Y18.819 I0.0 J-1.
G03 X120.198 Y13.042 I6.524 J-5.808 F1200.
X120.196 Y12.922 I4.098 J-.12
G01 Y-6.049
Y-6.112
G03 X120.579 Y-8.675 I8.757 J0.0
X121.479 Y-10.676 I8.374 J2.563 F1050.
X122.503 Y-12.035 I7.473 J4.564 F900.
X122.85 Y-12.389 I6.983 J6.506
G02 X122.173 Y-12.654 I-.678 J.735 F2000.
X121.563 Y-12.447 I0.0 J1.
G03 X120.308 Y-12.02 I-1.255 J-1.633
X120.121 Y-12.029 I0.0 J-2.06
G01 X120.007 Y-12.039
G03 X118.693 Y-12.68 I.187 J-2.052
G02 X117.964 Y-12.995 I-.729 J.685
X117.4 Y-12.821 I0.0 J1.
G03 X119.245 Y-7.396 I-7.052 J5.425 F1200.
G01 Y-7.358
Y12.996
Y13.013
G03 X119.032 Y14.932 I-8.743 J0.0
X118.285 Y16.995 I-8.53 J-1.919 F1050.
X117.048 Y18.808 I-7.783 J-3.983 F900.
G02 X117.667 Y19.022 I.619 J-.785 F2000.
X118.338 Y18.764 I0.0 J-1.
G03 X119.72 Y18.231 I1.382 J1.527
G01 X119.725
X119.72 Y20.477
Z-6.6
G00 Z-6.4
G01 Y20.478 Z-6.8
Z-7.8 F800.
X119.725 Y18.231
G03 X121.112 Y18.772 I-.004 J2.06 F2000.
G02 X121.787 Y19.035 I.675 J-.737
X122.409 Y18.819 I0.0 J-1.
G03 X120.198 Y13.042 I6.524 J-5.808 F1200.
X120.196 Y12.922 I4.098 J-.12
G01 Y-6.049
Y-6.112
G03 X120.579 Y-8.675 I8.757 J0.0
X121.479 Y-10.676 I8.374 J2.563 F1050.
X122.503 Y-12.035 I7.473 J4.564 F900.
X122.85 Y-12.389 I6.983 J6.506
G02 X122.173 Y-12.654 I-.678 J.735 F2000.
X121.563 Y-12.447 I0.0 J1.
G03 X120.308 Y-12.02 I-1.255 J-1.633
X120.119 Y-12.029 I0.0 J-2.06
G01 X120.004 Y-12.039
G03 X118.693 Y-12.68 I.19 J-2.051
G02 X117.964 Y-12.996 I-.729 J.685
X117.4 Y-12.821 I0.0 J1.
G03 X119.245 Y-7.396 I-7.052 J5.425 F1200.
G01 Y-7.358
Y12.996
Y13.013
G03 X119.032 Y14.932 I-8.743 J0.0
X118.285 Y16.995 I-8.53 J-1.919 F1050.
X117.048 Y18.808 I-7.783 J-3.983 F900.
G02 X117.667 Y19.022 I.619 J-.785 F2000.
X118.338 Y18.764 I0.0 J-1.
G03 X119.72 Y18.231 I1.382 J1.527
G01 X119.725
X119.72 Y20.478
Z-6.8
G00 Z-6.6
G01 Z-7.
Z-8. F800.
X119.725 Y18.231
G03 X121.112 Y18.772 I-.004 J2.06 F2000.
G02 X121.787 Y19.035 I.675 J-.737
X122.408 Y18.819 I0.0 J-1.
G03 X120.198 Y13.042 I6.524 J-5.808 F1200.
X120.196 Y12.922 I4.098 J-.12
G01 Y-6.049
Y-6.112
G03 X120.579 Y-8.675 I8.757 J0.0
X121.479 Y-10.676 I8.374 J2.563 F1050.
X122.503 Y-12.035 I7.473 J4.564 F900.
X122.85 Y-12.389 I6.983 J6.506
G02 X122.173 Y-12.654 I-.678 J.735 F2000.
X121.563 Y-12.447 I0.0 J1.
G03 X120.308 Y-12.02 I-1.255 J-1.633
X120.116 Y-12.029 I0.0 J-2.06
G01 X120.002 Y-12.04
G03 X118.693 Y-12.68 I.192 J-2.051
G02 X117.964 Y-12.996 I-.729 J.685
X117.399 Y-12.821 I0.0 J1.
G03 X119.245 Y-7.396 I-7.051 J5.425 F1200.
G01 Y-7.358
Y12.996
Y13.013
G03 X119.032 Y14.932 I-8.743 J0.0
X118.285 Y16.995 I-8.53 J-1.92 F1050.
X117.048 Y18.808 I-7.783 J-3.983 F900.
G02 X117.667 Y19.022 I.619 J-.785 F2000.
X118.338 Y18.764 I0.0 J-1.
G03 X119.72 Y18.231 I1.382 J1.527
G01 X119.725
X119.72 Y20.478
Z-7.
G00 Z-6.8
G01 Z-7.2
Z-8.2 F800.
X119.725 Y18.231
G03 X121.112 Y18.772 I-.004 J2.06 F2000.
G02 X121.787 Y19.035 I.675 J-.737
X122.408 Y18.819 I0.0 J-1.
G03 X120.198 Y13.042 I6.523 J-5.808 F1200.
X120.196 Y12.922 I4.098 J-.12
G01 Y-6.049
Y-6.112
G03 X120.579 Y-8.675 I8.757 J0.0
X121.479 Y-10.676 I8.374 J2.563 F1050.
X122.503 Y-12.035 I7.473 J4.564 F900.
X122.85 Y-12.389 I6.983 J6.506
G02 X122.173 Y-12.654 I-.678 J.735 F2000.
X121.563 Y-12.447 I0.0 J1.
G03 X120.308 Y-12.02 I-1.255 J-1.633
X120.113 Y-12.029 I0.0 J-2.06
G01 X119.999 Y-12.04
G03 X118.692 Y-12.681 I.195 J-2.051
G02 X117.964 Y-12.996 I-.729 J.685
X117.399 Y-12.822 I0.0 J1.
G03 X119.245 Y-7.396 I-7.05 J5.425 F1200.
G01 Y-7.358
Y12.996
Y13.013
G03 X119.032 Y14.932 I-8.743 J0.0
X118.285 Y16.996 I-8.53 J-1.92 F1050.
X117.048 Y18.808 I-7.783 J-3.983 F900.
G02 X117.667 Y19.023 I.619 J-.785 F2000.
X118.338 Y18.764 I0.0 J-1.
G03 X119.72 Y18.231 I1.382 J1.527
G01 X119.725
X119.72 Y20.478
Z-7.2
G00 Z-7.
G01 Z-7.4
Z-8.4 F800.
X119.725 Y18.231
G03 X121.112 Y18.772 I-.004 J2.06 F2000.
G02 X121.787 Y19.035 I.675 J-.737
X122.408 Y18.819 I0.0 J-1.
G03 X120.198 Y13.042 I6.523 J-5.807 F1200.
X120.196 Y12.922 I4.098 J-.12
G01 Y-6.049
Y-6.112
G03 X120.579 Y-8.675 I8.757 J0.0
X121.479 Y-10.676 I8.374 J2.563 F1050.
X122.503 Y-12.035 I7.473 J4.564 F900.
X122.85 Y-12.389 I6.983 J6.506
G02 X122.173 Y-12.654 I-.678 J.735 F2000.
X121.563 Y-12.447 I0.0 J1.
G03 X120.308 Y-12.02 I-1.255 J-1.633
X120.11 Y-12.03 I0.0 J-2.06
G01 X119.996 Y-12.041
G03 X118.692 Y-12.681 I.198 J-2.05
G02 X117.963 Y-12.996 I-.729 J.685
X117.399 Y-12.822 I0.0 J1.
G03 X119.245 Y-7.396 I-7.05 J5.425 F1200.
G01 Y-7.358
Y12.996
Y13.013
G03 X119.032 Y14.932 I-8.743 J0.0
X118.285 Y16.996 I-8.529 J-1.92 F1050.
X117.048 Y18.808 I-7.783 J-3.983 F900.
G02 X117.667 Y19.023 I.619 J-.785 F2000.
X118.338 Y18.764 I0.0 J-1.
G03 X119.72 Y18.231 I1.382 J1.527
G01 X119.725
X119.72 Y20.478
Z-7.4
G00 Z-7.2
G01 Z-7.6
Z-8.6 F800.
X119.725 Y18.231
G03 X121.112 Y18.772 I-.004 J2.06 F2000.
G02 X121.787 Y19.035 I.675 J-.737
X122.408 Y18.819 I0.0 J-1.
G03 X120.198 Y13.042 I6.523 J-5.807 F1200.
X120.196 Y12.922 I4.098 J-.12
G01 Y-6.049
Y-6.112
G03 X120.579 Y-8.675 I8.757 J0.0
X121.479 Y-10.676 I8.374 J2.563 F1050.
X122.503 Y-12.035 I7.473 J4.564 F900.
X122.85 Y-12.389 I6.983 J6.506
G02 X122.173 Y-12.654 I-.678 J.735 F2000.
X121.563 Y-12.447 I0.0 J1.
G03 X120.308 Y-12.02 I-1.255 J-1.633
X120.108 Y-12.03 I0.0 J-2.06
G01 X119.993 Y-12.041
G03 X118.692 Y-12.681 I.201 J-2.05
G02 X117.963 Y-12.997 I-.729 J.685
X117.399 Y-12.822 I0.0 J1.
G03 X119.245 Y-7.397 I-7.049 J5.425 F1200.
G01 Y-7.358
Y12.996
Y13.013
G03 X119.032 Y14.932 I-8.743 J0.0
X118.285 Y16.996 I-8.529 J-1.92 F1050.
X117.048 Y18.808 I-7.783 J-3.983 F900.
G02 X117.667 Y19.023 I.619 J-.785 F2000.
X118.338 Y18.764 I0.0 J-1.
G03 X119.72 Y18.231 I1.382 J1.527
G01 X119.725
X119.72 Y20.478
Z-7.6
G00 Z-7.4
G01 Z-7.8
Z-8.8 F800.
X119.725 Y18.231
G03 X121.112 Y18.772 I-.004 J2.06 F2000.
G02 X121.787 Y19.035 I.675 J-.737
X122.408 Y18.818 I0.0 J-1.
G03 X120.198 Y13.042 I6.522 J-5.807 F1200.
X120.196 Y12.922 I4.098 J-.12
G01 Y-6.049
Y-6.112
G03 X120.579 Y-8.675 I8.757 J0.0
X121.479 Y-10.676 I8.374 J2.563 F1050.
X122.503 Y-12.035 I7.473 J4.564 F900.
X122.85 Y-12.389 I6.983 J6.506
G02 X122.173 Y-12.654 I-.678 J.735 F2000.
X121.563 Y-12.447 I0.0 J1.
G03 X120.308 Y-12.02 I-1.255 J-1.633
X120.105 Y-12.03 I0.0 J-2.06
G01 X119.99 Y-12.042
G03 X118.692 Y-12.681 I.204 J-2.05
G02 X117.963 Y-12.997 I-.729 J.685
X117.399 Y-12.822 I0.0 J1.
G03 X119.245 Y-7.397 I-7.049 J5.426 F1200.
G01 Y-7.358
Y12.996
Y13.013
G03 X119.032 Y14.933 I-8.743 J0.0
X118.285 Y16.996 I-8.529 J-1.92 F1050.
X117.048 Y18.808 I-7.783 J-3.983 F900.
G02 X117.667 Y19.023 I.619 J-.785 F2000.
X118.338 Y18.764 I0.0 J-1.
G03 X119.72 Y18.231 I1.382 J1.527
G01 X119.725
X119.72 Y20.478
Z-7.8
G00 Z1.
X108.668 Y10.989
G01 Z.1
Y12.953 Z.031 F800.
Y13.342 Z.018
X108.994 Y14.249 Z-.016
X109.636 Y14.969 Z-.05
X110.5 Y15.398 Z-.083
X111.462 Y15.472 Z-.117
X112.212 Y15.267 Z-.144
X112.909 Y14.802 Z-.173
X113.416 Y14.137 Z-.203
X113.68 Y13.342 Z-.232
Y12.953 Z-.245
Y2.797 Z-.6
Y-7.358 F1200.
G02 X111.174 Y-9.864 I-2.506 J0.0
X108.668 Y-7.358 I0.0 J2.506
G01 Y12.953
G02 X111.174 Y15.459 I2.506 J0.0
X113.68 Y12.953 I0.0 J-2.506
G01 Y2.797
X111.88 F2000.
Y-7.358
G02 X111.174 Y-8.064 I-.706 J0.0
X110.468 Y-7.358 I0.0 J.706
G01 Y12.953
G02 X111.174 Y13.659 I.706 J0.0
X111.88 Y12.953 I0.0 J-.706
G01 Y2.797
X112.054 Y.805
Z.4
G00 Z1.
X113.662 Y11.388
G01 Z-.5
Y2.797 Z-.8 F800.
Y-7.358 F1200.
G02 X111.174 Y-9.847 I-2.488 J0.0
X108.685 Y-7.358 I0.0 J2.488
G01 Y12.953
G02 X111.174 Y15.441 I2.488 J0.0
X113.662 Y12.953 I0.0 J-2.488
G01 Y2.797
X111.862 F2000.
Y-7.358
G02 X111.174 Y-8.047 I-.688 J0.0
X110.485 Y-7.358 I0.0 J.688
G01 Y12.953
G02 X111.174 Y13.641 I.688 J0.0
X111.862 Y12.953 I0.0 J-.688
G01 Y2.797
X112.036 Y.805
Z.2
G00 Z.4
X113.662 Y11.388
G01 Z-.7
Y2.797 Z-1. F800.
Y-7.358 F1200.
G02 X111.174 Y-9.847 I-2.488 J0.0
X108.685 Y-7.358 I0.0 J2.488
G01 Y12.953
G02 X111.174 Y15.441 I2.488 J0.0
X113.662 Y12.953 I0.0 J-2.488
G01 Y2.797
X111.862 F2000.
Y-7.358
G02 X111.174 Y-8.047 I-.688 J0.0
X110.485 Y-7.358 I0.0 J.688
G01 Y12.953
G02 X111.174 Y13.641 I.688 J0.0
X111.862 Y12.953 I0.0 J-.688
G01 Y2.797
X112.036 Y.805
Z0.0
G00 Z.2
X113.662 Y11.388
G01 Z-.9
Y2.797 Z-1.2 F800.
Y-7.358 F1200.
G02 X111.174 Y-9.847 I-2.488 J0.0
X108.685 Y-7.358 I0.0 J2.488
G01 Y12.953
G02 X111.174 Y15.441 I2.488 J0.0
X113.662 Y12.953 I0.0 J-2.488
G01 Y2.797
X111.862 F2000.
Y-7.358
G02 X111.174 Y-8.047 I-.688 J0.0
X110.485 Y-7.358 I0.0 J.688
G01 Y12.953
G02 X111.174 Y13.641 I.688 J0.0
X111.862 Y12.953 I0.0 J-.688
G01 Y2.797
X112.036 Y.805
Z-.2
G00 Z0.0
X113.662 Y11.388
G01 Z-1.1
Y2.797 Z-1.4 F800.
Y-7.358 F1200.
G02 X111.174 Y-9.847 I-2.488 J0.0
X108.685 Y-7.358 I0.0 J2.488
G01 Y12.953
G02 X111.174 Y15.441 I2.488 J0.0
X113.662 Y12.953 I0.0 J-2.488
G01 Y2.797
X111.862 F2000.
Y-7.358
G02 X111.174 Y-8.047 I-.688 J0.0
X110.485 Y-7.358 I0.0 J.688
G01 Y12.953
G02 X111.174 Y13.641 I.688 J0.0
X111.862 Y12.953 I0.0 J-.688
G01 Y2.797
X112.036 Y.805
Z-.4
G00 Z-.2
X113.662 Y11.388
G01 Z-1.3
Y2.797 Z-1.6 F800.
Y-7.358 F1200.
G02 X111.174 Y-9.847 I-2.488 J0.0
X108.685 Y-7.358 I0.0 J2.488
G01 Y12.953
G02 X111.174 Y15.441 I2.488 J0.0
X113.662 Y12.953 I0.0 J-2.488
G01 Y2.797
X111.862 F2000.
Y-7.358
G02 X111.174 Y-8.047 I-.688 J0.0
X110.485 Y-7.358 I0.0 J.688
G01 Y12.953
G02 X111.174 Y13.641 I.688 J0.0
X111.862 Y12.953 I0.0 J-.688
G01 Y2.797
X112.036 Y.805
Z-.6
G00 Z-.4
X113.662 Y11.388
G01 Z-1.5
Y2.797 Z-1.8 F800.
Y-7.358 F1200.
G02 X111.174 Y-9.847 I-2.488 J0.0
X108.685 Y-7.358 I0.0 J2.488
G01 Y12.953
G02 X111.174 Y15.441 I2.488 J0.0
X113.662 Y12.953 I0.0 J-2.488
G01 Y2.797
X111.862 F2000.
Y-7.358
G02 X111.174 Y-8.047 I-.688 J0.0
X110.485 Y-7.358 I0.0 J.688
G01 Y12.953
G02 X111.174 Y13.641 I.688 J0.0
X111.862 Y12.953 I0.0 J-.688
G01 Y2.797
X112.036 Y.805
Z-.8
G00 Z1.
X102.153 Y20.13
G01 Z.4
Z-.6 F800.
X104.017 Y18.091
G02 X104.692 Y18.353 I.675 J-.738 F2000.
X105.305 Y18.143 I0.0 J-1.
G03 X103.339 Y12.953 I5.869 J-5.19 F1200.
G01 Y-7.358
G03 X103.719 Y-9.769 I7.835 J0.0
X104.679 Y-11.74 I7.455 J2.41 F1050.
X106.148 Y-13.368 I6.495 J4.382 F900.
G02 X105.423 Y-13.679 I-.725 J.689 F2000.
X104.866 Y-13.51 I0.0 J1.
G03 X103.72 Y-13.161 I-1.147 J-1.711
X102.07 Y-13.987 I0.0 J-2.06
G02 X101.27 Y-14.388 I-.801 J.599
X100.814 Y-14.278 I0.0 J1.
G03 X101.915 Y-10.274 I-6.734 J4.004 F1200.
G01 Y12.953
G03 X101.812 Y14.221 I-7.835 J0.0
X101.157 Y16.313 I-7.731 J-1.268 F1050.
X99.949 Y18.143 I-7.077 J-3.361 F900.
G02 X100.562 Y18.353 I.613 J-.79 F2000.
X101.237 Y18.091 I0.0 J-1.
G03 X102.627 Y17.552 I1.39 J1.52
X104.017 Y18.091 I0.0 J2.06
G01 X102.153 Y20.13
Z.4
G00 Z1.
X102.183 Y20.151
G01 Z.2
Z-.8 F800.
X103.997 Y18.114
X104.012 Y18.128 F2000.
G02 X104.685 Y18.388 I.673 J-.74
X105.301 Y18.176 I0.0 J-1.
G03 X103.314 Y12.953 I5.873 J-5.223 F1200.
G01 Y-7.358
G03 X103.706 Y-9.811 I7.86 J0.0
X104.675 Y-11.779 I7.467 J2.453 F1050.
X106.149 Y-13.402 I6.499 J4.421 F900.
G02 X105.422 Y-13.715 I-.727 J.687 F2000.
X104.868 Y-13.548 I0.0 J1.
G03 X103.727 Y-13.203 I-1.141 J-1.715
X102.081 Y-14.023 I0.0 J-2.06
G02 X101.283 Y-14.422 I-.799 J.602
X100.825 Y-14.311 I0.0 J1.
G03 X101.94 Y-10.274 I-6.744 J4.036 F1200.
G01 Y12.953
G03 X101.831 Y14.26 I-7.86 J0.0
X101.168 Y16.35 I-7.75 J-1.307 F1050.
X99.953 Y18.176 I-7.088 J-3.397 F900.
G02 X100.569 Y18.388 I.616 J-.788 F2000.
X101.242 Y18.128 I0.0 J-1.
G03 X102.627 Y17.593 I1.385 J1.525
X103.997 Y18.114 I0.0 J2.06
G01 X102.183 Y20.151
Z.2
G00 Z.4
X102.199 Y20.163
G01 Z0.0
Z-1. F800.
X103.986 Y18.127
X104.01 Y18.148 F2000.
G02 X104.681 Y18.407 I.671 J-.741
X105.295 Y18.196 I0.0 J-1.
G03 X105.224 Y18.11 I5.122 J-4.301 F1200.
X103.3 Y12.953 I5.95 J-5.157
G01 Y-7.358
G03 X103.69 Y-9.806 I7.874 J0.0
X104.655 Y-11.775 I7.484 J2.448 F1050.
X105.161 Y-12.442 I6.518 J4.417 F900.
X106.109 Y-13.418 I5.386 J4.286
G01 X106.126 Y-13.459 F1200.
X106.141 Y-13.47
G02 X105.433 Y-13.764 I-.708 J.706 F2000.
X104.874 Y-13.593 I0.0 J1.
G03 X103.723 Y-13.241 I-1.152 J-1.708
X102.081 Y-14.056 I0.0 J-2.06
G02 X101.285 Y-14.452 I-.797 J.604
X100.832 Y-14.343 I0.0 J1.
G03 X101.067 Y-13.906 I-6.299 J3.652 F1200.
X101.954 Y-10.274 I-6.986 J3.631
G01 Y12.953
G03 X101.841 Y14.282 I-7.874 J0.0
X101.174 Y16.37 I-7.761 J-1.329 F1050.
X100.033 Y18.106 I-7.093 J-3.418 F900.
X99.959 Y18.196 I-5.308 J-4.324
G02 X100.573 Y18.407 I.614 J-.789 F2000.
X101.244 Y18.148 I0.0 J-1.
G03 X102.627 Y17.615 I1.383 J1.527
X103.986 Y18.127 I0.0 J2.06
G01 X102.199 Y20.163
Z0.0
G00 Z.2
X102.206 Y20.25
G01 Z-.2
Z-1.2 F800.
X103.95 Y18.169
G03 X104.04 Y18.249 I-1.323 J1.579 F2000.
G02 X104.727 Y18.522 I.686 J-.727
X105.311 Y18.333 I0.0 J-1.
G03 X104.592 Y17.3 I6.167 J-5.058 F1200.
X103.286 Y12.953 I6.582 J-4.347
G01 Y-7.358
G03 X103.78 Y-10.106 I7.888 J0.0
X104.622 Y-11.751 I7.394 J2.747 F1050.
X104.802 Y-12.048 I6.534 J3.757
X106.238 Y-13.705 I6.354 J4.055 F900.
G02 X105.525 Y-14.003 I-.713 J.701 F2000.
X104.931 Y-13.808 I0.0 J1.
G03 X103.708 Y-13.406 I-1.223 J-1.658
X102.104 Y-14.173 I0.0 J-2.06
G01 X102.007 Y-14.293
G03 X101.959 Y-14.355 I1.604 J-1.292
G02 X101.158 Y-14.757 I-.802 J.598
X100.737 Y-14.664 I0.0 J1.
G03 X100.944 Y-14.256 I-5.381 J2.978 F1050.
X101.12 Y-13.832 I-5.588 J2.569 F900.
X101.828 Y-11.757 I-7.04 J3.558
X101.968 Y-10.274 I-7.747 J1.482 F1200.
G01 Y12.953
G03 X101.83 Y14.423 I-7.888 J0.0
X101.126 Y16.5 I-7.75 J-1.47 F1050.
X100.666 Y17.294 I-7.045 J-3.547 F900.
X99.935 Y18.346 I-9.342 J-5.709
G02 X100.516 Y18.532 I.581 J-.814 F2000.
X101.206 Y18.256 I0.0 J-1.
G03 X102.627 Y17.688 I1.421 J1.491
X103.95 Y18.169 I0.0 J2.06
G01 X102.206 Y20.25
Z-.2
G00 Z0.0
X102.614 Y20.432
G01 Z-.4
Z-1.4 F800.
X102.638 Y18.165
G03 X104.182 Y18.886 I-.021 J2.06 F2000.
G02 X104.942 Y19.236 I.76 J-.65
X105.516 Y19.055 I0.0 J-1.
G03 X104.836 Y18.027 I3.267 J-2.901 F1200.
G01 X104.037 Y16.345
G03 X103.272 Y12.953 I7.136 J-3.393
G01 Y-7.358
G03 X103.889 Y-10.421 I7.902 J0.0
X104.149 Y-10.976 I7.284 J3.062 F1050.
G01 X104.835 Y-12.407
X104.876 Y-12.494 F900.
G03 X106.146 Y-14.043 I3.809 J1.826
X106.211 Y-14.092 I5.027 J6.685
G02 X105.476 Y-14.414 I-.735 J.678 F2000.
X104.918 Y-14.244 I0.0 J1.
G03 X103.77 Y-13.894 I-1.149 J-1.71
X101.988 Y-14.919 I0.0 J-2.06
G02 X101.124 Y-15.417 I-.865 J.502
X100.71 Y-15.328 I0.0 J1.
G03 X101.126 Y-14.408 I-3.177 J1.992 F1050.
X101.213 Y-14.057 I-3.593 J1.072 F900.
G01 X101.338 Y-13.418
X101.359 Y-13.351 F1200.
G03 X101.924 Y-11.232 I-7.278 J3.076 F900.
X101.982 Y-10.274 I-7.844 J.958 F1200.
G01 Y12.953
G03 X101.691 Y15.079 I-7.902 J0.0
X101.217 Y16.345 I-7.61 J-2.126 F1050.
G01 X100.853 Y17.109
X100.436 Y17.985 F900.
G03 X99.765 Y19.012 I-4.146 J-1.975
G02 X100.333 Y19.188 I.567 J-.823 F2000.
X101.079 Y18.854 I0.0 J-1.
G03 X102.616 Y18.165 I1.537 J1.371
G01 X102.638
X102.614 Y20.432
Z-.4
G00 Z-.2
X102.613 Y20.494
G01 Z-.6
Z-1.6 F800.
X102.637 Y18.245
G03 X104.047 Y18.824 I-.022 J2.06 F2000.
G02 X104.743 Y19.106 I.695 J-.719
X105.357 Y18.895 I0.0 J-1.
G03 X104.293 Y17.321 I5. J-4.526 F1200.
G01 X103.776 Y15.769
G03 X103.258 Y12.953 I7.398 J-2.816
G01 Y-7.358
G03 X103.713 Y-10.002 I7.916 J0.0
G02 X103.898 Y-10.508 I-19.18 J-7.317
X104.265 Y-11.66 I-19.366 J-6.812 F1050.
G03 X104.755 Y-12.52 I6.305 J3.019
X105.861 Y-13.807 I5.815 J3.879 F900.
X106.168 Y-14.06 I1.496 J1.5
X106.249 Y-14.12 I5.006 J6.702
G02 X105.502 Y-14.455 I-.747 J.665 F2000.
X104.959 Y-14.295 I0.0 J1.
G03 X103.841 Y-13.965 I-1.118 J-1.73
X103.745 Y-13.967 I0.0 J-2.06
X102.153 Y-14.795 I.06 J-2.059
G02 X101.351 Y-15.198 I-.802 J.598
X100.882 Y-15.081 I0.0 J1.
G03 X101.109 Y-14.714 I-7.139 J4.681 F1050.
X101.397 Y-14.062 I-2.688 J1.574
X101.535 Y-13.204 I-2.975 J.922 F900.
G01 X101.541 Y-12.93
X101.567 Y-12.845
G03 X101.98 Y-10.781 I-7.487 J2.57
X101.996 Y-10.274 I-7.9 J.507 F1200.
G01 Y12.953
G03 X101.758 Y14.881 I-7.916 J0.0
X101.455 Y15.83 I-7.677 J-1.928 F1050.
G01 X101.388 Y16.02
X101.074 Y16.971
X100.958 Y17.321 F900.
G03 X99.946 Y18.84 I-5.887 J-2.827
G02 X100.552 Y19.045 I.606 J-.795 F2000.
X101.226 Y18.783 I0.0 J-1.
G03 X102.615 Y18.245 I1.389 J1.522
G01 X102.637
X102.613 Y20.494
Z-.6
G00 Z-.4
Y20.493
G01 Z-.8
Z-1.8 F800.
X102.637 Y18.245
G03 X104.035 Y18.812 I-.022 J2.06 F2000.
G02 X104.724 Y19.088 I.689 J-.725
X105.35 Y18.868 I0.0 J-1.
G03 X103.99 Y16.833 I6.173 J-5.599 F1200.
X103.482 Y14.882 I33.376 J-9.731
X103.244 Y12.953 I7.692 J-1.929
G01 Y-7.358
G03 X103.421 Y-9.027 I7.93 J0.0
G01 X103.669 Y-10.002
X103.79 Y-10.628
G03 X104.02 Y-11.309 I2.622 J.507 F1050.
X104.767 Y-12.549 I8.028 J3.988
X105.861 Y-13.807 I7.281 J5.228 F900.
X106.168 Y-14.06 I1.496 J1.5
X106.274 Y-14.138 I5.006 J6.702
G02 X105.528 Y-14.472 I-.746 J.666 F2000.
X104.977 Y-14.307 I0.0 J1.
G03 X103.841 Y-13.965 I-1.136 J-1.719
X103.736 Y-13.968 I0.0 J-2.06
X102.166 Y-14.778 I.069 J-2.059
G02 X101.371 Y-15.172 I-.795 J.606
X100.901 Y-15.054 I0.0 J1.
G03 X101.573 Y-13.66 I-5.786 J3.649 F1200.
X101.7 Y-12.935 I-2.006 J.725
X101.697 Y-12.833 I-2.133 J0.0
G02 X101.695 Y-12.741 I1.889 J.091
X101.756 Y-12.266 I1.891 J0.0
G03 X102.01 Y-10.274 I-7.676 J1.992
G01 Y12.953
G03 X101.772 Y14.882 I-7.93 J0.0
X101.328 Y16.661 I-38.214 J-8.582 F1050.
X101.177 Y16.99 I-7.395 J-3.199
X99.958 Y18.812 I-7.244 J-3.528 F900.
G02 X100.574 Y19.025 I.616 J-.787 F2000.
X101.241 Y18.77 I0.0 J-1.
G03 X102.615 Y18.245 I1.374 J1.535
G01 X102.637
X102.613 Y20.493
Z-.8
G00 Z-.6
G01 Z-1.
Z-2. F800.
X102.637 Y18.245
G03 X104.037 Y18.814 I-.022 J2.06 F2000.
G02 X104.727 Y19.09 I.69 J-.724
X105.354 Y18.869 I0.0 J-1.
G03 X103.59 Y15.857 I6.287 J-5.705 F1200.
X103.23 Y12.953 I15.753 J-3.427
G01 Y-7.296
G03 X103.524 Y-10.002 I17.672 J.549
X103.724 Y-10.604 I8.133 J2.376
X104.754 Y-12.541 I7.932 J2.978 F1050.
X105.861 Y-13.807 I6.902 J4.915 F900.
X106.168 Y-14.06 I1.496 J1.5
X106.262 Y-14.13 I5.006 J6.702
G02 X105.516 Y-14.464 I-.746 J.666 F2000.
X104.969 Y-14.301 I0.0 J1.
G03 X103.841 Y-13.965 I-1.128 J-1.724
X103.727 Y-13.968 I0.0 J-2.06
X102.183 Y-14.756 I.078 J-2.059
G02 X101.396 Y-15.139 I-.787 J.617
X100.923 Y-15.02 I0.0 J1.
G03 X101.636 Y-13.484 I-4.992 J3.25 F1050.
X101.888 Y-11.809 I-5.705 J1.714 F900.
X102.026 Y-10.193 I-9.368 J1.616
X102.024 Y-10.002 I-9.506 J0.0
G01 Y-9.617
Y12.953 F1200.
G03 X101.839 Y14.913 I-16.441 J-.563
X101.664 Y15.857 I-16.255 J-2.523 F1050.
X101.185 Y17. I-8.121 J-2.731
X99.951 Y18.814 I-7.642 J-3.873 F900.
G02 X100.57 Y19.028 I.619 J-.785 F2000.
X101.238 Y18.772 I0.0 J-1.
G03 X102.615 Y18.245 I1.377 J1.533
G01 X102.637
X102.613 Y20.493
Z-1.
G00 Z-.8
G01 Z-1.2
Z-2.2 F800.
X102.637 Y18.245
G03 X104.036 Y18.813 I-.022 J2.06 F2000.
G02 X104.726 Y19.089 I.69 J-.724
X105.351 Y18.87 I0.0 J-1.
G03 X104.755 Y18.129 I6.021 J-5.453 F1200.
X103.192 Y13.418 I6.34 J-4.718
G01 X103.19 Y12.953
Y-8.059
G03 X103.271 Y-9.027 I5.841 J0.0
X103.718 Y-10.614 I8.586 J1.56
X104.76 Y-12.545 I8.139 J3.148 F1050.
X105.861 Y-13.807 I7.097 J5.078 F900.
X106.168 Y-14.06 I1.496 J1.5
X106.268 Y-14.134 I5.006 J6.702
G02 X105.522 Y-14.468 I-.746 J.666 F2000.
X104.973 Y-14.304 I0.0 J1.
G03 X103.841 Y-13.965 I-1.132 J-1.722
X103.718 Y-13.969 I0.0 J-2.06
X102.166 Y-14.778 I.087 J-2.058
G02 X101.371 Y-15.172 I-.795 J.606
X100.9 Y-15.055 I0.0 J1.
G03 X101.593 Y-13.602 I-5.781 J3.647 F1200.
X102.064 Y-10.746 I-8.428 J2.856
G01 Y12.953
G03 X102.066 Y13.166 I-11.745 J.214
X101.94 Y14.882 I-11.747 J0.0
X101.183 Y17.005 I-8.487 J-1.826 F1050.
X99.946 Y18.818 I-7.731 J-3.95 F900.
G02 X100.566 Y19.033 I.62 J-.785 F2000.
X101.235 Y18.775 I0.0 J-1.
G03 X102.615 Y18.245 I1.38 J1.53
G01 X102.637
X102.613 Y20.493
Z-1.2
G00 Z-1.
Y20.495
G01 Z-1.4
Z-2.4 F800.
X102.637 Y18.245
G03 X104.052 Y18.828 I-.022 J2.06 F2000.
G02 X104.749 Y19.112 I.697 J-.717
X105.378 Y18.889 I0.0 J-1.
G03 X103.105 Y13.073 I6.462 J-5.878 F1200.
X103.103 Y12.922 I4.097 J-.151
G01 Y-7.366
G03 X103.719 Y-10.62 I8.903 J.002
X104.768 Y-12.548 I8.286 J3.256 F1050.
X105.861 Y-13.807 I7.238 J5.184 F900.
X106.168 Y-14.06 I1.496 J1.5
X106.274 Y-14.138 I5.006 J6.702
G02 X105.528 Y-14.472 I-.746 J.666 F2000.
X104.977 Y-14.307 I0.0 J1.
G03 X103.841 Y-13.965 I-1.136 J-1.719
X103.709 Y-13.969 I0.0 J-2.06
X102.166 Y-14.779 I.095 J-2.058
G02 X101.371 Y-15.172 I-.795 J.606
X100.9 Y-15.055 I0.0 J1.
G03 X101.573 Y-13.66 I-5.778 J3.645 F1200.
X102.151 Y-10.274 I-10.978 J3.618
G01 Y12.996
Y13.012
G03 X101.936 Y14.942 I-8.743 J0.0
X101.187 Y17.004 I-8.528 J-1.929 F1050.
X99.948 Y18.815 I-7.779 J-3.992 F900.
G02 X100.568 Y19.03 I.62 J-.785 F2000.
X101.237 Y18.774 I0.0 J-1.
G03 X102.615 Y18.245 I1.378 J1.531
G01 X102.637
X102.613 Y20.495
Z-1.4
G00 Z-1.2
G01 Z-1.6
Z-2.6 F800.
X102.637 Y18.245
G03 X104.051 Y18.828 I-.022 J2.06 F2000.
G02 X104.749 Y19.111 I.697 J-.717
X105.378 Y18.889 I0.0 J-1.
G03 X103.105 Y13.071 I6.462 J-5.877 F1200.
X103.103 Y12.922 I4.097 J-.149
G01 Y-7.367
G03 X103.719 Y-10.62 I8.902 J.002
X104.768 Y-12.548 I8.286 J3.256 F1050.
X105.861 Y-13.807 I7.237 J5.184 F900.
X106.168 Y-14.06 I1.496 J1.5
X106.274 Y-14.138 I5.006 J6.702
G02 X105.528 Y-14.472 I-.746 J.666 F2000.
X104.977 Y-14.307 I0.0 J1.
G03 X103.841 Y-13.965 I-1.136 J-1.719
X103.7 Y-13.97 I0.0 J-2.06
X102.166 Y-14.779 I.105 J-2.057
G02 X101.371 Y-15.173 I-.795 J.606
X100.9 Y-15.055 I0.0 J1.
G03 X101.573 Y-13.66 I-5.775 J3.644 F1200.
X102.151 Y-10.274 I-10.975 J3.618
G01 Y12.996
Y13.012
G03 X101.936 Y14.942 I-8.743 J0.0
X101.187 Y17.004 I-8.528 J-1.929 F1050.
X99.948 Y18.815 I-7.779 J-3.992 F900.
G02 X100.568 Y19.031 I.62 J-.785 F2000.
X101.237 Y18.774 I0.0 J-1.
G03 X102.615 Y18.245 I1.378 J1.531
G01 X102.637
X102.613 Y20.495
Z-1.6
G00 Z-1.4
G01 Z-1.8
Z-2.8 F800.
X102.637 Y18.245
G03 X104.051 Y18.828 I-.022 J2.06 F2000.
G02 X104.749 Y19.111 I.697 J-.717
X105.378 Y18.888 I0.0 J-1.
G03 X103.105 Y13.069 I6.463 J-5.877 F1200.
X103.103 Y12.922 I4.097 J-.147
G01 Y-7.368
G03 X103.719 Y-10.62 I8.902 J.003
X104.768 Y-12.548 I8.285 J3.256 F1050.
X105.861 Y-13.807 I7.237 J5.184 F900.
X106.168 Y-14.06 I1.496 J1.5
X106.274 Y-14.138 I5.006 J6.702
G02 X105.528 Y-14.472 I-.746 J.666 F2000.
X104.977 Y-14.307 I0.0 J1.
G03 X103.841 Y-13.965 I-1.136 J-1.719
X103.691 Y-13.971 I0.0 J-2.06
X102.166 Y-14.779 I.113 J-2.057
G02 X101.371 Y-15.173 I-.795 J.606
X100.9 Y-15.055 I0.0 J1.
G03 X101.573 Y-13.66 I-5.77 J3.641 F1200.
X102.151 Y-10.274 I-10.973 J3.617
