%
G40 G17 G49 G54 G80
G91 G28 Z0.0
( NAME: Capful )
( PART: D:\Program Files\Siemens\NX 12.0\UGII\HM-µç¼«±à³Ì.prt )
( DATE: Sun May 27 04:51:35 2018 )
( D10 ---> D=10.00 R=0.00 )
S8000 M03
G00 G90 X137.931 Y-32.
Z15.
G17 G01 Z-5.982 F1300.
Z-8.982 F520.
Y-25.5
X47.658 F1300.
Y-22.5
G40 G03 X50.274 Y-20.871 I-4.859 J10.715 F780.
G01 X50.428 Y-20.729
G03 X51.567 Y-19.503 I-7.6 J8.214
X52.385 Y-20.324 I8.687 J7.838
G01 X52.557 Y-20.48
G03 X56.348 Y-22.5 I7.334 J9.199
G01 X47.658 F1300.
Y-25.5
X31.178
Y-22.5
G03 X32.861 Y-21.423 I-5.473 J10.414 F780.
X33.347 Y-21.012 I-3.953 J5.16
X34.384 Y-19.905 I-7.854 J8.4
X35.291 Y-20.827 I8.78 J7.738
G01 X35.463 Y-20.983
G03 X37.941 Y-22.5 I7.336 J9.198
G01 X31.178 F1300.
Y-25.5
X14.451
Y-22.5
G03 X15.739 Y-21.647 I-5.84 J10.213 F780.
X16.206 Y-21.255 I-3.937 J5.172
X17.248 Y-20.158 I-7.66 J8.316
X18.198 Y-21.128 I8.824 J7.689
G01 X18.37 Y-21.284
G03 X20.231 Y-22.5 I7.335 J9.199
G01 X14.451 F1300.
Y-25.5
X-2.556
Y-22.5
G03 X-1.403 Y-21.733 I-5.927 J10.163 F780.
X-.928 Y-21.339 I-3.91 J5.192
X.088 Y-20.282 I-7.692 J8.415
X1.104 Y-21.329 I8.891 J7.614
G01 X1.276 Y-21.485
G03 X2.771 Y-22.5 I7.335 J9.199
G01 X-2.556 F1300.
Y-25.5
X-19.916
Y-22.5
G03 X-18.546 Y-21.62 I-5.66 J10.314 F780.
X-18.065 Y-21.225 I-3.883 J5.213
X-17.093 Y-20.23 I-7.746 J8.551
X-15.988 Y-21.38 I8.971 J7.508
G01 X-15.816 Y-21.536
G03 X-14.41 Y-22.5 I7.334 J9.199
G01 X-19.916 F1300.
Y-25.5
X-37.494
Y-22.5
G03 X-35.658 Y-21.382 I-5.176 J10.565 F780.
X-35.169 Y-20.981 I-3.873 J5.22
X-34.229 Y-20.028 I-7.881 J8.714
X-33.082 Y-21.229 I9.014 J7.456
G01 X-32.91 Y-21.385
G03 X-31.237 Y-22.5 I7.334 J9.199
G01 X-37.494 F1300.
Y-25.5
X-55.505
Y-22.5
G03 X-52.777 Y-20.999 I-4.258 J10.967 F780.
X-52.282 Y-20.594 I-3.859 J5.231
X-51.602 Y-19.931 I-8.182 J9.077
G01 X-51.389 Y-19.694
G03 X-50.176 Y-20.978 I9.082 J7.372
G01 X-50.004 Y-21.134
G03 X-47.846 Y-22.5 I7.334 J9.199
G01 X-55.505 F1300.
Y-25.5
X-74.47
Y-22.5
G03 X-69.88 Y-20.453 I-2.386 J11.52 F780.
X-69.422 Y-20.082 I-3.854 J5.235
X-69.025 Y-19.712 I-7.222 J8.148
X-68.543 Y-19.218 I-8.266 J8.531
X-67.269 Y-20.575 I9.14 J7.3
G01 X-67.097 Y-20.732
G03 X-64.021 Y-22.5 I7.334 J9.199
G01 X-74.47 F1300.
Y-25.5
X-153.121
X-158. Y-20.621
Y-13.191
X-155.
X-154.576 Y-13.863 F780.
X-153.49 Y-15.247
G03 X-152.662 Y-16.061 I8.962 J8.278
G01 X-152.489 Y-16.217
G03 X-145.231 Y-18.723 I7.258 J9.259
X-138.277 Y-16.447 I0.0 J11.765
X-137.685 Y-15.958 I-3.841 J5.244
X-137.161 Y-15.457 I-7.866 J8.749
G01 X-136.397 Y-16.403
G03 X-135.569 Y-17.218 I8.962 J8.278
G01 X-135.395 Y-17.373
G03 X-128.137 Y-19.879 I7.258 J9.259
X-121.183 Y-17.604 I0.0 J11.765
X-120.592 Y-17.114 I-3.841 J5.244
X-120.145 Y-16.691 I-7.866 J8.749
X-119.811 Y-17.121 I9.686 J7.175
X-118.55 Y-18.464 I9.13 J7.313
G01 X-118.378 Y-18.62
G03 X-111.044 Y-21.186 I7.334 J9.199
X-104.093 Y-18.913 I0.0 J11.765
X-103.549 Y-18.468 I-3.839 J5.245
X-102.861 Y-17.796 I-7.989 J8.872
G01 X-102.719 Y-17.974
G03 X-101.456 Y-19.319 I9.132 J7.311
G01 X-101.284 Y-19.475
G03 X-93.95 Y-22.041 I7.334 J9.199
X-86.983 Y-19.756 I0.0 J11.765
X-86.434 Y-19.305 I-3.845 J5.241
X-85.698 Y-18.586 I-7.719 J8.635
G01 X-85.687 Y-18.601
G03 X-84.363 Y-20.022 I9.191 J7.236
G01 X-84.191 Y-20.179
G03 X-79.243 Y-22.5 I7.334 J9.199
G01 X-151.879 F1300.
X-155. Y-19.379
Y-13.191
X-158.
Y23.
G02 X-155.5 Y25.5 I2.5 J0.0
G01 X-152.104
Y22.5
X-152.26 Y22.385 F780.
G03 X-153.613 Y21.108 I3.811 J-5.39
X-155. Y19.218 I8.99 J-8.054
G01 Y22.5 F1300.
X-152.104
Y25.5
X-135.01
Y22.5
X-135.167 Y22.385 F780.
X-135.433 Y22.187
X-136.174 Y21.481
X-136.405 Y21.235
G03 X-136.679 Y20.927 I8.875 J-8.179
X-137.968 Y22.214 I-8.867 J-7.59
G01 X-138.197 Y22.385
X-138.354 Y22.5
X-135.01 F1300.
Y25.5
X-117.917
Y22.5
X-118.073 Y22.385 F780.
G03 X-119.426 Y21.108 I3.811 J-5.39
X-119.585 Y20.927 I9.003 J-8.066
X-120.874 Y22.214 I-8.867 J-7.589
G01 X-121.104 Y22.385
X-121.26 Y22.5
X-117.917 F1300.
Y25.5
X-100.823
Y22.5
X-100.98 Y22.385 F780.
X-101.246 Y22.187
X-101.987 Y21.481
X-102.218 Y21.235
G03 X-102.493 Y20.925 I8.875 J-8.179
X-103.782 Y22.215 I-8.967 J-7.671
G01 X-104.01 Y22.385
X-104.167 Y22.5
X-100.823 F1300.
Y25.5
X-83.73
Y22.5
G03 X-85.397 Y20.922 I6.497 J-8.532 F780.
X-86.688 Y22.215 I-8.97 J-7.668
G01 X-86.917 Y22.385
X-87.073 Y22.5
X-83.73 F1300.
Y25.5
X-66.636
Y22.5
X-66.793 Y22.385 F780.
X-67.059 Y22.187
X-67.8 Y21.481
X-68.031 Y21.235
G03 X-68.301 Y20.931 I8.875 J-8.179
X-69.533 Y22.169 I-8.474 J-7.203
G01 X-69.822 Y22.385
X-69.98 Y22.5
X-66.636 F1300.
Y25.5
X-49.543
Y22.5
X-49.699 Y22.385 F780.
X-49.965 Y22.187
X-50.707 Y21.481
X-50.937 Y21.235
G03 X-51.208 Y20.93 I8.897 J-8.199
X-52.501 Y22.215 I-8.373 J-7.135
G01 X-52.73 Y22.385
X-52.886 Y22.5
X-49.543 F1300.
Y25.5
X-32.449
Y22.5
X-32.606 Y22.385 F780.
X-32.872 Y22.187
X-33.613 Y21.481
X-33.844 Y21.235
G03 X-34.119 Y20.925 I8.897 J-8.199
X-35.408 Y22.215 I-8.967 J-7.671
G01 X-35.636 Y22.385
X-35.793 Y22.5
X-32.449 F1300.
Y25.5
X-15.356
Y22.5
X-15.512 Y22.385 F780.
X-15.778 Y22.187
X-16.52 Y21.481
X-16.75 Y21.235
G03 X-17.026 Y20.925 I8.875 J-8.179
X-18.314 Y22.215 I-8.967 J-7.671
G01 X-18.543 Y22.385
X-18.699 Y22.5
X-15.356 F1300.
Y25.5
X1.738
Y22.5
X1.581 Y22.385 F780.
X1.315 Y22.187
X.574 Y21.481
X.343 Y21.235
G03 X.068 Y20.925 I8.897 J-8.199
X-1.221 Y22.215 I-8.967 J-7.671
G01 X-1.449 Y22.385
X-1.606 Y22.5
X1.738 F1300.
Y25.5
X18.831
Y22.5
X18.675 Y22.385 F780.
G03 X17.322 Y21.108 I3.811 J-5.39
X17.162 Y20.925 I9.012 J-8.073
X15.873 Y22.215 I-8.968 J-7.671
G01 X15.644 Y22.385
X15.488 Y22.5
X18.831 F1300.
Y25.5
X35.925
Y22.5
X35.768 Y22.385 F780.
X35.502 Y22.187
X34.694 Y21.417
G03 X34.258 Y20.932 I8.901 J-8.44
X32.966 Y22.215 I-8.371 J-7.137
G01 X32.738 Y22.385
X32.581 Y22.5
X35.925 F1300.
Y25.5
X53.018
Y22.5
X52.862 Y22.385 F780.
X52.596 Y22.187
X51.854 Y21.481
X51.624 Y21.235
G03 X51.348 Y20.925 I8.875 J-8.179
X50.061 Y22.214 I-9.053 J-7.75
G01 X49.831 Y22.385
X49.675 Y22.5
X53.018 F1300.
Y25.5
X70.112
Y22.5
X69.955 Y22.385 F780.
X69.689 Y22.187
X68.948 Y21.481
X68.717 Y21.235
G03 X68.443 Y20.927 I8.884 J-8.187
X67.154 Y22.214 I-8.867 J-7.59
G01 X66.925 Y22.385
X66.768 Y22.5
X70.112 F1300.
Y25.5
X87.205
Y22.5
X87.049 Y22.385 F780.
X86.783 Y22.187
X86.041 Y21.481
X85.811 Y21.235
G03 X85.534 Y20.924 I8.897 J-8.199
X84.568 Y21.92 I-9.106 J-7.86
X83.862 Y22.5 I-5.104 J-5.496
G01 X87.205 F1300.
Y25.5
X104.299
Y22.5
X104.141 Y22.384 F780.
X103.875 Y22.186
X103.067 Y21.416
G03 X102.627 Y20.926 I8.882 J-8.428
X102.253 Y21.338 I-9.049 J-7.84
X101.624 Y21.954 I-7.007 J-6.521
X100.955 Y22.5 I-5.067 J-5.53
G01 X104.299 F1300.
Y25.5
X121.392
Y22.5
X121.234 Y22.384 F780.
X120.968 Y22.186
X120.16 Y21.416
G03 X119.72 Y20.926 I8.885 J-8.428
X119.346 Y21.339 I-9.049 J-7.84
X118.717 Y21.954 I-7.004 J-6.519
X118.049 Y22.5 I-5.067 J-5.53
G01 X121.392 F1300.
Y25.5
X138.486
Y22.5
X138.327 Y22.384 F780.
X138.061 Y22.186
X137.254 Y21.416
G03 X136.813 Y20.926 I8.874 J-8.427
X136.246 Y21.54 I-9.174 J-7.889
G01 X135.3 Y22.384
X135.142 Y22.5
X138.486 F1300.
Y25.5
X155.5
G02 X158. Y23. I0.0 J-2.5
G01 Y19.698
X155.
G03 X152.236 Y22.5 I-9.639 J-6.745 F780.
G01 X155. F1300.
Y19.698
X158.
Y-9.
G02 X141.5 Y-25.5 I-16.5 J0.0
G01 X137.931
Y-22.5
X63.435
G03 X67.365 Y-20.368 I-3.543 J11.219 F780.
X67.731 Y-20.043 I-4.128 J5.021
X68.708 Y-18.978 I-7.623 J7.972
X68.887 Y-18.742 I-9.311 J7.268
X69.485 Y-19.324 I8.469 J8.095
G01 X69.656 Y-19.479
G03 X76.985 Y-22.041 I7.329 J9.203
X84.408 Y-19.403 I0.0 J11.765
X84.783 Y-19.074 I-4.1 J5.044
X85.533 Y-18.29 I-7.726 J8.145
G01 X86.019 Y-18.83
X86.463 Y-19.242
G03 X94.08 Y-22.04 I7.616 J8.967
X102.795 Y-18.178 I0.0 J11.765
X103.11 Y-17.803 I-4.814 J4.368
X103.934 Y-16.63 I-7.581 J6.203
X104.133 Y-16.784 I4.687 J5.855
X111.174 Y-19.123 I7.041 J9.426
X117.868 Y-17.033 I0.0 J11.765
X118.703 Y-16.399 I-6.696 J9.673
X119.028 Y-16.105 I-4.187 J4.972
X120.301 Y-14.65 I-7.417 J7.77
X120.82 Y-15.144 I9.185 J9.12
G01 X121.002 Y-15.308
G03 X123.407 Y-16.768 I7.263 J9.255
G01 X122.168 Y-19.5 F1300.
X119.575
G03 X120.541 Y-18.772 I-8.401 J12.142
G01 X120.635 Y-18.693
G03 X122.168 Y-19.5 I7.63 J12.641
G01 X123.407 Y-16.768
G03 X128.265 Y-17.818 I4.858 J10.715 F780.
X135.587 Y-15.262 I0.0 J11.765
X135.999 Y-14.905 I-4.042 J5.09
X138.595 Y-11.252 I-7.554 J8.115
X145.361 Y-13.392 I6.766 J9.625
X155. Y-8.372 I0.0 J11.765
G01 Y-9. F1300.
G02 X141.5 Y-22.5 I-13.5 J0.0
G01 X137.931
Y-19.5
X134.363
G03 X137.454 Y-17.61 I-6.097 J13.447
X138.049 Y-17.096 I-5.909 J7.439
X139.699 Y-15.263 I-9.604 J10.305
X145.361 Y-16.392 I5.662 J13.636
X149.501 Y-15.8 I0.0 J14.765
G02 X141.5 Y-19.5 I-8.001 J6.8
G01 X137.931
Y-32.
Z-5.982
G00 Z-5.932
G01 Z-6.032
Z-9.032 F520.
Y-25.5
X47.658 F1300.
Y-22.5
G03 X50.274 Y-20.871 I-4.859 J10.715 F780.
G01 X50.428 Y-20.729
G03 X51.567 Y-19.503 I-7.6 J8.214
X52.385 Y-20.324 I8.687 J7.838
G01 X52.557 Y-20.48
G03 X56.348 Y-22.5 I7.334 J9.199
G01 X47.658 F1300.
Y-25.5
X31.178
Y-22.5
G03 X32.861 Y-21.423 I-5.473 J10.414 F780.
X33.347 Y-21.012 I-3.953 J5.16
X34.384 Y-19.905 I-7.854 J8.4
X35.291 Y-20.827 I8.78 J7.738
G01 X35.463 Y-20.983
G03 X37.941 Y-22.5 I7.336 J9.198
G01 X31.178 F1300.
Y-25.5
X14.451
Y-22.5
G03 X15.739 Y-21.647 I-5.84 J10.213 F780.
X16.206 Y-21.255 I-3.937 J5.172
X17.248 Y-20.158 I-7.66 J8.316
X18.198 Y-21.128 I8.824 J7.689
G01 X18.37 Y-21.284
G03 X20.231 Y-22.5 I7.335 J9.199
G01 X14.451 F1300.
Y-25.5
X-2.556
Y-22.5
G03 X-1.403 Y-21.733 I-5.927 J10.163 F780.
X-.928 Y-21.339 I-3.91 J5.192
X.088 Y-20.282 I-7.692 J8.415
X1.104 Y-21.329 I8.891 J7.614
G01 X1.276 Y-21.485
G03 X2.771 Y-22.5 I7.335 J9.199
G01 X-2.556 F1300.
Y-25.5
X-19.916
Y-22.5
G03 X-18.546 Y-21.62 I-5.66 J10.314 F780.
X-18.065 Y-21.225 I-3.883 J5.213
X-17.093 Y-20.23 I-7.746 J8.551
X-15.988 Y-21.38 I8.971 J7.508
G01 X-15.816 Y-21.536
G03 X-14.41 Y-22.5 I7.334 J9.199
G01 X-19.916 F1300.
Y-25.5
X-37.494
Y-22.5
G03 X-35.658 Y-21.382 I-5.176 J10.565 F780.
X-35.169 Y-20.981 I-3.873 J5.22
X-34.229 Y-20.028 I-7.881 J8.714
X-33.082 Y-21.229 I9.014 J7.456
G01 X-32.91 Y-21.385
G03 X-31.237 Y-22.5 I7.334 J9.199
G01 X-37.494 F1300.
Y-25.5
X-55.505
Y-22.5
G03 X-52.777 Y-20.999 I-4.258 J10.967 F780.
X-52.282 Y-20.594 I-3.859 J5.231
X-51.602 Y-19.931 I-8.182 J9.077
G01 X-51.389 Y-19.694
G03 X-50.176 Y-20.978 I9.082 J7.372
G01 X-50.004 Y-21.134
G03 X-47.846 Y-22.5 I7.334 J9.199
G01 X-55.505 F1300.
Y-25.5
X-74.47
Y-22.5
G03 X-69.88 Y-20.453 I-2.386 J11.52 F780.
X-69.422 Y-20.082 I-3.854 J5.235
X-69.025 Y-19.712 I-7.222 J8.148
X-68.543 Y-19.218 I-8.266 J8.531
X-67.269 Y-20.575 I9.14 J7.3
G01 X-67.097 Y-20.732
G03 X-64.021 Y-22.5 I7.334 J9.199
G01 X-74.47 F1300.
Y-25.5
X-153.121
X-158. Y-20.621
Y-13.191
X-155.
X-154.576 Y-13.863 F780.
X-153.49 Y-15.247
G03 X-152.662 Y-16.061 I8.962 J8.278
G01 X-152.489 Y-16.217
G03 X-145.231 Y-18.723 I7.258 J9.259
X-138.277 Y-16.447 I0.0 J11.765
X-137.685 Y-15.958 I-3.841 J5.244
X-137.161 Y-15.457 I-7.866 J8.749
G01 X-136.397 Y-16.403
G03 X-135.569 Y-17.218 I8.962 J8.278
G01 X-135.395 Y-17.373
G03 X-128.137 Y-19.879 I7.258 J9.259
X-121.183 Y-17.604 I0.0 J11.765
X-120.592 Y-17.114 I-3.841 J5.244
X-120.145 Y-16.691 I-7.866 J8.749
X-119.811 Y-17.121 I9.686 J7.175
X-118.55 Y-18.464 I9.13 J7.313
G01 X-118.378 Y-18.62
G03 X-111.044 Y-21.186 I7.334 J9.199
X-104.093 Y-18.913 I0.0 J11.765
X-103.549 Y-18.468 I-3.839 J5.245
X-102.861 Y-17.796 I-7.989 J8.872
G01 X-102.719 Y-17.974
G03 X-101.456 Y-19.319 I9.132 J7.311
G01 X-101.284 Y-19.475
G03 X-93.95 Y-22.041 I7.334 J9.199
X-86.983 Y-19.756 I0.0 J11.765
X-86.434 Y-19.305 I-3.845 J5.241
X-85.698 Y-18.586 I-7.719 J8.635
G01 X-85.687 Y-18.601
G03 X-84.363 Y-20.022 I9.191 J7.236
G01 X-84.191 Y-20.179
G03 X-79.243 Y-22.5 I7.334 J9.199
G01 X-151.879 F1300.
X-155. Y-19.379
Y-13.191
X-158.
Y23.
G02 X-155.5 Y25.5 I2.5 J0.0
G01 X-152.104
Y22.5
X-152.26 Y22.385 F780.
G03 X-153.613 Y21.108 I3.811 J-5.39
X-155. Y19.218 I8.99 J-8.054
G01 Y22.5 F1300.
X-152.104
Y25.5
X-135.01
Y22.5
X-135.167 Y22.385 F780.
X-135.433 Y22.187
X-136.174 Y21.481
X-136.405 Y21.235
G03 X-136.679 Y20.927 I8.875 J-8.179
X-137.968 Y22.214 I-8.867 J-7.59
G01 X-138.197 Y22.385
X-138.354 Y22.5
X-135.01 F1300.
Y25.5
X-117.917
Y22.5
X-118.073 Y22.385 F780.
G03 X-119.426 Y21.108 I3.811 J-5.39
X-119.585 Y20.927 I9.003 J-8.066
X-120.874 Y22.214 I-8.867 J-7.589
G01 X-121.104 Y22.385
X-121.26 Y22.5
X-117.917 F1300.
Y25.5
X-100.823
Y22.5
X-100.98 Y22.385 F780.
X-101.246 Y22.187
X-101.987 Y21.481
X-102.218 Y21.235
G03 X-102.493 Y20.925 I8.875 J-8.179
X-103.782 Y22.215 I-8.967 J-7.671
G01 X-104.01 Y22.385
X-104.167 Y22.5
X-100.823 F1300.
Y25.5
X-83.73
Y22.5
G03 X-85.397 Y20.922 I6.497 J-8.532 F780.
X-86.688 Y22.215 I-8.97 J-7.668
G01 X-86.917 Y22.385
X-87.073 Y22.5
X-83.73 F1300.
Y25.5
X-66.636
Y22.5
X-66.793 Y22.385 F780.
X-67.059 Y22.187
X-67.8 Y21.481
X-68.031 Y21.235
G03 X-68.301 Y20.931 I8.875 J-8.179
X-69.533 Y22.169 I-8.474 J-7.203
G01 X-69.822 Y22.385
X-69.98 Y22.5
X-66.636 F1300.
Y25.5
X-49.543
Y22.5
X-49.699 Y22.385 F780.
X-49.965 Y22.187
X-50.707 Y21.481
X-50.937 Y21.235
G03 X-51.208 Y20.93 I8.897 J-8.199
X-52.501 Y22.215 I-8.373 J-7.135
G01 X-52.73 Y22.385
X-52.886 Y22.5
X-49.543 F1300.
Y25.5
X-32.449
Y22.5
X-32.606 Y22.385 F780.
X-32.872 Y22.187
X-33.613 Y21.481
X-33.844 Y21.235
G03 X-34.119 Y20.925 I8.897 J-8.199
X-35.408 Y22.215 I-8.967 J-7.671
G01 X-35.636 Y22.385
X-35.793 Y22.5
X-32.449 F1300.
Y25.5
X-15.356
Y22.5
X-15.512 Y22.385 F780.
X-15.778 Y22.187
X-16.52 Y21.481
X-16.75 Y21.235
G03 X-17.026 Y20.925 I8.875 J-8.179
X-18.314 Y22.215 I-8.967 J-7.671
G01 X-18.543 Y22.385
X-18.699 Y22.5
X-15.356 F1300.
Y25.5
X1.738
Y22.5
X1.581 Y22.385 F780.
X1.315 Y22.187
X.574 Y21.481
X.343 Y21.235
G03 X.068 Y20.925 I8.897 J-8.199
X-1.221 Y22.215 I-8.967 J-7.671
G01 X-1.449 Y22.385
X-1.606 Y22.5
X1.738 F1300.
Y25.5
X18.831
Y22.5
X18.675 Y22.385 F780.
G03 X17.322 Y21.108 I3.811 J-5.39
X17.162 Y20.925 I9.012 J-8.073
X15.873 Y22.215 I-8.968 J-7.671
G01 X15.644 Y22.385
X15.488 Y22.5
X18.831 F1300.
Y25.5
X35.925
Y22.5
X35.768 Y22.385 F780.
X35.502 Y22.187
X34.694 Y21.417
G03 X34.258 Y20.932 I8.901 J-8.44
X32.966 Y22.215 I-8.371 J-7.137
G01 X32.738 Y22.385
X32.581 Y22.5
X35.925 F1300.
Y25.5
X53.018
Y22.5
X52.862 Y22.385 F780.
X52.596 Y22.187
X51.854 Y21.481
X51.624 Y21.235
G03 X51.348 Y20.925 I8.875 J-8.179
X50.061 Y22.214 I-9.053 J-7.75
G01 X49.831 Y22.385
X49.675 Y22.5
X53.018 F1300.
Y25.5
X70.112
Y22.5
X69.955 Y22.385 F780.
X69.689 Y22.187
X68.948 Y21.481
X68.717 Y21.235
G03 X68.443 Y20.927 I8.884 J-8.187
X67.154 Y22.214 I-8.867 J-7.59
G01 X66.925 Y22.385
X66.768 Y22.5
X70.112 F1300.
Y25.5
X87.205
Y22.5
X87.049 Y22.385 F780.
X86.783 Y22.187
X86.041 Y21.481
X85.811 Y21.235
G03 X85.534 Y20.924 I8.897 J-8.199
X84.568 Y21.92 I-9.106 J-7.86
X83.862 Y22.5 I-5.104 J-5.496
G01 X87.205 F1300.
Y25.5
X104.299
Y22.5
X104.141 Y22.384 F780.
X103.875 Y22.186
X103.067 Y21.416
G03 X102.627 Y20.926 I8.882 J-8.428
X102.253 Y21.338 I-9.049 J-7.84
X101.624 Y21.954 I-7.007 J-6.521
X100.955 Y22.5 I-5.067 J-5.53
G01 X104.299 F1300.
Y25.5
X121.392
Y22.5
X121.234 Y22.384 F780.
X120.968 Y22.186
X120.16 Y21.416
G03 X119.72 Y20.926 I8.885 J-8.428
X119.346 Y21.339 I-9.049 J-7.84
X118.717 Y21.954 I-7.004 J-6.519
X118.049 Y22.5 I-5.067 J-5.53
G01 X121.392 F1300.
Y25.5
X138.486
Y22.5
X138.327 Y22.384 F780.
X138.061 Y22.186
X137.254 Y21.416
G03 X136.813 Y20.926 I8.874 J-8.427
X136.246 Y21.54 I-9.174 J-7.889
G01 X135.3 Y22.384
X135.142 Y22.5
X138.486 F1300.
Y25.5
X155.5
G02 X158. Y23. I0.0 J-2.5
G01 Y19.698
X155.
G03 X152.236 Y22.5 I-9.639 J-6.745 F780.
G01 X155. F1300.
Y19.698
X158.
Y-9.
G02 X141.5 Y-25.5 I-16.5 J0.0
G01 X137.931
Y-22.5
X63.435
G03 X67.365 Y-20.368 I-3.543 J11.219 F780.
X67.731 Y-20.043 I-4.128 J5.021
X68.708 Y-18.978 I-7.623 J7.972
X68.887 Y-18.742 I-9.311 J7.268
X69.485 Y-19.324 I8.469 J8.095
G01 X69.656 Y-19.479
G03 X76.985 Y-22.041 I7.329 J9.203
X84.408 Y-19.403 I0.0 J11.765
X84.783 Y-19.074 I-4.1 J5.044
X85.533 Y-18.29 I-7.726 J8.145
G01 X86.019 Y-18.83
X86.463 Y-19.242
G03 X94.08 Y-22.04 I7.616 J8.967
X102.795 Y-18.178 I0.0 J11.765
X103.11 Y-17.803 I-4.814 J4.368
X103.934 Y-16.63 I-7.581 J6.203
X104.133 Y-16.784 I4.687 J5.855
X111.174 Y-19.123 I7.041 J9.426
X117.868 Y-17.033 I0.0 J11.765
X118.703 Y-16.399 I-6.696 J9.673
X119.028 Y-16.105 I-4.187 J4.972
X120.301 Y-14.65 I-7.417 J7.77
X120.82 Y-15.144 I9.185 J9.12
G01 X121.002 Y-15.308
G03 X123.407 Y-16.768 I7.263 J9.255
G01 X122.168 Y-19.5 F1300.
X119.575
G03 X120.541 Y-18.772 I-8.401 J12.142
G01 X120.635 Y-18.693
G03 X122.168 Y-19.5 I7.63 J12.641
G01 X123.407 Y-16.768
G03 X128.265 Y-17.818 I4.858 J10.715 F780.
X135.587 Y-15.262 I0.0 J11.765
X135.999 Y-14.905 I-4.042 J5.09
X138.595 Y-11.252 I-7.554 J8.115
X145.361 Y-13.392 I6.766 J9.625
X155. Y-8.372 I0.0 J11.765
G01 Y-9. F1300.
G02 X141.5 Y-22.5 I-13.5 J0.0
G01 X137.931
Y-19.5
X134.363
G03 X137.454 Y-17.61 I-6.097 J13.447
X138.049 Y-17.096 I-5.909 J7.439
X139.699 Y-15.263 I-9.604 J10.305
X145.361 Y-16.392 I5.662 J13.636
X149.501 Y-15.8 I0.0 J14.765
G02 X141.5 Y-19.5 I-8.001 J6.8
G01 X137.931
Y-32.
Z-6.032
G00 Z15.
M09
M05
G91 G28 Z0.0
G28 Y0.0
M30
%
(TOTAL Machine Time: 3.1 min)
