%
G40 G17 G49 G54 G80
G91 G28 Z0.0
( NAME: Capful )
( PART: D:\Program Files\Siemens\NX 12.0\UGII\HM-µç¼«±à³Ì.prt )
( DATE: Sun May 27 04:51:37 2018 )
( D4R0.5 ---> D=4.00 R=0.50 )
S10000 M03
G00 G90 X-145.229 Y23.503
Z15.
G17 G01 Z2.55 F1300.
Z-.45 F520.
Y19.103
G40 G02 X-139.078 Y12.953 I0.0 J-6.151 F1300.
G01 Y-6.956
G02 X-145.229 Y-13.107 I-6.151 J0.0
X-151.379 Y-6.956 I0.0 J6.151
G01 Y12.953
G02 X-145.229 Y19.103 I6.151 J0.0
G01 Y23.503
Z2.55
G00 Z2.6
G01 Z2.5
Z-.5 F520.
Y19.103
G02 X-139.078 Y12.953 I0.0 J-6.151 F1300.
G01 Y-6.956
G02 X-145.229 Y-13.107 I-6.151 J0.0
X-151.379 Y-6.956 I0.0 J6.151
G01 Y12.953
G02 X-145.229 Y19.103 I6.151 J0.0
G01 Y23.503
Z2.5
G00 Z15.
X-128.135
G01 Z2.55
Z-.45 F520.
Y19.103
G02 X-121.985 Y12.953 I0.0 J-6.151 F1300.
G01 Y-8.112
G02 X-128.135 Y-14.263 I-6.151 J0.0
X-134.286 Y-8.112 I0.0 J6.151
G01 Y12.953
G02 X-128.135 Y19.103 I6.151 J0.0
G01 Y23.503
Z2.55
G00 Z2.6
G01 Z2.5
Z-.5 F520.
Y19.103
G02 X-121.985 Y12.953 I0.0 J-6.151 F1300.
G01 Y-8.112
G02 X-128.135 Y-14.263 I-6.151 J0.0
X-134.286 Y-8.112 I0.0 J6.151
G01 Y12.953
G02 X-128.135 Y19.103 I6.151 J0.0
G01 Y23.503
Z2.5
G00 Z15.
X-111.042
G01 Z2.55
Z-.45 F520.
Y19.103
G02 X-104.891 Y12.953 I0.0 J-6.151 F1300.
G01 Y-9.42
G02 X-111.042 Y-15.57 I-6.151 J0.0
X-117.192 Y-9.42 I0.0 J6.151
G01 Y12.953
G02 X-111.042 Y19.103 I6.151 J0.0
G01 Y23.503
Z2.55
G00 Z2.6
G01 Z2.5
Z-.5 F520.
Y19.103
G02 X-104.891 Y12.953 I0.0 J-6.151 F1300.
G01 Y-9.42
G02 X-111.042 Y-15.57 I-6.151 J0.0
X-117.192 Y-9.42 I0.0 J6.151
G01 Y12.953
G02 X-111.042 Y19.103 I6.151 J0.0
G01 Y23.503
Z2.5
G00 Z15.
X-93.948
G01 Z2.55
Z-.45 F520.
Y19.103
G02 X-87.798 Y12.953 I0.0 J-6.151 F1300.
G01 Y-10.274
G02 X-93.948 Y-16.425 I-6.151 J0.0
X-100.099 Y-10.274 I0.0 J6.151
G01 Y12.953
G02 X-93.948 Y19.103 I6.151 J0.0
G01 Y23.503
Z2.55
G00 Z2.6
G01 Z2.5
Z-.5 F520.
Y19.103
G02 X-87.798 Y12.953 I0.0 J-6.151 F1300.
G01 Y-10.274
G02 X-93.948 Y-16.425 I-6.151 J0.0
X-100.099 Y-10.274 I0.0 J6.151
G01 Y12.953
G02 X-93.948 Y19.103 I6.151 J0.0
G01 Y23.503
Z2.5
G00 Z15.
X-76.855
G01 Z2.55
Z-.45 F520.
Y19.103
G02 X-70.704 Y12.953 I0.0 J-6.151 F1300.
G01 Y-10.978
G02 X-76.855 Y-17.129 I-6.151 J0.0
X-83.005 Y-10.978 I0.0 J6.151
G01 Y12.953
G02 X-76.855 Y19.103 I6.151 J0.0
G01 Y23.503
Z2.55
G00 Z2.6
G01 Z2.5
Z-.5 F520.
Y19.103
G02 X-70.704 Y12.953 I0.0 J-6.151 F1300.
G01 Y-10.978
G02 X-76.855 Y-17.129 I-6.151 J0.0
X-83.005 Y-10.978 I0.0 J6.151
G01 Y12.953
G02 X-76.855 Y19.103 I6.151 J0.0
G01 Y23.503
Z2.5
G00 Z15.
X-49.762 Y16.318
G01 Z2.55
Z-.45 F520.
X-53.932 Y14.914
G02 X-53.611 Y12.953 I-5.829 J-1.962 F1300.
G01 Y-11.531
G02 X-59.761 Y-17.682 I-6.151 J0.0
X-65.912 Y-11.531 I0.0 J6.151
G01 Y12.953
G02 X-59.761 Y19.103 I6.151 J0.0
X-53.932 Y14.914 I0.0 J-6.151
G01 X-49.762 Y16.318
Z2.55
G00 Z2.6
G01 Z2.5
Z-.5 F520.
X-53.932 Y14.914
G02 X-53.611 Y12.953 I-5.829 J-1.962 F1300.
G01 Y-11.531
G02 X-59.761 Y-17.682 I-6.151 J0.0
X-65.912 Y-11.531 I0.0 J6.151
G01 Y12.953
G02 X-59.761 Y19.103 I6.151 J0.0
X-53.932 Y14.914 I0.0 J-6.151
G01 X-49.762 Y16.318
Z2.5
G00 Z15.
X-42.668 Y23.503
G01 Z2.55
Z-.45 F520.
Y19.103
G02 X-36.517 Y12.953 I0.0 J-6.151 F1300.
G01 Y-11.933
G02 X-42.668 Y-18.084 I-6.151 J0.0
X-48.818 Y-11.933 I0.0 J6.151
G01 Y12.953
G02 X-42.668 Y19.103 I6.151 J0.0
G01 Y23.503
Z2.55
G00 Z2.6
G01 Z2.5
Z-.5 F520.
Y19.103
G02 X-36.517 Y12.953 I0.0 J-6.151 F1300.
G01 Y-11.933
G02 X-42.668 Y-18.084 I-6.151 J0.0
X-48.818 Y-11.933 I0.0 J6.151
G01 Y12.953
G02 X-42.668 Y19.103 I6.151 J0.0
G01 Y23.503
Z2.5
G00 Z15.
X-25.574
G01 Z2.55
Z-.45 F520.
Y19.103
G02 X-19.424 Y12.953 I0.0 J-6.151 F1300.
G01 Y-12.185
G02 X-25.574 Y-18.335 I-6.151 J0.0
X-31.725 Y-12.185 I0.0 J6.151
G01 Y12.953
G02 X-25.574 Y19.103 I6.151 J0.0
G01 Y23.503
Z2.55
G00 Z2.6
G01 Z2.5
Z-.5 F520.
Y19.103
G02 X-19.424 Y12.953 I0.0 J-6.151 F1300.
G01 Y-12.185
G02 X-25.574 Y-18.335 I-6.151 J0.0
X-31.725 Y-12.185 I0.0 J6.151
G01 Y12.953
G02 X-25.574 Y19.103 I6.151 J0.0
G01 Y23.503
Z2.5
G00 Z15.
X-18.516 Y16.211
G01 Z2.55
Z-.45 F520.
X-14.331 Y14.852
G02 X-8.481 Y19.103 I5.85 J-1.9 F1300.
X-2.33 Y12.953 I0.0 J-6.151
G01 Y-12.336
G02 X-8.481 Y-18.486 I-6.151 J0.0
X-14.631 Y-12.336 I0.0 J6.151
G01 Y12.953
G02 X-14.331 Y14.852 I6.151 J-.001
G01 X-18.516 Y16.211
Z2.55
G00 Z2.6
G01 Z2.5
Z-.5 F520.
X-14.331 Y14.852
G02 X-8.481 Y19.103 I5.85 J-1.9 F1300.
X-2.33 Y12.953 I0.0 J-6.151
G01 Y-12.336
G02 X-8.481 Y-18.486 I-6.151 J0.0
X-14.631 Y-12.336 I0.0 J6.151
G01 Y12.953
G02 X-14.331 Y14.852 I6.151 J-.001
G01 X-18.516 Y16.211
Z2.5
G00 Z15.
X8.613 Y23.503
G01 Z2.55
Z-.45 F520.
Y19.103
G02 X14.763 Y12.953 I0.0 J-6.151 F1300.
G01 Y-12.285
G02 X8.613 Y-18.436 I-6.151 J0.0
X2.462 Y-12.285 I0.0 J6.151
G01 Y12.953
G02 X8.613 Y19.103 I6.151 J0.0
G01 Y23.503
Z2.55
G00 Z2.6
G01 Z2.5
Z-.5 F520.
Y19.103
G02 X14.763 Y12.953 I0.0 J-6.151 F1300.
G01 Y-12.285
G02 X8.613 Y-18.436 I-6.151 J0.0
X2.462 Y-12.285 I0.0 J6.151
G01 Y12.953
G02 X8.613 Y19.103 I6.151 J0.0
G01 Y23.503
Z2.5
G00 Z15.
X25.706
G01 Z2.55
Z-.45 F520.
Y19.103
G02 X31.857 Y12.953 I0.0 J-6.151 F1300.
G01 Y-12.084
G02 X25.706 Y-18.235 I-6.151 J0.0
X19.556 Y-12.084 I0.0 J6.151
G01 Y12.953
G02 X25.706 Y19.103 I6.151 J0.0
G01 Y23.503
Z2.55
G00 Z2.6
G01 Z2.5
Z-.5 F520.
Y19.103
G02 X31.857 Y12.953 I0.0 J-6.151 F1300.
G01 Y-12.084
G02 X25.706 Y-18.235 I-6.151 J0.0
X19.556 Y-12.084 I0.0 J6.151
G01 Y12.953
G02 X25.706 Y19.103 I6.151 J0.0
G01 Y23.503
Z2.5
G00 Z15.
X42.8
G01 Z2.55
Z-.45 F520.
Y19.103
G02 X48.95 Y12.953 I0.0 J-6.151 F1300.
G01 Y-11.783
G02 X42.8 Y-17.933 I-6.151 J0.0
X36.649 Y-11.783 I0.0 J6.151
G01 Y12.953
G02 X42.8 Y19.103 I6.151 J0.0
G01 Y23.503
Z2.55
G00 Z2.6
G01 Z2.5
Z-.5 F520.
Y19.103
G02 X48.95 Y12.953 I0.0 J-6.151 F1300.
G01 Y-11.783
G02 X42.8 Y-17.933 I-6.151 J0.0
X36.649 Y-11.783 I0.0 J6.151
G01 Y12.953
G02 X42.8 Y19.103 I6.151 J0.0
G01 Y23.503
Z2.5
G00 Z15.
X59.893
G01 Z2.55
Z-.45 F520.
Y19.103
G02 X66.044 Y12.953 I0.0 J-6.151 F1300.
G01 Y-11.28
G02 X59.893 Y-17.43 I-6.151 J0.0
X53.743 Y-11.28 I0.0 J6.151
G01 Y12.953
G02 X59.893 Y19.103 I6.151 J0.0
G01 Y23.503
Z2.55
G00 Z2.6
G01 Z2.5
Z-.5 F520.
Y19.103
G02 X66.044 Y12.953 I0.0 J-6.151 F1300.
G01 Y-11.28
G02 X59.893 Y-17.43 I-6.151 J0.0
X53.743 Y-11.28 I0.0 J6.151
G01 Y12.953
G02 X59.893 Y19.103 I6.151 J0.0
G01 Y23.503
Z2.5
G00 Z15.
X76.987
G01 Z2.55
Z-.45 F520.
Y19.103
G02 X83.137 Y12.953 I0.0 J-6.151 F1300.
G01 Y-10.274
G02 X76.987 Y-16.425 I-6.151 J0.0
X70.836 Y-10.274 I0.0 J6.151
G01 Y12.953
G02 X76.987 Y19.103 I6.151 J0.0
G01 Y23.503
Z2.55
G00 Z2.6
G01 Z2.5
Z-.5 F520.
Y19.103
G02 X83.137 Y12.953 I0.0 J-6.151 F1300.
G01 Y-10.274
G02 X76.987 Y-16.425 I-6.151 J0.0
X70.836 Y-10.274 I0.0 J6.151
G01 Y12.953
G02 X76.987 Y19.103 I6.151 J0.0
G01 Y23.503
Z2.5
G00 Z15.
X94.08
G01 Z2.55
Z-.45 F520.
Y19.103
G02 X100.231 Y12.953 I0.0 J-6.151 F1300.
G01 Y-10.274
G02 X94.08 Y-16.425 I-6.151 J0.0
X87.93 Y-10.274 I0.0 J6.151
G01 Y12.953
G02 X94.08 Y19.103 I6.151 J0.0
G01 Y23.503
Z2.55
G00 Z2.6
G01 Z2.5
Z-.5 F520.
Y19.103
G02 X100.231 Y12.953 I0.0 J-6.151 F1300.
G01 Y-10.274
G02 X94.08 Y-16.425 I-6.151 J0.0
X87.93 Y-10.274 I0.0 J6.151
G01 Y12.953
G02 X94.08 Y19.103 I6.151 J0.0
G01 Y23.503
Z2.5
G00 Z15.
X111.174
G01 Z2.55
Z-.45 F520.
Y19.103
G02 X117.324 Y12.953 I0.0 J-6.151 F1300.
G01 Y-7.358
G02 X111.174 Y-13.509 I-6.151 J0.0
X105.023 Y-7.358 I0.0 J6.151
G01 Y12.953
G02 X111.174 Y19.103 I6.151 J0.0
G01 Y23.503
Z2.55
G00 Z2.6
G01 Z2.5
Z-.5 F520.
Y19.103
G02 X117.324 Y12.953 I0.0 J-6.151 F1300.
G01 Y-7.358
G02 X111.174 Y-13.509 I-6.151 J0.0
X105.023 Y-7.358 I0.0 J6.151
G01 Y12.953
G02 X111.174 Y19.103 I6.151 J0.0
G01 Y23.503
Z2.5
G00 Z15.
X128.267
G01 Z2.55
Z-.45 F520.
Y19.103
G02 X134.418 Y12.953 I0.0 J-6.151 F1300.
G01 Y-6.051
G02 X128.267 Y-12.202 I-6.151 J0.0
X122.117 Y-6.051 I0.0 J6.151
G01 Y12.953
G02 X128.267 Y19.103 I6.151 J0.0
G01 Y23.503
Z2.55
G00 Z2.6
G01 Z2.5
Z-.5 F520.
Y19.103
G02 X134.418 Y12.953 I0.0 J-6.151 F1300.
G01 Y-6.051
G02 X128.267 Y-12.202 I-6.151 J0.0
X122.117 Y-6.051 I0.0 J6.151
G01 Y12.953
G02 X128.267 Y19.103 I6.151 J0.0
G01 Y23.503
Z2.5
G00 Z15.
X145.361
G01 Z2.55
Z-.45 F520.
Y19.103
G02 X151.511 Y12.953 I0.0 J-6.151 F1300.
G01 Y-1.627
G02 X145.361 Y-7.778 I-6.151 J0.0
X139.21 Y-1.627 I0.0 J6.151
G01 Y12.953
G02 X145.361 Y19.103 I6.151 J0.0
G01 Y23.503
Z2.55
G00 Z2.6
G01 Z2.5
Z-.5 F520.
Y19.103
G02 X151.511 Y12.953 I0.0 J-6.151 F1300.
G01 Y-1.627
G02 X145.361 Y-7.778 I-6.151 J0.0
X139.21 Y-1.627 I0.0 J6.151
G01 Y12.953
G02 X145.361 Y19.103 I6.151 J0.0
G01 Y23.503
Z2.5
G00 Z15.
( D4R0.5 ---> D=4.00 R=0.50 )
S10000 M03
G00 X-147.617 Y-2.729
Z15.
G01 Z-1.8 F900.
Y2.998 Z-2. F360.
Y12.953 F540.
G02 X-145.229 Y15.341 I2.388 J0.0
X-142.84 Y12.953 I0.0 J-2.388
G01 Y-6.956
G02 X-145.229 Y-9.345 I-2.388 J0.0
X-147.617 Y-6.956 I0.0 J2.388
G01 Y2.998
X-146.417 F900.
Y12.953
G02 X-145.229 Y14.141 I1.188 J0.0
X-144.04 Y12.953 I0.0 J-1.188
G01 Y-6.956
G02 X-145.229 Y-8.145 I-1.188 J0.0
X-146.417 Y-6.956 I0.0 J1.188
G01 Y2.998
Z1.
G00 Z15.
X-130.524 Y-3.307
G01 Z-1.8
Y2.42 Z-2. F360.
Y12.953 F540.
G02 X-128.135 Y15.341 I2.388 J0.0
X-125.747 Y12.953 I0.0 J-2.388
G01 Y-8.112
G02 X-128.135 Y-10.501 I-2.388 J0.0
X-130.524 Y-8.112 I0.0 J2.388
G01 Y2.42
X-129.324 F900.
Y12.953
G02 X-128.135 Y14.141 I1.188 J0.0
X-126.947 Y12.953 I0.0 J-1.188
G01 Y-8.112
G02 X-128.135 Y-9.301 I-1.188 J0.0
X-129.324 Y-8.112 I0.0 J1.188
G01 Y2.42
X-129.585 Y5.409
Z1.
G00 Z15.
X-113.43 Y-3.961
G01 Z-1.8
Y1.767 Z-2. F360.
Y12.953 F540.
G02 X-111.042 Y15.341 I2.388 J0.0
X-108.653 Y12.953 I0.0 J-2.388
G01 Y-9.42
G02 X-111.042 Y-11.808 I-2.388 J0.0
X-113.43 Y-9.42 I0.0 J2.388
G01 Y1.767
X-112.23 F900.
Y12.953
G02 X-111.042 Y14.141 I1.188 J0.0
X-109.853 Y12.953 I0.0 J-1.188
G01 Y-9.42
G02 X-111.042 Y-10.608 I-1.188 J0.0
X-112.23 Y-9.42 I0.0 J1.188
G01 Y1.767
X-112.492 Y4.755
Z1.
G00 Z15.
X-96.337 Y-4.388
G01 Z-1.8
Y1.339 Z-2. F360.
Y12.953 F540.
G02 X-93.948 Y15.341 I2.388 J0.0
X-91.56 Y12.953 I0.0 J-2.388
G01 Y-10.274
G02 X-93.948 Y-12.663 I-2.388 J0.0
X-96.337 Y-10.274 I0.0 J2.388
G01 Y1.339
X-95.137 F900.
Y12.953
G02 X-93.948 Y14.141 I1.188 J0.0
X-92.76 Y12.953 I0.0 J-1.188
G01 Y-10.274
G02 X-93.948 Y-11.463 I-1.188 J0.0
X-95.137 Y-10.274 I0.0 J1.188
G01 Y1.339
X-95.398 Y4.328
Z1.
G00 Z15.
X-79.243 Y-4.74
G01 Z-1.8
Y.987 Z-2. F360.
Y12.953 F540.
G02 X-76.855 Y15.341 I2.388 J0.0
X-74.466 Y12.953 I0.0 J-2.388
G01 Y-10.978
G02 X-76.855 Y-13.367 I-2.388 J0.0
X-79.243 Y-10.978 I0.0 J2.388
G01 Y.987
X-78.043 F900.
Y12.953
G02 X-76.855 Y14.141 I1.188 J0.0
X-75.666 Y12.953 I0.0 J-1.188
G01 Y-10.978
G02 X-76.855 Y-12.167 I-1.188 J0.0
X-78.043 Y-10.978 I0.0 J1.188
G01 Y.987
X-78.305 Y3.976
Z1.
G00 Z15.
X-62.15 Y-5.016
G01 Z-1.8
Y.711 Z-2. F360.
Y12.953 F540.
G02 X-59.761 Y15.341 I2.388 J0.0
X-57.373 Y12.953 I0.0 J-2.388
G01 Y-11.531
G02 X-59.761 Y-13.92 I-2.388 J0.0
X-62.15 Y-11.531 I0.0 J2.388
G01 Y.711
X-60.95 F900.
Y12.953
G02 X-59.761 Y14.141 I1.188 J0.0
X-58.573 Y12.953 I0.0 J-1.188
G01 Y-11.531
G02 X-59.761 Y-12.72 I-1.188 J0.0
X-60.95 Y-11.531 I0.0 J1.188
G01 Y.711
X-61.211 Y3.699
Z1.
G00 Z15.
X-45.056 Y-5.218
G01 Z-1.8
Y.51 Z-2. F360.
Y12.953 F540.
G02 X-42.668 Y15.341 I2.388 J0.0
X-40.279 Y12.953 I0.0 J-2.388
G01 Y-11.933
G02 X-42.668 Y-14.322 I-2.388 J0.0
X-45.056 Y-11.933 I0.0 J2.388
G01 Y.51
X-43.856 F900.
Y12.953
G02 X-42.668 Y14.141 I1.188 J0.0
X-41.479 Y12.953 I0.0 J-1.188
G01 Y-11.933
G02 X-42.668 Y-13.122 I-1.188 J0.0
X-43.856 Y-11.933 I0.0 J1.188
G01 Y.51
X-44.118 Y3.498
Z1.
G00 Z15.
X-27.963 Y-5.343
G01 Z-1.8
Y.384 Z-2. F360.
Y12.953 F540.
G02 X-25.574 Y15.341 I2.388 J0.0
X-23.186 Y12.953 I0.0 J-2.388
G01 Y-12.185
G02 X-25.574 Y-14.573 I-2.388 J0.0
X-27.963 Y-12.185 I0.0 J2.388
G01 Y.384
X-26.763 F900.
Y12.953
G02 X-25.574 Y14.141 I1.188 J0.0
X-24.386 Y12.953 I0.0 J-1.188
G01 Y-12.185
G02 X-25.574 Y-13.373 I-1.188 J0.0
X-26.763 Y-12.185 I0.0 J1.188
G01 Y.384
X-27.024 Y3.373
Z1.
G00 Z15.
X-10.869 Y-5.419
G01 Z-1.8
Y.309 Z-2. F360.
Y12.953 F540.
G02 X-8.481 Y15.341 I2.388 J0.0
X-6.092 Y12.953 I0.0 J-2.388
G01 Y-12.336
G02 X-8.481 Y-14.724 I-2.388 J0.0
X-10.869 Y-12.336 I0.0 J2.388
G01 Y.309
X-9.669 F900.
Y12.953
G02 X-8.481 Y14.141 I1.188 J0.0
X-7.292 Y12.953 I0.0 J-1.188
G01 Y-12.336
G02 X-8.481 Y-13.524 I-1.188 J0.0
X-9.669 Y-12.336 I0.0 J1.188
G01 Y.309
X-9.931 Y3.297
Z1.
G00 Z15.
X6.224 Y-5.394
G01 Z-1.8
Y.334 Z-2. F360.
Y12.953 F540.
G02 X8.613 Y15.341 I2.388 J0.0
X11.001 Y12.953 I0.0 J-2.388
G01 Y-12.285
G02 X8.613 Y-14.674 I-2.388 J0.0
X6.224 Y-12.285 I0.0 J2.388
G01 Y.334
X7.424 F900.
Y12.953
G02 X8.613 Y14.141 I1.188 J0.0
X9.801 Y12.953 I0.0 J-1.188
G01 Y-12.285
G02 X8.613 Y-13.474 I-1.188 J0.0
X7.424 Y-12.285 I0.0 J1.188
G01 Y.334
X7.163 Y3.322
Z1.
G00 Z15.
X23.318 Y-5.293
G01 Z-1.8
Y.434 Z-2. F360.
Y12.953 F540.
G02 X25.706 Y15.341 I2.388 J0.0
X28.095 Y12.953 I0.0 J-2.388
G01 Y-12.084
G02 X25.706 Y-14.473 I-2.388 J0.0
X23.318 Y-12.084 I0.0 J2.388
G01 Y.434
X24.518 F900.
Y12.953
G02 X25.706 Y14.141 I1.188 J0.0
X26.895 Y12.953 I0.0 J-1.188
G01 Y-12.084
G02 X25.706 Y-13.273 I-1.188 J0.0
X24.518 Y-12.084 I0.0 J1.188
G01 Y.434
X24.256 Y3.423
Z1.
G00 Z15.
X40.411 Y-5.142
G01 Z-1.8
Y.585 Z-2. F360.
Y12.953 F540.
G02 X42.8 Y15.341 I2.388 J0.0
X45.188 Y12.953 I0.0 J-2.388
G01 Y-11.783
G02 X42.8 Y-14.171 I-2.388 J0.0
X40.411 Y-11.783 I0.0 J2.388
G01 Y.585
X41.611 F900.
Y12.953
G02 X42.8 Y14.141 I1.188 J0.0
X43.988 Y12.953 I0.0 J-1.188
G01 Y-11.783
G02 X42.8 Y-12.971 I-1.188 J0.0
X41.611 Y-11.783 I0.0 J1.188
G01 Y.585
X41.35 Y3.574
Z1.
G00 Z15.
X57.505 Y-4.891
G01 Z-1.8
Y.836 Z-2. F360.
Y12.953 F540.
G02 X59.893 Y15.341 I2.388 J0.0
X62.282 Y12.953 I0.0 J-2.388
G01 Y-11.28
G02 X59.893 Y-13.668 I-2.388 J0.0
X57.505 Y-11.28 I0.0 J2.388
G01 Y.836
X58.705 F900.
Y12.953
G02 X59.893 Y14.141 I1.188 J0.0
X61.082 Y12.953 I0.0 J-1.188
G01 Y-11.28
G02 X59.893 Y-12.468 I-1.188 J0.0
X58.705 Y-11.28 I0.0 J1.188
G01 Y.836
X58.443 Y3.825
Z1.
G00 Z15.
X74.598 Y-4.388
G01 Z-1.8
Y1.339 Z-2. F360.
Y12.953 F540.
G02 X76.987 Y15.341 I2.388 J0.0
X79.375 Y12.953 I0.0 J-2.388
G01 Y-10.274
G02 X76.987 Y-12.663 I-2.388 J0.0
X74.598 Y-10.274 I0.0 J2.388
G01 Y1.339
X75.798 F900.
Y12.953
G02 X76.987 Y14.141 I1.188 J0.0
X78.175 Y12.953 I0.0 J-1.188
G01 Y-10.274
G02 X76.987 Y-11.463 I-1.188 J0.0
X75.798 Y-10.274 I0.0 J1.188
G01 Y1.339
X75.537 Y4.328
Z1.
G00 Z15.
X91.692 Y-4.388
G01 Z-1.8
Y1.339 Z-2. F360.
Y12.953 F540.
G02 X94.08 Y15.341 I2.388 J0.0
X96.469 Y12.953 I0.0 J-2.388
G01 Y-10.274
G02 X94.08 Y-12.663 I-2.388 J0.0
X91.692 Y-10.274 I0.0 J2.388
G01 Y1.339
X92.892 F900.
Y12.953
G02 X94.08 Y14.141 I1.188 J0.0
X95.269 Y12.953 I0.0 J-1.188
G01 Y-10.274
G02 X94.08 Y-11.463 I-1.188 J0.0
X92.892 Y-10.274 I0.0 J1.188
G01 Y1.339
X92.63 Y4.328
Z1.
G00 Z15.
X108.785 Y-2.93
G01 Z-1.8
Y2.797 Z-2. F360.
Y12.953 F540.
G02 X111.174 Y15.341 I2.388 J0.0
X113.562 Y12.953 I0.0 J-2.388
G01 Y-7.358
G02 X111.174 Y-9.747 I-2.388 J0.0
X108.785 Y-7.358 I0.0 J2.388
G01 Y2.797
X109.985 F900.
Y12.953
G02 X111.174 Y14.141 I1.188 J0.0
X112.362 Y12.953 I0.0 J-1.188
G01 Y-7.358
G02 X111.174 Y-8.547 I-1.188 J0.0
X109.985 Y-7.358 I0.0 J1.188
G01 Y2.797
X109.724 Y5.786
Z1.
G00 Z15.
X125.879 Y-2.276
G01 Z-1.8
Y3.451 Z-2. F360.
Y12.953 F540.
G02 X128.267 Y15.341 I2.388 J0.0
X130.656 Y12.953 I0.0 J-2.388
G01 Y-6.051
G02 X128.267 Y-8.44 I-2.388 J0.0
X125.879 Y-6.051 I0.0 J2.388
G01 Y3.451
X127.079 F900.
Y12.953
G02 X128.267 Y14.141 I1.188 J0.0
X129.456 Y12.953 I0.0 J-1.188
G01 Y-6.051
G02 X128.267 Y-7.24 I-1.188 J0.0
X127.079 Y-6.051 I0.0 J1.188
G01 Y3.451
X126.817 Y6.439
Z1.
G00 Z15.
X147.749 Y11.39
G01 Z-1.8
Y5.663 Z-2. F360.
Y-1.627 F540.
G02 X145.361 Y-4.015 I-2.388 J0.0
X142.972 Y-1.627 I0.0 J2.388
G01 Y12.953
G02 X145.361 Y15.341 I2.388 J0.0
X147.749 Y12.953 I0.0 J-2.388
G01 Y5.663
X146.549 F900.
Y-1.627
G02 X145.361 Y-2.815 I-1.188 J0.0
X144.172 Y-1.627 I0.0 J1.188
G01 Y12.953
G02 X145.361 Y14.141 I1.188 J0.0
X146.549 Y12.953 I0.0 J-1.188
G01 Y5.663
Z1.
G00 Z15.
( D4R0.5 ---> D=4.00 R=0.50 )
S10000 M03
G00 X146.345 Y3.663
Z15.
G01 Z2.43 F2000.
Z-.57 F800.
G03 X148.345 Y5.663 I0.0 J2. F400.
G01 Y12.953 F2000.
G03 X145.361 Y15.937 I-2.985 J0.0 F1198.
X142.376 Y12.953 I0.0 J-2.985
G01 Y-1.627 F2000.
G03 X145.361 Y-4.612 I2.985 J0.0 F1198.
X148.345 Y-1.627 I0.0 J2.985
G01 Y5.663 F2000.
X148.322 Y5.885 Z-.582
X148.301 Y6.108 Z-.593
X148.282 Y6.33 Z-.605
X148.264 Y6.552 Z-.617
X148.246 Y6.775 Z-.628
X148.23 Y6.997 Z-.64
Y12.953
G03 X145.361 Y15.822 I-2.87 J0.0 F1179.
X142.539 Y13.476 I0.0 J-2.87
X142.491 Y12.953 I2.822 J-.523
G01 Y-1.627 F2000.
G03 X145.361 Y-4.497 I2.87 J0.0 F1179.
X148.23 Y-1.627 I0.0 J2.87
G01 Y5.663 F2000.
X148.215 Y5.885 Z-.652
X148.201 Y6.108 Z-.663
X148.187 Y6.33 Z-.675
X148.174 Y6.552 Z-.686
X148.162 Y6.775 Z-.698
X148.15 Y6.997 Z-.71
Y12.953
G03 X145.361 Y15.742 I-2.79 J0.0 F1165.
X142.621 Y13.476 I0.0 J-2.79
X142.571 Y12.953 I2.74 J-.523
G01 Y-1.627 F2000.
G03 X145.361 Y-4.417 I2.79 J0.0 F1165.
X148.15 Y-1.627 I0.0 J2.79
G01 Y5.663 F2000.
X148.139 Y5.885 Z-.721
X148.129 Y6.108 Z-.733
X148.118 Y6.33 Z-.745
X148.108 Y6.552 Z-.756
X148.099 Y6.775 Z-.768
X148.09 Y6.997 Z-.78
Y12.953
G03 X145.361 Y15.682 I-2.729 J0.0 F1154.
X142.682 Y13.476 I0.0 J-2.729
X142.631 Y12.953 I2.679 J-.523
G01 Y-1.627 F2000.
G03 X145.361 Y-4.356 I2.729 J0.0 F1154.
X148.09 Y-1.627 I0.0 J2.729
G01 Y5.663 F2000.
X148.082 Y5.885 Z-.791
X148.073 Y6.108 Z-.803
X148.065 Y6.33 Z-.815
X148.058 Y6.552 Z-.826
X148.051 Y6.775 Z-.838
X148.044 Y6.997 Z-.85
Y12.953
G03 X145.361 Y15.636 I-2.683 J0.0 F1146.
X142.678 Y12.953 I0.0 J-2.683
G01 Y-1.627 F2000.
G03 X145.361 Y-4.31 I2.683 J0.0 F1146.
X148.044 Y-1.627 I0.0 J2.683
G01 Y5.663 F2000.
X148.037 Y5.885 Z-.861
X148.031 Y6.108 Z-.873
X148.025 Y6.33 Z-.885
X148.019 Y6.552 Z-.896
X148.014 Y6.775 Z-.908
X148.008 Y6.997 Z-.92
Y12.953
G03 X145.361 Y15.6 I-2.648 J0.0 F1139.
X142.713 Y12.953 I0.0 J-2.648
G01 Y-1.627 F2000.
G03 X145.361 Y-4.275 I2.648 J0.0 F1139.
X148.008 Y-1.627 I0.0 J2.648
G01 Y5.663 F2000.
X148.003 Y5.885 Z-.931
X147.999 Y6.108 Z-.943
X147.994 Y6.33 Z-.955
X147.99 Y6.552 Z-.966
X147.986 Y6.775 Z-.978
X147.982 Y6.997 Z-.99
Y12.953
G03 X145.361 Y15.574 I-2.621 J0.0 F1134.
X142.74 Y12.953 I0.0 J-2.621
G01 Y-1.627 F2000.
G03 X145.361 Y-4.248 I2.621 J0.0 F1134.
X147.982 Y-1.627 I0.0 J2.621
G01 Y5.663 F2000.
X147.978 Y5.885 Z-1.001
X147.975 Y6.108 Z-1.013
X147.972 Y6.33 Z-1.024
X147.969 Y6.552 Z-1.036
X147.966 Y6.775 Z-1.048
X147.964 Y6.997 Z-1.059
Y12.953
G03 X145.361 Y15.556 I-2.603 J0.0 F1131.
X142.758 Y12.953 I0.0 J-2.603
G01 Y-1.627 F2000.
G03 X145.361 Y-4.23 I2.603 J0.0 F1131.
X147.964 Y-1.627 I0.0 J2.603
G01 Y5.663 F2000.
X147.961 Y5.885 Z-1.071
X147.959 Y6.108 Z-1.083
X147.957 Y6.33 Z-1.094
X147.956 Y6.552 Z-1.106
X147.954 Y6.775 Z-1.118
X147.953 Y6.997 Z-1.129
Y12.953
G03 X145.361 Y15.545 I-2.592 J0.0 F1129.
X142.769 Y12.953 I0.0 J-2.592
G01 Y-1.627 F2000.
G03 X145.361 Y-4.219 I2.592 J0.0 F1129.
X147.953 Y-1.627 I0.0 J2.592
G01 Y5.663 F2000.
X147.952 Y5.885 Z-1.141
X147.951 Y6.108 Z-1.153
X147.95 Y6.33 Z-1.164
Y6.552 Z-1.176
X147.949 Y6.775 Z-1.188
Y6.997 Z-1.199
Y12.953
G03 X145.361 Y15.541 I-2.588 J0.0 F1128.
X142.772 Y12.953 I0.0 J-2.588
G01 Y-1.627 F2000.
G03 X144.516 Y-4.074 I2.588 J0.0 F1128.
G01 X144.609 Y-4.104 F2000.
G03 X145.361 Y-4.215 I.752 J2.477 F1128.
X147.949 Y-1.627 I0.0 J2.588
G01 Y5.663 F2000.
Y5.885 Z-1.211
Y6.997 Z-1.269
Y12.953
G03 X145.361 Y15.541 I-2.588 J0.0 F1128.
X142.772 Y12.953 I0.0 J-2.588
G01 Y-1.627 F2000.
G03 X145.361 Y-4.215 I2.588 J0.0 F1128.
X147.949 Y-1.627 I0.0 J2.588
G01 Y5.663 F2000.
Y6.997 Z-1.339
Y12.953
G03 X145.361 Y15.541 I-2.588 J0.0 F1128.
X142.772 Y12.953 I0.0 J-2.588
G01 Y-1.627 F2000.
G03 X145.361 Y-4.215 I2.588 J0.0 F1128.
X147.949 Y-1.627 I0.0 J2.588
G01 Y5.663 F2000.
Y6.997 Z-1.409
Y12.953
G03 X145.361 Y15.541 I-2.588 J0.0 F1128.
X142.772 Y12.953 I0.0 J-2.588
G01 Y-1.627 F2000.
G03 X145.361 Y-4.215 I2.588 J0.0 F1128.
X147.949 Y-1.627 I0.0 J2.588
G01 Y5.663 F2000.
Y6.997 Z-1.479
Y12.953
G03 X145.361 Y15.541 I-2.588 J0.0 F1128.
X142.772 Y12.953 I0.0 J-2.588
G01 Y-1.627 F2000.
G03 X145.361 Y-4.215 I2.588 J0.0 F1128.
X147.949 Y-1.627 I0.0 J2.588
G01 Y5.663 F2000.
Y6.997 Z-1.549
Y12.953
G03 X145.361 Y15.541 I-2.588 J0.0 F1128.
X142.772 Y12.953 I0.0 J-2.588
G01 Y-1.627 F2000.
G03 X145.361 Y-4.215 I2.588 J0.0 F1128.
X147.949 Y-1.627 I0.0 J2.588
G01 Y5.663 F2000.
Y6.997 Z-1.619
Y12.953
G03 X145.361 Y15.541 I-2.588 J0.0 F1128.
X142.772 Y12.953 I0.0 J-2.588
G01 Y-1.627 F2000.
G03 X145.361 Y-4.215 I2.588 J0.0 F1128.
X147.949 Y-1.627 I0.0 J2.588
G01 Y5.663 F2000.
Y6.997 Z-1.689
Y12.953
G03 X145.361 Y15.541 I-2.588 J0.0 F1128.
X142.772 Y12.953 I0.0 J-2.588
G01 Y-1.627 F2000.
G03 X145.361 Y-4.215 I2.588 J0.0 F1128.
X147.949 Y-1.627 I0.0 J2.588
G01 Y5.663 F2000.
Y6.997 Z-1.759
Y12.953
G03 X145.361 Y15.541 I-2.588 J0.0 F1128.
X142.772 Y12.953 I0.0 J-2.588
G01 Y-1.627 F2000.
G03 X145.361 Y-4.215 I2.588 J0.0 F1128.
X147.949 Y-1.627 I0.0 J2.588
G01 Y5.663 F2000.
Y6.997 Z-1.829
Y12.953
G03 X145.361 Y15.541 I-2.588 J0.0 F1128.
X142.772 Y12.953 I0.0 J-2.588
G01 Y-1.627 F2000.
G03 X145.361 Y-4.215 I2.588 J0.0 F1128.
X147.949 Y-1.627 I0.0 J2.588
G01 Y5.663 F2000.
Y6.997 Z-1.899
Y12.953
G03 X145.361 Y15.541 I-2.588 J0.0 F1128.
X142.772 Y12.953 I0.0 J-2.588
G01 Y-1.627 F2000.
G03 X145.361 Y-4.215 I2.588 J0.0 F1128.
X147.949 Y-1.627 I0.0 J2.588
G01 Y5.663 F2000.
Y6.997 Z-1.969
Y12.953
G03 X145.361 Y15.541 I-2.588 J0.0 F1128.
X142.772 Y12.953 I0.0 J-2.588
G01 Y-1.627 F2000.
G03 X145.361 Y-4.215 I2.588 J0.0 F1128.
X147.949 Y-1.627 I0.0 J2.588
G01 Y6.997 F2000.
X145.949
Z.031
G00 Z2.5
X129.252 Y1.451
G01 Z2.43
Z-.57 F800.
G03 X131.252 Y3.451 I0.0 J2. F400.
G01 Y12.953 F2000.
G03 X128.267 Y15.937 I-2.985 J0.0 F1198.
X125.283 Y12.953 I0.0 J-2.985
G01 Y-6.051 F2000.
G03 X128.267 Y-9.036 I2.985 J0.0 F1198.
X131.252 Y-6.051 I0.0 J2.985
G01 Y3.451 F2000.
X131.229 Y3.673 Z-.582
X131.208 Y3.896 Z-.593
X131.188 Y4.118 Z-.605
X131.17 Y4.34 Z-.617
X131.153 Y4.563 Z-.628
X131.137 Y4.785 Z-.64
Y12.953
G03 X128.267 Y15.822 I-2.87 J0.0 F1179.
X125.398 Y12.953 I0.0 J-2.87
G01 Y-6.051 F2000.
G03 X128.267 Y-8.921 I2.87 J0.0 F1179.
X131.137 Y-6.051 I0.0 J2.87
G01 Y3.451 F2000.
X131.122 Y3.673 Z-.652
X131.107 Y3.896 Z-.663
X131.094 Y4.118 Z-.675
X131.081 Y4.34 Z-.686
X131.069 Y4.563 Z-.698
X131.057 Y4.785 Z-.71
Y12.953
G03 X128.267 Y15.742 I-2.79 J0.0 F1165.
X125.478 Y12.953 I0.0 J-2.79
G01 Y-6.051 F2000.
G03 X128.267 Y-8.841 I2.79 J0.0 F1165.
X131.057 Y-6.051 I0.0 J2.79
G01 Y3.451 F2000.
X131.046 Y3.673 Z-.721
X131.035 Y3.896 Z-.733
X131.025 Y4.118 Z-.745
X131.015 Y4.34 Z-.756
X131.006 Y4.563 Z-.768
X130.997 Y4.785 Z-.78
Y12.953
G03 X128.267 Y15.682 I-2.729 J0.0 F1154.
X125.538 Y12.953 I0.0 J-2.729
G01 Y-6.051 F2000.
G03 X128.267 Y-8.781 I2.729 J0.0 F1154.
X130.997 Y-6.051 I0.0 J2.729
G01 Y3.451 F2000.
X130.988 Y3.673 Z-.791
X130.98 Y3.896 Z-.803
X130.972 Y4.118 Z-.815
X130.964 Y4.34 Z-.826
X130.957 Y4.563 Z-.838
X130.95 Y4.785 Z-.85
Y12.953
G03 X128.267 Y15.636 I-2.683 J0.0 F1146.
X125.584 Y12.953 I0.0 J-2.683
G01 Y-6.051 F2000.
G03 X128.267 Y-8.734 I2.683 J0.0 F1146.
X130.95 Y-6.051 I0.0 J2.683
G01 Y3.451 F2000.
X130.944 Y3.673 Z-.861
X130.937 Y3.896 Z-.873
X130.931 Y4.118 Z-.885
X130.926 Y4.34 Z-.896
X130.92 Y4.563 Z-.908
X130.915 Y4.785 Z-.92
Y12.953
G03 X128.267 Y15.6 I-2.648 J0.0 F1139.
X125.62 Y12.953 I0.0 J-2.648
G01 Y-6.051 F2000.
G03 X128.267 Y-8.699 I2.648 J0.0 F1139.
X130.915 Y-6.051 I0.0 J2.648
G01 Y3.451 F2000.
X130.91 Y3.673 Z-.931
X130.905 Y3.896 Z-.943
X130.901 Y4.118 Z-.955
X130.896 Y4.34 Z-.966
X130.892 Y4.563 Z-.978
X130.888 Y4.785 Z-.99
Y12.953
G03 X128.267 Y15.574 I-2.621 J0.0 F1134.
X125.646 Y12.953 I0.0 J-2.621
G01 Y-6.051 F2000.
G03 X128.267 Y-8.672 I2.621 J0.0 F1134.
X130.888 Y-6.051 I0.0 J2.621
G01 Y3.451 F2000.
X130.885 Y3.673 Z-1.001
X130.882 Y3.896 Z-1.013
X130.878 Y4.118 Z-1.024
X130.875 Y4.34 Z-1.036
X130.873 Y4.563 Z-1.048
X130.87 Y4.785 Z-1.059
Y12.953
G03 X128.267 Y15.556 I-2.603 J0.0 F1131.
X125.664 Y12.953 I0.0 J-2.603
G01 Y-6.051 F2000.
G03 X128.267 Y-8.654 I2.603 J0.0 F1131.
X130.87 Y-6.051 I0.0 J2.603
G01 Y3.451 F2000.
X130.868 Y3.673 Z-1.071
X130.866 Y3.896 Z-1.083
X130.864 Y4.118 Z-1.094
X130.862 Y4.34 Z-1.106
X130.861 Y4.563 Z-1.118
X130.859 Y4.785 Z-1.129
Y12.953
G03 X128.267 Y15.545 I-2.592 J0.0 F1129.
X125.675 Y12.953 I0.0 J-2.592
G01 Y-6.051 F2000.
G03 X128.267 Y-8.643 I2.592 J0.0 F1129.
X130.859 Y-6.051 I0.0 J2.592
G01 Y3.451 F2000.
X130.858 Y3.673 Z-1.141
X130.857 Y3.896 Z-1.153
Y4.118 Z-1.164
X130.856 Y4.34 Z-1.176
Y4.563 Z-1.188
Y4.785 Z-1.199
Y12.927
Y12.957
G03 X130.802 Y13.476 I-2.588 J-.004 F1128.
G01 X130.716 Y13.791 F2000.
G03 X128.267 Y15.541 I-2.449 J-.838 F1128.
X125.679 Y12.953 I0.0 J-2.588
G01 Y-6.051 F2000.
G03 X128.267 Y-8.64 I2.588 J0.0 F1128.
X130.143 Y-7.835 I0.0 J2.588
X130.856 Y-6.051 I-1.876 J1.784
G01 Y-6.026
Y1.567 F2000.
Y3.451
Y3.673 Z-1.211
Y4.785 Z-1.269
Y12.953
G03 X128.267 Y15.541 I-2.588 J0.0 F1128.
X125.679 Y12.953 I0.0 J-2.588
G01 Y-6.051 F2000.
G03 X128.267 Y-8.64 I2.588 J0.0 F1128.
X130.856 Y-6.051 I0.0 J2.588
G01 Y3.451 F2000.
Y4.785 Z-1.339
Y12.953
G03 X128.267 Y15.541 I-2.588 J0.0 F1128.
X125.679 Y12.953 I0.0 J-2.588
G01 Y-6.051 F2000.
G03 X128.267 Y-8.64 I2.588 J0.0 F1128.
X130.856 Y-6.051 I0.0 J2.588
G01 Y3.451 F2000.
Y4.785 Z-1.409
Y12.953
G03 X128.267 Y15.541 I-2.588 J0.0 F1128.
X125.679 Y12.953 I0.0 J-2.588
G01 Y-6.051 F2000.
G03 X128.267 Y-8.64 I2.588 J0.0 F1128.
X130.856 Y-6.051 I0.0 J2.588
G01 Y3.451 F2000.
Y4.785 Z-1.479
Y12.953
G03 X128.267 Y15.541 I-2.588 J0.0 F1128.
X125.679 Y12.953 I0.0 J-2.588
G01 Y-6.051 F2000.
G03 X128.267 Y-8.64 I2.588 J0.0 F1128.
X130.856 Y-6.051 I0.0 J2.588
G01 Y3.451 F2000.
Y4.785 Z-1.549
Y12.953
G03 X128.267 Y15.541 I-2.588 J0.0 F1128.
X125.679 Y12.953 I0.0 J-2.588
G01 Y-6.051 F2000.
G03 X128.267 Y-8.64 I2.588 J0.0 F1128.
X130.856 Y-6.051 I0.0 J2.588
G01 Y3.451 F2000.
Y4.785 Z-1.619
Y12.953
G03 X128.267 Y15.541 I-2.588 J0.0 F1128.
X125.679 Y12.953 I0.0 J-2.588
G01 Y-6.051 F2000.
G03 X128.267 Y-8.64 I2.588 J0.0 F1128.
X130.856 Y-6.051 I0.0 J2.588
G01 Y3.451 F2000.
Y4.785 Z-1.689
Y12.953
G03 X128.267 Y15.541 I-2.588 J0.0 F1128.
X125.679 Y12.953 I0.0 J-2.588
G01 Y-6.051 F2000.
G03 X128.267 Y-8.64 I2.588 J0.0 F1128.
X130.856 Y-6.051 I0.0 J2.588
G01 Y3.451 F2000.
Y4.785 Z-1.759
Y12.953
G03 X128.267 Y15.541 I-2.588 J0.0 F1128.
X125.679 Y12.953 I0.0 J-2.588
G01 Y-6.051 F2000.
G03 X128.267 Y-8.64 I2.588 J0.0 F1128.
X130.856 Y-6.051 I0.0 J2.588
G01 Y3.451 F2000.
Y4.785 Z-1.829
Y12.953
G03 X128.267 Y15.541 I-2.588 J0.0 F1128.
X125.679 Y12.953 I0.0 J-2.588
G01 Y-6.051 F2000.
G03 X128.267 Y-8.64 I2.588 J0.0 F1128.
X130.856 Y-6.051 I0.0 J2.588
G01 Y3.451 F2000.
Y4.785 Z-1.899
Y12.953
G03 X128.267 Y15.541 I-2.588 J0.0 F1128.
X125.679 Y12.953 I0.0 J-2.588
G01 Y-6.051 F2000.
G03 X128.267 Y-8.64 I2.588 J0.0 F1128.
X130.856 Y-6.051 I0.0 J2.588
G01 Y3.451 F2000.
Y4.785 Z-1.969
Y12.953
G03 X128.267 Y15.541 I-2.588 J0.0 F1128.
X125.679 Y12.953 I0.0 J-2.588
G01 Y-6.051 F2000.
G03 X128.267 Y-8.64 I2.588 J0.0 F1128.
X130.856 Y-6.051 I0.0 J2.588
G01 Y4.785 F2000.
X128.856
Z.031
G00 Z2.5
X112.158 Y.797
G01 Z2.43
Z-.57 F800.
G03 X114.158 Y2.797 I0.0 J2. F400.
G01 Y12.953 F2000.
G03 X111.174 Y15.937 I-2.985 J0.0 F1198.
X108.189 Y12.953 I0.0 J-2.985
G01 Y-7.358 F2000.
G03 X111.174 Y-10.343 I2.985 J0.0 F1198.
X114.158 Y-7.358 I0.0 J2.985
G01 Y2.797 F2000.
X114.135 Y3.02 Z-.582
X114.114 Y3.242 Z-.593
X114.095 Y3.464 Z-.605
X114.077 Y3.687 Z-.617
X114.059 Y3.909 Z-.628
X114.043 Y4.132 Z-.64
Y12.953
G03 X111.174 Y15.822 I-2.87 J0.0 F1179.
X108.304 Y12.953 I0.0 J-2.87
G01 Y-7.358 F2000.
G03 X111.174 Y-10.228 I2.87 J0.0 F1179.
X114.043 Y-7.358 I0.0 J2.87
G01 Y2.797 F2000.
X114.028 Y3.02 Z-.652
X114.014 Y3.242 Z-.663
X114. Y3.464 Z-.675
X113.987 Y3.687 Z-.686
X113.975 Y3.909 Z-.698
X113.963 Y4.132 Z-.71
Y12.953
G03 X111.174 Y15.742 I-2.79 J0.0 F1165.
X108.384 Y12.953 I0.0 J-2.79
G01 Y-7.358 F2000.
G03 X111.174 Y-10.148 I2.79 J0.0 F1165.
X113.963 Y-7.358 I0.0 J2.79
G01 Y2.797 F2000.
X113.952 Y3.02 Z-.721
X113.942 Y3.242 Z-.733
X113.931 Y3.464 Z-.745
X113.921 Y3.687 Z-.756
X113.912 Y3.909 Z-.768
X113.903 Y4.132 Z-.78
Y12.953
G03 X111.174 Y15.682 I-2.729 J0.0 F1154.
X108.444 Y12.953 I0.0 J-2.729
G01 Y-7.358 F2000.
G03 X111.174 Y-10.088 I2.729 J0.0 F1154.
X113.903 Y-7.358 I0.0 J2.729
G01 Y2.797 F2000.
X113.895 Y3.02 Z-.791
X113.886 Y3.242 Z-.803
X113.878 Y3.464 Z-.815
X113.871 Y3.687 Z-.826
X113.864 Y3.909 Z-.838
X113.857 Y4.132 Z-.85
Y12.953
G03 X111.174 Y15.636 I-2.683 J0.0 F1146.
X108.491 Y12.953 I0.0 J-2.683
G01 Y-7.358 F2000.
G03 X111.174 Y-10.041 I2.683 J0.0 F1146.
X113.857 Y-7.358 I0.0 J2.683
G01 Y2.797 F2000.
X113.85 Y3.02 Z-.861
X113.844 Y3.242 Z-.873
X113.838 Y3.464 Z-.885
X113.832 Y3.687 Z-.896
X113.827 Y3.909 Z-.908
X113.821 Y4.132 Z-.92
Y12.953
G03 X111.174 Y15.6 I-2.648 J0.0 F1139.
X108.526 Y12.953 I0.0 J-2.648
G01 Y-7.358 F2000.
G03 X111.174 Y-10.006 I2.648 J0.0 F1139.
X113.821 Y-7.358 I0.0 J2.648
G01 Y2.797 F2000.
X113.816 Y3.02 Z-.931
X113.812 Y3.242 Z-.943
X113.807 Y3.464 Z-.955
X113.803 Y3.687 Z-.966
X113.799 Y3.909 Z-.978
X113.795 Y4.132 Z-.99
Y12.953
G03 X111.174 Y15.574 I-2.621 J0.0 F1134.
X108.553 Y12.953 I0.0 J-2.621
G01 Y-7.358 F2000.
G03 X111.174 Y-9.98 I2.621 J0.0 F1134.
X113.795 Y-7.358 I0.0 J2.621
G01 Y2.797 F2000.
X113.791 Y3.02 Z-1.001
X113.788 Y3.242 Z-1.013
X113.785 Y3.464 Z-1.024
X113.782 Y3.687 Z-1.036
X113.779 Y3.909 Z-1.048
X113.777 Y4.132 Z-1.059
Y12.953
G03 X111.174 Y15.556 I-2.603 J0.0 F1131.
X108.571 Y12.953 I0.0 J-2.603
G01 Y-7.358 F2000.
G03 X111.174 Y-9.961 I2.603 J0.0 F1131.
X113.777 Y-7.358 I0.0 J2.603
G01 Y2.797 F2000.
X113.774 Y3.02 Z-1.071
X113.772 Y3.242 Z-1.083
X113.77 Y3.464 Z-1.094
X113.769 Y3.687 Z-1.106
X113.767 Y3.909 Z-1.118
X113.766 Y4.132 Z-1.129
Y12.953
G03 X111.174 Y15.545 I-2.592 J0.0 F1129.
X108.582 Y12.953 I0.0 J-2.592
G01 Y-7.358 F2000.
G03 X111.174 Y-9.95 I2.592 J0.0 F1129.
X113.766 Y-7.358 I0.0 J2.592
G01 Y2.797 F2000.
X113.765 Y3.02 Z-1.141
X113.764 Y3.242 Z-1.153
X113.763 Y3.464 Z-1.164
Y3.687 Z-1.176
X113.762 Y3.909 Z-1.188
Y4.132 Z-1.199
Y10.541
Y12.741 F1650.
Y12.953 F1300.
G03 X113.035 Y14.751 I-2.588 J0.0 F733.
G01 X112.403 Y15.231 F2000.
G03 X111.174 Y15.541 I-1.229 J-2.278 F733.
X110.274 Y15.38 I0.0 J-2.588
X108.616 Y13.349 I.9 J-2.427 F1128.
G01 X108.585 Y12.953 F2000.
Y-7.358
X108.616 Y-7.755
G03 X111.174 Y-9.947 I2.558 J.396 F1128.
X113.762 Y-7.358 I0.0 J2.588
G01 Y2.797 F2000.
Y3.02 Z-1.211
Y4.132 Z-1.269
Y12.953
G03 X111.174 Y15.541 I-2.588 J0.0 F1128.
X108.585 Y12.953 I0.0 J-2.588
G01 Y-7.358 F2000.
G03 X111.174 Y-9.947 I2.588 J0.0 F1128.
X113.762 Y-7.358 I0.0 J2.588
G01 Y2.797 F2000.
Y4.132 Z-1.339
Y12.953
G03 X111.174 Y15.541 I-2.588 J0.0 F1128.
X108.585 Y12.953 I0.0 J-2.588
G01 Y-7.358 F2000.
G03 X111.174 Y-9.947 I2.588 J0.0 F1128.
X113.762 Y-7.358 I0.0 J2.588
G01 Y2.797 F2000.
Y4.132 Z-1.409
Y12.953
G03 X111.174 Y15.541 I-2.588 J0.0 F1128.
X108.585 Y12.953 I0.0 J-2.588
G01 Y-7.358 F2000.
G03 X111.174 Y-9.947 I2.588 J0.0 F1128.
X113.762 Y-7.358 I0.0 J2.588
G01 Y2.797 F2000.
Y4.132 Z-1.479
Y12.953
G03 X111.174 Y15.541 I-2.588 J0.0 F1128.
X108.585 Y12.953 I0.0 J-2.588
G01 Y-7.358 F2000.
G03 X111.174 Y-9.947 I2.588 J0.0 F1128.
X113.762 Y-7.358 I0.0 J2.588
G01 Y2.797 F2000.
Y4.132 Z-1.549
Y12.953
G03 X111.174 Y15.541 I-2.588 J0.0 F1128.
X108.585 Y12.953 I0.0 J-2.588
G01 Y-7.358 F2000.
G03 X111.174 Y-9.947 I2.588 J0.0 F1128.
X113.762 Y-7.358 I0.0 J2.588
G01 Y2.797 F2000.
Y4.132 Z-1.619
Y12.953
G03 X111.174 Y15.541 I-2.588 J0.0 F1128.
X108.585 Y12.953 I0.0 J-2.588
G01 Y-7.358 F2000.
G03 X111.174 Y-9.947 I2.588 J0.0 F1128.
X113.762 Y-7.358 I0.0 J2.588
G01 Y2.797 F2000.
Y4.132 Z-1.689
Y12.953
G03 X111.174 Y15.541 I-2.588 J0.0 F1128.
X108.585 Y12.953 I0.0 J-2.588
G01 Y-7.358 F2000.
G03 X111.174 Y-9.947 I2.588 J0.0 F1128.
X113.762 Y-7.358 I0.0 J2.588
G01 Y2.797 F2000.
Y4.132 Z-1.759
Y12.953
G03 X111.174 Y15.541 I-2.588 J0.0 F1128.
X108.585 Y12.953 I0.0 J-2.588
G01 Y-7.358 F2000.
G03 X111.174 Y-9.947 I2.588 J0.0 F1128.
X113.762 Y-7.358 I0.0 J2.588
G01 Y2.797 F2000.
Y4.132 Z-1.829
Y12.953
G03 X111.174 Y15.541 I-2.588 J0.0 F1128.
X108.585 Y12.953 I0.0 J-2.588
G01 Y-7.358 F2000.
G03 X111.174 Y-9.947 I2.588 J0.0 F1128.
X113.762 Y-7.358 I0.0 J2.588
G01 Y2.797 F2000.
Y4.132 Z-1.899
Y12.953
G03 X111.174 Y15.541 I-2.588 J0.0 F1128.
X108.585 Y12.953 I0.0 J-2.588
G01 Y-7.358 F2000.
G03 X111.174 Y-9.947 I2.588 J0.0 F1128.
X113.762 Y-7.358 I0.0 J2.588
G01 Y2.797 F2000.
Y4.132 Z-1.969
Y12.953
G03 X111.174 Y15.541 I-2.588 J0.0 F1128.
X108.585 Y12.953 I0.0 J-2.588
G01 Y-7.358 F2000.
G03 X111.174 Y-9.947 I2.588 J0.0 F1128.
X113.762 Y-7.358 I0.0 J2.588
G01 Y4.132 F2000.
X111.762
Z.031
G00 Z2.5
X-146.213 Y5.261
G01 Z2.43
Z-.57 F800.
G03 X-148.213 Y3.261 I0.0 J-2. F400.
G01 Y-6.956 F2000.
G03 X-145.229 Y-9.941 I2.985 J0.0 F1198.
X-142.244 Y-6.956 I0.0 J2.985
G01 Y12.953 F2000.
G03 X-145.229 Y15.937 I-2.985 J0.0 F1198.
X-148.213 Y12.953 I0.0 J-2.985
G01 Y3.261 F2000.
X-148.19 Y3.039 Z-.582
X-148.169 Y2.816 Z-.593
X-148.15 Y2.594 Z-.605
X-148.132 Y2.372 Z-.617
X-148.114 Y2.149 Z-.628
X-148.098 Y1.927 Z-.64
Y-6.956
G03 X-145.229 Y-9.826 I2.87 J0.0 F1179.
X-142.359 Y-6.956 I0.0 J2.87
G01 Y12.953 F2000.
G03 X-145.229 Y15.822 I-2.87 J0.0 F1179.
X-148.098 Y12.953 I0.0 J-2.87
G01 Y3.261 F2000.
X-148.083 Y3.039 Z-.652
X-148.069 Y2.816 Z-.663
X-148.055 Y2.594 Z-.675
X-148.042 Y2.372 Z-.686
X-148.03 Y2.149 Z-.698
X-148.018 Y1.927 Z-.71
Y-6.956
G03 X-145.229 Y-9.746 I2.79 J0.0 F1165.
X-142.439 Y-6.956 I0.0 J2.79
G01 Y12.953 F2000.
G03 X-145.229 Y15.742 I-2.79 J0.0 F1165.
X-148.018 Y12.953 I0.0 J-2.79
G01 Y3.261 F2000.
X-148.007 Y3.039 Z-.721
X-147.997 Y2.816 Z-.733
X-147.986 Y2.594 Z-.745
X-147.976 Y2.372 Z-.756
X-147.967 Y2.149 Z-.768
X-147.958 Y1.927 Z-.78
Y-6.956
G03 X-145.229 Y-9.686 I2.729 J0.0 F1154.
X-142.499 Y-6.956 I0.0 J2.729
G01 Y12.953 F2000.
G03 X-145.229 Y15.682 I-2.729 J0.0 F1154.
X-147.958 Y12.953 I0.0 J-2.729
G01 Y3.261 F2000.
X-147.95 Y3.039 Z-.791
X-147.941 Y2.816 Z-.803
X-147.933 Y2.594 Z-.815
X-147.926 Y2.372 Z-.826
X-147.919 Y2.149 Z-.838
X-147.912 Y1.927 Z-.85
Y-6.956
G03 X-145.229 Y-9.639 I2.683 J0.0 F1146.
X-142.546 Y-6.956 I0.0 J2.683
G01 Y12.953 F2000.
G03 X-145.229 Y15.636 I-2.683 J0.0 F1146.
X-147.912 Y12.953 I0.0 J-2.683
G01 Y3.261 F2000.
X-147.905 Y3.039 Z-.861
X-147.899 Y2.816 Z-.873
X-147.893 Y2.594 Z-.885
X-147.887 Y2.372 Z-.896
X-147.882 Y2.149 Z-.908
X-147.876 Y1.927 Z-.92
Y-6.956
G03 X-145.229 Y-9.604 I2.648 J0.0 F1139.
X-142.581 Y-6.956 I0.0 J2.648
G01 Y12.953 F2000.
G03 X-145.229 Y15.6 I-2.648 J0.0 F1139.
X-147.876 Y12.953 I0.0 J-2.648
G01 Y3.261 F2000.
X-147.871 Y3.039 Z-.931
X-147.867 Y2.816 Z-.943
X-147.862 Y2.594 Z-.955
X-147.858 Y2.372 Z-.966
X-147.854 Y2.149 Z-.978
X-147.85 Y1.927 Z-.99
Y-6.956
G03 X-145.229 Y-9.577 I2.621 J0.0 F1134.
X-142.608 Y-6.956 I0.0 J2.621
G01 Y12.953 F2000.
G03 X-145.229 Y15.574 I-2.621 J0.0 F1134.
X-147.85 Y12.953 I0.0 J-2.621
G01 Y3.261 F2000.
X-147.846 Y3.039 Z-1.001
X-147.843 Y2.816 Z-1.013
X-147.84 Y2.594 Z-1.024
X-147.837 Y2.372 Z-1.036
X-147.834 Y2.149 Z-1.048
X-147.832 Y1.927 Z-1.059
Y-6.956
G03 X-145.229 Y-9.559 I2.603 J0.0 F1131.
X-142.626 Y-6.956 I0.0 J2.603
G01 Y12.953 F2000.
G03 X-145.229 Y15.556 I-2.603 J0.0 F1131.
X-147.832 Y12.953 I0.0 J-2.603
G01 Y3.261 F2000.
X-147.829 Y3.039 Z-1.071
X-147.827 Y2.816 Z-1.083
X-147.825 Y2.594 Z-1.094
X-147.824 Y2.372 Z-1.106
X-147.822 Y2.149 Z-1.118
X-147.821 Y1.927 Z-1.129
Y-6.956
G03 X-145.229 Y-9.548 I2.592 J0.0 F1129.
X-142.637 Y-6.956 I0.0 J2.592
G01 Y12.953 F2000.
G03 X-145.229 Y15.545 I-2.592 J0.0 F1129.
X-147.821 Y12.953 I0.0 J-2.592
G01 Y3.261 F2000.
X-147.82 Y3.039 Z-1.141
X-147.819 Y2.816 Z-1.153
X-147.818 Y2.594 Z-1.164
Y2.372 Z-1.176
X-147.817 Y2.149 Z-1.188
Y1.927 Z-1.199
Y-6.956
G03 X-145.229 Y-9.545 I2.588 J0.0 F1128.
X-142.64 Y-6.956 I0.0 J2.588
G01 Y12.953 F2000.
G03 X-143.313 Y14.694 I-2.588 J0.0 F1128.
G01 X-143.381 Y14.766 F2000.
G03 X-145.229 Y15.541 I-1.848 J-1.813 F1128.
X-147.767 Y13.462 I0.0 J-2.588
X-147.817 Y12.952 I2.538 J-.51
G01 Y12.927
Y3.261 F2000.
Y3.039 Z-1.211
Y1.927 Z-1.269
Y-6.956
G03 X-145.229 Y-9.545 I2.588 J0.0 F1128.
X-142.64 Y-6.956 I0.0 J2.588
G01 Y12.953 F2000.
G03 X-145.229 Y15.541 I-2.588 J0.0 F1128.
X-147.817 Y12.953 I0.0 J-2.588
G01 Y3.261 F2000.
Y1.927 Z-1.339
Y-6.956
G03 X-145.229 Y-9.545 I2.588 J0.0 F1128.
X-142.64 Y-6.956 I0.0 J2.588
G01 Y12.953 F2000.
G03 X-145.229 Y15.541 I-2.588 J0.0 F1128.
X-147.817 Y12.953 I0.0 J-2.588
G01 Y3.261 F2000.
Y1.927 Z-1.409
Y-6.956
G03 X-145.229 Y-9.545 I2.588 J0.0 F1128.
X-142.64 Y-6.956 I0.0 J2.588
G01 Y12.953 F2000.
G03 X-145.229 Y15.541 I-2.588 J0.0 F1128.
X-147.817 Y12.953 I0.0 J-2.588
G01 Y3.261 F2000.
Y1.927 Z-1.479
Y-6.956
G03 X-145.229 Y-9.545 I2.588 J0.0 F1128.
X-142.64 Y-6.956 I0.0 J2.588
G01 Y12.953 F2000.
G03 X-145.229 Y15.541 I-2.588 J0.0 F1128.
X-147.817 Y12.953 I0.0 J-2.588
G01 Y3.261 F2000.
Y1.927 Z-1.549
Y-6.956
G03 X-145.229 Y-9.545 I2.588 J0.0 F1128.
X-142.64 Y-6.956 I0.0 J2.588
G01 Y12.953 F2000.
G03 X-145.229 Y15.541 I-2.588 J0.0 F1128.
X-147.817 Y12.953 I0.0 J-2.588
G01 Y3.261 F2000.
Y1.927 Z-1.619
Y-6.956
G03 X-145.229 Y-9.545 I2.588 J0.0 F1128.
X-142.64 Y-6.956 I0.0 J2.588
G01 Y12.953 F2000.
G03 X-145.229 Y15.541 I-2.588 J0.0 F1128.
X-147.817 Y12.953 I0.0 J-2.588
G01 Y3.261 F2000.
Y1.927 Z-1.689
Y-6.956
G03 X-145.229 Y-9.545 I2.588 J0.0 F1128.
X-142.64 Y-6.956 I0.0 J2.588
G01 Y12.953 F2000.
G03 X-145.229 Y15.541 I-2.588 J0.0 F1128.
X-147.817 Y12.953 I0.0 J-2.588
G01 Y3.261 F2000.
Y1.927 Z-1.759
Y-6.956
G03 X-145.229 Y-9.545 I2.588 J0.0 F1128.
X-142.64 Y-6.956 I0.0 J2.588
G01 Y12.953 F2000.
G03 X-145.229 Y15.541 I-2.588 J0.0 F1128.
X-147.817 Y12.953 I0.0 J-2.588
G01 Y3.261 F2000.
Y1.927 Z-1.829
Y-6.956
G03 X-145.229 Y-9.545 I2.588 J0.0 F1128.
X-142.64 Y-6.956 I0.0 J2.588
G01 Y12.953 F2000.
G03 X-145.229 Y15.541 I-2.588 J0.0 F1128.
X-147.817 Y12.953 I0.0 J-2.588
G01 Y3.261 F2000.
Y1.927 Z-1.899
Y-6.956
G03 X-145.229 Y-9.545 I2.588 J0.0 F1128.
X-142.64 Y-6.956 I0.0 J2.588
G01 Y12.953 F2000.
G03 X-145.229 Y15.541 I-2.588 J0.0 F1128.
X-147.817 Y12.953 I0.0 J-2.588
G01 Y3.261 F2000.
Y1.927 Z-1.969
Y-6.956
G03 X-145.229 Y-9.545 I2.588 J0.0 F1128.
X-142.64 Y-6.956 I0.0 J2.588
G01 Y12.953 F2000.
G03 X-145.229 Y15.541 I-2.588 J0.0 F1128.
X-147.817 Y12.953 I0.0 J-2.588
G01 Y1.927 F2000.
X-145.817
Z.031
G00 Z2.5
X-129.12 Y4.683
G01 Z2.43
Z-.57 F800.
G03 X-131.12 Y2.683 I0.0 J-2. F400.
G01 Y-8.112 F2000.
G03 X-128.135 Y-11.097 I2.985 J0.0 F1198.
X-125.151 Y-8.112 I0.0 J2.985
G01 Y12.953 F2000.
G03 X-128.135 Y15.937 I-2.985 J0.0 F1198.
X-131.12 Y12.953 I0.0 J-2.985
G01 Y2.683 F2000.
X-131.097 Y2.461 Z-.582
X-131.076 Y2.238 Z-.593
X-131.056 Y2.016 Z-.605
X-131.038 Y1.793 Z-.617
X-131.021 Y1.571 Z-.628
X-131.005 Y1.349 Z-.64
Y-8.112
G03 X-128.135 Y-10.982 I2.87 J0.0 F1179.
X-125.266 Y-8.112 I0.0 J2.87
G01 Y12.953 F2000.
G03 X-128.135 Y15.822 I-2.87 J0.0 F1179.
X-131.005 Y12.953 I0.0 J-2.87
G01 Y2.683 F2000.
X-130.99 Y2.461 Z-.652
X-130.975 Y2.238 Z-.663
X-130.962 Y2.016 Z-.675
X-130.949 Y1.793 Z-.686
X-130.937 Y1.571 Z-.698
X-130.925 Y1.349 Z-.71
Y-8.112
G03 X-128.135 Y-10.902 I2.79 J0.0 F1165.
X-125.346 Y-8.112 I0.0 J2.79
G01 Y12.953 F2000.
G03 X-128.135 Y15.742 I-2.79 J0.0 F1165.
X-130.925 Y12.953 I0.0 J-2.79
G01 Y2.683 F2000.
X-130.914 Y2.461 Z-.721
X-130.903 Y2.238 Z-.733
X-130.893 Y2.016 Z-.745
X-130.883 Y1.793 Z-.756
X-130.874 Y1.571 Z-.768
X-130.865 Y1.349 Z-.78
Y-8.112
G03 X-128.135 Y-10.842 I2.729 J0.0 F1154.
X-125.406 Y-8.112 I0.0 J2.729
G01 Y12.953 F2000.
G03 X-128.135 Y15.682 I-2.729 J0.0 F1154.
X-130.865 Y12.953 I0.0 J-2.729
G01 Y2.683 F2000.
X-130.856 Y2.461 Z-.791
X-130.848 Y2.238 Z-.803
X-130.84 Y2.016 Z-.815
X-130.832 Y1.793 Z-.826
X-130.825 Y1.571 Z-.838
X-130.818 Y1.349 Z-.85
Y-8.112
G03 X-128.135 Y-10.796 I2.683 J0.0 F1146.
X-125.452 Y-8.112 I0.0 J2.683
G01 Y12.953 F2000.
G03 X-128.135 Y15.636 I-2.683 J0.0 F1146.
X-130.818 Y12.953 I0.0 J-2.683
G01 Y2.683 F2000.
X-130.812 Y2.461 Z-.861
X-130.805 Y2.238 Z-.873
X-130.799 Y2.016 Z-.885
X-130.794 Y1.793 Z-.896
X-130.788 Y1.571 Z-.908
X-130.783 Y1.349 Z-.92
Y-8.112
G03 X-128.135 Y-10.76 I2.648 J0.0 F1139.
X-125.488 Y-8.112 I0.0 J2.648
G01 Y12.953 F2000.
G03 X-128.135 Y15.6 I-2.648 J0.0 F1139.
X-130.783 Y12.953 I0.0 J-2.648
G01 Y2.683 F2000.
X-130.778 Y2.461 Z-.931
X-130.773 Y2.238 Z-.943
X-130.769 Y2.016 Z-.955
X-130.764 Y1.793 Z-.966
X-130.76 Y1.571 Z-.978
X-130.756 Y1.349 Z-.99
Y-8.112
G03 X-128.135 Y-10.734 I2.621 J0.0 F1134.
X-125.514 Y-8.112 I0.0 J2.621
G01 Y12.953 F2000.
G03 X-128.135 Y15.574 I-2.621 J0.0 F1134.
X-130.756 Y12.953 I0.0 J-2.621
G01 Y2.683 F2000.
X-130.753 Y2.461 Z-1.001
X-130.75 Y2.238 Z-1.013
X-130.746 Y2.016 Z-1.024
X-130.743 Y1.793 Z-1.036
X-130.741 Y1.571 Z-1.048
X-130.738 Y1.349 Z-1.059
Y-8.112
G03 X-128.135 Y-10.715 I2.603 J0.0 F1131.
X-125.532 Y-8.112 I0.0 J2.603
G01 Y12.953 F2000.
G03 X-128.135 Y15.556 I-2.603 J0.0 F1131.
X-130.738 Y12.953 I0.0 J-2.603
G01 Y2.683 F2000.
X-130.736 Y2.461 Z-1.071
X-130.734 Y2.238 Z-1.083
X-130.732 Y2.016 Z-1.094
X-130.73 Y1.793 Z-1.106
X-130.729 Y1.571 Z-1.118
X-130.727 Y1.349 Z-1.129
Y-8.113
G03 X-128.135 Y-10.705 I2.592 J0.0 F1129.
X-125.543 Y-8.112 I0.0 J2.592
G01 Y12.953 F2000.
G03 X-128.135 Y15.545 I-2.592 J0.0 F1129.
X-130.727 Y12.953 I0.0 J-2.592
G01 Y2.683 F2000.
X-130.726 Y2.461 Z-1.141
X-130.725 Y2.238 Z-1.153
Y2.016 Z-1.164
X-130.724 Y1.793 Z-1.176
Y1.571 Z-1.188
Y1.349 Z-1.199
Y-8.112
X-130.716 Y-8.311
G03 X-128.135 Y-10.701 I2.581 J.198 F1128.
X-126.103 Y-9.715 I0.0 J2.588
X-125.547 Y-8.112 I-2.033 J1.603
G01 Y-8.078
Y12.953 F2000.
G03 X-128.135 Y15.541 I-2.588 J0.0 F1128.
X-130.724 Y12.953 I0.0 J-2.588
G01 Y2.683 F2000.
Y2.461 Z-1.211
Y1.349 Z-1.269
Y-8.112
G03 X-128.135 Y-10.701 I2.588 J0.0 F1128.
X-125.547 Y-8.112 I0.0 J2.588
G01 Y12.953 F2000.
G03 X-128.135 Y15.541 I-2.588 J0.0 F1128.
X-130.724 Y12.953 I0.0 J-2.588
G01 Y2.683 F2000.
Y1.349 Z-1.339
Y-8.112
G03 X-128.135 Y-10.701 I2.588 J0.0 F1128.
X-125.547 Y-8.112 I0.0 J2.588
G01 Y12.953 F2000.
G03 X-128.135 Y15.541 I-2.588 J0.0 F1128.
X-130.724 Y12.953 I0.0 J-2.588
G01 Y2.683 F2000.
Y1.349 Z-1.409
Y-8.112
G03 X-128.135 Y-10.701 I2.588 J0.0 F1128.
X-125.547 Y-8.112 I0.0 J2.588
G01 Y12.953 F2000.
G03 X-128.135 Y15.541 I-2.588 J0.0 F1128.
X-130.724 Y12.953 I0.0 J-2.588
G01 Y2.683 F2000.
Y1.349 Z-1.479
Y-8.112
G03 X-128.135 Y-10.701 I2.588 J0.0 F1128.
X-125.547 Y-8.112 I0.0 J2.588
G01 Y12.953 F2000.
G03 X-128.135 Y15.541 I-2.588 J0.0 F1128.
X-130.724 Y12.953 I0.0 J-2.588
G01 Y2.683 F2000.
Y1.349 Z-1.549
Y-8.112
G03 X-128.135 Y-10.701 I2.588 J0.0 F1128.
X-125.547 Y-8.112 I0.0 J2.588
G01 Y12.953 F2000.
G03 X-128.135 Y15.541 I-2.588 J0.0 F1128.
X-130.724 Y12.953 I0.0 J-2.588
G01 Y2.683 F2000.
Y1.349 Z-1.619
Y-8.112
G03 X-128.135 Y-10.701 I2.588 J0.0 F1128.
X-125.547 Y-8.112 I0.0 J2.588
G01 Y12.953 F2000.
G03 X-128.135 Y15.541 I-2.588 J0.0 F1128.
X-130.724 Y12.953 I0.0 J-2.588
G01 Y2.683 F2000.
Y1.349 Z-1.689
Y-8.112
G03 X-128.135 Y-10.701 I2.588 J0.0 F1128.
X-125.547 Y-8.112 I0.0 J2.588
G01 Y12.953 F2000.
G03 X-128.135 Y15.541 I-2.588 J0.0 F1128.
X-130.724 Y12.953 I0.0 J-2.588
G01 Y2.683 F2000.
Y1.349 Z-1.759
Y-8.112
G03 X-128.135 Y-10.701 I2.588 J0.0 F1128.
X-125.547 Y-8.112 I0.0 J2.588
G01 Y12.953 F2000.
G03 X-128.135 Y15.541 I-2.588 J0.0 F1128.
X-130.724 Y12.953 I0.0 J-2.588
G01 Y2.683 F2000.
Y1.349 Z-1.829
Y-8.112
G03 X-128.135 Y-10.701 I2.588 J0.0 F1128.
X-125.547 Y-8.112 I0.0 J2.588
G01 Y12.953 F2000.
G03 X-128.135 Y15.541 I-2.588 J0.0 F1128.
X-130.724 Y12.953 I0.0 J-2.588
G01 Y2.683 F2000.
Y1.349 Z-1.899
Y-8.112
G03 X-128.135 Y-10.701 I2.588 J0.0 F1128.
X-125.547 Y-8.112 I0.0 J2.588
G01 Y12.953 F2000.
G03 X-128.135 Y15.541 I-2.588 J0.0 F1128.
X-130.724 Y12.953 I0.0 J-2.588
G01 Y2.683 F2000.
Y1.349 Z-1.969
Y-8.112
G03 X-128.135 Y-10.701 I2.588 J0.0 F1128.
X-125.547 Y-8.112 I0.0 J2.588
G01 Y12.953 F2000.
G03 X-128.135 Y15.541 I-2.588 J0.0 F1128.
X-130.724 Y12.953 I0.0 J-2.588
G01 Y1.349 F2000.
X-128.724
Z.031
G00 Z2.5
X-112.026 Y4.029
G01 Z2.43
Z-.57 F800.
G03 X-114.026 Y2.029 I0.0 J-2. F400.
G01 Y-9.42 F2000.
G03 X-111.042 Y-12.404 I2.985 J0.0 F1198.
X-108.057 Y-9.42 I0.0 J2.985
G01 Y12.953 F2000.
G03 X-111.042 Y15.937 I-2.985 J0.0 F1198.
X-114.026 Y12.953 I0.0 J-2.985
G01 Y2.029 F2000.
X-114.003 Y1.807 Z-.582
X-113.982 Y1.585 Z-.593
X-113.963 Y1.362 Z-.605
X-113.945 Y1.14 Z-.617
X-113.927 Y.917 Z-.628
X-113.911 Y.695 Z-.64
Y-9.42
G03 X-111.042 Y-12.289 I2.87 J0.0 F1179.
X-108.172 Y-9.42 I0.0 J2.87
G01 Y12.953 F2000.
G03 X-111.042 Y15.822 I-2.87 J0.0 F1179.
X-113.911 Y12.953 I0.0 J-2.87
G01 Y2.029 F2000.
X-113.896 Y1.807 Z-.652
X-113.882 Y1.585 Z-.663
X-113.868 Y1.362 Z-.675
X-113.855 Y1.14 Z-.686
X-113.843 Y.917 Z-.698
X-113.831 Y.695 Z-.71
Y-9.42
G03 X-111.042 Y-12.209 I2.79 J0.0 F1165.
X-108.252 Y-9.42 I0.0 J2.79
G01 Y12.953 F2000.
G03 X-111.042 Y15.742 I-2.79 J0.0 F1165.
X-113.831 Y12.953 I0.0 J-2.79
G01 Y2.029 F2000.
X-113.82 Y1.807 Z-.721
X-113.81 Y1.585 Z-.733
X-113.799 Y1.362 Z-.745
X-113.789 Y1.14 Z-.756
X-113.78 Y.917 Z-.768
X-113.771 Y.695 Z-.78
Y-9.42
G03 X-111.042 Y-12.149 I2.729 J0.0 F1154.
X-108.312 Y-9.42 I0.0 J2.729
G01 Y12.953 F2000.
G03 X-111.042 Y15.682 I-2.729 J0.0 F1154.
X-113.771 Y12.953 I0.0 J-2.729
G01 Y2.029 F2000.
X-113.763 Y1.807 Z-.791
X-113.754 Y1.585 Z-.803
X-113.746 Y1.362 Z-.815
X-113.739 Y1.14 Z-.826
X-113.732 Y.917 Z-.838
X-113.725 Y.695 Z-.85
Y-9.42
G03 X-111.042 Y-12.103 I2.683 J0.0 F1146.
X-108.359 Y-9.42 I0.0 J2.683
G01 Y12.953 F2000.
G03 X-111.042 Y15.636 I-2.683 J0.0 F1146.
X-113.725 Y12.953 I0.0 J-2.683
G01 Y2.029 F2000.
X-113.718 Y1.807 Z-.861
X-113.712 Y1.585 Z-.873
X-113.706 Y1.362 Z-.885
X-113.7 Y1.14 Z-.896
X-113.695 Y.917 Z-.908
X-113.689 Y.695 Z-.92
Y-9.42
G03 X-111.042 Y-12.067 I2.648 J0.0 F1139.
X-108.394 Y-9.42 I0.0 J2.648
G01 Y12.953 F2000.
G03 X-111.042 Y15.6 I-2.648 J0.0 F1139.
X-113.689 Y12.953 I0.0 J-2.648
G01 Y2.029 F2000.
X-113.684 Y1.807 Z-.931
X-113.68 Y1.585 Z-.943
X-113.675 Y1.362 Z-.955
X-113.671 Y1.14 Z-.966
X-113.667 Y.917 Z-.978
X-113.663 Y.695 Z-.99
Y-9.42
G03 X-111.042 Y-12.041 I2.621 J0.0 F1134.
X-108.421 Y-9.42 I0.0 J2.621
G01 Y12.953 F2000.
G03 X-111.042 Y15.574 I-2.621 J0.0 F1134.
X-113.663 Y12.953 I0.0 J-2.621
G01 Y2.029 F2000.
X-113.659 Y1.807 Z-1.001
X-113.656 Y1.585 Z-1.013
X-113.653 Y1.362 Z-1.024
X-113.65 Y1.14 Z-1.036
X-113.647 Y.917 Z-1.048
X-113.645 Y.695 Z-1.059
Y-9.42
G03 X-111.042 Y-12.023 I2.603 J0.0 F1131.
X-108.439 Y-9.42 I0.0 J2.603
G01 Y12.953 F2000.
G03 X-111.042 Y15.556 I-2.603 J0.0 F1131.
X-113.645 Y12.953 I0.0 J-2.603
G01 Y2.029 F2000.
X-113.642 Y1.807 Z-1.071
X-113.64 Y1.585 Z-1.083
X-113.638 Y1.362 Z-1.094
X-113.637 Y1.14 Z-1.106
X-113.635 Y.917 Z-1.118
X-113.634 Y.695 Z-1.129
Y-9.42
G03 X-111.042 Y-12.012 I2.592 J0.0 F1129.
X-108.45 Y-9.42 I0.0 J2.592
G01 Y12.953 F2000.
G03 X-111.042 Y15.545 I-2.592 J0.0 F1129.
X-113.634 Y12.953 I0.0 J-2.592
G01 Y2.029 F2000.
X-113.633 Y1.807 Z-1.141
X-113.632 Y1.585 Z-1.153
X-113.631 Y1.362 Z-1.164
Y1.14 Z-1.176
X-113.63 Y.917 Z-1.188
Y.695 Z-1.199
Y-9.42
G03 X-111.042 Y-12.008 I2.588 J0.0 F1128.
X-108.453 Y-9.42 I0.0 J2.588
G01 Y12.953 F2000.
G03 X-111.042 Y15.541 I-2.588 J0.0 F1128.
X-113.63 Y12.953 I0.0 J-2.588
G01 Y2.029 F2000.
Y1.807 Z-1.211
Y.695 Z-1.269
Y-9.42
G03 X-111.042 Y-12.008 I2.588 J0.0 F1128.
X-108.453 Y-9.42 I0.0 J2.588
G01 Y12.953 F2000.
G03 X-111.042 Y15.541 I-2.588 J0.0 F1128.
X-113.63 Y12.953 I0.0 J-2.588
G01 Y2.029 F2000.
Y.695 Z-1.339
Y-9.42
G03 X-111.042 Y-12.008 I2.588 J0.0 F1128.
X-108.453 Y-9.42 I0.0 J2.588
G01 Y12.953 F2000.
G03 X-111.042 Y15.541 I-2.588 J0.0 F1128.
X-113.63 Y12.953 I0.0 J-2.588
G01 Y2.029 F2000.
Y.695 Z-1.409
Y-9.42
G03 X-111.042 Y-12.008 I2.588 J0.0 F1128.
X-108.453 Y-9.42 I0.0 J2.588
G01 Y12.953 F2000.
G03 X-111.042 Y15.541 I-2.588 J0.0 F1128.
X-113.63 Y12.953 I0.0 J-2.588
G01 Y2.029 F2000.
Y.695 Z-1.479
Y-9.42
G03 X-111.042 Y-12.008 I2.588 J0.0 F1128.
X-108.453 Y-9.42 I0.0 J2.588
G01 Y12.953 F2000.
G03 X-111.042 Y15.541 I-2.588 J0.0 F1128.
X-113.63 Y12.953 I0.0 J-2.588
G01 Y2.029 F2000.
Y.695 Z-1.549
Y-9.42
G03 X-111.042 Y-12.008 I2.588 J0.0 F1128.
X-108.453 Y-9.42 I0.0 J2.588
G01 Y12.953 F2000.
G03 X-111.042 Y15.541 I-2.588 J0.0 F1128.
X-113.63 Y12.953 I0.0 J-2.588
G01 Y2.029 F2000.
Y.695 Z-1.619
Y-9.42
G03 X-111.042 Y-12.008 I2.588 J0.0 F1128.
X-108.453 Y-9.42 I0.0 J2.588
G01 Y12.953 F2000.
G03 X-111.042 Y15.541 I-2.588 J0.0 F1128.
X-113.63 Y12.953 I0.0 J-2.588
G01 Y2.029 F2000.
Y.695 Z-1.689
Y-9.42
G03 X-111.042 Y-12.008 I2.588 J0.0 F1128.
X-108.453 Y-9.42 I0.0 J2.588
G01 Y12.953 F2000.
G03 X-111.042 Y15.541 I-2.588 J0.0 F1128.
X-113.63 Y12.953 I0.0 J-2.588
G01 Y2.029 F2000.
Y.695 Z-1.759
Y-9.42
G03 X-111.042 Y-12.008 I2.588 J0.0 F1128.
X-108.453 Y-9.42 I0.0 J2.588
G01 Y12.953 F2000.
G03 X-111.042 Y15.541 I-2.588 J0.0 F1128.
X-113.63 Y12.953 I0.0 J-2.588
G01 Y2.029 F2000.
Y.695 Z-1.829
Y-9.42
G03 X-111.042 Y-12.008 I2.588 J0.0 F1128.
X-108.453 Y-9.42 I0.0 J2.588
G01 Y12.953 F2000.
G03 X-111.042 Y15.541 I-2.588 J0.0 F1128.
X-113.63 Y12.953 I0.0 J-2.588
G01 Y2.029 F2000.
Y.695 Z-1.899
Y-9.42
G03 X-111.042 Y-12.008 I2.588 J0.0 F1128.
X-108.453 Y-9.42 I0.0 J2.588
G01 Y12.953 F2000.
G03 X-111.042 Y15.541 I-2.588 J0.0 F1128.
X-113.63 Y12.953 I0.0 J-2.588
G01 Y2.029 F2000.
Y.695 Z-1.969
Y-9.42
G03 X-111.042 Y-12.008 I2.588 J0.0 F1128.
X-108.453 Y-9.42 I0.0 J2.588
G01 Y12.953 F2000.
G03 X-111.042 Y15.541 I-2.588 J0.0 F1128.
X-113.63 Y12.953 I0.0 J-2.588
G01 Y.695 F2000.
X-111.63
Z.031
G00 Z2.5
X93.096 Y3.602
G01 Z2.43
Z-.57 F800.
G03 X91.096 Y1.602 I0.0 J-2. F400.
G01 Y-10.274 F2000.
G03 X94.08 Y-13.259 I2.985 J0.0 F1198.
X97.065 Y-10.274 I0.0 J2.985
G01 Y12.953 F2000.
G03 X94.08 Y15.937 I-2.985 J0.0 F1198.
X91.096 Y12.953 I0.0 J-2.985
G01 Y1.602 F2000.
X91.119 Y1.38 Z-.582
X91.14 Y1.157 Z-.593
X91.159 Y.935 Z-.605
X91.177 Y.712 Z-.617
X91.195 Y.49 Z-.628
X91.211 Y.268 Z-.64
Y-10.274
G03 X94.08 Y-13.144 I2.87 J0.0 F1179.
X96.95 Y-10.274 I0.0 J2.87
G01 Y12.953 F2000.
G03 X94.08 Y15.822 I-2.87 J0.0 F1179.
X91.211 Y12.953 I0.0 J-2.87
G01 Y1.602 F2000.
X91.226 Y1.38 Z-.652
X91.24 Y1.157 Z-.663
X91.254 Y.935 Z-.675
X91.267 Y.712 Z-.686
X91.279 Y.49 Z-.698
X91.291 Y.268 Z-.71
Y-10.274
G03 X94.08 Y-13.064 I2.79 J0.0 F1165.
X96.87 Y-10.274 I0.0 J2.79
G01 Y12.953 F2000.
G03 X94.08 Y15.742 I-2.79 J0.0 F1165.
X91.291 Y12.953 I0.0 J-2.79
G01 Y1.602 F2000.
X91.302 Y1.38 Z-.721
X91.313 Y1.157 Z-.733
X91.323 Y.935 Z-.745
X91.333 Y.712 Z-.756
X91.342 Y.49 Z-.768
X91.351 Y.268 Z-.78
Y-10.274
G03 X94.08 Y-13.004 I2.729 J0.0 F1154.
X96.81 Y-10.274 I0.0 J2.729
G01 Y12.953 F2000.
G03 X94.08 Y15.682 I-2.729 J0.0 F1154.
X91.351 Y12.953 I0.0 J-2.729
G01 Y1.602 F2000.
X91.359 Y1.38 Z-.791
X91.368 Y1.157 Z-.803
X91.376 Y.935 Z-.815
X91.383 Y.712 Z-.826
X91.39 Y.49 Z-.838
X91.397 Y.268 Z-.85
Y-10.274
G03 X94.08 Y-12.957 I2.683 J0.0 F1146.
X96.763 Y-10.274 I0.0 J2.683
G01 Y12.953 F2000.
G03 X94.08 Y15.636 I-2.683 J0.0 F1146.
X91.397 Y12.953 I0.0 J-2.683
G01 Y1.602 F2000.
X91.404 Y1.38 Z-.861
X91.41 Y1.157 Z-.873
X91.416 Y.935 Z-.885
X91.422 Y.712 Z-.896
X91.427 Y.49 Z-.908
X91.433 Y.268 Z-.92
Y-10.274
G03 X94.08 Y-12.922 I2.648 J0.0 F1139.
X96.728 Y-10.274 I0.0 J2.648
G01 Y12.953 F2000.
G03 X94.08 Y15.6 I-2.648 J0.0 F1139.
X91.433 Y12.953 I0.0 J-2.648
G01 Y1.602 F2000.
X91.438 Y1.38 Z-.931
X91.442 Y1.157 Z-.943
X91.447 Y.935 Z-.955
X91.451 Y.712 Z-.966
X91.455 Y.49 Z-.978
X91.459 Y.268 Z-.99
Y-10.274
G03 X94.08 Y-12.896 I2.621 J0.0 F1134.
X96.701 Y-10.274 I0.0 J2.621
G01 Y12.953 F2000.
G03 X94.08 Y15.574 I-2.621 J0.0 F1134.
X91.459 Y12.953 I0.0 J-2.621
G01 Y1.602 F2000.
X91.463 Y1.38 Z-1.001
X91.466 Y1.157 Z-1.013
X91.469 Y.935 Z-1.024
X91.472 Y.712 Z-1.036
X91.475 Y.49 Z-1.048
X91.477 Y.268 Z-1.059
Y-10.274
G03 X94.08 Y-12.877 I2.603 J0.0 F1131.
X96.683 Y-10.274 I0.0 J2.603
G01 Y12.953 F2000.
G03 X94.08 Y15.556 I-2.603 J0.0 F1131.
X91.477 Y12.953 I0.0 J-2.603
G01 Y1.602 F2000.
X91.48 Y1.38 Z-1.071
X91.482 Y1.157 Z-1.083
X91.484 Y.935 Z-1.094
X91.485 Y.712 Z-1.106
X91.487 Y.49 Z-1.118
X91.488 Y.268 Z-1.129
Y-10.274
G03 X94.08 Y-12.866 I2.592 J0.0 F1129.
X96.672 Y-10.274 I0.0 J2.592
G01 Y12.953 F2000.
G03 X94.08 Y15.545 I-2.592 J0.0 F1129.
X91.488 Y12.953 I0.0 J-2.592
G01 Y1.602 F2000.
X91.489 Y1.38 Z-1.141
X91.49 Y1.157 Z-1.153
X91.491 Y.935 Z-1.164
Y.712 Z-1.176
X91.492 Y.49 Z-1.188
Y.268 Z-1.199
Y-10.274
G03 X93.806 Y-12.848 I2.588 J0.0 F1128.
G01 X94.091 Y-12.863 F2000.
G03 X96.669 Y-10.274 I-.01 J2.588 F1128.
G01 Y-.94 F2000.
Y12.927
Y12.957
G03 X94.08 Y15.541 I-2.588 J-.004 F1128.
X91.492 Y12.953 I0.0 J-2.588
G01 Y1.602 F2000.
Y1.38 Z-1.211
Y.268 Z-1.269
Y-10.274
G03 X94.08 Y-12.863 I2.588 J0.0 F1128.
X96.669 Y-10.274 I0.0 J2.588
G01 Y12.953 F2000.
G03 X94.08 Y15.541 I-2.588 J0.0 F1128.
X91.492 Y12.953 I0.0 J-2.588
G01 Y1.602 F2000.
Y.268 Z-1.339
Y-10.274
G03 X94.08 Y-12.863 I2.588 J0.0 F1128.
X96.669 Y-10.274 I0.0 J2.588
G01 Y12.953 F2000.
G03 X94.08 Y15.541 I-2.588 J0.0 F1128.
X91.492 Y12.953 I0.0 J-2.588
G01 Y1.602 F2000.
Y.268 Z-1.409
Y-10.274
G03 X94.08 Y-12.863 I2.588 J0.0 F1128.
X96.669 Y-10.274 I0.0 J2.588
G01 Y12.953 F2000.
G03 X94.08 Y15.541 I-2.588 J0.0 F1128.
X91.492 Y12.953 I0.0 J-2.588
G01 Y1.602 F2000.
Y.268 Z-1.479
Y-10.274
G03 X94.08 Y-12.863 I2.588 J0.0 F1128.
X96.669 Y-10.274 I0.0 J2.588
G01 Y12.953 F2000.
G03 X94.08 Y15.541 I-2.588 J0.0 F1128.
X91.492 Y12.953 I0.0 J-2.588
G01 Y1.602 F2000.
Y.268 Z-1.549
Y-10.274
G03 X94.08 Y-12.863 I2.588 J0.0 F1128.
X96.669 Y-10.274 I0.0 J2.588
G01 Y12.953 F2000.
G03 X94.08 Y15.541 I-2.588 J0.0 F1128.
X91.492 Y12.953 I0.0 J-2.588
G01 Y1.602 F2000.
Y.268 Z-1.619
Y-10.274
G03 X94.08 Y-12.863 I2.588 J0.0 F1128.
X96.669 Y-10.274 I0.0 J2.588
G01 Y12.953 F2000.
G03 X94.08 Y15.541 I-2.588 J0.0 F1128.
X91.492 Y12.953 I0.0 J-2.588
G01 Y1.602 F2000.
Y.268 Z-1.689
Y-10.274
G03 X94.08 Y-12.863 I2.588 J0.0 F1128.
X96.669 Y-10.274 I0.0 J2.588
G01 Y12.953 F2000.
G03 X94.08 Y15.541 I-2.588 J0.0 F1128.
X91.492 Y12.953 I0.0 J-2.588
G01 Y1.602 F2000.
Y.268 Z-1.759
Y-10.274
G03 X94.08 Y-12.863 I2.588 J0.0 F1128.
X96.669 Y-10.274 I0.0 J2.588
G01 Y12.953 F2000.
G03 X94.08 Y15.541 I-2.588 J0.0 F1128.
X91.492 Y12.953 I0.0 J-2.588
G01 Y1.602 F2000.
Y.268 Z-1.829
Y-10.274
G03 X94.08 Y-12.863 I2.588 J0.0 F1128.
X96.669 Y-10.274 I0.0 J2.588
G01 Y12.953 F2000.
G03 X94.08 Y15.541 I-2.588 J0.0 F1128.
X91.492 Y12.953 I0.0 J-2.588
G01 Y1.602 F2000.
Y.268 Z-1.899
Y-10.274
G03 X94.08 Y-12.863 I2.588 J0.0 F1128.
X96.669 Y-10.274 I0.0 J2.588
G01 Y12.953 F2000.
G03 X94.08 Y15.541 I-2.588 J0.0 F1128.
X91.492 Y12.953 I0.0 J-2.588
G01 Y1.602 F2000.
Y.268 Z-1.969
Y-10.274
G03 X94.08 Y-12.863 I2.588 J0.0 F1128.
X96.669 Y-10.274 I0.0 J2.588
G01 Y12.953 F2000.
G03 X94.08 Y15.541 I-2.588 J0.0 F1128.
X91.492 Y12.953 I0.0 J-2.588
G01 Y.268 F2000.
X93.492
Z.031
G00 Z2.5
X77.971 Y-.661
G01 Z2.43
Z-.57 F800.
G03 X79.971 Y1.339 I0.0 J2. F400.
G01 Y12.953 F2000.
G03 X76.987 Y15.937 I-2.985 J0.0 F1198.
X74.048 Y13.476 I0.0 J-2.985
X74.002 Y12.953 I2.939 J-.523
G01 Y-10.274 F2000.
G03 X76.987 Y-13.259 I2.985 J0.0 F1198.
X79.971 Y-10.274 I0.0 J2.985
G01 Y1.339 F2000.
X79.948 Y1.562 Z-.582
X79.927 Y1.784 Z-.593
X79.908 Y2.006 Z-.605
X79.89 Y2.229 Z-.617
X79.872 Y2.451 Z-.628
X79.856 Y2.674 Z-.64
Y12.953
G03 X76.987 Y15.822 I-2.87 J0.0 F1179.
X74.165 Y13.476 I0.0 J-2.87
X74.117 Y12.953 I2.822 J-.523
G01 Y-10.274 F2000.
G03 X76.987 Y-13.144 I2.87 J0.0 F1179.
X79.856 Y-10.274 I0.0 J2.87
G01 Y1.339 F2000.
X79.841 Y1.562 Z-.652
X79.827 Y1.784 Z-.663
X79.813 Y2.006 Z-.675
X79.8 Y2.229 Z-.686
X79.788 Y2.451 Z-.698
X79.776 Y2.674 Z-.71
Y12.953
G03 X76.987 Y15.742 I-2.79 J0.0 F1165.
X74.247 Y13.476 I0.0 J-2.79
X74.197 Y12.953 I2.74 J-.523
G01 Y-10.274 F2000.
G03 X76.987 Y-13.064 I2.79 J0.0 F1165.
X79.776 Y-10.274 I0.0 J2.79
G01 Y1.339 F2000.
X79.765 Y1.562 Z-.721
X79.755 Y1.784 Z-.733
X79.744 Y2.006 Z-.745
X79.734 Y2.229 Z-.756
X79.725 Y2.451 Z-.768
X79.716 Y2.674 Z-.78
Y12.953
G03 X76.987 Y15.682 I-2.729 J0.0 F1154.
X74.308 Y13.476 I0.0 J-2.729
X74.257 Y12.953 I2.679 J-.523
G01 Y-10.274 F2000.
G03 X76.987 Y-13.004 I2.729 J0.0 F1154.
X79.716 Y-10.274 I0.0 J2.729
G01 Y1.339 F2000.
X79.708 Y1.562 Z-.791
X79.699 Y1.784 Z-.803
X79.691 Y2.006 Z-.815
X79.684 Y2.229 Z-.826
X79.677 Y2.451 Z-.838
X79.67 Y2.674 Z-.85
Y12.953
G03 X76.987 Y15.636 I-2.683 J0.0 F1146.
X74.304 Y12.953 I0.0 J-2.683
G01 Y-10.274 F2000.
G03 X76.987 Y-12.957 I2.683 J0.0 F1146.
X79.67 Y-10.274 I0.0 J2.683
G01 Y1.339 F2000.
X79.663 Y1.562 Z-.861
X79.657 Y1.784 Z-.873
X79.651 Y2.006 Z-.885
X79.645 Y2.229 Z-.896
X79.64 Y2.451 Z-.908
X79.634 Y2.674 Z-.92
Y12.953
G03 X76.987 Y15.6 I-2.648 J0.0 F1139.
X74.339 Y12.953 I0.0 J-2.648
G01 Y-10.274 F2000.
G03 X76.987 Y-12.922 I2.648 J0.0 F1139.
X79.634 Y-10.274 I0.0 J2.648
G01 Y1.339 F2000.
X79.629 Y1.562 Z-.931
X79.625 Y1.784 Z-.943
X79.62 Y2.006 Z-.955
X79.616 Y2.229 Z-.966
X79.612 Y2.451 Z-.978
X79.608 Y2.674 Z-.99
Y12.953
G03 X76.987 Y15.574 I-2.621 J0.0 F1134.
X74.366 Y12.953 I0.0 J-2.621
G01 Y-10.274 F2000.
G03 X76.987 Y-12.896 I2.621 J0.0 F1134.
X79.608 Y-10.274 I0.0 J2.621
G01 Y1.339 F2000.
X79.604 Y1.562 Z-1.001
X79.601 Y1.784 Z-1.013
X79.598 Y2.006 Z-1.024
X79.595 Y2.229 Z-1.036
X79.592 Y2.451 Z-1.048
X79.59 Y2.674 Z-1.059
Y12.953
G03 X76.987 Y15.556 I-2.603 J0.0 F1131.
X74.384 Y12.953 I0.0 J-2.603
G01 Y-10.274 F2000.
G03 X76.987 Y-12.877 I2.603 J0.0 F1131.
X79.59 Y-10.274 I0.0 J2.603
G01 Y1.339 F2000.
X79.587 Y1.562 Z-1.071
X79.585 Y1.784 Z-1.083
X79.583 Y2.006 Z-1.094
X79.582 Y2.229 Z-1.106
X79.58 Y2.451 Z-1.118
X79.579 Y2.674 Z-1.129
Y12.953
G03 X76.987 Y15.545 I-2.592 J0.0 F1129.
X74.395 Y12.953 I0.0 J-2.592
G01 Y-10.274 F2000.
G03 X76.987 Y-12.866 I2.592 J0.0 F1129.
X79.579 Y-10.274 I0.0 J2.592
G01 Y1.339 F2000.
X79.578 Y1.562 Z-1.141
X79.577 Y1.784 Z-1.153
X79.576 Y2.006 Z-1.164
Y2.229 Z-1.176
X79.575 Y2.451 Z-1.188
Y2.674 Z-1.199
Y12.953
X79.566 Y13.17
G03 X76.987 Y15.541 I-2.579 J-.217 F1128.
X74.398 Y12.953 I0.0 J-2.588
G01 Y-10.274 F2000.
G03 X76.712 Y-12.848 I2.588 J0.0 F1128.
G01 X77.041 Y-12.862 F2000.
G03 X79.566 Y-10.492 I-.054 J2.588 F1128.
G01 X79.575 Y-10.274 F2000.
Y1.339
Y1.562 Z-1.211
Y2.674 Z-1.269
Y12.953
G03 X76.987 Y15.541 I-2.588 J0.0 F1128.
X74.398 Y12.953 I0.0 J-2.588
G01 Y-10.274 F2000.
G03 X76.987 Y-12.863 I2.588 J0.0 F1128.
X79.575 Y-10.274 I0.0 J2.588
G01 Y1.339 F2000.
Y2.674 Z-1.339
Y12.953
G03 X76.987 Y15.541 I-2.588 J0.0 F1128.
X74.398 Y12.953 I0.0 J-2.588
G01 Y-10.274 F2000.
G03 X76.987 Y-12.863 I2.588 J0.0 F1128.
X79.575 Y-10.274 I0.0 J2.588
G01 Y1.339 F2000.
Y2.674 Z-1.409
Y12.953
G03 X76.987 Y15.541 I-2.588 J0.0 F1128.
X74.398 Y12.953 I0.0 J-2.588
G01 Y-10.274 F2000.
G03 X76.987 Y-12.863 I2.588 J0.0 F1128.
X79.575 Y-10.274 I0.0 J2.588
G01 Y1.339 F2000.
Y2.674 Z-1.479
Y12.953
G03 X76.987 Y15.541 I-2.588 J0.0 F1128.
X74.398 Y12.953 I0.0 J-2.588
G01 Y-10.274 F2000.
G03 X76.987 Y-12.863 I2.588 J0.0 F1128.
X79.575 Y-10.274 I0.0 J2.588
G01 Y1.339 F2000.
Y2.674 Z-1.549
Y12.953
G03 X76.987 Y15.541 I-2.588 J0.0 F1128.
X74.398 Y12.953 I0.0 J-2.588
G01 Y-10.274 F2000.
G03 X76.987 Y-12.863 I2.588 J0.0 F1128.
X79.575 Y-10.274 I0.0 J2.588
G01 Y1.339 F2000.
Y2.674 Z-1.619
Y12.953
G03 X76.987 Y15.541 I-2.588 J0.0 F1128.
X74.398 Y12.953 I0.0 J-2.588
G01 Y-10.274 F2000.
G03 X76.987 Y-12.863 I2.588 J0.0 F1128.
X79.575 Y-10.274 I0.0 J2.588
G01 Y1.339 F2000.
Y2.674 Z-1.689
Y12.953
G03 X76.987 Y15.541 I-2.588 J0.0 F1128.
X74.398 Y12.953 I0.0 J-2.588
G01 Y-10.274 F2000.
G03 X76.987 Y-12.863 I2.588 J0.0 F1128.
X79.575 Y-10.274 I0.0 J2.588
G01 Y1.339 F2000.
Y2.674 Z-1.759
Y12.953
G03 X76.987 Y15.541 I-2.588 J0.0 F1128.
X74.398 Y12.953 I0.0 J-2.588
G01 Y-10.274 F2000.
G03 X76.987 Y-12.863 I2.588 J0.0 F1128.
X79.575 Y-10.274 I0.0 J2.588
G01 Y1.339 F2000.
Y2.674 Z-1.829
Y12.953
G03 X76.987 Y15.541 I-2.588 J0.0 F1128.
X74.398 Y12.953 I0.0 J-2.588
G01 Y-10.274 F2000.
G03 X76.987 Y-12.863 I2.588 J0.0 F1128.
X79.575 Y-10.274 I0.0 J2.588
G01 Y1.339 F2000.
Y2.674 Z-1.899
Y12.953
G03 X76.987 Y15.541 I-2.588 J0.0 F1128.
X74.398 Y12.953 I0.0 J-2.588
G01 Y-10.274 F2000.
G03 X76.987 Y-12.863 I2.588 J0.0 F1128.
X79.575 Y-10.274 I0.0 J2.588
G01 Y1.339 F2000.
Y2.674 Z-1.969
Y12.953
G03 X76.987 Y15.541 I-2.588 J0.0 F1128.
X74.398 Y12.953 I0.0 J-2.588
G01 Y-10.274 F2000.
G03 X76.987 Y-12.863 I2.588 J0.0 F1128.
X79.575 Y-10.274 I0.0 J2.588
G01 Y2.674 F2000.
X77.575
Z.031
G00 Z2.5
X-92.964 Y-.661
G01 Z2.43
Z-.57 F800.
G03 X-90.964 Y1.339 I0.0 J2. F400.
G01 Y12.953 F2000.
G03 X-93.948 Y15.937 I-2.985 J0.0 F1198.
X-96.887 Y13.476 I0.0 J-2.985
X-96.933 Y12.953 I2.939 J-.523
G01 Y-10.274 F2000.
G03 X-93.948 Y-13.259 I2.985 J0.0 F1198.
X-90.964 Y-10.274 I0.0 J2.985
G01 Y1.339 F2000.
X-90.987 Y1.562 Z-.582
X-91.008 Y1.784 Z-.593
X-91.027 Y2.006 Z-.605
X-91.045 Y2.229 Z-.617
X-91.063 Y2.451 Z-.628
X-91.079 Y2.674 Z-.64
Y12.953
G03 X-93.948 Y15.822 I-2.87 J0.0 F1179.
X-96.77 Y13.476 I0.0 J-2.87
X-96.818 Y12.953 I2.822 J-.523
G01 Y-10.274 F2000.
G03 X-93.948 Y-13.144 I2.87 J0.0 F1179.
X-91.079 Y-10.274 I0.0 J2.87
G01 Y1.339 F2000.
X-91.094 Y1.562 Z-.652
X-91.108 Y1.784 Z-.663
X-91.122 Y2.006 Z-.675
X-91.135 Y2.229 Z-.686
X-91.147 Y2.451 Z-.698
X-91.159 Y2.674 Z-.71
Y12.953
G03 X-93.948 Y15.742 I-2.79 J0.0 F1165.
X-96.688 Y13.476 I0.0 J-2.79
X-96.738 Y12.953 I2.74 J-.523
G01 Y-10.274 F2000.
G03 X-93.948 Y-13.064 I2.79 J0.0 F1165.
X-91.159 Y-10.274 I0.0 J2.79
G01 Y1.339 F2000.
X-91.17 Y1.562 Z-.721
X-91.181 Y1.784 Z-.733
X-91.191 Y2.006 Z-.745
X-91.201 Y2.229 Z-.756
X-91.21 Y2.451 Z-.768
X-91.219 Y2.674 Z-.78
Y12.953
G03 X-93.948 Y15.682 I-2.729 J0.0 F1154.
X-96.627 Y13.476 I0.0 J-2.729
X-96.678 Y12.953 I2.679 J-.523
G01 Y-10.274 F2000.
G03 X-93.948 Y-13.004 I2.729 J0.0 F1154.
X-91.219 Y-10.274 I0.0 J2.729
G01 Y1.339 F2000.
X-91.227 Y1.562 Z-.791
X-91.236 Y1.784 Z-.803
X-91.244 Y2.006 Z-.815
X-91.251 Y2.229 Z-.826
X-91.258 Y2.451 Z-.838
X-91.265 Y2.674 Z-.85
Y12.953
G03 X-93.948 Y15.636 I-2.683 J0.0 F1146.
X-96.631 Y12.953 I0.0 J-2.683
G01 Y-10.274 F2000.
G03 X-93.948 Y-12.957 I2.683 J0.0 F1146.
X-91.265 Y-10.274 I0.0 J2.683
G01 Y1.339 F2000.
X-91.272 Y1.562 Z-.861
X-91.278 Y1.784 Z-.873
X-91.284 Y2.006 Z-.885
X-91.29 Y2.229 Z-.896
X-91.295 Y2.451 Z-.908
X-91.301 Y2.674 Z-.92
Y12.953
G03 X-93.948 Y15.6 I-2.648 J0.0 F1139.
X-96.596 Y12.953 I0.0 J-2.648
G01 Y-10.274 F2000.
G03 X-93.948 Y-12.922 I2.648 J0.0 F1139.
X-91.301 Y-10.274 I0.0 J2.648
G01 Y1.339 F2000.
X-91.306 Y1.562 Z-.931
X-91.31 Y1.784 Z-.943
X-91.315 Y2.006 Z-.955
X-91.319 Y2.229 Z-.966
X-91.323 Y2.451 Z-.978
X-91.327 Y2.674 Z-.99
Y12.953
G03 X-93.948 Y15.574 I-2.621 J0.0 F1134.
X-96.569 Y12.953 I0.0 J-2.621
G01 Y-10.274 F2000.
G03 X-93.948 Y-12.896 I2.621 J0.0 F1134.
X-91.327 Y-10.274 I0.0 J2.621
G01 Y1.339 F2000.
X-91.331 Y1.562 Z-1.001
X-91.334 Y1.784 Z-1.013
X-91.337 Y2.006 Z-1.024
X-91.34 Y2.229 Z-1.036
X-91.343 Y2.451 Z-1.048
X-91.345 Y2.674 Z-1.059
Y12.953
G03 X-93.948 Y15.556 I-2.603 J0.0 F1131.
X-96.551 Y12.953 I0.0 J-2.603
G01 Y-10.274 F2000.
G03 X-93.948 Y-12.877 I2.603 J0.0 F1131.
X-91.345 Y-10.274 I0.0 J2.603
G01 Y1.339 F2000.
X-91.348 Y1.562 Z-1.071
X-91.35 Y1.784 Z-1.083
X-91.352 Y2.006 Z-1.094
X-91.353 Y2.229 Z-1.106
X-91.355 Y2.451 Z-1.118
X-91.356 Y2.674 Z-1.129
Y12.953
G03 X-93.948 Y15.545 I-2.592 J0.0 F1129.
X-96.54 Y12.953 I0.0 J-2.592
G01 Y-10.274 F2000.
G03 X-93.948 Y-12.866 I2.592 J0.0 F1129.
X-91.356 Y-10.274 I0.0 J2.592
G01 Y1.339 F2000.
X-91.357 Y1.562 Z-1.141
X-91.358 Y1.784 Z-1.153
X-91.359 Y2.006 Z-1.164
Y2.229 Z-1.176
X-91.36 Y2.451 Z-1.188
Y2.674 Z-1.199
Y12.953
G03 X-92.066 Y14.729 I-2.588 J0.0 F1128.
G01 X-92.197 Y14.859 F2000.
G03 X-93.948 Y15.541 I-1.751 J-1.906 F1128.
X-96.537 Y12.953 I0.0 J-2.588
G01 Y-10.274 F2000.
G03 X-96.064 Y-11.766 I2.588 J0.0 F1128.
X-94.223 Y-12.848 I2.116 J1.491 F931.
G01 X-94.091 Y-12.859 F1300.
G03 X-93.948 Y-12.863 I.142 J2.584 F733.
X-92.197 Y-12.18 I0.0 J2.588
G01 X-91.722 Y-11.595 F2000.
G03 X-91.36 Y-10.274 I-2.226 J1.321 F733.
G01 Y-9.461 F1300.
Y1.339 F2000.
Y1.562 Z-1.211
Y2.674 Z-1.269
Y12.953
G03 X-93.948 Y15.541 I-2.588 J0.0 F1128.
X-96.537 Y12.953 I0.0 J-2.588
G01 Y-10.274 F2000.
G03 X-93.948 Y-12.863 I2.588 J0.0 F1128.
X-91.36 Y-10.274 I0.0 J2.588
G01 Y1.339 F2000.
Y2.674 Z-1.339
Y12.953
G03 X-93.948 Y15.541 I-2.588 J0.0 F1128.
X-96.537 Y12.953 I0.0 J-2.588
G01 Y-10.274 F2000.
G03 X-93.948 Y-12.863 I2.588 J0.0 F1128.
X-91.36 Y-10.274 I0.0 J2.588
G01 Y1.339 F2000.
Y2.674 Z-1.409
Y12.953
G03 X-93.948 Y15.541 I-2.588 J0.0 F1128.
X-96.537 Y12.953 I0.0 J-2.588
G01 Y-10.274 F2000.
G03 X-93.948 Y-12.863 I2.588 J0.0 F1128.
X-91.36 Y-10.274 I0.0 J2.588
G01 Y1.339 F2000.
Y2.674 Z-1.479
Y12.953
G03 X-93.948 Y15.541 I-2.588 J0.0 F1128.
X-96.537 Y12.953 I0.0 J-2.588
G01 Y-10.274 F2000.
G03 X-93.948 Y-12.863 I2.588 J0.0 F1128.
X-91.36 Y-10.274 I0.0 J2.588
G01 Y1.339 F2000.
Y2.674 Z-1.549
Y12.953
G03 X-93.948 Y15.541 I-2.588 J0.0 F1128.
X-96.537 Y12.953 I0.0 J-2.588
G01 Y-10.274 F2000.
G03 X-93.948 Y-12.863 I2.588 J0.0 F1128.
X-91.36 Y-10.274 I0.0 J2.588
G01 Y1.339 F2000.
Y2.674 Z-1.619
Y12.953
G03 X-93.948 Y15.541 I-2.588 J0.0 F1128.
X-96.537 Y12.953 I0.0 J-2.588
G01 Y-10.274 F2000.
G03 X-93.948 Y-12.863 I2.588 J0.0 F1128.
X-91.36 Y-10.274 I0.0 J2.588
G01 Y1.339 F2000.
Y2.674 Z-1.689
Y12.953
G03 X-93.948 Y15.541 I-2.588 J0.0 F1128.
X-96.537 Y12.953 I0.0 J-2.588
G01 Y-10.274 F2000.
G03 X-93.948 Y-12.863 I2.588 J0.0 F1128.
X-91.36 Y-10.274 I0.0 J2.588
G01 Y1.339 F2000.
Y2.674 Z-1.759
Y12.953
G03 X-93.948 Y15.541 I-2.588 J0.0 F1128.
X-96.537 Y12.953 I0.0 J-2.588
G01 Y-10.274 F2000.
G03 X-93.948 Y-12.863 I2.588 J0.0 F1128.
X-91.36 Y-10.274 I0.0 J2.588
G01 Y1.339 F2000.
Y2.674 Z-1.829
Y12.953
G03 X-93.948 Y15.541 I-2.588 J0.0 F1128.
X-96.537 Y12.953 I0.0 J-2.588
G01 Y-10.274 F2000.
G03 X-93.948 Y-12.863 I2.588 J0.0 F1128.
X-91.36 Y-10.274 I0.0 J2.588
G01 Y1.339 F2000.
Y2.674 Z-1.899
Y12.953
G03 X-93.948 Y15.541 I-2.588 J0.0 F1128.
X-96.537 Y12.953 I0.0 J-2.588
G01 Y-10.274 F2000.
G03 X-93.948 Y-12.863 I2.588 J0.0 F1128.
X-91.36 Y-10.274 I0.0 J2.588
G01 Y1.339 F2000.
Y2.674 Z-1.969
Y12.953
G03 X-93.948 Y15.541 I-2.588 J0.0 F1128.
X-96.537 Y12.953 I0.0 J-2.588
G01 Y-10.274 F2000.
G03 X-93.948 Y-12.863 I2.588 J0.0 F1128.
X-91.36 Y-10.274 I0.0 J2.588
G01 Y2.674 F2000.
X-93.36
Z.031
G00 Z2.5
X-60.746 Y2.974
G01 Z2.43
Z-.57 F800.
G03 X-62.746 Y.974 I0.0 J-2. F400.
G01 Y-11.531 F2000.
G03 X-59.761 Y-14.516 I2.985 J0.0 F1198.
X-56.777 Y-11.531 I0.0 J2.985
G01 Y12.953 F2000.
G03 X-59.761 Y15.937 I-2.985 J0.0 F1198.
X-62.7 Y13.476 I0.0 J-2.985
X-62.746 Y12.953 I2.939 J-.523
G01 Y.974 F2000.
X-62.723 Y.751 Z-.582
X-62.702 Y.529 Z-.593
X-62.682 Y.306 Z-.605
X-62.664 Y.084 Z-.617
X-62.647 Y-.138 Z-.628
X-62.631 Y-.361 Z-.64
Y-11.531
G03 X-59.761 Y-14.401 I2.87 J0.0 F1179.
X-56.892 Y-11.531 I0.0 J2.87
G01 Y12.953 F2000.
G03 X-59.761 Y15.822 I-2.87 J0.0 F1179.
X-62.583 Y13.476 I0.0 J-2.87
X-62.631 Y12.953 I2.822 J-.523
G01 Y.974 F2000.
X-62.616 Y.751 Z-.652
X-62.601 Y.529 Z-.663
X-62.588 Y.306 Z-.675
X-62.575 Y.084 Z-.686
X-62.563 Y-.138 Z-.698
X-62.551 Y-.361 Z-.71
Y-11.531
G03 X-59.761 Y-14.321 I2.79 J0.0 F1165.
X-56.972 Y-11.531 I0.0 J2.79
G01 Y12.953 F2000.
G03 X-59.761 Y15.742 I-2.79 J0.0 F1165.
X-62.551 Y12.953 I0.0 J-2.79
G01 Y.974 F2000.
X-62.54 Y.751 Z-.721
X-62.529 Y.529 Z-.733
X-62.519 Y.306 Z-.745
X-62.509 Y.084 Z-.756
X-62.5 Y-.138 Z-.768
X-62.491 Y-.361 Z-.78
Y-11.531
G03 X-59.761 Y-14.261 I2.729 J0.0 F1154.
X-57.032 Y-11.531 I0.0 J2.729
G01 Y12.953 F2000.
G03 X-59.761 Y15.682 I-2.729 J0.0 F1154.
X-62.44 Y13.476 I0.0 J-2.729
X-62.491 Y12.953 I2.679 J-.523
G01 Y.974 F2000.
X-62.482 Y.751 Z-.791
X-62.474 Y.529 Z-.803
X-62.466 Y.306 Z-.815
X-62.458 Y.084 Z-.826
X-62.451 Y-.138 Z-.838
X-62.444 Y-.361 Z-.85
Y-11.531
G03 X-59.761 Y-14.214 I2.683 J0.0 F1146.
X-57.078 Y-11.531 I0.0 J2.683
G01 Y12.953 F2000.
G03 X-59.761 Y15.636 I-2.683 J0.0 F1146.
X-62.444 Y12.953 I0.0 J-2.683
G01 Y.974 F2000.
X-62.438 Y.751 Z-.861
X-62.431 Y.529 Z-.873
X-62.425 Y.306 Z-.885
X-62.42 Y.084 Z-.896
X-62.414 Y-.138 Z-.908
X-62.409 Y-.361 Z-.92
Y-11.531
G03 X-59.761 Y-14.179 I2.648 J0.0 F1139.
X-57.114 Y-11.531 I0.0 J2.648
G01 Y12.953 F2000.
G03 X-59.761 Y15.6 I-2.648 J0.0 F1139.
X-62.409 Y12.953 I0.0 J-2.648
G01 Y.974 F2000.
X-62.404 Y.751 Z-.931
X-62.399 Y.529 Z-.943
X-62.395 Y.306 Z-.955
X-62.39 Y.084 Z-.966
X-62.386 Y-.138 Z-.978
X-62.382 Y-.361 Z-.99
Y-11.531
G03 X-59.761 Y-14.152 I2.621 J0.0 F1134.
X-57.14 Y-11.531 I0.0 J2.621
G01 Y12.953 F2000.
G03 X-59.761 Y15.574 I-2.621 J0.0 F1134.
X-62.382 Y12.953 I0.0 J-2.621
G01 Y.974 F2000.
X-62.379 Y.751 Z-1.001
X-62.376 Y.529 Z-1.013
X-62.372 Y.306 Z-1.024
X-62.369 Y.084 Z-1.036
X-62.367 Y-.138 Z-1.048
X-62.364 Y-.361 Z-1.059
Y-11.531
G03 X-59.761 Y-14.134 I2.603 J0.0 F1131.
X-57.158 Y-11.531 I0.0 J2.603
G01 Y12.953 F2000.
G03 X-59.761 Y15.556 I-2.603 J0.0 F1131.
X-62.364 Y12.953 I0.0 J-2.603
G01 Y.974 F2000.
X-62.362 Y.751 Z-1.071
X-62.36 Y.529 Z-1.083
X-62.358 Y.306 Z-1.094
X-62.356 Y.084 Z-1.106
X-62.355 Y-.138 Z-1.118
X-62.353 Y-.361 Z-1.129
Y-11.531
G03 X-59.761 Y-14.123 I2.592 J0.0 F1129.
X-57.169 Y-11.531 I0.0 J2.592
G01 Y12.953 F2000.
G03 X-58.79 Y15.356 I-2.592 J0.0 F1129.
X-59.761 Y15.545 I-.971 J-2.403
X-62.353 Y12.953 I0.0 J-2.592
G01 Y.974 F2000.
X-62.352 Y.751 Z-1.141
X-62.351 Y.529 Z-1.153
Y.306 Z-1.164
X-62.35 Y.084 Z-1.176
Y-.138 Z-1.188
Y-.361 Z-1.199
Y-11.531
G03 X-59.761 Y-14.12 I2.588 J0.0 F1128.
X-57.173 Y-11.531 I0.0 J2.588
G01 Y12.953 F2000.
G03 X-59.761 Y15.541 I-2.588 J0.0 F1128.
X-62.35 Y12.953 I0.0 J-2.588
G01 Y.974 F2000.
Y.751 Z-1.211
Y-.361 Z-1.269
Y-11.531
G03 X-59.761 Y-14.12 I2.588 J0.0 F1128.
X-57.173 Y-11.531 I0.0 J2.588
G01 Y12.953 F2000.
G03 X-59.761 Y15.541 I-2.588 J0.0 F1128.
X-62.35 Y12.953 I0.0 J-2.588
G01 Y.974 F2000.
Y-.361 Z-1.339
Y-11.531
G03 X-59.761 Y-14.12 I2.588 J0.0 F1128.
X-57.173 Y-11.531 I0.0 J2.588
G01 Y12.953 F2000.
G03 X-59.761 Y15.541 I-2.588 J0.0 F1128.
X-62.35 Y12.953 I0.0 J-2.588
G01 Y.974 F2000.
Y-.361 Z-1.409
Y-11.531
G03 X-59.761 Y-14.12 I2.588 J0.0 F1128.
X-57.173 Y-11.531 I0.0 J2.588
G01 Y12.953 F2000.
G03 X-59.761 Y15.541 I-2.588 J0.0 F1128.
X-62.35 Y12.953 I0.0 J-2.588
G01 Y.974 F2000.
Y-.361 Z-1.479
Y-11.531
G03 X-59.761 Y-14.12 I2.588 J0.0 F1128.
X-57.173 Y-11.531 I0.0 J2.588
G01 Y12.953 F2000.
G03 X-59.761 Y15.541 I-2.588 J0.0 F1128.
X-62.35 Y12.953 I0.0 J-2.588
G01 Y.974 F2000.
Y-.361 Z-1.549
Y-11.531
G03 X-59.761 Y-14.12 I2.588 J0.0 F1128.
X-57.173 Y-11.531 I0.0 J2.588
G01 Y12.953 F2000.
G03 X-59.761 Y15.541 I-2.588 J0.0 F1128.
X-62.35 Y12.953 I0.0 J-2.588
G01 Y.974 F2000.
Y-.361 Z-1.619
Y-11.531
G03 X-59.761 Y-14.12 I2.588 J0.0 F1128.
X-57.173 Y-11.531 I0.0 J2.588
G01 Y12.953 F2000.
G03 X-59.761 Y15.541 I-2.588 J0.0 F1128.
X-62.35 Y12.953 I0.0 J-2.588
G01 Y.974 F2000.
Y-.361 Z-1.689
Y-11.531
G03 X-59.761 Y-14.12 I2.588 J0.0 F1128.
X-57.173 Y-11.531 I0.0 J2.588
G01 Y12.953 F2000.
G03 X-59.761 Y15.541 I-2.588 J0.0 F1128.
X-62.35 Y12.953 I0.0 J-2.588
G01 Y.974 F2000.
Y-.361 Z-1.759
Y-11.531
G03 X-59.761 Y-14.12 I2.588 J0.0 F1128.
X-57.173 Y-11.531 I0.0 J2.588
G01 Y12.953 F2000.
G03 X-59.761 Y15.541 I-2.588 J0.0 F1128.
X-62.35 Y12.953 I0.0 J-2.588
G01 Y.974 F2000.
Y-.361 Z-1.829
Y-11.531
G03 X-59.761 Y-14.12 I2.588 J0.0 F1128.
X-57.173 Y-11.531 I0.0 J2.588
G01 Y12.953 F2000.
G03 X-59.761 Y15.541 I-2.588 J0.0 F1128.
X-62.35 Y12.953 I0.0 J-2.588
G01 Y.974 F2000.
Y-.361 Z-1.899
Y-11.531
G03 X-59.761 Y-14.12 I2.588 J0.0 F1128.
X-57.173 Y-11.531 I0.0 J2.588
G01 Y12.953 F2000.
G03 X-59.761 Y15.541 I-2.588 J0.0 F1128.
X-62.35 Y12.953 I0.0 J-2.588
G01 Y.974 F2000.
Y-.361 Z-1.969
Y-11.531
G03 X-59.761 Y-14.12 I2.588 J0.0 F1128.
X-57.173 Y-11.531 I0.0 J2.588
G01 Y12.953 F2000.
G03 X-59.761 Y15.541 I-2.588 J0.0 F1128.
X-62.35 Y12.953 I0.0 J-2.588
G01 Y-.361 F2000.
X-60.35
Z.031
G00 Z2.5
X-75.87 Y-1.013
G01 Z2.43
Z-.57 F800.
G03 X-73.87 Y.987 I0.0 J2. F400.
G01 Y12.953 F2000.
G03 X-76.855 Y15.937 I-2.985 J0.0 F1198.
X-79.793 Y13.476 I0.0 J-2.985
X-79.839 Y12.953 I2.939 J-.523
G01 Y-10.978 F2000.
G03 X-76.855 Y-13.963 I2.985 J0.0 F1198.
X-73.87 Y-10.978 I0.0 J2.985
G01 Y.987 F2000.
X-73.893 Y1.21 Z-.582
X-73.914 Y1.432 Z-.593
X-73.934 Y1.654 Z-.605
X-73.952 Y1.877 Z-.617
X-73.969 Y2.099 Z-.628
X-73.985 Y2.322 Z-.64
Y12.953
G03 X-76.855 Y15.822 I-2.87 J0.0 F1179.
X-79.676 Y13.476 I0.0 J-2.87
X-79.724 Y12.953 I2.822 J-.523
G01 Y-10.978 F2000.
G03 X-76.855 Y-13.848 I2.87 J0.0 F1179.
X-73.985 Y-10.978 I0.0 J2.87
G01 Y.987 F2000.
X-74. Y1.21 Z-.652
X-74.015 Y1.432 Z-.663
X-74.028 Y1.654 Z-.675
X-74.041 Y1.877 Z-.686
X-74.053 Y2.099 Z-.698
X-74.065 Y2.322 Z-.71
Y12.953
G03 X-76.855 Y15.742 I-2.79 J0.0 F1165.
X-79.595 Y13.476 I0.0 J-2.79
X-79.644 Y12.953 I2.74 J-.523
G01 Y-10.978 F2000.
G03 X-76.855 Y-13.768 I2.79 J0.0 F1165.
X-74.065 Y-10.978 I0.0 J2.79
G01 Y.987 F2000.
X-74.076 Y1.21 Z-.721
X-74.087 Y1.432 Z-.733
X-74.097 Y1.654 Z-.745
X-74.107 Y1.877 Z-.756
X-74.116 Y2.099 Z-.768
X-74.125 Y2.322 Z-.78
Y12.953
G03 X-76.855 Y15.682 I-2.729 J0.0 F1154.
X-79.584 Y12.953 I0.0 J-2.729
G01 Y-10.978 F2000.
G03 X-76.855 Y-13.708 I2.729 J0.0 F1154.
X-74.125 Y-10.978 I0.0 J2.729
G01 Y.987 F2000.
X-74.134 Y1.21 Z-.791
X-74.142 Y1.432 Z-.803
X-74.15 Y1.654 Z-.815
X-74.158 Y1.877 Z-.826
X-74.165 Y2.099 Z-.838
X-74.172 Y2.322 Z-.85
Y12.953
G03 X-76.855 Y15.636 I-2.683 J0.0 F1146.
X-79.538 Y12.953 I0.0 J-2.683
G01 Y-10.978 F2000.
G03 X-76.855 Y-13.661 I2.683 J0.0 F1146.
X-74.172 Y-10.978 I0.0 J2.683
G01 Y.987 F2000.
X-74.178 Y1.21 Z-.861
X-74.185 Y1.432 Z-.873
X-74.191 Y1.654 Z-.885
X-74.196 Y1.877 Z-.896
X-74.202 Y2.099 Z-.908
X-74.207 Y2.322 Z-.92
Y12.953
G03 X-76.855 Y15.6 I-2.648 J0.0 F1139.
X-79.502 Y12.953 I0.0 J-2.648
G01 Y-10.978 F2000.
G03 X-76.855 Y-13.626 I2.648 J0.0 F1139.
X-74.207 Y-10.978 I0.0 J2.648
G01 Y.987 F2000.
X-74.212 Y1.21 Z-.931
X-74.217 Y1.432 Z-.943
X-74.221 Y1.654 Z-.955
X-74.226 Y1.877 Z-.966
X-74.23 Y2.099 Z-.978
X-74.234 Y2.322 Z-.99
Y12.953
G03 X-76.855 Y15.574 I-2.621 J0.0 F1134.
X-79.476 Y12.953 I0.0 J-2.621
G01 Y-10.978 F2000.
G03 X-76.855 Y-13.599 I2.621 J0.0 F1134.
X-74.234 Y-10.978 I0.0 J2.621
G01 Y.987 F2000.
X-74.237 Y1.21 Z-1.001
X-74.24 Y1.432 Z-1.013
X-74.244 Y1.654 Z-1.024
X-74.247 Y1.877 Z-1.036
X-74.249 Y2.099 Z-1.048
X-74.252 Y2.322 Z-1.059
Y12.953
G03 X-76.855 Y15.556 I-2.603 J0.0 F1131.
X-79.458 Y12.953 I0.0 J-2.603
G01 Y-10.978 F2000.
G03 X-76.855 Y-13.581 I2.603 J0.0 F1131.
X-74.252 Y-10.978 I0.0 J2.603
G01 Y.987 F2000.
X-74.254 Y1.21 Z-1.071
X-74.256 Y1.432 Z-1.083
X-74.258 Y1.654 Z-1.094
X-74.26 Y1.877 Z-1.106
X-74.261 Y2.099 Z-1.118
X-74.263 Y2.322 Z-1.129
Y12.953
G03 X-75.883 Y15.356 I-2.592 J0.0 F1129.
X-76.855 Y15.545 I-.971 J-2.403
X-79.447 Y12.953 I0.0 J-2.592
G01 Y-10.978 F2000.
G03 X-76.855 Y-13.57 I2.592 J0.0 F1129.
X-74.263 Y-10.978 I0.0 J2.592
G01 Y.987 F2000.
X-74.264 Y1.21 Z-1.141
X-74.265 Y1.432 Z-1.153
Y1.654 Z-1.164
X-74.266 Y1.877 Z-1.176
Y2.099 Z-1.188
Y2.322 Z-1.199
Y12.953
G03 X-76.855 Y15.541 I-2.588 J0.0 F1128.
X-79.443 Y12.953 I0.0 J-2.588
G01 Y-10.978 F2000.
G03 X-79.125 Y-12.222 I2.588 J0.0 F1128.
G01 X-78.935 Y-12.518 F2000.
G03 X-76.855 Y-13.567 I2.08 J1.54 F1128.
X-74.266 Y-10.978 I0.0 J2.588
G01 Y.987 F2000.
Y1.21 Z-1.211
Y2.322 Z-1.269
Y12.953
G03 X-76.855 Y15.541 I-2.588 J0.0 F1128.
X-79.443 Y12.953 I0.0 J-2.588
G01 Y-10.978 F2000.
G03 X-76.855 Y-13.567 I2.588 J0.0 F1128.
X-74.266 Y-10.978 I0.0 J2.588
G01 Y.987 F2000.
Y2.322 Z-1.339
Y12.953
G03 X-76.855 Y15.541 I-2.588 J0.0 F1128.
X-79.443 Y12.953 I0.0 J-2.588
G01 Y-10.978 F2000.
G03 X-76.855 Y-13.567 I2.588 J0.0 F1128.
X-74.266 Y-10.978 I0.0 J2.588
G01 Y.987 F2000.
Y2.322 Z-1.409
Y12.953
G03 X-76.855 Y15.541 I-2.588 J0.0 F1128.
X-79.443 Y12.953 I0.0 J-2.588
G01 Y-10.978 F2000.
G03 X-76.855 Y-13.567 I2.588 J0.0 F1128.
X-74.266 Y-10.978 I0.0 J2.588
G01 Y.987 F2000.
Y2.322 Z-1.479
Y12.953
G03 X-76.855 Y15.541 I-2.588 J0.0 F1128.
X-79.443 Y12.953 I0.0 J-2.588
G01 Y-10.978 F2000.
G03 X-76.855 Y-13.567 I2.588 J0.0 F1128.
X-74.266 Y-10.978 I0.0 J2.588
G01 Y.987 F2000.
Y2.322 Z-1.549
Y12.953
G03 X-76.855 Y15.541 I-2.588 J0.0 F1128.
X-79.443 Y12.953 I0.0 J-2.588
G01 Y-10.978 F2000.
G03 X-76.855 Y-13.567 I2.588 J0.0 F1128.
X-74.266 Y-10.978 I0.0 J2.588
G01 Y.987 F2000.
Y2.322 Z-1.619
Y12.953
G03 X-76.855 Y15.541 I-2.588 J0.0 F1128.
X-79.443 Y12.953 I0.0 J-2.588
G01 Y-10.978 F2000.
G03 X-76.855 Y-13.567 I2.588 J0.0 F1128.
X-74.266 Y-10.978 I0.0 J2.588
G01 Y.987 F2000.
Y2.322 Z-1.689
Y12.953
G03 X-76.855 Y15.541 I-2.588 J0.0 F1128.
X-79.443 Y12.953 I0.0 J-2.588
G01 Y-10.978 F2000.
G03 X-76.855 Y-13.567 I2.588 J0.0 F1128.
X-74.266 Y-10.978 I0.0 J2.588
G01 Y.987 F2000.
Y2.322 Z-1.759
Y12.953
G03 X-76.855 Y15.541 I-2.588 J0.0 F1128.
X-79.443 Y12.953 I0.0 J-2.588
G01 Y-10.978 F2000.
G03 X-76.855 Y-13.567 I2.588 J0.0 F1128.
X-74.266 Y-10.978 I0.0 J2.588
G01 Y.987 F2000.
Y2.322 Z-1.829
Y12.953
G03 X-76.855 Y15.541 I-2.588 J0.0 F1128.
X-79.443 Y12.953 I0.0 J-2.588
G01 Y-10.978 F2000.
G03 X-76.855 Y-13.567 I2.588 J0.0 F1128.
X-74.266 Y-10.978 I0.0 J2.588
G01 Y.987 F2000.
Y2.322 Z-1.899
Y12.953
G03 X-76.855 Y15.541 I-2.588 J0.0 F1128.
X-79.443 Y12.953 I0.0 J-2.588
G01 Y-10.978 F2000.
G03 X-76.855 Y-13.567 I2.588 J0.0 F1128.
X-74.266 Y-10.978 I0.0 J2.588
G01 Y.987 F2000.
Y2.322 Z-1.969
Y12.953
G03 X-76.855 Y15.541 I-2.588 J0.0 F1128.
X-79.443 Y12.953 I0.0 J-2.588
G01 Y-10.978 F2000.
G03 X-76.855 Y-13.567 I2.588 J0.0 F1128.
X-74.266 Y-10.978 I0.0 J2.588
G01 Y2.322 F2000.
X-76.266
Z.031
G00 Z2.5
X58.909 Y3.099
G01 Z2.43
Z-.57 F800.
G03 X56.909 Y1.099 I0.0 J-2. F400.
G01 Y-11.28 F2000.
G03 X59.893 Y-14.264 I2.985 J0.0 F1198.
X62.878 Y-11.28 I0.0 J2.985
G01 Y12.953 F2000.
G03 X59.893 Y15.937 I-2.985 J0.0 F1198.
X56.955 Y13.476 I0.0 J-2.985
X56.909 Y12.953 I2.939 J-.523
G01 Y1.099 F2000.
X56.932 Y.877 Z-.582
X56.953 Y.654 Z-.593
X56.972 Y.432 Z-.605
X56.99 Y.21 Z-.617
X57.008 Y-.013 Z-.628
X57.024 Y-.235 Z-.64
Y-11.28
G03 X59.893 Y-14.149 I2.87 J0.0 F1179.
X62.763 Y-11.28 I0.0 J2.87
G01 Y12.953 F2000.
G03 X59.893 Y15.822 I-2.87 J0.0 F1179.
X57.072 Y13.476 I0.0 J-2.87
X57.024 Y12.953 I2.822 J-.523
G01 Y1.099 F2000.
X57.039 Y.877 Z-.652
X57.053 Y.654 Z-.663
X57.067 Y.432 Z-.675
X57.08 Y.21 Z-.686
X57.092 Y-.013 Z-.698
X57.104 Y-.235 Z-.71
Y-11.28
G03 X59.893 Y-14.069 I2.79 J0.0 F1165.
X62.683 Y-11.28 I0.0 J2.79
G01 Y12.953 F2000.
G03 X59.893 Y15.742 I-2.79 J0.0 F1165.
X57.153 Y13.476 I0.0 J-2.79
X57.104 Y12.953 I2.74 J-.523
G01 Y1.099 F2000.
X57.115 Y.877 Z-.721
X57.126 Y.654 Z-.733
X57.136 Y.432 Z-.745
X57.146 Y.21 Z-.756
X57.155 Y-.013 Z-.768
X57.164 Y-.235 Z-.78
Y-11.28
G03 X59.893 Y-14.009 I2.729 J0.0 F1154.
X62.623 Y-11.28 I0.0 J2.729
G01 Y12.953 F2000.
G03 X59.893 Y15.682 I-2.729 J0.0 F1154.
X57.214 Y13.476 I0.0 J-2.729
X57.164 Y12.953 I2.679 J-.523
G01 Y1.099 F2000.
X57.172 Y.877 Z-.791
X57.181 Y.654 Z-.803
X57.189 Y.432 Z-.815
X57.196 Y.21 Z-.826
X57.203 Y-.013 Z-.838
X57.21 Y-.235 Z-.85
Y-11.28
G03 X59.893 Y-13.963 I2.683 J0.0 F1146.
X62.576 Y-11.28 I0.0 J2.683
G01 Y12.953 F2000.
G03 X59.893 Y15.636 I-2.683 J0.0 F1146.
X57.21 Y12.953 I0.0 J-2.683
G01 Y1.099 F2000.
X57.217 Y.877 Z-.861
X57.223 Y.654 Z-.873
X57.229 Y.432 Z-.885
X57.235 Y.21 Z-.896
X57.24 Y-.013 Z-.908
X57.246 Y-.235 Z-.92
Y-11.28
G03 X59.893 Y-13.927 I2.648 J0.0 F1139.
X62.541 Y-11.28 I0.0 J2.648
G01 Y12.953 F2000.
G03 X59.893 Y15.6 I-2.648 J0.0 F1139.
X57.246 Y12.953 I0.0 J-2.648
G01 Y1.099 F2000.
X57.251 Y.877 Z-.931
X57.255 Y.654 Z-.943
X57.26 Y.432 Z-.955
X57.264 Y.21 Z-.966
X57.268 Y-.013 Z-.978
X57.272 Y-.235 Z-.99
Y-11.28
G03 X59.893 Y-13.901 I2.621 J0.0 F1134.
X62.514 Y-11.28 I0.0 J2.621
G01 Y12.953 F2000.
G03 X59.893 Y15.574 I-2.621 J0.0 F1134.
X57.272 Y12.953 I0.0 J-2.621
G01 Y1.099 F2000.
X57.276 Y.877 Z-1.001
X57.279 Y.654 Z-1.013
X57.282 Y.432 Z-1.024
X57.285 Y.21 Z-1.036
X57.288 Y-.013 Z-1.048
X57.29 Y-.235 Z-1.059
Y-11.28
G03 X59.893 Y-13.883 I2.603 J0.0 F1131.
X62.496 Y-11.28 I0.0 J2.603
G01 Y12.953 F2000.
G03 X59.893 Y15.556 I-2.603 J0.0 F1131.
X57.29 Y12.953 I0.0 J-2.603
G01 Y1.099 F2000.
X57.293 Y.877 Z-1.071
X57.295 Y.654 Z-1.083
X57.297 Y.432 Z-1.094
X57.298 Y.21 Z-1.106
X57.3 Y-.013 Z-1.118
X57.301 Y-.235 Z-1.129
Y-11.28
G03 X59.893 Y-13.872 I2.592 J0.0 F1129.
X62.485 Y-11.28 I0.0 J2.592
G01 Y12.953 F2000.
G03 X59.893 Y15.545 I-2.592 J0.0 F1129.
X57.301 Y12.953 I0.0 J-2.592
G01 Y1.099 F2000.
X57.302 Y.877 Z-1.141
X57.303 Y.654 Z-1.153
X57.304 Y.432 Z-1.164
Y.21 Z-1.176
X57.305 Y-.013 Z-1.188
Y-.235 Z-1.199
Y-11.28
G03 X59.893 Y-13.868 I2.588 J0.0 F1128.
X62.482 Y-11.28 I0.0 J2.588
G01 Y12.953 F2000.
G03 X59.893 Y15.541 I-2.588 J0.0 F1128.
X57.305 Y12.953 I0.0 J-2.588
G01 Y1.099 F2000.
Y.877 Z-1.211
Y-.235 Z-1.269
Y-11.28
G03 X59.893 Y-13.868 I2.588 J0.0 F1128.
X62.482 Y-11.28 I0.0 J2.588
G01 Y12.953 F2000.
G03 X59.893 Y15.541 I-2.588 J0.0 F1128.
X57.305 Y12.953 I0.0 J-2.588
G01 Y1.099 F2000.
Y-.235 Z-1.339
Y-11.28
G03 X59.893 Y-13.868 I2.588 J0.0 F1128.
X62.482 Y-11.28 I0.0 J2.588
G01 Y12.953 F2000.
G03 X59.893 Y15.541 I-2.588 J0.0 F1128.
X57.305 Y12.953 I0.0 J-2.588
G01 Y1.099 F2000.
Y-.235 Z-1.409
Y-11.28
G03 X59.893 Y-13.868 I2.588 J0.0 F1128.
X62.482 Y-11.28 I0.0 J2.588
G01 Y12.953 F2000.
G03 X59.893 Y15.541 I-2.588 J0.0 F1128.
X57.305 Y12.953 I0.0 J-2.588
G01 Y1.099 F2000.
Y-.235 Z-1.479
Y-11.28
G03 X59.893 Y-13.868 I2.588 J0.0 F1128.
X62.482 Y-11.28 I0.0 J2.588
G01 Y12.953 F2000.
G03 X59.893 Y15.541 I-2.588 J0.0 F1128.
X57.305 Y12.953 I0.0 J-2.588
G01 Y1.099 F2000.
Y-.235 Z-1.549
Y-11.28
G03 X59.893 Y-13.868 I2.588 J0.0 F1128.
X62.482 Y-11.28 I0.0 J2.588
G01 Y12.953 F2000.
G03 X59.893 Y15.541 I-2.588 J0.0 F1128.
X57.305 Y12.953 I0.0 J-2.588
G01 Y1.099 F2000.
Y-.235 Z-1.619
Y-11.28
G03 X59.893 Y-13.868 I2.588 J0.0 F1128.
X62.482 Y-11.28 I0.0 J2.588
G01 Y12.953 F2000.
G03 X59.893 Y15.541 I-2.588 J0.0 F1128.
X57.305 Y12.953 I0.0 J-2.588
G01 Y1.099 F2000.
Y-.235 Z-1.689
Y-11.28
G03 X59.893 Y-13.868 I2.588 J0.0 F1128.
X62.482 Y-11.28 I0.0 J2.588
G01 Y12.953 F2000.
G03 X59.893 Y15.541 I-2.588 J0.0 F1128.
X57.305 Y12.953 I0.0 J-2.588
G01 Y1.099 F2000.
Y-.235 Z-1.759
Y-11.28
G03 X59.893 Y-13.868 I2.588 J0.0 F1128.
X62.482 Y-11.28 I0.0 J2.588
G01 Y12.953 F2000.
G03 X59.893 Y15.541 I-2.588 J0.0 F1128.
X57.305 Y12.953 I0.0 J-2.588
G01 Y1.099 F2000.
Y-.235 Z-1.829
Y-11.28
G03 X59.893 Y-13.868 I2.588 J0.0 F1128.
X62.482 Y-11.28 I0.0 J2.588
G01 Y12.953 F2000.
G03 X59.893 Y15.541 I-2.588 J0.0 F1128.
X57.305 Y12.953 I0.0 J-2.588
G01 Y1.099 F2000.
Y-.235 Z-1.899
Y-11.28
G03 X59.893 Y-13.868 I2.588 J0.0 F1128.
X62.482 Y-11.28 I0.0 J2.588
G01 Y12.953 F2000.
G03 X59.893 Y15.541 I-2.588 J0.0 F1128.
X57.305 Y12.953 I0.0 J-2.588
G01 Y1.099 F2000.
Y-.235 Z-1.969
Y-11.28
G03 X59.893 Y-13.868 I2.588 J0.0 F1128.
X62.482 Y-11.28 I0.0 J2.588
G01 Y12.953 F2000.
G03 X59.893 Y15.541 I-2.588 J0.0 F1128.
X57.305 Y12.953 I0.0 J-2.588
G01 Y-.235 F2000.
X59.305
Z.031
G00 Z2.5
X43.784 Y-1.415
G01 Z2.43
Z-.57 F800.
G03 X45.784 Y.585 I0.0 J2. F400.
G01 Y12.953 F2000.
G03 X42.8 Y15.937 I-2.985 J0.0 F1198.
X39.861 Y13.476 I0.0 J-2.985
X39.815 Y12.953 I2.939 J-.523
G01 Y-11.783 F2000.
G03 X42.8 Y-14.767 I2.985 J0.0 F1198.
X45.784 Y-11.783 I0.0 J2.985
G01 Y.585 F2000.
X45.761 Y.807 Z-.582
X45.74 Y1.03 Z-.593
X45.721 Y1.252 Z-.605
X45.703 Y1.475 Z-.617
X45.685 Y1.697 Z-.628
X45.669 Y1.919 Z-.64
Y12.953
G03 X42.8 Y15.822 I-2.87 J0.0 F1179.
X39.978 Y13.476 I0.0 J-2.87
X39.93 Y12.953 I2.822 J-.523
G01 Y-11.783 F2000.
G03 X42.8 Y-14.652 I2.87 J0.0 F1179.
X45.669 Y-11.783 I0.0 J2.87
G01 Y.585 F2000.
X45.654 Y.807 Z-.652
X45.64 Y1.03 Z-.663
X45.626 Y1.252 Z-.675
X45.613 Y1.475 Z-.686
X45.601 Y1.697 Z-.698
X45.589 Y1.919 Z-.71
Y12.953
G03 X42.8 Y15.742 I-2.79 J0.0 F1165.
X40.06 Y13.476 I0.0 J-2.79
X40.01 Y12.953 I2.74 J-.523
G01 Y-11.783 F2000.
G03 X42.8 Y-14.572 I2.79 J0.0 F1165.
X45.589 Y-11.783 I0.0 J2.79
G01 Y.585 F2000.
X45.578 Y.807 Z-.721
X45.568 Y1.03 Z-.733
X45.557 Y1.252 Z-.745
X45.547 Y1.475 Z-.756
X45.538 Y1.697 Z-.768
X45.529 Y1.919 Z-.78
Y12.953
G03 X42.8 Y15.682 I-2.729 J0.0 F1154.
X40.121 Y13.476 I0.0 J-2.729
X40.07 Y12.953 I2.679 J-.523
G01 Y-11.783 F2000.
G03 X42.8 Y-14.512 I2.729 J0.0 F1154.
X45.529 Y-11.783 I0.0 J2.729
G01 Y.585 F2000.
X45.521 Y.807 Z-.791
X45.512 Y1.03 Z-.803
X45.504 Y1.252 Z-.815
X45.497 Y1.475 Z-.826
X45.49 Y1.697 Z-.838
X45.483 Y1.919 Z-.85
Y12.953
G03 X42.8 Y15.636 I-2.683 J0.0 F1146.
X40.117 Y12.953 I0.0 J-2.683
G01 Y-11.783 F2000.
G03 X42.8 Y-14.466 I2.683 J0.0 F1146.
X45.483 Y-11.783 I0.0 J2.683
G01 Y.585 F2000.
X45.476 Y.807 Z-.861
X45.47 Y1.03 Z-.873
X45.464 Y1.252 Z-.885
X45.458 Y1.475 Z-.896
X45.453 Y1.697 Z-.908
X45.447 Y1.919 Z-.92
Y12.953
G03 X42.8 Y15.6 I-2.648 J0.0 F1139.
X40.152 Y12.953 I0.0 J-2.648
G01 Y-11.783 F2000.
G03 X42.8 Y-14.43 I2.648 J0.0 F1139.
X45.447 Y-11.783 I0.0 J2.648
G01 Y.585 F2000.
X45.442 Y.807 Z-.931
X45.438 Y1.03 Z-.943
X45.433 Y1.252 Z-.955
X45.429 Y1.475 Z-.966
X45.425 Y1.697 Z-.978
X45.421 Y1.919 Z-.99
Y12.953
G03 X42.8 Y15.574 I-2.621 J0.0 F1134.
X40.179 Y12.953 I0.0 J-2.621
G01 Y-11.783 F2000.
G03 X42.8 Y-14.404 I2.621 J0.0 F1134.
X45.421 Y-11.783 I0.0 J2.621
G01 Y.585 F2000.
X45.417 Y.807 Z-1.001
X45.414 Y1.03 Z-1.013
X45.411 Y1.252 Z-1.024
X45.408 Y1.475 Z-1.036
X45.405 Y1.697 Z-1.048
X45.403 Y1.919 Z-1.059
Y12.953
G03 X42.8 Y15.556 I-2.603 J0.0 F1131.
X40.197 Y12.953 I0.0 J-2.603
G01 Y-11.783 F2000.
G03 X42.8 Y-14.385 I2.603 J0.0 F1131.
X45.403 Y-11.783 I0.0 J2.603
G01 Y.585 F2000.
X45.4 Y.807 Z-1.071
X45.398 Y1.03 Z-1.083
X45.396 Y1.252 Z-1.094
X45.395 Y1.475 Z-1.106
X45.393 Y1.697 Z-1.118
X45.392 Y1.919 Z-1.129
Y12.953
G03 X42.8 Y15.545 I-2.592 J0.0 F1129.
X40.208 Y12.953 I0.0 J-2.592
G01 Y-11.783 F2000.
G03 X42.8 Y-14.375 I2.592 J0.0 F1129.
X45.392 Y-11.783 I0.0 J2.592
G01 Y.585 F2000.
X45.391 Y.807 Z-1.141
X45.39 Y1.03 Z-1.153
X45.389 Y1.252 Z-1.164
Y1.475 Z-1.176
X45.388 Y1.697 Z-1.188
Y1.919 Z-1.199
Y12.953
G03 X42.8 Y15.541 I-2.588 J0.0 F1128.
X40.211 Y12.953 I0.0 J-2.588
G01 Y-11.783 F2000.
G03 X42.8 Y-14.371 I2.588 J0.0 F1128.
X45.388 Y-11.783 I0.0 J2.588
G01 Y.585 F2000.
Y.807 Z-1.211
Y1.919 Z-1.269
Y12.953
G03 X42.8 Y15.541 I-2.588 J0.0 F1128.
X40.211 Y12.953 I0.0 J-2.588
G01 Y-11.783 F2000.
G03 X42.8 Y-14.371 I2.588 J0.0 F1128.
X45.388 Y-11.783 I0.0 J2.588
G01 Y.585 F2000.
Y1.919 Z-1.339
Y12.953
G03 X42.8 Y15.541 I-2.588 J0.0 F1128.
X40.211 Y12.953 I0.0 J-2.588
G01 Y-11.783 F2000.
G03 X42.8 Y-14.371 I2.588 J0.0 F1128.
X45.388 Y-11.783 I0.0 J2.588
G01 Y.585 F2000.
Y1.919 Z-1.409
Y12.953
G03 X42.8 Y15.541 I-2.588 J0.0 F1128.
X40.211 Y12.953 I0.0 J-2.588
G01 Y-11.783 F2000.
G03 X42.8 Y-14.371 I2.588 J0.0 F1128.
X45.388 Y-11.783 I0.0 J2.588
G01 Y.585 F2000.
Y1.919 Z-1.479
Y12.953
G03 X42.8 Y15.541 I-2.588 J0.0 F1128.
X40.211 Y12.953 I0.0 J-2.588
G01 Y-11.783 F2000.
G03 X42.8 Y-14.371 I2.588 J0.0 F1128.
X45.388 Y-11.783 I0.0 J2.588
G01 Y.585 F2000.
Y1.919 Z-1.549
Y12.953
G03 X42.8 Y15.541 I-2.588 J0.0 F1128.
X40.211 Y12.953 I0.0 J-2.588
G01 Y-11.783 F2000.
G03 X42.8 Y-14.371 I2.588 J0.0 F1128.
X45.388 Y-11.783 I0.0 J2.588
G01 Y.585 F2000.
Y1.919 Z-1.619
Y12.953
G03 X42.8 Y15.541 I-2.588 J0.0 F1128.
X40.211 Y12.953 I0.0 J-2.588
G01 Y-11.783 F2000.
G03 X42.8 Y-14.371 I2.588 J0.0 F1128.
X45.388 Y-11.783 I0.0 J2.588
G01 Y.585 F2000.
Y1.919 Z-1.689
Y12.953
G03 X42.8 Y15.541 I-2.588 J0.0 F1128.
X40.211 Y12.953 I0.0 J-2.588
G01 Y-11.783 F2000.
G03 X42.8 Y-14.371 I2.588 J0.0 F1128.
X45.388 Y-11.783 I0.0 J2.588
G01 Y.585 F2000.
Y1.919 Z-1.759
Y12.953
G03 X42.8 Y15.541 I-2.588 J0.0 F1128.
X40.211 Y12.953 I0.0 J-2.588
G01 Y-11.783 F2000.
G03 X42.8 Y-14.371 I2.588 J0.0 F1128.
X45.388 Y-11.783 I0.0 J2.588
G01 Y.585 F2000.
Y1.919 Z-1.829
Y12.953
G03 X42.8 Y15.541 I-2.588 J0.0 F1128.
X40.211 Y12.953 I0.0 J-2.588
G01 Y-11.783 F2000.
G03 X42.8 Y-14.371 I2.588 J0.0 F1128.
X45.388 Y-11.783 I0.0 J2.588
G01 Y.585 F2000.
Y1.919 Z-1.899
Y12.953
G03 X42.8 Y15.541 I-2.588 J0.0 F1128.
X40.211 Y12.953 I0.0 J-2.588
G01 Y-11.783 F2000.
G03 X42.8 Y-14.371 I2.588 J0.0 F1128.
X45.388 Y-11.783 I0.0 J2.588
G01 Y.585 F2000.
Y1.919 Z-1.969
Y12.953
G03 X42.8 Y15.541 I-2.588 J0.0 F1128.
X40.211 Y12.953 I0.0 J-2.588
G01 Y-11.783 F2000.
G03 X42.8 Y-14.371 I2.588 J0.0 F1128.
X45.388 Y-11.783 I0.0 J2.588
G01 Y1.919 F2000.
X43.388
Z.031
G00 Z2.5
X-41.683 Y-1.49
G01 Z2.43
Z-.57 F800.
G03 X-39.683 Y.51 I0.0 J2. F400.
G01 Y12.953 F2000.
G03 X-42.668 Y15.937 I-2.985 J0.0 F1198.
X-45.606 Y13.476 I0.0 J-2.985
X-45.652 Y12.953 I2.939 J-.523
G01 Y-11.933 F2000.
G03 X-42.668 Y-14.918 I2.985 J0.0 F1198.
X-39.683 Y-11.933 I0.0 J2.985
G01 Y.51 F2000.
X-39.706 Y.732 Z-.582
X-39.727 Y.954 Z-.593
X-39.747 Y1.177 Z-.605
X-39.765 Y1.399 Z-.617
X-39.782 Y1.622 Z-.628
X-39.798 Y1.844 Z-.64
Y12.953
G03 X-42.668 Y15.822 I-2.87 J0.0 F1179.
X-45.489 Y13.476 I0.0 J-2.87
X-45.537 Y12.953 I2.822 J-.523
G01 Y-11.933 F2000.
G03 X-42.668 Y-14.803 I2.87 J0.0 F1179.
X-39.798 Y-11.933 I0.0 J2.87
G01 Y.51 F2000.
X-39.813 Y.732 Z-.652
X-39.828 Y.954 Z-.663
X-39.841 Y1.177 Z-.675
X-39.854 Y1.399 Z-.686
X-39.866 Y1.622 Z-.698
X-39.878 Y1.844 Z-.71
Y12.953
G03 X-42.668 Y15.742 I-2.79 J0.0 F1165.
X-45.408 Y13.476 I0.0 J-2.79
X-45.457 Y12.953 I2.74 J-.523
G01 Y-11.933 F2000.
G03 X-42.668 Y-14.723 I2.79 J0.0 F1165.
X-39.878 Y-11.933 I0.0 J2.79
G01 Y.51 F2000.
X-39.889 Y.732 Z-.721
X-39.9 Y.954 Z-.733
X-39.91 Y1.177 Z-.745
X-39.92 Y1.399 Z-.756
X-39.929 Y1.622 Z-.768
X-39.938 Y1.844 Z-.78
Y12.953
G03 X-42.668 Y15.682 I-2.729 J0.0 F1154.
X-45.347 Y13.476 I0.0 J-2.729
X-45.397 Y12.953 I2.679 J-.523
G01 Y-11.933 F2000.
G03 X-42.668 Y-14.663 I2.729 J0.0 F1154.
X-39.938 Y-11.933 I0.0 J2.729
G01 Y.51 F2000.
X-39.947 Y.732 Z-.791
X-39.955 Y.954 Z-.803
X-39.963 Y1.177 Z-.815
X-39.971 Y1.399 Z-.826
X-39.978 Y1.622 Z-.838
X-39.985 Y1.844 Z-.85
Y12.953
G03 X-42.668 Y15.636 I-2.683 J0.0 F1146.
X-45.351 Y12.953 I0.0 J-2.683
G01 Y-11.933 F2000.
G03 X-42.668 Y-14.616 I2.683 J0.0 F1146.
X-39.985 Y-11.933 I0.0 J2.683
G01 Y.51 F2000.
X-39.991 Y.732 Z-.861
X-39.998 Y.954 Z-.873
X-40.004 Y1.177 Z-.885
X-40.009 Y1.399 Z-.896
X-40.015 Y1.622 Z-.908
X-40.02 Y1.844 Z-.92
Y12.953
G03 X-42.668 Y15.6 I-2.648 J0.0 F1139.
X-45.315 Y12.953 I0.0 J-2.648
G01 Y-11.933 F2000.
G03 X-42.668 Y-14.581 I2.648 J0.0 F1139.
X-40.02 Y-11.933 I0.0 J2.648
G01 Y.51 F2000.
X-40.025 Y.732 Z-.931
X-40.03 Y.954 Z-.943
X-40.034 Y1.177 Z-.955
X-40.039 Y1.399 Z-.966
X-40.043 Y1.622 Z-.978
X-40.047 Y1.844 Z-.99
Y12.953
G03 X-42.668 Y15.574 I-2.621 J0.0 F1134.
X-45.289 Y12.953 I0.0 J-2.621
G01 Y-11.933 F2000.
G03 X-42.668 Y-14.555 I2.621 J0.0 F1134.
X-40.047 Y-11.933 I0.0 J2.621
G01 Y.51 F2000.
X-40.05 Y.732 Z-1.001
X-40.053 Y.954 Z-1.013
X-40.057 Y1.177 Z-1.024
X-40.06 Y1.399 Z-1.036
X-40.062 Y1.622 Z-1.048
X-40.065 Y1.844 Z-1.059
Y12.953
G03 X-42.668 Y15.556 I-2.603 J0.0 F1131.
X-45.271 Y12.953 I0.0 J-2.603
G01 Y-11.933 F2000.
G03 X-42.668 Y-14.536 I2.603 J0.0 F1131.
X-40.065 Y-11.933 I0.0 J2.603
G01 Y.51 F2000.
X-40.067 Y.732 Z-1.071
X-40.069 Y.954 Z-1.083
X-40.071 Y1.177 Z-1.094
X-40.073 Y1.399 Z-1.106
X-40.074 Y1.622 Z-1.118
X-40.076 Y1.844 Z-1.129
Y12.953
G03 X-42.668 Y15.545 I-2.592 J0.0 F1129.
X-45.26 Y12.953 I0.0 J-2.592
G01 Y-11.933 F2000.
G03 X-42.668 Y-14.525 I2.592 J0.0 F1129.
X-40.076 Y-11.933 I0.0 J2.592
G01 Y.51 F2000.
X-40.077 Y.732 Z-1.141
X-40.078 Y.954 Z-1.153
Y1.177 Z-1.164
X-40.079 Y1.399 Z-1.176
Y1.622 Z-1.188
Y1.844 Z-1.199
Y12.953
G03 X-42.668 Y15.541 I-2.588 J0.0 F1128.
X-45.256 Y12.953 I0.0 J-2.588
G01 Y-11.933 F2000.
G03 X-42.668 Y-14.522 I2.588 J0.0 F1128.
X-40.079 Y-11.933 I0.0 J2.588
G01 Y.51 F2000.
Y.732 Z-1.211
Y1.844 Z-1.269
Y12.953
G03 X-42.668 Y15.541 I-2.588 J0.0 F1128.
X-45.256 Y12.953 I0.0 J-2.588
G01 Y-11.933 F2000.
G03 X-42.668 Y-14.522 I2.588 J0.0 F1128.
X-40.079 Y-11.933 I0.0 J2.588
G01 Y.51 F2000.
Y1.844 Z-1.339
Y12.953
G03 X-42.668 Y15.541 I-2.588 J0.0 F1128.
X-45.256 Y12.953 I0.0 J-2.588
G01 Y-11.933 F2000.
G03 X-42.668 Y-14.522 I2.588 J0.0 F1128.
X-40.079 Y-11.933 I0.0 J2.588
G01 Y.51 F2000.
Y1.844 Z-1.409
Y12.953
G03 X-42.668 Y15.541 I-2.588 J0.0 F1128.
X-45.256 Y12.953 I0.0 J-2.588
G01 Y-11.933 F2000.
G03 X-42.668 Y-14.522 I2.588 J0.0 F1128.
X-40.079 Y-11.933 I0.0 J2.588
G01 Y.51 F2000.
Y1.844 Z-1.479
Y12.953
G03 X-42.668 Y15.541 I-2.588 J0.0 F1128.
X-45.256 Y12.953 I0.0 J-2.588
G01 Y-11.933 F2000.
G03 X-42.668 Y-14.522 I2.588 J0.0 F1128.
X-40.079 Y-11.933 I0.0 J2.588
G01 Y.51 F2000.
Y1.844 Z-1.549
Y12.953
G03 X-42.668 Y15.541 I-2.588 J0.0 F1128.
X-45.256 Y12.953 I0.0 J-2.588
G01 Y-11.933 F2000.
G03 X-42.668 Y-14.522 I2.588 J0.0 F1128.
X-40.079 Y-11.933 I0.0 J2.588
G01 Y.51 F2000.
Y1.844 Z-1.619
Y12.953
G03 X-42.668 Y15.541 I-2.588 J0.0 F1128.
X-45.256 Y12.953 I0.0 J-2.588
G01 Y-11.933 F2000.
G03 X-42.668 Y-14.522 I2.588 J0.0 F1128.
X-40.079 Y-11.933 I0.0 J2.588
G01 Y.51 F2000.
Y1.844 Z-1.689
Y12.953
G03 X-42.668 Y15.541 I-2.588 J0.0 F1128.
X-45.256 Y12.953 I0.0 J-2.588
G01 Y-11.933 F2000.
G03 X-42.668 Y-14.522 I2.588 J0.0 F1128.
X-40.079 Y-11.933 I0.0 J2.588
G01 Y.51 F2000.
Y1.844 Z-1.759
Y12.953
G03 X-42.668 Y15.541 I-2.588 J0.0 F1128.
X-45.256 Y12.953 I0.0 J-2.588
G01 Y-11.933 F2000.
G03 X-42.668 Y-14.522 I2.588 J0.0 F1128.
X-40.079 Y-11.933 I0.0 J2.588
G01 Y.51 F2000.
Y1.844 Z-1.829
Y12.953
G03 X-42.668 Y15.541 I-2.588 J0.0 F1128.
X-45.256 Y12.953 I0.0 J-2.588
G01 Y-11.933 F2000.
G03 X-42.668 Y-14.522 I2.588 J0.0 F1128.
X-40.079 Y-11.933 I0.0 J2.588
G01 Y.51 F2000.
Y1.844 Z-1.899
Y12.953
G03 X-42.668 Y15.541 I-2.588 J0.0 F1128.
X-45.256 Y12.953 I0.0 J-2.588
G01 Y-11.933 F2000.
G03 X-42.668 Y-14.522 I2.588 J0.0 F1128.
X-40.079 Y-11.933 I0.0 J2.588
G01 Y.51 F2000.
Y1.844 Z-1.969
Y12.953
G03 X-42.668 Y15.541 I-2.588 J0.0 F1128.
X-45.256 Y12.953 I0.0 J-2.588
G01 Y-11.933 F2000.
G03 X-42.668 Y-14.522 I2.588 J0.0 F1128.
X-40.079 Y-11.933 I0.0 J2.588
G01 Y1.844 F2000.
X-42.079
Z.031
G00 Z2.5
X24.722 Y2.434
G01 Z2.43
Z-.57 F800.
G03 X22.722 Y.434 I0.0 J-2. F400.
G01 Y-12.084 F2000.
G03 X25.706 Y-15.069 I2.985 J0.0 F1198.
X28.691 Y-12.084 I0.0 J2.985
G01 Y12.953 F2000.
G03 X25.706 Y15.937 I-2.985 J0.0 F1198.
X22.722 Y12.953 I0.0 J-2.985
G01 Y.434 F2000.
X22.745 Y.212 Z-.582
X22.766 Y-.011 Z-.593
X22.785 Y-.233 Z-.605
X22.803 Y-.455 Z-.617
X22.821 Y-.678 Z-.628
X22.837 Y-.9 Z-.64
Y-12.084
G03 X25.706 Y-14.954 I2.87 J0.0 F1179.
X28.576 Y-12.084 I0.0 J2.87
G01 Y12.953 F2000.
G03 X25.706 Y15.822 I-2.87 J0.0 F1179.
X22.885 Y13.476 I0.0 J-2.87
X22.837 Y12.953 I2.822 J-.523
G01 Y.434 F2000.
X22.852 Y.212 Z-.652
X22.866 Y-.011 Z-.663
X22.88 Y-.233 Z-.675
X22.893 Y-.455 Z-.686
X22.905 Y-.678 Z-.698
X22.917 Y-.9 Z-.71
Y-12.084
G03 X25.706 Y-14.874 I2.79 J0.0 F1165.
X28.496 Y-12.084 I0.0 J2.79
G01 Y12.953 F2000.
G03 X25.706 Y15.742 I-2.79 J0.0 F1165.
X22.966 Y13.476 I0.0 J-2.79
X22.917 Y12.953 I2.74 J-.523
G01 Y.434 F2000.
X22.928 Y.212 Z-.721
X22.939 Y-.011 Z-.733
X22.949 Y-.233 Z-.745
X22.959 Y-.455 Z-.756
X22.968 Y-.678 Z-.768
X22.977 Y-.9 Z-.78
Y-12.084
G03 X25.706 Y-14.814 I2.729 J0.0 F1154.
X28.436 Y-12.084 I0.0 J2.729
G01 Y12.953 F2000.
G03 X25.706 Y15.682 I-2.729 J0.0 F1154.
X23.027 Y13.476 I0.0 J-2.729
X22.977 Y12.953 I2.679 J-.523
G01 Y.434 F2000.
X22.985 Y.212 Z-.791
X22.994 Y-.011 Z-.803
X23.002 Y-.233 Z-.815
X23.009 Y-.455 Z-.826
X23.016 Y-.678 Z-.838
X23.023 Y-.9 Z-.85
Y-12.084
G03 X25.706 Y-14.767 I2.683 J0.0 F1146.
X28.389 Y-12.084 I0.0 J2.683
G01 Y12.953 F2000.
G03 X25.706 Y15.636 I-2.683 J0.0 F1146.
X23.023 Y12.953 I0.0 J-2.683
G01 Y.434 F2000.
X23.03 Y.212 Z-.861
X23.036 Y-.011 Z-.873
X23.042 Y-.233 Z-.885
X23.048 Y-.455 Z-.896
X23.053 Y-.678 Z-.908
X23.059 Y-.9 Z-.92
Y-12.084
G03 X25.706 Y-14.732 I2.648 J0.0 F1139.
X28.354 Y-12.084 I0.0 J2.648
G01 Y12.953 F2000.
G03 X25.706 Y15.6 I-2.648 J0.0 F1139.
X23.059 Y12.953 I0.0 J-2.648
G01 Y.434 F2000.
X23.064 Y.212 Z-.931
X23.068 Y-.011 Z-.943
X23.073 Y-.233 Z-.955
X23.077 Y-.455 Z-.966
X23.081 Y-.678 Z-.978
X23.085 Y-.9 Z-.99
Y-12.084
G03 X25.706 Y-14.705 I2.621 J0.0 F1134.
X28.327 Y-12.084 I0.0 J2.621
G01 Y12.953 F2000.
G03 X25.706 Y15.574 I-2.621 J0.0 F1134.
X23.085 Y12.953 I0.0 J-2.621
G01 Y.434 F2000.
X23.089 Y.212 Z-1.001
X23.092 Y-.011 Z-1.013
X23.095 Y-.233 Z-1.024
X23.098 Y-.455 Z-1.036
X23.101 Y-.678 Z-1.048
X23.103 Y-.9 Z-1.059
Y-12.084
G03 X25.706 Y-14.687 I2.603 J0.0 F1131.
X28.309 Y-12.084 I0.0 J2.603
G01 Y12.953 F2000.
G03 X25.706 Y15.556 I-2.603 J0.0 F1131.
X23.103 Y12.953 I0.0 J-2.603
G01 Y.434 F2000.
X23.106 Y.212 Z-1.071
X23.108 Y-.011 Z-1.083
X23.11 Y-.233 Z-1.094
X23.111 Y-.455 Z-1.106
X23.113 Y-.678 Z-1.118
X23.114 Y-.9 Z-1.129
Y-12.084
G03 X25.706 Y-14.676 I2.592 J0.0 F1129.
X28.298 Y-12.084 I0.0 J2.592
G01 Y12.953 F2000.
G03 X25.706 Y15.545 I-2.592 J0.0 F1129.
X23.114 Y12.953 I0.0 J-2.592
G01 Y.434 F2000.
X23.115 Y.212 Z-1.141
X23.116 Y-.011 Z-1.153
X23.117 Y-.233 Z-1.164
Y-.455 Z-1.176
X23.118 Y-.678 Z-1.188
Y-.9 Z-1.199
Y-12.084
G03 X25.706 Y-14.673 I2.588 J0.0 F1128.
X28.295 Y-12.084 I0.0 J2.588
G01 Y12.953 F2000.
G03 X25.706 Y15.541 I-2.588 J0.0 F1128.
X23.118 Y12.953 I0.0 J-2.588
G01 Y.434 F2000.
Y.212 Z-1.211
Y-.9 Z-1.269
Y-12.084
G03 X25.706 Y-14.673 I2.588 J0.0 F1128.
X28.295 Y-12.084 I0.0 J2.588
G01 Y12.953 F2000.
G03 X25.706 Y15.541 I-2.588 J0.0 F1128.
X23.118 Y12.953 I0.0 J-2.588
G01 Y.434 F2000.
Y-.9 Z-1.339
Y-12.084
G03 X25.706 Y-14.673 I2.588 J0.0 F1128.
X28.295 Y-12.084 I0.0 J2.588
G01 Y12.953 F2000.
G03 X25.706 Y15.541 I-2.588 J0.0 F1128.
X23.118 Y12.953 I0.0 J-2.588
G01 Y.434 F2000.
Y-.9 Z-1.409
Y-12.084
G03 X25.706 Y-14.673 I2.588 J0.0 F1128.
X28.295 Y-12.084 I0.0 J2.588
G01 Y12.953 F2000.
G03 X25.706 Y15.541 I-2.588 J0.0 F1128.
X23.118 Y12.953 I0.0 J-2.588
G01 Y.434 F2000.
Y-.9 Z-1.479
Y-12.084
G03 X25.706 Y-14.673 I2.588 J0.0 F1128.
X28.295 Y-12.084 I0.0 J2.588
G01 Y12.953 F2000.
G03 X25.706 Y15.541 I-2.588 J0.0 F1128.
X23.118 Y12.953 I0.0 J-2.588
G01 Y.434 F2000.
Y-.9 Z-1.549
Y-12.084
G03 X25.706 Y-14.673 I2.588 J0.0 F1128.
X28.295 Y-12.084 I0.0 J2.588
G01 Y12.953 F2000.
G03 X25.706 Y15.541 I-2.588 J0.0 F1128.
X23.118 Y12.953 I0.0 J-2.588
G01 Y.434 F2000.
Y-.9 Z-1.619
Y-12.084
G03 X25.706 Y-14.673 I2.588 J0.0 F1128.
X28.295 Y-12.084 I0.0 J2.588
G01 Y12.953 F2000.
G03 X25.706 Y15.541 I-2.588 J0.0 F1128.
X23.118 Y12.953 I0.0 J-2.588
G01 Y.434 F2000.
Y-.9 Z-1.689
Y-12.084
G03 X25.706 Y-14.673 I2.588 J0.0 F1128.
X28.295 Y-12.084 I0.0 J2.588
G01 Y12.953 F2000.
G03 X25.706 Y15.541 I-2.588 J0.0 F1128.
X23.118 Y12.953 I0.0 J-2.588
G01 Y.434 F2000.
Y-.9 Z-1.759
Y-12.084
G03 X25.706 Y-14.673 I2.588 J0.0 F1128.
X28.295 Y-12.084 I0.0 J2.588
G01 Y12.953 F2000.
G03 X25.706 Y15.541 I-2.588 J0.0 F1128.
X23.118 Y12.953 I0.0 J-2.588
G01 Y.434 F2000.
Y-.9 Z-1.829
Y-12.084
G03 X25.706 Y-14.673 I2.588 J0.0 F1128.
X28.295 Y-12.084 I0.0 J2.588
G01 Y12.953 F2000.
G03 X25.706 Y15.541 I-2.588 J0.0 F1128.
X23.118 Y12.953 I0.0 J-2.588
G01 Y.434 F2000.
Y-.9 Z-1.899
Y-12.084
G03 X25.706 Y-14.673 I2.588 J0.0 F1128.
X28.295 Y-12.084 I0.0 J2.588
G01 Y12.953 F2000.
G03 X25.706 Y15.541 I-2.588 J0.0 F1128.
X23.118 Y12.953 I0.0 J-2.588
G01 Y.434 F2000.
Y-.9 Z-1.969
Y-12.084
G03 X25.706 Y-14.673 I2.588 J0.0 F1128.
X28.295 Y-12.084 I0.0 J2.588
G01 Y12.953 F2000.
G03 X25.706 Y15.541 I-2.588 J0.0 F1128.
X23.118 Y12.953 I0.0 J-2.588
G01 Y-.9 F2000.
X25.118
Z.031
G00 Z2.5
X9.597 Y-1.666
G01 Z2.43
Z-.57 F800.
G03 X11.597 Y.334 I0.0 J2. F400.
G01 Y12.953 F2000.
G03 X8.613 Y15.937 I-2.985 J0.0 F1198.
X5.674 Y13.476 I0.0 J-2.985
X5.628 Y12.953 I2.939 J-.523
G01 Y-12.285 F2000.
G03 X8.613 Y-15.27 I2.985 J0.0 F1198.
X11.597 Y-12.285 I0.0 J2.985
G01 Y.334 F2000.
X11.574 Y.556 Z-.582
X11.553 Y.779 Z-.593
X11.534 Y1.001 Z-.605
X11.516 Y1.223 Z-.617
X11.498 Y1.446 Z-.628
X11.482 Y1.668 Z-.64
Y12.953
G03 X8.613 Y15.822 I-2.87 J0.0 F1179.
X5.791 Y13.476 I0.0 J-2.87
X5.743 Y12.953 I2.822 J-.523
G01 Y-12.285 F2000.
G03 X8.613 Y-15.155 I2.87 J0.0 F1179.
X11.482 Y-12.285 I0.0 J2.87
G01 Y.334 F2000.
X11.467 Y.556 Z-.652
X11.453 Y.779 Z-.663
X11.439 Y1.001 Z-.675
X11.426 Y1.223 Z-.686
X11.414 Y1.446 Z-.698
X11.402 Y1.668 Z-.71
Y12.953
G03 X8.613 Y15.742 I-2.79 J0.0 F1165.
X5.873 Y13.476 I0.0 J-2.79
X5.823 Y12.953 I2.74 J-.523
G01 Y-12.285 F2000.
G03 X8.613 Y-15.075 I2.79 J0.0 F1165.
X11.402 Y-12.285 I0.0 J2.79
G01 Y.334 F2000.
X11.391 Y.556 Z-.721
X11.381 Y.779 Z-.733
X11.37 Y1.001 Z-.745
X11.36 Y1.223 Z-.756
X11.351 Y1.446 Z-.768
X11.342 Y1.668 Z-.78
Y12.953
G03 X8.613 Y15.682 I-2.729 J0.0 F1154.
X5.934 Y13.476 I0.0 J-2.729
X5.883 Y12.953 I2.679 J-.523
G01 Y-12.285 F2000.
G03 X8.613 Y-15.015 I2.729 J0.0 F1154.
X11.342 Y-12.285 I0.0 J2.729
G01 Y.334 F2000.
X11.334 Y.556 Z-.791
X11.325 Y.779 Z-.803
X11.317 Y1.001 Z-.815
X11.31 Y1.223 Z-.826
X11.303 Y1.446 Z-.838
X11.296 Y1.668 Z-.85
Y12.953
G03 X8.613 Y15.636 I-2.683 J0.0 F1146.
X5.93 Y12.953 I0.0 J-2.683
G01 Y-12.285 F2000.
G03 X8.613 Y-14.968 I2.683 J0.0 F1146.
X11.296 Y-12.285 I0.0 J2.683
G01 Y.334 F2000.
X11.289 Y.556 Z-.861
X11.283 Y.779 Z-.873
X11.277 Y1.001 Z-.885
X11.271 Y1.223 Z-.896
X11.266 Y1.446 Z-.908
