%
G40 G17 G49 G54 G80
G91 G28 Z0.0
( NAME: Capful )
( PART: D:\Program Files\Siemens\NX 12.0\UGII\HM-µç¼«±à³Ì.prt )
( DATE: Sun May 27 04:51:34 2018 )
( D10 ---> D=10.00 R=0.00 )
S6000 M03
G00 G90 X0.0 Y30.5
Z15.
G17 G01 Z.802 F2500.
Z-.198 F1000.
Y25.
X146.5 F2500.
X152. F2188.
X157.5 F1875.
Y19.5
Y-14. F2500.
Y-19.5 F2188.
Y-25. F1875.
X152.
X-146.5 F2500.
X-152. F2188.
X-157.5 F1875.
Y-19.5
Y14. F2500.
Y19.5 F2188.
Y25. F1875.
X-152.
X0.0 F2500.
Y17.5
X150.
Y-17.5
X-150.
Y17.5
X0.0
Y10.
X142.5
Y-10.
X-142.5
Y10.
X0.0
Y2.5
X135.
Y-2.5
X-135.
Y2.5
X0.0
Y7.5
Z.802
G00 Z1.
Y30.5
G01 Z.603
Z-.397 F1000.
Y25.
X146.5 F2500.
X152. F2188.
X157.5 F1875.
Y19.5
Y-14. F2500.
Y-19.5 F2188.
Y-25. F1875.
X152.
X-146.5 F2500.
X-152. F2188.
X-157.5 F1875.
Y-19.5
Y14. F2500.
Y19.5 F2188.
Y25. F1875.
X-152.
X0.0 F2500.
Y17.5
X150.
Y-17.5
X-150.
Y17.5
X0.0
Y10.
X142.5
Y-10.
X-142.5
Y10.
X0.0
Y2.5
X135.
Y-2.5
X-135.
Y2.5
X0.0
Y7.5
Z.603
G00 Z.802
Y30.5
G01 Z.405
Z-.595 F1000.
Y25.
X146.5 F2500.
X152. F2188.
X157.5 F1875.
Y19.5
Y-14. F2500.
Y-19.5 F2188.
Y-25. F1875.
X152.
X132.853 F2500.
Y-17.5
G40 G03 X138.972 Y-12.176 I-4.585 J11.449 F1500.
X145.361 Y-13.96 I6.389 J10.549
X150. Y-13.054 I0.0 J12.333
G01 Y-17.5 F2500.
X132.853
X128.267 Y-19.835 F1500.
X132.853 Y-17.5 F2500.
Y-25.
X118.191
Y-17.5
G03 X120.397 Y-15.546 I-7.018 J10.142 F1500.
X123.682 Y-17.5 I7.871 J9.495
G01 X118.191 F2500.
X111.174 Y-19.801 F1500.
X118.191 Y-17.5 F2500.
Y-25.
X104.075
Y-17.5
X104.102 Y-17.462 F1500.
G03 X104.156 Y-17.5 I7.072 J10.104
G01 X104.075 F2500.
Y-25.
X-138.831
Y-17.5
G03 X-137.281 Y-16.387 I-6.398 J10.544 F1500.
X-136.134 Y-17.5 I9.146 J8.274
G01 X-131.659 Y-19.968
X-136.134 Y-17.5 F2500.
X-135.161 Y-16.358
G02 X-137.13 Y-14.15 I7.026 J8.246
X-145.229 Y-17.789 I-8.099 J7.194
X-156.062 Y-6.956 I0.0 J10.833
G01 Y12.953
G02 X-145.229 Y23.786 I10.833 J0.0
X-136.682 Y19.609 I0.0 J-10.833
X-128.135 Y23.786 I8.547 J-6.656
X-119.589 Y19.609 I0.0 J-10.833
X-111.042 Y23.786 I8.547 J-6.656
X-102.495 Y19.609 I0.0 J-10.833
X-93.948 Y23.786 I8.547 J-6.656
X-85.402 Y19.609 I0.0 J-10.833
X-76.855 Y23.786 I8.547 J-6.656
X-68.308 Y19.609 I0.0 J-10.833
X-59.761 Y23.786 I8.547 J-6.656
X-51.215 Y19.609 I0.0 J-10.833
X-42.668 Y23.786 I8.547 J-6.656
X-34.121 Y19.609 I0.0 J-10.833
X-25.574 Y23.786 I8.547 J-6.656
X-17.028 Y19.609 I0.0 J-10.833
X-8.481 Y23.786 I8.547 J-6.656
X.066 Y19.609 I0.0 J-10.833
X8.613 Y23.786 I8.547 J-6.656
X17.16 Y19.609 I0.0 J-10.833
X25.706 Y23.786 I8.547 J-6.656
X34.253 Y19.609 I0.0 J-10.833
X42.8 Y23.786 I8.547 J-6.656
X51.347 Y19.609 I0.0 J-10.833
X59.893 Y23.786 I8.547 J-6.656
X68.44 Y19.609 I0.0 J-10.833
X76.987 Y23.786 I8.547 J-6.656
X85.534 Y19.609 I0.0 J-10.833
X94.08 Y23.786 I8.547 J-6.656
X102.627 Y19.609 I0.0 J-10.833
X111.174 Y23.786 I8.547 J-6.656
X119.721 Y19.609 I0.0 J-10.833
X128.267 Y23.786 I8.547 J-6.656
X136.814 Y19.609 I0.0 J-10.833
X145.361 Y23.786 I8.547 J-6.656
X156.194 Y12.953 I0.0 J-10.833
G01 Y-1.627
G02 X145.361 Y-12.46 I-10.833 J0.0
X138.387 Y-9.917 I0.0 J10.833
X128.267 Y-16.884 I-10.12 J3.866
X120.226 Y-13.31 I0.0 J10.833
X111.174 Y-18.191 I-9.052 J5.951
X103.719 Y-15.218 I0.0 J10.833
X94.08 Y-21.107 I-9.639 J4.944
X85.534 Y-16.931 I0.0 J10.833
X76.987 Y-21.107 I-8.547 J6.656
X68.83 Y-17.403 I0.0 J10.833
X59.893 Y-22.113 I-8.937 J6.123
X51.542 Y-18.18 I0.0 J10.833
X42.8 Y-22.615 I-8.742 J6.397
X34.37 Y-18.587 I0.0 J10.833
X25.706 Y-22.917 I-8.664 J6.503
X17.238 Y-18.84 I0.0 J10.833
X8.613 Y-23.118 I-8.625 J6.554
X.086 Y-18.967 I0.0 J10.833
X-8.481 Y-23.169 I-8.566 J6.631
X-17.086 Y-18.916 I0.0 J10.833
X-25.574 Y-23.018 I-8.488 J6.731
X-34.219 Y-18.713 I0.0 J10.833
X-42.668 Y-22.766 I-8.449 J6.78
X-51.371 Y-18.384 I0.0 J10.833
X-59.761 Y-22.364 I-8.39 J6.852
X-68.523 Y-17.902 I0.0 J10.833
X-76.855 Y-21.811 I-8.332 J6.924
X-85.675 Y-17.268 I0.0 J10.833
X-93.948 Y-21.107 I-8.273 J6.993
X-102.827 Y-16.481 I0.0 J10.833
X-111.042 Y-20.253 I-8.215 J7.062
X-120.094 Y-15.371 I0.0 J10.833
X-128.135 Y-18.945 I-8.042 J7.258
X-135.161 Y-16.358 I0.0 J10.833
G01 X-136.134 Y-17.5
X-138.831
X-143.543 Y-19.173
G02 X-145.229 Y-19.289 I-1.686 J12.217 F1500.
X-152.5 Y-16.918 I0.0 J12.333
G01 Y-18.459 F1313.
Y-20. F1125.
X-147.
X-143.161 F1500.
G02 X-143.543 Y-19.173 I4.33 J2.5
G01 X-138.831 Y-17.5 F2500.
Y-25.
X-146.5
X-152. F2188.
X-157.5 F1875.
Y-19.5
Y14. F2500.
Y19.5 F2188.
Y25. F1875.
X-152.
X0.0 F2500.
Y30.5
Z.405
G00 Z.603
G01 Z.206
Z-.794 F1000.
Y25.
X146.5 F2500.
X152. F2188.
X157.5 F1875.
Y19.5
Y-14. F2500.
Y-19.5 F2188.
Y-25. F1875.
X152.
X132.924 F2500.
Y-17.5
G03 X138.981 Y-12.213 I-4.656 J11.449 F1500.
X145.361 Y-13.986 I6.379 J10.586
X150. Y-13.083 I0.0 J12.359
G01 Y-17.5 F2500.
X132.924
X128.267 Y-19.782 F1500.
X132.924 Y-17.5 F2500.
Y-25.
X118.238
Y-17.5
G03 X120.399 Y-15.583 I-7.064 J10.142 F1500.
X123.611 Y-17.5 I7.868 J9.532
G01 X118.238 F2500.
X111.174 Y-19.811 F1500.
X118.238 Y-17.5 F2500.
Y-25.
X104.107
Y-17.5
X104.108 Y-17.499 F1500.
X104.11 Y-17.5
X104.107 F2500.
Y-25.
X-138.78
Y-17.5
G03 X-137.283 Y-16.423 I-6.448 J10.544 F1500.
X-136.175 Y-17.5 I9.148 J8.311
G01 X-131.721 Y-19.972
X-136.175 Y-17.5 F2500.
X-135.199 Y-16.361
G02 X-137.132 Y-14.193 I7.064 J8.248
X-145.229 Y-17.816 I-8.096 J7.237
X-156.088 Y-6.956 I0.0 J10.859
G01 Y12.953
G02 X-145.229 Y23.812 I10.859 J0.0
X-136.682 Y19.652 I0.0 J-10.859
X-128.135 Y23.812 I8.547 J-6.699
X-119.589 Y19.652 I0.0 J-10.859
X-111.042 Y23.812 I8.547 J-6.699
X-102.495 Y19.652 I0.0 J-10.859
X-93.948 Y23.812 I8.547 J-6.699
X-85.402 Y19.652 I0.0 J-10.859
X-76.855 Y23.812 I8.547 J-6.699
X-68.308 Y19.652 I0.0 J-10.859
X-59.761 Y23.812 I8.547 J-6.699
X-51.215 Y19.652 I0.0 J-10.859
X-42.668 Y23.812 I8.547 J-6.699
X-34.121 Y19.652 I0.0 J-10.859
X-25.574 Y23.812 I8.547 J-6.699
X-17.028 Y19.652 I0.0 J-10.859
X-8.481 Y23.812 I8.547 J-6.699
X.066 Y19.652 I0.0 J-10.859
X8.613 Y23.812 I8.547 J-6.699
X17.16 Y19.652 I0.0 J-10.859
X25.706 Y23.812 I8.547 J-6.699
X34.253 Y19.652 I0.0 J-10.859
X42.8 Y23.812 I8.547 J-6.699
X51.347 Y19.652 I0.0 J-10.859
X59.893 Y23.812 I8.547 J-6.699
X68.44 Y19.652 I0.0 J-10.859
X76.987 Y23.812 I8.547 J-6.699
X85.534 Y19.652 I0.0 J-10.859
X94.08 Y23.812 I8.547 J-6.699
X102.627 Y19.652 I0.0 J-10.859
X111.174 Y23.812 I8.547 J-6.699
X119.721 Y19.652 I0.0 J-10.859
X128.267 Y23.812 I8.547 J-6.699
X136.814 Y19.652 I0.0 J-10.859
X145.361 Y23.812 I8.547 J-6.699
X156.22 Y12.953 I0.0 J-10.859
G01 Y-1.627
G02 X145.361 Y-12.486 I-10.859 J0.0
X138.398 Y-9.961 I0.0 J10.859
X128.267 Y-16.911 I-10.131 J3.91
X120.229 Y-13.353 I0.0 J10.859
X111.174 Y-18.218 I-9.055 J5.994
X103.727 Y-15.262 I0.0 J10.859
X94.08 Y-21.134 I-9.646 J4.988
X85.534 Y-16.974 I0.0 J10.859
X76.987 Y-21.134 I-8.547 J6.699
X68.832 Y-17.446 I0.0 J10.859
X59.893 Y-22.139 I-8.939 J6.166
X51.543 Y-18.223 I0.0 J10.859
X42.8 Y-22.642 I-8.744 J6.44
X34.371 Y-18.63 I0.0 J10.859
X25.706 Y-22.944 I-8.665 J6.546
X17.238 Y-18.883 I0.0 J10.859
X8.613 Y-23.145 I-8.626 J6.598
X.086 Y-19.01 I0.0 J10.859
X-8.481 Y-23.195 I-8.566 J6.674
X-17.087 Y-18.959 I0.0 J10.859
X-25.574 Y-23.044 I-8.488 J6.774
X-34.219 Y-18.756 I0.0 J10.859
X-42.668 Y-22.793 I-8.448 J6.823
X-51.372 Y-18.427 I0.0 J10.859
X-59.761 Y-22.391 I-8.389 J6.896
X-68.524 Y-17.945 I0.0 J10.859
X-76.855 Y-21.838 I-8.33 J6.967
X-85.677 Y-17.311 I0.0 J10.859
X-93.948 Y-21.134 I-8.272 J7.036
X-102.829 Y-16.524 I0.0 J10.859
X-111.042 Y-20.279 I-8.213 J7.105
X-120.097 Y-15.414 I0.0 J10.859
X-128.135 Y-18.972 I-8.038 J7.302
X-135.199 Y-16.361 I0.0 J10.859
G01 X-136.175 Y-17.5
X-138.78
X-143.485 Y-19.192
G02 X-145.229 Y-19.316 I-1.743 J12.236 F1500.
X-152.5 Y-16.95 I0.0 J12.359
G01 Y-18.475 F1313.
Y-20. F1125.
X-147.
X-143.11 F1500.
G02 X-143.485 Y-19.192 I4.33 J2.5
G01 X-138.78 Y-17.5 F2500.
Y-25.
X-146.5
X-152. F2188.
X-157.5 F1875.
Y-19.5
Y14. F2500.
Y19.5 F2188.
Y25. F1875.
X-152.
X0.0 F2500.
Y30.5
Z.206
G00 Z.405
G01 Z.008
Z-.992 F1000.
Y25.
X146.5 F2500.
X152. F2188.
X157.5 F1875.
Y19.5
Y-14. F2500.
Y-19.5 F2188.
Y-25. F1875.
X152.
X133.015 F2500.
Y-17.5
G03 X136.053 Y-15.694 I-4.748 J11.449 F1500.
X137.656 Y-14.11 I-7.418 J9.108
X138.976 Y-12.25 I-9.389 J8.059
X145.361 Y-14.021 I6.385 J10.623
X150. Y-13.12 I0.0 J12.394
G01 Y-17.5 F2500.
X133.015
X128.267 Y-19.705 F1500.
X133.015 Y-17.5 F2500.
Y-25.
X118.298
Y-17.5
G03 X119.098 Y-16.888 I-7.125 J10.142 F1500.
G01 X119.161 Y-16.837
G03 X119.222 Y-16.786 I-.942 J1.168
G01 X119.6 Y-16.446
G03 X119.644 Y-16.405 I-1.002 J1.116
X120.39 Y-15.62 I-9.638 J9.9
X120.479 Y-15.693 I6.369 J7.702
X123.52 Y-17.5 I7.788 J9.641
G01 X118.298 F2500.
X113.711 Y-19.49
G02 X111.174 Y-19.752 I-2.538 J12.132 F1500.
X104.108 Y-17.541 I0.0 J12.394
X103.307 Y-18.55 I-9.346 J6.603
X101.763 Y-20. I-9.226 J8.276
G01 X113.968
G02 X113.711 Y-19.49 I4.33 J2.5
G01 X118.298 Y-17.5 F2500.
Y-25.
X-138.714
Y-17.5
G03 X-137.814 Y-16.888 I-6.515 J10.544 F1500.
G01 X-137.788 Y-16.868
X-137.418 Y-16.579
G03 X-137.366 Y-16.537 I-.923 J1.183
G01 X-137.292 Y-16.473
X-137.273 Y-16.457
G03 X-136.427 Y-17.317 I10.267 J9.258
X-136.224 Y-17.5 I7.167 J7.756
G01 X-131.798 Y-19.978
X-136.224 Y-17.5 F2500.
X-135.235 Y-16.372
G02 X-135.405 Y-16.219 I5.975 J6.812
X-136.343 Y-15.244 I8.399 J9.02
X-137.134 Y-14.216 I8.208 J7.131
X-138.263 Y-15.33 I-7.893 J6.873
G01 X-138.341 Y-15.396
X-138.711 Y-15.686
G02 X-145.229 Y-17.85 I-6.518 J8.73
X-151.784 Y-15.657 I0.0 J10.894
X-152.639 Y-14.931 I5.72 J7.592
X-153.514 Y-13.997 I8.281 J8.648
X-156.102 Y-6.956 I8.286 J7.041
G01 Y12.953
G02 X-153.512 Y19.996 I10.873 J0.0
X-152.538 Y21.021 I9.359 J-7.918
X-151.922 Y21.548 I6.057 J-6.461
X-145.229 Y23.847 I6.694 J-8.595
X-138.711 Y21.682 I0.0 J-10.894
X-136.945 Y19.996 I-6.345 J-8.414
X-136.682 Y19.675 I-8.284 J-7.044
X-136.343 Y20.084 I8.547 J-6.722
X-134.653 Y21.682 I7.973 J-6.741
X-128.135 Y23.847 I6.518 J-8.729
X-121.617 Y21.682 I0.0 J-10.894
X-120.027 Y20.198 I-6.137 J-8.174
G01 X-119.803 Y19.939
G02 X-119.589 Y19.675 I-8.332 J-6.986
X-119.213 Y20.126 I8.547 J-6.722
X-117.639 Y21.624 I8.197 J-7.042
G01 X-117.607 Y21.649
X-117.559 Y21.682
G02 X-111.042 Y23.847 I6.518 J-8.729
X-104.49 Y21.657 I0.0 J-10.894
X-103.072 Y20.351 I-5.873 J-7.802
G01 X-102.816 Y20.064
X-102.758 Y19.996
G02 X-102.495 Y19.675 I-8.284 J-7.044
X-102.146 Y20.096 I8.547 J-6.722
X-100.466 Y21.682 I7.94 J-6.728
X-93.948 Y23.847 I6.518 J-8.729
X-87.43 Y21.682 I0.0 J-10.894
X-85.77 Y20.118 I-6.231 J-8.28
X-85.402 Y19.675 I-8.178 J-7.166
X-85.026 Y20.126 I8.547 J-6.722
X-83.893 Y21.265 I8.479 J-7.301
X-83.663 Y21.457 I4.776 J-5.487
X-76.855 Y23.847 I6.809 J-8.504
X-70.337 Y21.682 I0.0 J-10.894
X-68.677 Y20.118 I-6.143 J-8.186
X-68.308 Y19.675 I-8.178 J-7.166
X-67.948 Y20.108 I8.547 J-6.722
X-66.279 Y21.682 I7.945 J-6.755
X-59.761 Y23.847 I6.518 J-8.729
X-53.076 Y21.555 I0.0 J-10.894
X-52.465 Y21.034 I-5.532 J-7.118
X-51.478 Y19.996 I-8.046 J-8.64
X-51.215 Y19.675 I-8.284 J-7.044
X-50.839 Y20.126 I8.547 J-6.722
X-49.892 Y21.1 I8.545 J-7.36
X-49.336 Y21.567 I6.08 J-6.669
X-42.668 Y23.847 I6.669 J-8.615
X-36.15 Y21.682 I0.0 J-10.894
X-34.49 Y20.118 I-6.168 J-8.213
X-34.121 Y19.675 I-8.178 J-7.166
X-33.751 Y20.121 I8.547 J-6.722
X-32.249 Y21.562 I8.062 J-6.894
G01 X-32.139 Y21.649
X-32.092 Y21.682
G02 X-25.574 Y23.847 I6.518 J-8.729
X-19.056 Y21.682 I0.0 J-10.894
X-17.396 Y20.118 I-6.191 J-8.238
X-17.028 Y19.675 I-8.178 J-7.166
X-16.652 Y20.126 I8.547 J-6.722
X-15.5 Y21.282 I8.349 J-7.171
X-15.291 Y21.456 I4.75 J-5.495
X-8.481 Y23.847 I6.81 J-8.503
X-1.963 Y21.682 I0.0 J-10.894
X-.303 Y20.118 I-6.204 J-8.252
X.066 Y19.675 I-8.178 J-7.166
X.442 Y20.126 I8.547 J-6.722
X1.565 Y21.258 I8.873 J-7.682
G01 X2.012 Y21.621
X2.095 Y21.682
G02 X8.613 Y23.847 I6.518 J-8.729
X15.231 Y21.606 I0.0 J-10.894
X15.881 Y21.06 I-5.615 J-7.343
X16.791 Y20.118 I-7.705 J-8.357
X17.16 Y19.675 I-8.178 J-7.166
X17.434 Y20.01 I8.547 J-6.722
X18.403 Y21.027 I9.134 J-7.723
X19.001 Y21.539 I6.081 J-6.509
X25.706 Y23.847 I6.705 J-8.586
X32.224 Y21.682 I0.0 J-10.894
X33.884 Y20.118 I-6.18 J-8.226
X34.253 Y19.675 I-8.178 J-7.166
X34.629 Y20.126 I8.547 J-6.722
X35.986 Y21.455 I8.37 J-7.196
X36.282 Y21.682 I3.693 J-4.503
X42.8 Y23.847 I6.518 J-8.729
X49.318 Y21.682 I0.0 J-10.894
X50.978 Y20.118 I-6.088 J-8.128
X51.347 Y19.675 I-8.178 J-7.166
X51.722 Y20.126 I8.547 J-6.722
X52.631 Y21.066 I8.648 J-7.457
X53.205 Y21.552 I6.099 J-6.618
X59.893 Y23.847 I6.688 J-8.6
X66.411 Y21.682 I0.0 J-10.894
X68.071 Y20.118 I-6.189 J-8.235
X68.44 Y19.675 I-8.178 J-7.166
X68.816 Y20.126 I8.547 J-6.722
X69.838 Y21.168 I8.685 J-7.503
X70.252 Y21.516 I5.59 J-6.234
X76.987 Y23.847 I6.735 J-8.563
X83.505 Y21.682 I0.0 J-10.894
X85.165 Y20.118 I-6.127 J-8.169
X85.534 Y19.675 I-8.178 J-7.166
X85.909 Y20.126 I8.547 J-6.722
X86.947 Y21.183 I8.644 J-7.452
G01 X87.436 Y21.588
X87.563 Y21.682
G02 X94.08 Y23.847 I6.518 J-8.729
X100.599 Y21.681 I0.0 J-10.894
X101.699 Y20.724 I-5.644 J-7.591
G01 X101.758 Y20.663
G02 X102.258 Y20.118 I-7.715 J-7.594
X102.627 Y19.675 I-8.178 J-7.166
X103.003 Y20.126 I8.547 J-6.722
X103.862 Y21.019 I9.201 J-7.993
X104.447 Y21.522 I5.981 J-6.371
X111.174 Y23.847 I6.727 J-8.569
X117.693 Y21.681 I0.0 J-10.894
X119.457 Y19.996 I-6.352 J-8.419
X119.721 Y19.675 I-8.284 J-7.044
X120.096 Y20.126 I8.547 J-6.722
X120.987 Y21.049 I8.782 J-7.587
X121.568 Y21.544 I6.078 J-6.554
X128.267 Y23.847 I6.699 J-8.591
X134.926 Y21.575 I0.0 J-10.894
X135.578 Y21.02 I-5.499 J-7.121
G01 X135.673 Y20.931
G02 X136.445 Y20.118 I-7.467 J-7.872
X136.814 Y19.675 I-8.178 J-7.166
X137.191 Y20.128 I8.547 J-6.722
X138.249 Y21.201 I8.637 J-7.462
X138.652 Y21.536 I5.559 J-6.261
X145.361 Y23.847 I6.709 J-8.583
X156.255 Y12.953 I0.0 J-10.894
G01 Y-1.627
G02 X145.361 Y-12.521 I-10.894 J0.0
X138.738 Y-10.277 I0.0 J10.894
X138.397 Y-10.003 I5.63 J7.353
X136.511 Y-13.141 I-10.13 J3.952
X135.111 Y-14.527 I-7.876 J6.554
X128.267 Y-16.945 I-6.844 J8.476
X121.421 Y-14.526 I0.0 J10.894
X120.697 Y-13.868 I5.338 J6.608
X120.229 Y-13.377 I6.501 J6.657
X119.489 Y-14.365 I-9.056 J6.019
X118.597 Y-15.33 I-9.483 J7.859
G01 X118.22 Y-15.67
X118.147 Y-15.728
G02 X111.174 Y-18.252 I-6.974 J8.37
X104.49 Y-15.961 I0.0 J10.894
X103.725 Y-15.296 I5.565 J7.174
X103.248 Y-16.121 I-9.644 J5.022
X102.187 Y-17.552 I-8.486 J5.182
X94.08 Y-21.168 I-8.106 J7.278
X87.138 Y-18.67 I0.0 J10.894
X86.276 Y-17.858 I5.729 J6.947
X85.79 Y-17.31 I9.242 J8.684
X85.534 Y-16.996 I8.291 J7.035
X85.277 Y-17.31 I-8.545 J6.724
X83.914 Y-18.682 I-7.698 J6.282
X76.987 Y-21.168 I-6.928 J8.408
X70.362 Y-18.923 I0.0 J10.894
X68.834 Y-17.468 I6.364 J8.219
X68.188 Y-18.31 I-8.94 J6.189
X66.831 Y-19.68 I-7.725 J6.3
X59.893 Y-22.174 I-6.937 J8.4
X53.268 Y-19.928 I0.0 J10.894
X51.757 Y-18.493 I6.179 J8.02
X51.544 Y-18.245 I8.136 J7.214
X51.033 Y-18.885 I-8.744 J6.463
X50.356 Y-19.618 I-9.825 J8.391
X49.702 Y-20.211 I-6.221 J6.204
X42.8 Y-22.677 I-6.902 J8.429
X41.312 Y-22.575 I0.0 J10.894
X36.277 Y-20.508 I1.488 J10.792 F2188.
X36.174 Y-20.43 I6.522 J8.726 F1875.
X34.567 Y-18.885 I6.359 J8.225
X34.372 Y-18.652 I8.233 J7.103
X33.89 Y-19.243 I-8.665 J6.568
X32.403 Y-20.679 I-7.945 J6.742
G01 X32.393 Y-20.685
G02 X27.41 Y-22.844 I-6.687 J8.6
X25.706 Y-22.978 I-1.704 J10.76 F2500.
X19.08 Y-20.732 I0.0 J10.894
X17.57 Y-19.298 I6.316 J8.163
X17.239 Y-18.905 I8.136 J7.214
X16.791 Y-19.451 I-8.626 J6.62
X15.91 Y-20.368 I-8.703 J7.481
X15.44 Y-20.775 I-5.834 J6.263
X8.613 Y-23.179 I-6.827 J8.489
X1.829 Y-20.809 I0.0 J10.894
X1.137 Y-20.198 I5.571 J7.
X.33 Y-19.33 I8.939 J9.119
X.086 Y-19.032 I8.283 J7.044
X-.328 Y-19.53 I-8.567 J6.697
X-1.86 Y-20.987 I-7.801 J6.669
X-8.481 Y-23.23 I-6.621 J8.651
X-15.106 Y-20.984 I0.0 J10.894
X-16.093 Y-20.11 I5.412 J7.113
X-16.617 Y-19.549 I7.089 J7.139
X-17.087 Y-18.981 I8.136 J7.214
X-17.378 Y-19.33 I-8.487 J6.797
X-18.999 Y-20.871 I-7.923 J6.71
X-25.574 Y-23.079 I-6.576 J8.686
X-32.2 Y-20.833 I0.0 J10.894
X-33.71 Y-19.398 I6.327 J8.176
X-34.22 Y-18.779 I8.136 J7.214
X-34.551 Y-19.169 I-8.448 J6.846
X-36.104 Y-20.628 I-7.788 J6.731
X-42.668 Y-22.828 I-6.564 J8.695
X-49.293 Y-20.581 I0.0 J10.894
X-50.291 Y-19.699 I5.493 J7.212
X-50.838 Y-19.108 I7.512 J7.512
X-51.373 Y-18.449 I8.171 J7.174
X-51.656 Y-18.779 I-8.389 J6.918
X-53.219 Y-20.243 I-7.72 J6.68
X-59.761 Y-22.425 I-6.542 J8.711
X-66.387 Y-20.179 I0.0 J10.894
X-67.351 Y-19.33 I5.505 J7.219
X-67.897 Y-18.745 I7.101 J7.183
X-68.525 Y-17.967 I8.136 J7.214
X-68.743 Y-18.219 I-8.33 J6.989
X-70.328 Y-19.701 I-7.676 J6.621
X-76.855 Y-21.872 I-6.527 J8.723
X-83.48 Y-19.626 I0.0 J10.894
X-84.997 Y-18.184 I6.258 J8.104
X-85.678 Y-17.333 I8.143 J7.206
X-85.748 Y-17.414 I-8.271 J7.059
X-87.429 Y-19.003 I-7.891 J6.67
X-93.948 Y-21.168 I-6.519 J8.729
X-100.574 Y-18.922 I0.0 J10.894
X-102.084 Y-17.488 I6.393 J8.245
X-102.83 Y-16.547 I8.136 J7.214
X-104.524 Y-18.149 I-7.992 J6.756
X-111.042 Y-20.314 I-6.518 J8.729
X-117.667 Y-18.068 I0.0 J10.894
X-119.181 Y-16.629 I6.284 J8.131
X-120.097 Y-15.438 I8.139 J7.21
X-120.813 Y-16.169 I-9.098 J8.191
X-121.452 Y-16.716 I-6.142 J6.537
X-128.135 Y-19.007 I-6.683 J8.603
X-134.691 Y-16.813 I0.0 J10.894
X-135.235 Y-16.372 I5.431 J7.253
G01 X-136.224 Y-17.5
X-138.714
X-143.41 Y-19.216
G02 X-145.229 Y-19.35 I-1.818 J12.26 F1500.
X-152.5 Y-16.993 I0.0 J12.394
G01 Y-18.497 F1313.
Y-20. F1125.
X-147.
X-143.044 F1500.
G02 X-143.41 Y-19.216 I4.33 J2.5
G01 X-138.714 Y-17.5 F2500.
Y-25.
X-146.5
X-152. F2188.
X-157.5 F1875.
Y-19.5
Y14. F2500.
Y19.5 F2188.
Y25. F1875.
X-152.
X0.0 F2500.
Y30.5
Z.008
G00 Z.206
G01 Z-.191
Z-1.191 F1000.
Y25.
X146.5 F2500.
X152. F2188.
X157.5 F1875.
Y19.5
Y-14. F2500.
Y-19.5 F2188.
Y-25. F1875.
X152.
X133.359 F2500.
Y-17.5
G03 X136.138 Y-15.8 I-5.091 J11.449 F1500.
X137.778 Y-14.077 I-5.816 J7.175
X138.57 Y-12.929 I-19.7 J14.437
X138.919 Y-12.374 I-10.303 J6.877
X145.361 Y-14.157 I6.442 J10.747
X150. Y-13.266 I0.0 J12.53
G01 Y-17.5 F2500.
X133.359
X128.267 Y-19.437 F1500.
X133.359 Y-17.5 F2500.
Y-25.
X118.532
Y-17.5
G03 X119.192 Y-16.987 I-7.358 J10.142 F1500.
X120.384 Y-15.788 I-5.885 J7.043
X120.729 Y-16.06 I5.869 J7.104
X123.176 Y-17.5 I7.538 J10.008
G01 X118.532 F2500.
X113.98 Y-19.57
G02 X111.174 Y-19.888 I-2.807 J12.211 F1500.
X104.132 Y-17.722 I0.0 J12.53
X103.57 Y-18.456 I-6.538 J4.418
X101.98 Y-20. I-9.49 J8.181
G01 X114.202
G02 X113.98 Y-19.57 I4.33 J2.5
G01 X118.532 Y-17.5 F2500.
Y-25.
X-138.459
Y-17.5
G03 X-137.732 Y-16.996 I-6.769 J10.544 F1500.
X-137.253 Y-16.612 I-5.808 J7.747
X-137.043 Y-16.855 I10.061 J8.465
X-136.414 Y-17.5 I6.946 J6.14
G01 X-135.392 Y-16.402 F2500.
G02 X-135.919 Y-15.862 I5.295 J5.687
X-136.692 Y-14.886 I8.727 J7.714
X-137.099 Y-14.295 I18.208 J12.948
X-138.63 Y-15.794 I-6.442 J5.046
X-145.229 Y-17.986 I-6.599 J8.838
X-151.866 Y-15.765 I0.0 J11.03
X-153.33 Y-14.331 I4.722 J6.284
X-154.288 Y-12.994 I12.836 J10.21
X-156.116 Y-6.956 I9.06 J6.038
G01 Y12.953
G02 X-154.282 Y19. I10.887 J0.0
X-153.33 Y20.326 I14.106 J-9.118
X-151.828 Y21.791 I6.454 J-5.119
X-145.229 Y23.983 I6.599 J-8.838
X-138.63 Y21.791 I0.0 J-11.03
X-137.633 Y20.902 I-4.62 J-6.187
X-136.682 Y19.74 I-7.744 J-7.305
X-135.546 Y21.094 I8.494 J-5.976
X-134.909 Y21.658 I4.785 J-4.767
X-128.135 Y23.983 I6.774 J-8.705
X-121.536 Y21.791 I0.0 J-11.03
X-120.25 Y20.586 I-4.721 J-6.33
X-119.589 Y19.74 I-8.804 J-7.565
X-118.432 Y21.113 I8.292 J-5.815
X-117.757 Y21.703 I4.97 J-5.006
X-111.042 Y23.983 I6.715 J-8.75
X-104.443 Y21.791 I0.0 J-11.03
X-103.035 Y20.441 I-4.771 J-6.382
X-102.495 Y19.74 I-7.528 J-6.364
X-101.251 Y21.198 I8.333 J-5.851
X-100.743 Y21.641 I4.413 J-4.55
X-93.948 Y23.983 I6.795 J-8.688
X-87.394 Y21.824 I0.0 J-11.03
X-85.829 Y20.306 I-4.941 J-6.659
G01 X-85.76 Y20.218
X-85.457 Y19.819
X-85.402 Y19.74
G02 X-84.266 Y21.092 I8.311 J-5.834
X-83.536 Y21.729 I5.113 J-5.12
X-76.855 Y23.983 I6.681 J-8.776
X-70.258 Y21.792 I0.0 J-11.03
X-69.037 Y20.663 I-4.539 J-6.133
X-68.308 Y19.741 I-8.727 J-7.644
X-67.278 Y20.988 I9.046 J-6.423
X-66.36 Y21.791 I5.288 J-5.119
X-59.761 Y23.983 I6.599 J-8.838
X-53.162 Y21.791 I0.0 J-11.03
X-51.542 Y20.177 I-4.975 J-6.614
G01 X-51.274 Y19.822
X-51.215 Y19.74
G02 X-50.062 Y21.107 I8.216 J-5.758
X-49.267 Y21.791 I4.929 J-4.931
X-42.668 Y23.983 I6.599 J-8.838
X-36.065 Y21.788 I0.0 J-11.03
X-34.799 Y20.607 I-4.769 J-6.382
X-34.121 Y19.74 I-8.781 J-7.567
X-33.304 Y20.76 I9.157 J-6.504
X-32.173 Y21.791 I5.698 J-5.115
X-25.574 Y23.983 I6.599 J-8.838
X-18.975 Y21.791 I0.0 J-11.03
X-17.566 Y20.441 I-4.841 J-6.464
X-17.028 Y19.74 I-9.516 J-7.871
X-15.876 Y21.107 I8.411 J-5.916
X-15.085 Y21.789 I5.169 J-5.203
G01 X-15.08 Y21.791
G02 X-8.481 Y23.983 I6.599 J-8.838
X-1.882 Y21.791 I0.0 J-11.03
X-.224 Y20.129 I-5.02 J-6.668
G01 X.066 Y19.74
G02 X1.115 Y21.007 I8.791 J-6.215
X1.847 Y21.664 I4.981 J-4.814
X8.613 Y23.983 I6.766 J-8.711
X15.216 Y21.787 I0.0 J-11.03
X16.622 Y20.439 I-4.769 J-6.38
G01 X16.802 Y20.218
X17.099 Y19.824
X17.159 Y19.74
G02 X18.308 Y21.107 I8.401 J-5.897
X18.927 Y21.653 I4.754 J-4.762
X25.706 Y23.983 I6.78 J-8.7
X32.305 Y21.791 I0.0 J-11.03
X33.894 Y20.218 I-5.002 J-6.641
G01 X34.198 Y19.819
X34.253 Y19.74
G02 X35.092 Y20.784 I8.962 J-6.345
X36.201 Y21.791 I5.52 J-4.967
X42.8 Y23.983 I6.599 J-8.838
X49.402 Y21.788 I0.0 J-11.03
X50.796 Y20.458 I-4.802 J-6.427
X51.347 Y19.741 I-10.405 J-8.56
X52.478 Y21.091 I8.704 J-6.146
X53.062 Y21.612 I4.543 J-4.497
X59.893 Y23.983 I6.831 J-8.66
X66.504 Y21.782 I0.0 J-11.03
X67.978 Y20.347 I-4.779 J-6.382
G01 X68.172 Y20.102
X68.416 Y19.774
X68.44 Y19.74
G02 X69.597 Y21.113 I8.251 J-5.786
X70.317 Y21.738 I5.108 J-5.155
X76.987 Y23.983 I6.67 J-8.785
X83.586 Y21.79 I0.0 J-11.03
X85.048 Y20.377 I-4.8 J-6.427
G01 X85.175 Y20.218
X85.494 Y19.796
X85.533 Y19.74
G02 X86.408 Y20.825 I9.088 J-6.429
X87.352 Y21.693 I5.451 J-4.987
X94.08 Y23.983 I6.728 J-8.74
X100.68 Y21.79 I0.0 J-11.03
X102.146 Y20.372 I-4.967 J-6.598
X102.627 Y19.741 I-10.821 J-8.751
X103.447 Y20.766 I9.911 J-7.082
X104.399 Y21.656 I5.38 J-4.797
X111.174 Y23.983 I6.775 J-8.704
X117.774 Y21.79 I0.0 J-11.03
X118.909 Y20.754 I-4.505 J-6.079
X119.72 Y19.741 I-8.768 J-7.849
X120.474 Y20.69 I9.32 J-6.623
X121.667 Y21.789 I5.65 J-4.932
X128.267 Y23.983 I6.601 J-8.837
X130.011 Y23.844 I0.0 J-11.03
X134.87 Y21.788 I-1.744 J-10.891 F2188.
X135.007 Y21.683 I-4.808 J-6.434
X136.368 Y20.328 I-4.945 J-6.329 F1875.
G01 X136.498 Y20.164
X136.814 Y19.741
G02 X138.355 Y21.466 I7.875 J-5.481
G01 X138.758 Y21.792
X138.802 Y21.821
G02 X143.789 Y23.87 I6.559 J-8.868
X145.361 Y23.983 I1.571 J-10.917 F2500.
X156.391 Y12.953 I0.0 J-11.03
G01 Y-1.627
G02 X145.361 Y-12.657 I-11.03 J0.0
X138.759 Y-10.463 I0.0 J11.03
G01 X138.357 Y-10.141
G02 X137.317 Y-12.104 I-10.09 J4.09
X136.567 Y-13.192 I-19.24 J12.464
X135.196 Y-14.633 I-6.245 J4.566
X128.267 Y-17.081 I-6.929 J8.582
X121.63 Y-14.86 I0.0 J11.03
X120.193 Y-13.459 I4.623 J6.176
G01 X120.173 Y-13.494
X119.688 Y-14.22
X119.58 Y-14.371
G02 X118.232 Y-15.834 I-6.274 J4.427
X111.174 Y-18.388 I-7.058 J8.476
X104.325 Y-16.004 I0.0 J11.03
X103.683 Y-15.422 I4.049 J5.111
X103.028 Y-16.667 I-9.19 J4.038
X102.434 Y-17.476 I-5.434 J3.364
X94.08 Y-21.304 I-8.354 J7.202
X87.052 Y-18.775 I0.0 J11.03
X85.533 Y-17.082 I5.195 J6.187
X84.001 Y-18.787 I-6.869 J4.634
X76.987 Y-21.304 I-7.014 J8.512
X70.28 Y-19.031 I0.0 J11.03
X68.803 Y-17.546 I4.909 J6.357
X67.948 Y-18.749 I-10.846 J6.803
X66.954 Y-19.754 I-5.541 J4.491
X59.893 Y-22.31 I-7.06 J8.474
X53.186 Y-20.036 I0.0 J11.03
X51.528 Y-18.314 I5.205 J6.669
X50.834 Y-19.256 I-11.584 J7.809
X49.713 Y-20.377 I-5.721 J4.597
X42.8 Y-22.812 I-6.914 J8.594
X36.092 Y-20.538 I0.0 J11.03
X34.486 Y-18.885 I5.088 J6.55
G01 X34.362 Y-18.717
G02 X33.579 Y-19.745 I-10.076 J6.865
X32.627 Y-20.672 I-5.385 J4.573
X25.706 Y-23.114 I-6.921 J8.588
X18.999 Y-20.84 I0.0 J11.03
X17.503 Y-19.33 I4.882 J6.331
G01 X17.23 Y-18.971
G02 X16.316 Y-20.132 I-9.026 J6.161
X15.359 Y-21.012 I-5.307 J4.819
X8.613 Y-23.315 I-6.746 J8.726
X1.992 Y-21.107 I0.0 J11.03
X.447 Y-19.58 I4.798 J6.399
G01 X.084 Y-19.098
G02 X-.615 Y-19.996 I-9.796 J6.91
X-1.777 Y-21.094 I-5.66 J4.824
X-8.481 Y-23.365 I-6.704 J8.759
X-15.188 Y-21.092 I0.0 J11.03
X-16.533 Y-19.774 I4.755 J6.198
X-17.083 Y-19.048 I16.206 J12.837
X-18.051 Y-20.221 I-9.231 J6.636
X-18.568 Y-20.704 I-4.102 J3.877
X-25.574 Y-23.215 I-7.006 J8.519
X-32.282 Y-20.94 I0.0 J11.03
X-33.751 Y-19.466 I4.919 J6.368
G01 X-34.198 Y-18.866
X-34.213 Y-18.843
G02 X-35.092 Y-19.909 I-8.31 J5.96
X-36.022 Y-20.736 I-5.248 J4.962
X-42.668 Y-22.963 I-6.646 J8.803
X-49.379 Y-20.686 I0.0 J11.03
X-50.443 Y-19.695 I4.596 J5.994
X-51.357 Y-18.517 I8.797 J7.776
X-52.526 Y-19.847 I-8.668 J6.438
X-53.138 Y-20.351 I-7.541 J8.531
X-59.761 Y-22.561 I-6.623 J8.82
X-66.469 Y-20.287 I0.0 J11.03
X-67.881 Y-18.885 I4.841 J6.288
G01 X-67.948 Y-18.799
G02 X-68.505 Y-18.037 I11.152 J8.744
X-70.251 Y-19.813 I-6.905 J5.043
X-76.855 Y-22.008 I-6.604 J8.835
X-83.563 Y-19.734 I0.0 J11.03
X-84.935 Y-18.385 I5. J6.462
G01 X-85.257 Y-17.961
G02 X-85.655 Y-17.403 I9.323 J7.075
X-87.394 Y-19.145 I-6.773 J5.019
X-93.948 Y-21.304 I-6.554 J8.871
X-100.656 Y-19.03 I0.0 J11.03
X-101.922 Y-17.808 I4.7 J6.135
X-102.803 Y-16.619 I12.075 J9.868
X-104.443 Y-18.258 I-6.63 J4.995
X-111.042 Y-20.449 I-6.599 J8.838
X-117.75 Y-18.175 I0.0 J11.03
X-119.07 Y-16.887 I4.701 J6.136
X-120.06 Y-15.52 I12.968 J10.441
X-121.536 Y-16.951 I-6.467 J5.196
X-128.135 Y-19.142 I-6.599 J8.838
X-134.774 Y-16.921 I0.0 J11.03
X-135.392 Y-16.402 I4.677 J6.206
G01 X-136.414 Y-17.5
X-138.459
X-143.121 Y-19.307
G02 X-145.229 Y-19.486 I-2.107 J12.351 F1500.
X-152.5 Y-17.16 I0.0 J12.53
G01 Y-18.58 F1313.
Y-20. F1125.
X-147.
X-142.79 F1500.
G02 X-143.121 Y-19.307 I4.33 J2.5
G01 X-138.459 Y-17.5 F2500.
Y-25.
X-146.5
X-152. F2188.
X-157.5 F1875.
Y-19.5
Y14. F2500.
Y19.5 F2188.
Y25. F1875.
X-152.
X0.0 F2500.
Y30.5
Z-.191
G00 Z.008
G01 Z-.389
Z-1.389 F1000.
Y25.
X146.5 F2500.
X152. F2188.
X157.5 F1875.
Y19.5
Y-14. F2500.
Y-19.5 F2188.
Y-25. F1875.
X152.
X134.13 F2500.
Y-17.5
G03 X136.272 Y-16.119 I-5.863 J11.449 F1500.
X137.669 Y-14.723 I-6.063 J7.46
X138.845 Y-12.717 I-5.838 J4.769
X145.361 Y-14.49 I6.516 J11.09
X150. Y-13.624 I0.0 J12.863
G01 Y-17.5 F2500.
X134.13
X128.267 Y-19.483 F1500.
X134.13 Y-17.5 F2500.
Y-25.
X119.086
Y-17.5
G03 X119.34 Y-17.297 I-7.912 J10.142 F1500.
X120.415 Y-16.24 I-6.08 J7.261
X120.552 Y-16.344 I3.438 J4.4
G01 X120.653 Y-16.418
G03 X122.404 Y-17.5 I7.614 J10.367
G01 X119.086 F2500.
X114.321 Y-19.919 F1500.
X119.086 Y-17.5 F2500.
Y-25.
X-137.861
Y-17.5
G03 X-137.775 Y-17.439 I-7.367 J10.544 F1500.
G01 X-137.749 Y-17.42
X-137.459 Y-17.204
G03 X-137.414 Y-17.169 I-.896 J1.203
X-137.273 Y-17.054 I-6.53 J8.109
X-136.865 Y-17.5 I7.333 J6.291
G01 X-135.79 Y-16.454 F2500.
G02 X-136.548 Y-15.553 I5.85 J5.691
X-137.059 Y-14.718 I5.057 J3.666
X-138.355 Y-16.001 I-6.885 J5.657
G01 X-138.645 Y-16.217
G02 X-145.229 Y-18.319 I-6.584 J9.261
X-152.054 Y-16.041 I0.0 J11.363
X-153.538 Y-14.539 I5.102 J6.527
X-154.282 Y-13.272 I4.844 J3.696
G03 X-154.898 Y-11.99 I-17.216 J-7.483
G02 X-156.13 Y-6.956 I9.669 J5.034
G01 Y12.953
G02 X-154.902 Y17.98 I10.901 J0.0
G03 X-154.447 Y18.885 I-32.459 J16.869
G02 X-153.44 Y20.663 I6.061 J-2.258
X-152.012 Y22.068 I6.826 J-5.507
X-145.229 Y24.315 I6.784 J-9.115
X-138.438 Y22.063 I0.0 J-11.363
X-137.237 Y20.928 I-5.781 J-7.319
X-136.682 Y20.206 I-4.896 J-4.338
X-135.519 Y21.552 I6.355 J-4.317
X-134.92 Y22.068 I4.689 J-4.839
X-128.135 Y24.315 I6.785 J-9.115
X-121.344 Y22.063 I0.0 J-11.363
X-120.107 Y20.885 I-5.717 J-7.247
X-119.589 Y20.206 I-4.878 J-4.257
X-117.826 Y22.068 I6.914 J-4.782
X-111.042 Y24.315 I6.784 J-9.115
X-104.258 Y22.068 I0.0 J-11.363
X-103.213 Y21.107 I-5.578 J-7.11
X-102.495 Y20.206 I-5.369 J-5.015
X-100.733 Y22.068 I6.897 J-4.764
X-93.948 Y24.315 I6.785 J-9.115
X-87.157 Y22.063 I0.0 J-11.363
X-86.307 Y21.299 I-5.145 J-6.585
X-85.402 Y20.206 I-4.925 J-4.998
X-83.646 Y22.063 I6.94 J-4.804
X-76.855 Y24.315 I6.791 J-9.11
X-70.064 Y22.063 I0.0 J-11.363
X-68.842 Y20.904 I-5.778 J-7.314
X-68.308 Y20.206 I-4.85 J-4.264
X-66.546 Y22.068 I6.951 J-4.815
X-59.761 Y24.315 I6.785 J-9.115
X-52.97 Y22.063 I0.0 J-11.363
X-51.908 Y21.079 I-5.704 J-7.224
X-51.215 Y20.206 I-5.56 J-5.127
X-50.434 Y21.172 I5.965 J-4.021
G01 X-50.345 Y21.264
G02 X-49.452 Y22.068 I5.999 J-5.771
X-42.668 Y24.315 I6.784 J-9.115
X-35.884 Y22.068 I0.0 J-11.363
X-35.229 Y21.499 I-4.208 J-5.499
X-34.121 Y20.206 I-5.16 J-5.543
X-33.08 Y21.436 I6.359 J-4.326
X-32.359 Y22.068 I5.487 J-5.536
X-25.574 Y24.315 I6.785 J-9.115
X-18.79 Y22.068 I0.0 J-11.363
X-18.105 Y21.471 I-4.704 J-6.09
X-17.028 Y20.206 I-5.237 J-5.55
X-15.27 Y22.064 I6.905 J-4.77
X-8.481 Y24.315 I6.789 J-9.112
X-1.69 Y22.063 I0.0 J-11.363
X-.269 Y20.663 I-5.531 J-7.036
G01 X-.224 Y20.605
X.066 Y20.206
G02 X1.883 Y22.108 I6.866 J-4.742
X8.613 Y24.315 I6.73 J-9.156
X15.397 Y22.068 I0.0 J-11.363
X16.764 Y20.739 I-5.574 J-7.099
X17.159 Y20.206 I-4.667 J-3.879
X18.105 Y21.342 I6.239 J-4.231
X18.922 Y22.068 I6.023 J-5.957
X25.706 Y24.315 I6.784 J-9.115
X32.497 Y22.063 I0.0 J-11.363
X33.556 Y21.083 I-5.485 J-6.987
X34.253 Y20.206 I-5.804 J-5.328
X36.006 Y22.06 I6.942 J-4.805
X42.8 Y24.315 I6.794 J-9.108
X49.591 Y22.063 I0.0 J-11.363
X50.738 Y20.986 I-5.626 J-7.143
X51.346 Y20.206 I-5.175 J-4.663
X52.746 Y21.769 I6.758 J-4.643
X53.23 Y22.157 I3.939 J-4.421
X59.893 Y24.315 I6.663 J-9.204
X66.684 Y22.063 I0.0 J-11.363
X67.948 Y20.854 I-5.599 J-7.119
X68.44 Y20.206 I-4.972 J-4.282
X70.325 Y22.158 I6.795 J-4.676
X76.987 Y24.315 I6.661 J-9.205
X83.585 Y22.204 I0.0 J-11.363
X85.159 Y20.713 I-5.068 J-6.927
X85.533 Y20.206 I-4.966 J-4.065
X87.296 Y22.068 I6.922 J-4.788
X94.08 Y24.315 I6.784 J-9.115
X100.679 Y22.203 I0.0 J-11.363
X102.627 Y20.206 I-4.86 J-6.689
X103.79 Y21.552 I6.404 J-4.36
X104.378 Y22.059 I5.2 J-5.429
X110.006 Y24.255 I6.796 J-9.107
X111.174 Y24.315 I1.168 J-11.302 F2188.
X115.399 Y23.5 I0.0 J-11.363
X117.765 Y22.208 I-4.226 J-10.548 F1875.
X119.387 Y20.663 I-5.094 J-6.969
G01 X119.714 Y20.218
X119.72 Y20.206
G02 X120.921 Y21.588 I6.437 J-4.381
X121.474 Y22.061 I4.689 J-4.917
X124.015 Y23.49 I6.793 J-9.109
X128.267 Y24.315 I4.252 J-10.537 F2500.
X135.06 Y22.062 I0.0 J-11.363
X136.096 Y21.107 I-5.827 J-7.367
X136.814 Y20.206 I-5.296 J-4.954
X138.568 Y22.061 I6.913 J-4.778
X145.361 Y24.315 I6.793 J-9.109
X156.723 Y12.953 I0.0 J-11.363
G01 Y-1.627
G02 X145.361 Y-12.99 I-11.363 J0.0
X138.567 Y-10.735 I0.0 J11.363
G01 X138.288 Y-10.511
X138.235 Y-10.465
G02 X137.936 Y-11.087 I-9.967 J4.414
G03 X137.588 Y-11.776 I51.744 J-26.544
G02 X136.506 Y-13.775 I-5.757 J1.822
X135.339 Y-14.945 I-6.297 J5.116
X128.267 Y-17.414 I-7.072 J8.894
X121.54 Y-15.208 I0.0 J11.363
G01 X121.439 Y-15.134
G02 X121.089 Y-14.847 I2.414 J3.294
G01 X120.921 Y-14.688
G02 X120.189 Y-13.927 I6.942 J7.401
X119.372 Y-15.151 I-6.028 J3.137
X118.387 Y-16.138 I-6.112 J5.116
X111.174 Y-18.721 I-7.214 J8.779
X104.374 Y-16.462 I0.0 J11.363
X103.767 Y-15.953 I4.731 J6.261
X102.886 Y-17.431 I-6.197 J2.687
X102.497 Y-17.907 I-5.564 J4.153
X94.08 Y-21.637 I-8.417 J7.633
X86.847 Y-19.037 I0.0 J11.363
X85.533 Y-17.608 I4.84 J5.767
X84.154 Y-19.091 I-6.399 J4.567
X76.987 Y-21.637 I-7.167 J8.817
X70.09 Y-19.304 I0.0 J11.363
X68.808 Y-18.036 I5.183 J6.518
X67.875 Y-19.319 I-5.766 J3.214
G01 X67.783 Y-19.418
G02 X67.116 Y-20.052 I-5.479 J5.098
X59.893 Y-22.643 I-7.222 J8.772
X52.99 Y-20.305 I0.0 J11.363
X51.527 Y-18.797 I5.117 J6.427
X49.841 Y-20.7 I-6.538 J4.092
X42.8 Y-23.145 I-7.042 J8.918
X35.896 Y-20.808 I0.0 J11.363
X34.358 Y-19.196 I5.064 J6.372
X33.304 Y-20.495 I-5.853 J3.672
X32.628 Y-21.096 I-5.144 J5.109
X25.706 Y-23.447 I-6.921 J9.011
X18.807 Y-21.112 I0.0 J11.363
X17.23 Y-19.448 I5.007 J6.321
X15.504 Y-21.32 I-6.519 J4.28
X8.613 Y-23.648 I-6.891 J9.034
X1.709 Y-21.31 I0.0 J11.363
X.083 Y-19.569 I4.943 J6.245
X-1.641 Y-21.409 I-6.513 J4.377
X-8.481 Y-23.698 I-6.84 J9.073
X-15.384 Y-21.361 I0.0 J11.363
X-17.079 Y-19.515 I4.923 J6.224
X-18.78 Y-21.292 I-6.566 J4.582
X-25.574 Y-23.547 I-6.794 J9.108
X-32.477 Y-21.21 I0.0 J11.363
X-34.208 Y-19.312 I4.899 J6.203
X-35.683 Y-20.891 I-6.688 J4.769
G01 X-35.698 Y-20.903
X-35.886 Y-21.049
X-35.892 Y-21.055
G02 X-42.668 Y-23.296 I-6.775 J9.122
X-49.571 Y-20.959 I0.0 J11.363
X-51.351 Y-18.98 I4.864 J6.167
X-52.86 Y-20.555 I-6.859 J5.061
G01 X-53.151 Y-20.773
G02 X-59.761 Y-22.894 I-6.61 J9.242
X-66.664 Y-20.557 I0.0 J11.363
X-68.23 Y-18.905 I5.015 J6.321
G01 X-68.493 Y-18.493
G02 X-70.118 Y-20.129 I-6.786 J5.117
X-76.855 Y-22.341 I-6.736 J9.151
X-83.758 Y-20.003 I0.0 J11.363
X-85.26 Y-18.441 I5.033 J6.342
G01 X-85.321 Y-18.354
X-85.637 Y-17.857
G02 X-87.088 Y-19.33 I-6.83 J5.275
G01 X-87.359 Y-19.531
G02 X-93.288 Y-21.618 I-6.589 J9.257
X-93.948 Y-21.637 I-.66 J11.344 F2188.
X-98.643 Y-20.622 I0.0 J11.363
X-100.851 Y-19.3 I4.694 J10.348 F1875.
X-102.414 Y-17.652 I5.001 J6.307
G01 X-102.481 Y-17.552
X-102.754 Y-17.108
X-102.776 Y-17.061
G02 X-104.178 Y-18.472 I-6.807 J5.356
G01 X-104.321 Y-18.579
X-104.327 Y-18.586
G02 X-107.202 Y-20.114 I-6.714 J9.167
X-111.042 Y-20.782 I-3.84 J10.694 F2500.
X-117.944 Y-18.446 I0.0 J11.363
X-119.443 Y-16.888 I5.035 J6.347
X-120.014 Y-15.934 I4.814 J3.528
X-121.2 Y-17.108 I-6.832 J5.709
X-121.547 Y-17.37 I-5.582 J7.032
X-128.135 Y-19.475 I-6.588 J9.258
X-134.961 Y-17.197 I0.0 J11.363
G01 X-134.965 Y-17.19
X-135.073 Y-17.108
G02 X-135.79 Y-16.454 I5.133 J6.345
G01 X-136.865 Y-17.5
X-137.861
X-142.439 Y-19.513
G02 X-145.229 Y-19.819 I-2.79 J12.556 F1500.
X-152.5 Y-17.566 I0.0 J12.863
G01 Y-18.783 F1313.
Y-20. F1125.
X-147.
X-142.192 F1500.
G02 X-142.439 Y-19.513 I4.33 J2.5
G01 X-137.861 Y-17.5 F2500.
Y-25.
X-146.5
X-152. F2188.
X-157.5 F1875.
Y-19.5
Y14. F2500.
Y19.5 F2188.
Y25. F1875.
X-152.
X0.0 F2500.
Y30.5
Z-.389
G00 Z-.191
G01 Z-.588
Z-1.588 F1000.
Y25.
X146.5 F2500.
X152. F2188.
X157.5 F1875.
Y19.5
Y-14. F2500.
Y-19.5 F2188.
Y-25. F1875.
X152.
X134.135 F2500.
Y-17.5
G03 X136.277 Y-16.119 I-5.868 J11.449 F1500.
X136.737 Y-15.722 I-4.732 J5.947
X138.441 Y-13.734 I-7.978 J8.564
G01 X138.471 Y-13.691
G03 X139. Y-12.81 I-6.631 J4.583
X145.361 Y-14.492 I6.36 J11.183
X150. Y-13.626 I0.0 J12.865
G01 Y-17.5 F2500.
X134.135
X128.267 Y-19.484 F1500.
X134.135 Y-17.5 F2500.
Y-25.
X119.089
Y-17.5
G03 X119.341 Y-17.298 I-7.915 J10.142 F1500.
X119.54 Y-17.128 I-4.19 J5.099
X119.579 Y-17.095 I-.961 J1.152
X119.777 Y-16.911 I-5.062 J5.669
X120.421 Y-16.246 I-7.993 J8.385
X120.536 Y-16.334 I4.081 J5.187
X122.399 Y-17.5 I7.731 J10.283
G01 X119.089 F2500.
X114.327 Y-19.92 F1500.
X119.089 Y-17.5 F2500.
Y-25.
X-137.858
Y-17.5
G03 X-137.627 Y-17.335 I-7.371 J10.544 F1500.
X-137.28 Y-17.065 I-4.491 J6.131
G01 X-137.277 Y-17.07
G03 X-136.872 Y-17.5 I8.762 J7.846
G01 X-135.806 Y-16.444 F2500.
G02 X-136.152 Y-16.077 I7.291 J7.221
X-137.131 Y-14.831 I10.351 J9.145
X-138.033 Y-15.734 I-8.252 J7.339
X-138.513 Y-16.125 I-4.085 J4.53
X-145.229 Y-18.321 I-6.716 J9.169
X-152.055 Y-16.042 I0.0 J11.365
X-152.335 Y-15.816 I3.063 J4.077
X-153.246 Y-14.92 I6.727 J7.749
X-154.277 Y-13.597 I9.81 J8.704
X-155.15 Y-11.631 I4.981 J3.391
G01 X-155.169 Y-11.553
G03 X-155.371 Y-10.99 I-6.192 J-1.897
G02 X-156.144 Y-6.956 I10.142 J4.034
G01 Y12.953
G02 X-155.313 Y17.128 I10.915 J0.0
G03 X-155.156 Y17.613 I-3.013 J1.248
G02 X-154.31 Y19.552 I5.896 J-1.418
X-152.314 Y21.829 I9.431 J-6.256
X-152.015 Y22.069 I3.278 J-3.763
X-148.052 Y23.961 I6.787 J-9.116
X-145.229 Y24.318 I2.823 J-11.009 F2188.
X-142.606 Y24.011 I0.0 J-11.365
X-138.436 Y22.065 I-2.623 J-11.058 F1875.
X-137.798 Y21.5 I-3.048 J-4.089
G01 X-137.785 Y21.501
G02 X-136.682 Y20.29 I-7.421 J-7.866
X-135.226 Y21.824 I8.868 J-6.961
X-134.921 Y22.069 I3.322 J-3.817
X-133.792 Y22.81 I6.786 J-9.117
X-128.135 Y24.318 I5.657 J-9.857 F2500.
X-121.343 Y22.065 I0.0 J-11.365
X-120.701 Y21.496 I-3.048 J-4.089
G01 X-120.7 Y21.503
X-120.693 Y21.505
X-120.689 Y21.499
G02 X-119.586 Y20.294 I-8.227 J-8.64
X-118.112 Y21.841 I8.798 J-6.907
X-117.828 Y22.069 I3.216 J-3.712
X-113.868 Y23.961 I6.787 J-9.116
X-111.042 Y24.318 I2.826 J-11.008 F2188.
X-108.422 Y24.012 I0.0 J-11.365
X-104.249 Y22.065 I-2.62 J-11.059 F1875.
X-103.612 Y21.501 I-3.048 J-4.089
G01 X-103.6 Y21.503
G02 X-102.496 Y20.291 I-7.393 J-7.844
X-100.968 Y21.883 I8.74 J-6.855
X-100.736 Y22.068 I2.892 J-3.388
X-99.607 Y22.809 I6.787 J-9.116
X-96.769 Y23.962 I5.659 J-9.856 F2500.
X-93.948 Y24.318 I2.821 J-11.009 F2188.
X-91.323 Y24.01 I0.0 J-11.365
X-87.156 Y22.065 I-2.625 J-11.058 F1875.
X-86.514 Y21.497 I-3.048 J-4.089
G01 X-86.504 Y21.5
G02 X-85.402 Y20.291 I-7.453 J-7.896
X-83.927 Y21.84 I8.823 J-6.923
X-83.649 Y22.063 I3.17 J-3.655
X-82.51 Y22.811 I6.795 J-9.11
X-79.674 Y23.963 I5.655 J-9.858 F2500.
X-76.855 Y24.318 I2.819 J-11.01 F2188.
X-74.228 Y24.01 I0.0 J-11.365
X-70.057 Y22.06 I-2.627 J-11.057 F1875.
X-69.421 Y21.497 I-3.054 J-4.085
G01 X-69.408 Y21.498
G02 X-68.309 Y20.291 I-7.416 J-7.855
X-66.831 Y21.843 I8.96 J-7.055
X-66.554 Y22.064 I3.39 J-3.948
X-65.413 Y22.813 I6.793 J-9.112
X-59.761 Y24.318 I5.652 J-9.86 F2500.
X-52.963 Y22.06 I0.0 J-11.365
X-52.328 Y21.497 I-3.054 J-4.085
G01 X-52.326 Y21.504
X-52.319 Y21.505
X-52.315 Y21.5
G02 X-51.212 Y20.293 I-8.122 J-8.536
X-49.744 Y21.836 I8.826 J-6.929
X-49.461 Y22.064 I3.201 J-3.686
X-45.493 Y23.961 I6.794 J-9.111
X-42.668 Y24.318 I2.825 J-11.008 F2188.
X-40.047 Y24.011 I0.0 J-11.365
X-35.875 Y22.065 I-2.621 J-11.059 F1875.
X-35.238 Y21.501 I-3.048 J-4.089
G01 X-35.225 Y21.502
G02 X-34.122 Y20.291 I-7.406 J-7.855
X-32.609 Y21.871 I8.815 J-6.927
X-32.368 Y22.064 I2.929 J-3.413
X-31.232 Y22.81 I6.794 J-9.111
X-25.574 Y24.318 I5.657 J-9.857 F2500.
X-18.782 Y22.065 I0.0 J-11.365
X-18.142 Y21.498 I-3.048 J-4.089
G01 X-18.136 Y21.506
X-18.128 Y21.499
G02 X-17.027 Y20.291 I-7.517 J-7.951
X-15.65 Y21.754 I8.859 J-6.956
X-15.273 Y22.064 I3.439 J-3.795
X-11.305 Y23.961 I6.793 J-9.112
X-8.481 Y24.318 I2.824 J-11.008 F2188.
X-5.859 Y24.011 I0.0 J-11.365
X-1.688 Y22.065 I-2.622 J-11.058 F1875.
X-1.051 Y21.501 I-3.048 J-4.089
G01 X-1.037
G02 X.066 Y20.29 I-7.361 J-7.812
X1.594 Y21.884 I8.719 J-6.831
X1.818 Y22.063 I2.837 J-3.323
X2.956 Y22.81 I6.795 J-9.11
X5.791 Y23.962 I5.657 J-9.857 F2500.
X8.613 Y24.318 I2.822 J-11.009 F2188.
X11.237 Y24.011 I0.0 J-11.365
X15.405 Y22.065 I-2.624 J-11.058 F1875.
X16.045 Y21.498 I-3.048 J-4.089
G01 X16.057 Y21.5
G02 X17.16 Y20.291 I-7.709 J-8.141
X18.552 Y21.768 I8.856 J-6.953
G01 X18.85 Y22.016
X18.921 Y22.07
G02 X20.052 Y22.811 I6.785 J-9.117
X22.88 Y23.961 I5.654 J-9.859 F2500.
X25.706 Y24.318 I2.826 J-11.008 F2188.
X28.326 Y24.012 I0.0 J-11.365
X32.499 Y22.065 I-2.62 J-11.059 F1875.
X33.135 Y21.502 I-3.048 J-4.089
G01 X33.148 Y21.503
G02 X34.252 Y20.291 I-7.396 J-7.846
X35.736 Y21.847 I8.941 J-7.048
X36.003 Y22.062 I3.072 J-3.545
X37.143 Y22.81 I6.796 J-9.109
X39.98 Y23.962 I5.657 J-9.857 F2500.
X42.8 Y24.318 I2.82 J-11.01 F2188.
X45.426 Y24.01 I0.0 J-11.365
X49.592 Y22.065 I-2.626 J-11.057 F1875.
X50.233 Y21.497 I-3.048 J-4.089
G01 X50.246 Y21.498
G02 X51.347 Y20.291 I-7.514 J-7.95
X52.526 Y21.573 I8.748 J-6.858
G01 X52.743 Y21.772
G02 X53.1 Y22.064 I3.436 J-3.833
X54.241 Y22.812 I6.793 J-9.112
X57.073 Y23.962 I5.653 J-9.86 F2500.
X59.893 Y24.318 I2.821 J-11.009 F2188.
X62.519 Y24.01 I0.0 J-11.365
X66.691 Y22.06 I-2.626 J-11.058 F1875.
X67.325 Y21.499 I-3.054 J-4.085
G01 X67.34
G02 X68.44 Y20.291 I-7.463 J-7.902
X69.93 Y21.853 I8.806 J-6.91
X70.192 Y22.063 I3.069 J-3.554
X71.334 Y22.812 I6.795 J-9.11
X76.987 Y24.318 I5.653 J-9.859 F2500.
X83.586 Y22.205 I0.0 J-11.365
X84.259 Y21.661 I-4.123 J-5.78
X85.534 Y20.291 I-7.573 J-8.331
X86.947 Y21.787 I8.873 J-6.968
X87.295 Y22.07 I3.365 J-3.78
X94.08 Y24.318 I6.785 J-9.117
X100.681 Y22.205 I0.0 J-11.365
X101.354 Y21.659 I-4.123 J-5.78
X102.626 Y20.292 I-7.424 J-8.18
X104.11 Y21.847 I9.021 J-7.119
G01 X104.38 Y22.063
G02 X111.174 Y24.318 I6.794 J-9.111
X117.774 Y22.205 I0.0 J-11.365
X118.447 Y21.659 I-4.123 J-5.78
X119.72 Y20.291 I-7.421 J-8.177
X121.256 Y21.89 I8.745 J-6.861
X121.472 Y22.062 I2.761 J-3.24
X125.448 Y23.963 I6.796 J-9.109
X128.267 Y24.318 I2.819 J-11.01 F2188.
X130.894 Y24.01 I0.0 J-11.365
X135.061 Y22.064 I-2.627 J-11.057 F1875.
X135.701 Y21.497 I-3.049 J-4.088
G01 X135.715 Y21.498
G02 X136.813 Y20.291 I-7.383 J-7.823
X138.3 Y21.849 I8.802 J-6.906
X138.565 Y22.062 I3.098 J-3.584
X139.709 Y22.813 I6.796 J-9.109
X145.361 Y24.318 I5.652 J-9.86 F2500.
X156.726 Y12.953 I0.0 J-11.365
G01 Y-1.627
G02 X145.361 Y-12.992 I-11.365 J0.0
X138.772 Y-10.887 I0.0 J11.365
X138.256 Y-10.489 I4.194 J5.972
G01 X138.057 Y-11.204
G02 X137.237 Y-12.837 I-6.217 J2.096
G01 X137.203 Y-12.886
G02 X135.713 Y-14.625 I-8.444 J5.729
X135.343 Y-14.945 I-4.168 J4.454
X128.267 Y-17.416 I-7.075 J8.894
X121.438 Y-15.135 I0.0 J11.365
X121.088 Y-14.847 I3.065 J4.076
X120.308 Y-14.08 I8.398 J9.318
G01 X120.25 Y-14.017
X119.951 Y-14.442
G02 X118.74 Y-15.827 I-8.167 J5.916
X118.579 Y-15.976 I-4.224 J4.401
G01 Y-15.975
G02 X118.389 Y-16.139 I-3.428 J3.776
X111.174 Y-18.723 I-7.215 J8.781
X104.372 Y-16.463 I0.0 J11.365
X103.842 Y-16.025 I4.249 J5.688
G01 X103.786 Y-16.065
G02 X102.814 Y-17.525 I-8.522 J4.618
G01 Y-17.533
X102.789 Y-17.564
G02 X102.5 Y-17.908 I-4.809 J3.753
X94.08 Y-21.639 I-8.42 J7.634
X86.839 Y-19.033 I0.0 J11.365
X85.606 Y-17.748 I5.516 J6.525
G01 X85.537 Y-17.66
X85.532 Y-17.658
X85.486 Y-17.717
X85.267 Y-17.985
G02 X84.469 Y-18.82 I-7.563 J6.425
X84.161 Y-19.089 I-4.159 J4.463
X76.987 Y-21.639 I-7.174 J8.814
X70.088 Y-19.306 I0.0 J11.365
X69.815 Y-19.082 I3.096 J4.053
X68.848 Y-18.11 I6.828 J7.76
X68.743 Y-18.262 I-8.941 J6.078
X68.384 Y-18.74 I-8.335 J5.872
X67.418 Y-19.789 I-7.781 J6.2
X67.117 Y-20.054 I-4.178 J4.444
X59.893 Y-22.645 I-7.224 J8.774
X52.986 Y-20.305 I0.0 J11.365
X52.705 Y-20.074 I3.099 J4.05
X51.55 Y-18.872 I6.894 J7.788
G01 X51.541 Y-18.884
G02 X49.992 Y-20.582 I-8.393 J6.099
X42.8 Y-23.148 I-7.193 J8.799
X35.893 Y-20.808 I0.0 J11.365
X35.611 Y-20.576 I3.1 J4.05
X34.374 Y-19.274 I6.896 J7.789
X33.009 Y-20.781 I-8.318 J6.168
X32.629 Y-21.097 I-4.095 J4.521
X25.706 Y-23.449 I-6.923 J9.013
X18.798 Y-21.108 I0.0 J11.365
G01 X18.518 Y-20.878
G02 X17.24 Y-19.524 I6.896 J7.789
G01 X17.228 Y-19.542
G02 X15.895 Y-20.998 I-8.3 J6.256
X15.505 Y-21.322 I-4.089 J4.527
X8.613 Y-23.65 I-6.893 J9.036
X1.705 Y-21.31 I0.0 J11.365
X1.424 Y-21.079 I3.1 J4.05
X.086 Y-19.648 I6.898 J7.79
X-1.238 Y-21.081 I-8.271 J6.317
X-1.428 Y-21.244 I-4.071 J4.542
G01 X-1.631 Y-21.404
G02 X-8.481 Y-23.701 I-6.85 J9.069
X-15.387 Y-21.361 I0.0 J11.365
X-15.668 Y-21.13 I3.099 J4.05
X-17.063 Y-19.625 I6.893 J7.787
G01 X-17.073 Y-19.606
X-17.092 Y-19.595
X-17.344 Y-19.909
G02 X-18.372 Y-20.963 I-7.93 J6.705
X-18.57 Y-21.132 I-4.054 J4.558
G01 X-18.571 Y-21.131
G02 X-18.779 Y-21.294 I-3.257 J3.924
X-25.574 Y-23.55 I-6.796 J9.109
X-32.481 Y-21.21 I0.0 J11.365
X-32.763 Y-20.978 I3.1 J4.05
X-34.222 Y-19.387 I6.896 J7.789
G01 X-34.267 Y-19.444
X-34.54 Y-19.774
X-34.568 Y-19.806
G02 X-35.481 Y-20.724 I-7.784 J6.831
X-35.891 Y-21.057 I-4.047 J4.564
X-42.668 Y-23.298 I-6.777 J9.123
X-49.575 Y-20.959 I0.0 J11.365
X-49.856 Y-20.727 I3.1 J4.05
X-50.961 Y-19.587 I6.896 J7.789
X-51.369 Y-19.065 I9.102 J7.537
X-51.923 Y-19.688 I-11.004 J9.234
X-52.596 Y-20.339 I-7.471 J7.047
X-53.01 Y-20.673 I-4.038 J4.572
X-59.761 Y-22.896 I-6.752 J9.142
X-66.668 Y-20.556 I0.0 J11.365
X-66.95 Y-20.325 I3.1 J4.05
X-68.263 Y-18.925 I6.896 J7.789
G01 X-68.294 Y-18.885
X-68.522 Y-18.584
G02 X-69.304 Y-19.426 I-9.84 J8.362
X-69.687 Y-19.783 I-7.34 J7.491
X-70.117 Y-20.131 I-4.046 J4.565
X-76.855 Y-22.343 I-6.738 J9.152
X-83.762 Y-20.003 I0.0 J11.365
X-84.043 Y-19.772 I3.1 J4.05
X-85.357 Y-18.372 I6.896 J7.789
G01 X-85.675 Y-17.948
G02 X-86.702 Y-19.008 I-8.729 J7.429
X-86.784 Y-19.081 I-7.055 J7.791
X-87.22 Y-19.434 I-4.047 J4.564
X-93.948 Y-21.639 I-6.728 J9.159
X-100.855 Y-19.299 I0.0 J11.365
X-101.137 Y-19.068 I3.1 J4.05
X-102.45 Y-17.668 I6.896 J7.789
G01 X-102.827 Y-17.164
G02 X-103.846 Y-18.197 I-9.02 J7.876
X-104.051 Y-18.375 I-4.085 J4.53
G01 X-104.326 Y-18.588
G02 X-111.042 Y-20.785 I-6.716 J9.169
X-117.953 Y-18.441 I0.0 J11.365
G01 X-118.224 Y-18.219
G02 X-119.542 Y-16.816 I6.89 J7.794
X-120.099 Y-16.055 I12.754 J9.929
X-120.945 Y-16.896 I-8.131 J7.342
X-121.42 Y-17.281 I-4.079 J4.536
X-128.135 Y-19.477 I-6.716 J9.169
X-135.102 Y-17.092 I0.0 J11.365
X-135.806 Y-16.444 I6.587 J7.869
G01 X-136.872 Y-17.5
X-137.858
X-142.434 Y-19.514
G02 X-145.229 Y-19.821 I-2.795 J12.558 F1500.
X-152.5 Y-17.569 I0.0 J12.865
G01 Y-18.785 F1313.
Y-20. F1125.
X-147.
X-142.188 F1500.
G02 X-142.434 Y-19.514 I4.33 J2.5
G01 X-137.858 Y-17.5 F2500.
Y-25.
X-146.5
X-152. F2188.
X-157.5 F1875.
Y-19.5
Y14. F2500.
Y19.5 F2188.
Y25. F1875.
X-152.
X0.0 F2500.
Y30.5
Z-.588
G00 Z-.389
G01 Z-.786
Z-1.786 F1000.
Y25.
X146.5 F2500.
X152. F2188.
X157.5 F1875.
Y19.5
Y-14. F2500.
Y-19.5 F2188.
Y-25. F1875.
X152.
X134.135 F2500.
Y-17.5
G03 X136.277 Y-16.119 I-5.868 J11.449 F1500.
X136.737 Y-15.722 I-4.732 J5.947
X137.879 Y-14.493 I-7.964 J8.552
X139.012 Y-12.816 I-9.902 J7.911
X145.361 Y-14.492 I6.349 J11.189
X150. Y-13.626 I0.0 J12.865
G01 Y-17.5 F2500.
X134.135
X128.267 Y-19.484 F1500.
X134.135 Y-17.5 F2500.
Y-25.
X119.089
Y-17.5
G03 X119.341 Y-17.298 I-7.915 J10.142 F1500.
X119.54 Y-17.128 I-4.19 J5.099
X119.579 Y-17.095 I-.961 J1.152
X119.777 Y-16.911 I-5.062 J5.669
X120.421 Y-16.246 I-7.991 J8.384
X120.536 Y-16.334 I4.081 J5.187
X122.399 Y-17.5 I7.731 J10.283
G01 X119.089 F2500.
X114.327 Y-19.92 F1500.
X119.089 Y-17.5 F2500.
Y-25.
X-137.858
Y-17.5
G03 X-137.627 Y-17.335 I-7.371 J10.544 F1500.
X-137.28 Y-17.065 I-4.491 J6.131
G01 X-137.277 Y-17.07
G03 X-136.872 Y-17.5 I8.762 J7.846
G01 X-135.806 Y-16.444 F2500.
G02 X-136.152 Y-16.077 I7.291 J7.221
X-137.131 Y-14.831 I10.346 J9.141
X-138.033 Y-15.734 I-8.25 J7.337
X-138.513 Y-16.125 I-4.085 J4.53
X-145.229 Y-18.321 I-6.716 J9.169
X-152.055 Y-16.042 I0.0 J11.365
X-152.335 Y-15.816 I3.063 J4.077
X-153.246 Y-14.92 I6.727 J7.749
X-154.722 Y-12.886 I9.492 J8.443
G01 X-154.848 Y-12.664
G02 X-155.213 Y-11.918 I6.398 J3.586
X-155.611 Y-10.443 I5.285 J2.219
G03 X-155.757 Y-9.888 I-13.911 J-3.364
G02 X-156.158 Y-6.956 I10.528 J2.931
G01 Y12.953
G02 X-155.76 Y15.873 I10.929 J0.0
G03 X-155.61 Y16.441 I-20.756 J5.805
G02 X-155.077 Y18.219 I5.915 J-.805
X-152.418 Y21.736 I10.327 J-5.042
X-152.014 Y22.07 I3.488 J-3.814
X-148.052 Y23.961 I6.785 J-9.117
X-145.229 Y24.318 I2.823 J-11.009 F2188.
X-142.606 Y24.011 I0.0 J-11.365
X-138.436 Y22.065 I-2.623 J-11.058 F1875.
X-137.798 Y21.5 I-3.048 J-4.089
G01 X-137.785 Y21.501
G02 X-136.682 Y20.29 I-7.42 J-7.865
X-135.226 Y21.824 I8.868 J-6.961
X-134.921 Y22.069 I3.318 J-3.813
X-133.792 Y22.81 I6.786 J-9.117
X-128.135 Y24.318 I5.656 J-9.857 F2500.
X-121.343 Y22.065 I0.0 J-11.365
X-120.701 Y21.496 I-3.048 J-4.089
G01 X-120.7 Y21.503
X-120.693 Y21.505
X-120.689 Y21.499
G02 X-119.586 Y20.294 I-8.228 J-8.641
X-118.112 Y21.841 I8.798 J-6.906
X-117.829 Y22.069 I3.217 J-3.713
X-113.868 Y23.961 I6.787 J-9.116
X-111.042 Y24.318 I2.826 J-11.008 F2188.
X-108.422 Y24.012 I0.0 J-11.365
X-104.249 Y22.065 I-2.62 J-11.059 F1875.
X-103.612 Y21.501 I-3.048 J-4.089
G01 X-103.6 Y21.503
G02 X-102.496 Y20.291 I-7.392 J-7.843
X-100.968 Y21.883 I8.741 J-6.856
X-100.736 Y22.068 I2.897 J-3.393
X-99.607 Y22.809 I6.788 J-9.115
X-96.769 Y23.962 I5.659 J-9.856 F2500.
X-93.948 Y24.318 I2.821 J-11.009 F2188.
X-91.323 Y24.01 I0.0 J-11.365
X-87.156 Y22.065 I-2.625 J-11.058 F1875.
X-86.514 Y21.497 I-3.048 J-4.089
G01 X-86.504 Y21.5
G02 X-85.402 Y20.291 I-7.453 J-7.897
X-83.926 Y21.84 I8.823 J-6.923
X-83.65 Y22.063 I3.166 J-3.651
X-82.51 Y22.811 I6.795 J-9.11
X-79.674 Y23.963 I5.655 J-9.858 F2500.
X-76.855 Y24.318 I2.819 J-11.01 F2188.
X-74.228 Y24.01 I0.0 J-11.365
X-70.057 Y22.06 I-2.627 J-11.057 F1875.
X-69.421 Y21.497 I-3.054 J-4.085
G01 X-69.408 Y21.498
G02 X-68.309 Y20.291 I-7.416 J-7.856
X-66.831 Y21.843 I8.959 J-7.054
X-66.554 Y22.064 I3.388 J-3.946
X-65.413 Y22.813 I6.793 J-9.112
X-59.761 Y24.318 I5.652 J-9.86 F2500.
X-52.963 Y22.06 I0.0 J-11.365
X-52.328 Y21.497 I-3.054 J-4.085
G01 X-52.326 Y21.504
X-52.319 Y21.505
X-52.315 Y21.5
G02 X-51.212 Y20.293 I-8.12 J-8.534
X-49.744 Y21.836 I8.825 J-6.929
X-49.462 Y22.064 I3.201 J-3.686
X-45.493 Y23.961 I6.794 J-9.111
X-42.668 Y24.318 I2.825 J-11.008 F2188.
X-40.047 Y24.011 I0.0 J-11.365
X-35.875 Y22.065 I-2.621 J-11.059 F1875.
X-35.238 Y21.501 I-3.048 J-4.089
G01 X-35.225 Y21.502
G02 X-34.122 Y20.291 I-7.407 J-7.856
X-32.609 Y21.87 I8.816 J-6.928
X-32.368 Y22.064 I2.933 J-3.417
X-31.231 Y22.81 I6.794 J-9.111
X-25.574 Y24.318 I5.657 J-9.857 F2500.
X-18.782 Y22.065 I0.0 J-11.365
X-18.142 Y21.498 I-3.048 J-4.089
G01 X-18.136 Y21.506
X-18.128 Y21.499
G02 X-17.027 Y20.291 I-7.517 J-7.952
X-15.65 Y21.754 I8.858 J-6.955
X-15.273 Y22.064 I3.438 J-3.795
X-11.305 Y23.961 I6.793 J-9.112
X-8.481 Y24.318 I2.824 J-11.008 F2188.
X-5.859 Y24.011 I0.0 J-11.365
X-1.688 Y22.065 I-2.622 J-11.058 F1875.
X-1.051 Y21.501 I-3.048 J-4.089
G01 X-1.037
G02 X.066 Y20.29 I-7.362 J-7.813
X1.593 Y21.883 I8.719 J-6.831
X1.818 Y22.063 I2.841 J-3.327
X2.956 Y22.81 I6.795 J-9.11
X5.791 Y23.962 I5.657 J-9.857 F2500.
X8.613 Y24.318 I2.822 J-11.009 F2188.
X11.237 Y24.011 I0.0 J-11.365
X15.405 Y22.065 I-2.624 J-11.058 F1875.
X16.045 Y21.498 I-3.048 J-4.089
G01 X16.057 Y21.5
G02 X17.16 Y20.291 I-7.709 J-8.141
X18.552 Y21.768 I8.855 J-6.952
G01 X18.85 Y22.016
X18.921 Y22.07
G02 X20.052 Y22.811 I6.785 J-9.117
X22.88 Y23.961 I5.654 J-9.859 F2500.
X25.706 Y24.318 I2.826 J-11.008 F2188.
X28.326 Y24.012 I0.0 J-11.365
X32.499 Y22.065 I-2.62 J-11.059 F1875.
X33.135 Y21.502 I-3.048 J-4.089
G01 X33.148 Y21.503
G02 X34.252 Y20.291 I-7.396 J-7.846
X35.736 Y21.847 I8.94 J-7.047
X36.003 Y22.062 I3.072 J-3.545
X37.143 Y22.81 I6.796 J-9.109
X39.98 Y23.962 I5.657 J-9.857 F2500.
X42.8 Y24.318 I2.82 J-11.01 F2188.
X45.426 Y24.01 I0.0 J-11.365
X49.592 Y22.065 I-2.626 J-11.057 F1875.
X50.233 Y21.497 I-3.048 J-4.089
G01 X50.246 Y21.498
G02 X51.347 Y20.291 I-7.514 J-7.95
X52.526 Y21.573 I8.748 J-6.858
G01 X52.743 Y21.772
G02 X53.1 Y22.064 I3.434 J-3.832
X54.241 Y22.812 I6.793 J-9.112
X57.073 Y23.962 I5.653 J-9.86 F2500.
X59.893 Y24.318 I2.821 J-11.009 F2188.
X62.519 Y24.01 I0.0 J-11.365
X66.691 Y22.06 I-2.626 J-11.058 F1875.
X67.325 Y21.499 I-3.054 J-4.085
G01 X67.34
G02 X68.44 Y20.291 I-7.463 J-7.902
X69.931 Y21.853 I8.806 J-6.91
X70.191 Y22.062 I3.066 J-3.55
X71.334 Y22.812 I6.795 J-9.11
X76.987 Y24.318 I5.653 J-9.859 F2500.
X83.586 Y22.205 I0.0 J-11.365
X84.259 Y21.661 I-4.123 J-5.78
X85.534 Y20.291 I-7.571 J-8.329
X86.947 Y21.787 I8.871 J-6.967
X87.295 Y22.07 I3.364 J-3.779
X94.08 Y24.318 I6.785 J-9.117
X100.681 Y22.205 I0.0 J-11.365
X101.354 Y21.659 I-4.123 J-5.78
X102.626 Y20.292 I-7.422 J-8.178
X104.11 Y21.847 I9.021 J-7.12
G01 X104.38 Y22.063
G02 X111.174 Y24.318 I6.794 J-9.111
X117.774 Y22.205 I0.0 J-11.365
X118.447 Y21.659 I-4.123 J-5.78
X119.72 Y20.291 I-7.42 J-8.176
X121.255 Y21.889 I8.746 J-6.862
X121.471 Y22.062 I2.769 J-3.248
X125.448 Y23.963 I6.796 J-9.109
X128.267 Y24.318 I2.819 J-11.01 F2188.
X130.894 Y24.01 I0.0 J-11.365
X135.061 Y22.064 I-2.627 J-11.057 F1875.
X135.701 Y21.497 I-3.049 J-4.088
G01 X135.715 Y21.498
G02 X136.813 Y20.291 I-7.383 J-7.824
X138.3 Y21.849 I8.801 J-6.906
X138.564 Y22.062 I3.094 J-3.58
X139.709 Y22.813 I6.796 J-9.109
X145.361 Y24.318 I5.652 J-9.86 F2500.
X156.726 Y12.953 I0.0 J-11.365
G01 Y-1.627
G02 X145.361 Y-12.992 I-11.365 J0.0
X138.772 Y-10.887 I0.0 J11.365
G01 X138.472 Y-10.665
X138.4 Y-10.608
G02 X137.877 Y-11.776 I-6.577 J2.245
G01 X137.717 Y-12.059
G02 X136.711 Y-13.553 I-9.74 J5.477
X135.713 Y-14.625 I-7.938 J6.383
X135.343 Y-14.945 I-4.168 J4.454
X128.267 Y-17.416 I-7.075 J8.894
X121.438 Y-15.135 I0.0 J11.365
X121.088 Y-14.847 I3.065 J4.076
X120.308 Y-14.08 I8.398 J9.318
G01 X120.25 Y-14.017
X119.951 Y-14.442
G02 X118.74 Y-15.827 I-8.165 J5.915
X118.579 Y-15.976 I-4.224 J4.401
G01 Y-15.975
G02 X118.389 Y-16.139 I-3.428 J3.776
X111.174 Y-18.723 I-7.215 J8.781
X104.372 Y-16.463 I0.0 J11.365
X103.842 Y-16.025 I4.249 J5.688
G01 X103.786 Y-16.065
G02 X102.814 Y-17.525 I-8.52 J4.617
G01 Y-17.533
X102.789 Y-17.564
G02 X102.5 Y-17.908 I-4.809 J3.753
X94.08 Y-21.639 I-8.42 J7.634
X86.839 Y-19.033 I0.0 J11.365
X85.606 Y-17.748 I5.514 J6.523
G01 X85.537 Y-17.66
X85.532 Y-17.659
X85.486 Y-17.717
X85.267 Y-17.985
G02 X84.469 Y-18.82 I-7.563 J6.425
X84.161 Y-19.089 I-4.159 J4.463
X76.987 Y-21.639 I-7.174 J8.814
X70.088 Y-19.306 I0.0 J11.365
X69.815 Y-19.082 I3.096 J4.053
X68.848 Y-18.11 I6.828 J7.76
X68.743 Y-18.262 I-8.941 J6.078
X68.384 Y-18.74 I-8.335 J5.872
X67.418 Y-19.789 I-7.781 J6.2
X67.117 Y-20.054 I-4.178 J4.444
X59.893 Y-22.645 I-7.224 J8.774
X52.986 Y-20.305 I0.0 J11.365
X52.705 Y-20.074 I3.099 J4.05
X51.55 Y-18.872 I6.894 J7.788
G01 X51.541 Y-18.884
G02 X49.992 Y-20.582 I-8.393 J6.099
X42.8 Y-23.148 I-7.193 J8.799
X35.893 Y-20.808 I0.0 J11.365
X35.611 Y-20.576 I3.1 J4.05
X34.374 Y-19.274 I6.896 J7.789
X33.009 Y-20.781 I-8.318 J6.168
X32.629 Y-21.097 I-4.095 J4.521
X25.706 Y-23.449 I-6.923 J9.013
X18.798 Y-21.108 I0.0 J11.365
G01 X18.518 Y-20.878
G02 X17.24 Y-19.524 I6.896 J7.789
G01 X17.228 Y-19.542
G02 X15.895 Y-20.998 I-8.3 J6.256
X15.505 Y-21.322 I-4.089 J4.527
X8.613 Y-23.65 I-6.893 J9.036
X1.705 Y-21.31 I0.0 J11.365
X1.424 Y-21.079 I3.1 J4.05
X.086 Y-19.648 I6.898 J7.79
X-1.238 Y-21.081 I-8.271 J6.317
X-1.428 Y-21.244 I-4.071 J4.542
G01 X-1.631 Y-21.404
G02 X-8.481 Y-23.701 I-6.85 J9.069
X-15.387 Y-21.361 I0.0 J11.365
X-15.668 Y-21.13 I3.099 J4.05
X-17.063 Y-19.626 I6.893 J7.787
G01 X-17.073 Y-19.606
X-17.092 Y-19.595
X-17.344 Y-19.909
G02 X-18.372 Y-20.963 I-7.93 J6.705
X-18.57 Y-21.132 I-4.054 J4.558
G01 X-18.571 Y-21.131
G02 X-18.779 Y-21.294 I-3.257 J3.924
X-25.574 Y-23.55 I-6.796 J9.109
X-32.481 Y-21.21 I0.0 J11.365
X-32.763 Y-20.978 I3.1 J4.05
X-34.222 Y-19.387 I6.896 J7.789
G01 X-34.267 Y-19.444
X-34.54 Y-19.774
X-34.568 Y-19.806
G02 X-35.481 Y-20.724 I-7.784 J6.831
X-35.891 Y-21.057 I-4.047 J4.564
X-42.668 Y-23.298 I-6.777 J9.123
X-49.575 Y-20.959 I0.0 J11.365
X-49.856 Y-20.727 I3.1 J4.05
X-50.961 Y-19.587 I6.896 J7.789
X-51.369 Y-19.065 I8.98 J7.442
X-51.923 Y-19.688 I-10.98 J9.213
X-52.596 Y-20.339 I-7.471 J7.047
X-53.01 Y-20.673 I-4.038 J4.572
X-59.761 Y-22.896 I-6.752 J9.142
X-66.668 Y-20.556 I0.0 J11.365
X-66.95 Y-20.325 I3.1 J4.05
X-68.263 Y-18.925 I6.896 J7.789
G01 X-68.294 Y-18.885
X-68.522 Y-18.584
G02 X-69.304 Y-19.426 I-9.83 J8.352
X-69.687 Y-19.783 I-7.34 J7.491
X-70.117 Y-20.131 I-4.046 J4.565
X-76.855 Y-22.343 I-6.738 J9.152
X-83.762 Y-20.003 I0.0 J11.365
X-84.043 Y-19.772 I3.1 J4.05
X-85.357 Y-18.372 I6.896 J7.789
G01 X-85.675 Y-17.948
G02 X-86.702 Y-19.008 I-8.711 J7.412
X-86.784 Y-19.081 I-7.055 J7.791
X-87.22 Y-19.434 I-4.047 J4.564
X-93.948 Y-21.639 I-6.728 J9.159
X-100.855 Y-19.299 I0.0 J11.365
X-101.137 Y-19.068 I3.1 J4.05
X-102.45 Y-17.668 I6.896 J7.789
G01 X-102.827 Y-17.165
G02 X-103.846 Y-18.197 I-9.016 J7.872
X-104.051 Y-18.375 I-4.085 J4.53
G01 X-104.326 Y-18.588
G02 X-111.042 Y-20.785 I-6.716 J9.169
X-117.953 Y-18.441 I0.0 J11.365
G01 X-118.224 Y-18.219
G02 X-119.542 Y-16.816 I6.89 J7.794
X-120.098 Y-16.057 I13.171 J10.242
X-120.945 Y-16.896 I-8.7 J7.943
X-121.42 Y-17.281 I-4.079 J4.536
X-128.135 Y-19.477 I-6.716 J9.169
X-135.102 Y-17.092 I0.0 J11.365
X-135.806 Y-16.444 I6.587 J7.869
G01 X-136.872 Y-17.5
X-137.858
X-142.434 Y-19.514
G02 X-145.229 Y-19.821 I-2.795 J12.558 F1500.
X-152.5 Y-17.569 I0.0 J12.865
G01 Y-18.785 F1313.
Y-20. F1125.
X-147.
X-142.188 F1500.
G02 X-142.434 Y-19.514 I4.33 J2.5
G01 X-137.858 Y-17.5 F2500.
Y-25.
X-146.5
X-152. F2188.
X-157.5 F1875.
Y-19.5
Y14. F2500.
Y19.5 F2188.
Y25. F1875.
X-152.
X0.0 F2500.
Y30.5
Z-.786
G00 Z-.588
G01 Z-.985
Z-1.985 F1000.
Y25.
X146.5 F2500.
X152. F2188.
X157.5 F1875.
Y19.5
Y-14. F2500.
Y-19.5 F2188.
Y-25. F1875.
X152.
X134.135 F2500.
Y-17.5
G03 X136.277 Y-16.119 I-5.868 J11.449 F1500.
X136.737 Y-15.722 I-4.732 J5.947
X138.445 Y-13.729 I-7.975 J8.562
X139.013 Y-12.817 I-12.218 J8.247
X145.361 Y-14.492 I6.348 J11.19
X150. Y-13.626 I0.0 J12.865
G01 Y-17.5 F2500.
X134.135
X128.267 Y-19.484 F1500.
X134.135 Y-17.5 F2500.
Y-25.
X119.089
Y-17.5
G03 X119.341 Y-17.298 I-7.915 J10.142 F1500.
X119.54 Y-17.128 I-4.19 J5.099
X119.579 Y-17.095 I-.961 J1.152
X119.777 Y-16.911 I-5.062 J5.669
X120.421 Y-16.246 I-7.99 J8.383
X120.536 Y-16.334 I4.081 J5.187
X122.399 Y-17.5 I7.731 J10.283
G01 X119.089 F2500.
X114.327 Y-19.92 F1500.
X119.089 Y-17.5 F2500.
Y-25.
X-137.858
Y-17.5
G03 X-137.627 Y-17.335 I-7.371 J10.544 F1500.
X-137.28 Y-17.065 I-4.491 J6.131
G01 X-137.276 Y-17.07
G03 X-136.872 Y-17.5 I8.762 J7.846
G01 X-135.806 Y-16.444 F2500.
G02 X-136.152 Y-16.077 I7.291 J7.221
X-137.131 Y-14.831 I10.342 J9.138
X-138.033 Y-15.734 I-8.247 J7.334
X-138.513 Y-16.125 I-4.085 J4.53
X-145.229 Y-18.321 I-6.716 J9.169
X-152.055 Y-16.042 I0.0 J11.365
X-152.335 Y-15.816 I3.063 J4.077
X-153.246 Y-14.92 I6.727 J7.749
X-154.452 Y-13.331 I9.587 J8.525
X-155.562 Y-11.109 I9.752 J6.26
X-155.908 Y-9.554 I5.723 J2.092
G03 X-155.969 Y-9.109 I-6.194 J-.615
G02 X-156.099 Y-8.215 I15.78 J2.751
X-156.171 Y-6.956 I10.87 J1.259
G01 Y12.953
G02 X-156.1 Y14.204 I10.943 J0.0
X-155.935 Y15.33 I20.273 J-2.392
X-155.555 Y17.108 I6.705 J-.502
G01 X-155.47 Y17.33
G02 X-152.66 Y21.514 I10.842 J-4.247
G01 X-152.484 Y21.678
G02 X-152.014 Y22.07 I3.787 J-4.064
X-148.052 Y23.961 I6.785 J-9.117
X-145.229 Y24.318 I2.823 J-11.009 F2188.
X-142.606 Y24.011 I0.0 J-11.365
X-138.436 Y22.065 I-2.623 J-11.058 F1875.
X-137.798 Y21.5 I-3.048 J-4.089
G01 X-137.785 Y21.501
G02 X-136.682 Y20.29 I-7.418 J-7.864
X-135.226 Y21.824 I8.867 J-6.96
X-134.921 Y22.069 I3.315 J-3.809
X-133.792 Y22.81 I6.786 J-9.117
X-128.135 Y24.318 I5.656 J-9.857 F2500.
X-121.343 Y22.065 I0.0 J-11.365
X-120.701 Y21.496 I-3.048 J-4.089
G01 X-120.7 Y21.503
X-120.693 Y21.505
X-120.689 Y21.499
G02 X-119.586 Y20.294 I-8.23 J-8.642
X-118.112 Y21.841 I8.798 J-6.906
X-117.829 Y22.069 I3.217 J-3.713
X-113.868 Y23.961 I6.787 J-9.116
X-111.042 Y24.318 I2.826 J-11.008 F2188.
X-108.422 Y24.012 I0.0 J-11.365
X-104.249 Y22.065 I-2.62 J-11.059 F1875.
X-103.612 Y21.501 I-3.048 J-4.089
G01 X-103.6 Y21.503
G02 X-102.496 Y20.291 I-7.392 J-7.843
X-100.969 Y21.882 I8.742 J-6.856
X-100.736 Y22.068 I2.902 J-3.397
X-99.607 Y22.809 I6.788 J-9.115
X-96.769 Y23.962 I5.659 J-9.856 F2500.
X-93.948 Y24.318 I2.821 J-11.009 F2188.
X-91.323 Y24.01 I0.0 J-11.365
X-87.156 Y22.065 I-2.625 J-11.058 F1875.
X-86.514 Y21.497 I-3.048 J-4.089
G01 X-86.504 Y21.5
G02 X-85.402 Y20.291 I-7.454 J-7.898
X-83.928 Y21.838 I8.822 J-6.924
X-83.648 Y22.064 I3.192 J-3.679
X-82.51 Y22.811 I6.793 J-9.111
X-79.674 Y23.963 I5.655 J-9.858 F2500.
X-76.855 Y24.318 I2.819 J-11.01 F2188.
X-74.228 Y24.01 I0.0 J-11.365
X-70.057 Y22.06 I-2.627 J-11.057 F1875.
X-69.421 Y21.497 I-3.054 J-4.085
G01 X-69.408 Y21.498
G02 X-68.309 Y20.291 I-7.417 J-7.856
X-66.831 Y21.843 I8.959 J-7.054
X-66.554 Y22.064 I3.387 J-3.944
X-65.413 Y22.813 I6.793 J-9.112
X-59.761 Y24.318 I5.652 J-9.86 F2500.
X-52.963 Y22.06 I0.0 J-11.365
X-52.328 Y21.497 I-3.054 J-4.085
G01 X-52.326 Y21.504
X-52.319 Y21.505
X-52.315 Y21.5
G02 X-51.212 Y20.293 I-8.119 J-8.533
X-49.744 Y21.836 I8.825 J-6.929
X-49.462 Y22.063 I3.201 J-3.686
X-45.493 Y23.961 I6.794 J-9.111
X-42.668 Y24.318 I2.825 J-11.008 F2188.
X-40.047 Y24.011 I0.0 J-11.365
X-35.875 Y22.065 I-2.621 J-11.059 F1875.
X-35.238 Y21.501 I-3.048 J-4.089
G01 X-35.225 Y21.502
G02 X-34.122 Y20.291 I-7.408 J-7.857
X-32.61 Y21.87 I8.816 J-6.928
X-32.368 Y22.063 I2.937 J-3.421
X-31.231 Y22.81 I6.794 J-9.111
X-25.574 Y24.318 I5.657 J-9.857 F2500.
X-18.782 Y22.065 I0.0 J-11.365
X-18.142 Y21.498 I-3.048 J-4.089
G01 X-18.136 Y21.506
X-18.128 Y21.499
G02 X-17.027 Y20.291 I-7.518 J-7.953
X-15.65 Y21.754 I8.857 J-6.953
X-15.273 Y22.064 I3.437 J-3.794
X-11.305 Y23.961 I6.793 J-9.112
X-8.481 Y24.318 I2.824 J-11.008 F2188.
X-5.859 Y24.011 I0.0 J-11.365
X-1.688 Y22.065 I-2.622 J-11.058 F1875.
X-1.051 Y21.501 I-3.048 J-4.089
G01 X-1.037
G02 X.066 Y20.29 I-7.362 J-7.813
X1.592 Y21.883 I8.719 J-6.831
X1.818 Y22.063 I2.845 J-3.331
X2.956 Y22.81 I6.795 J-9.11
X5.791 Y23.962 I5.657 J-9.857 F2500.
X8.613 Y24.318 I2.822 J-11.009 F2188.
X11.237 Y24.011 I0.0 J-11.365
X15.405 Y22.065 I-2.624 J-11.058 F1875.
X16.045 Y21.498 I-3.048 J-4.089
G01 X16.057 Y21.5
G02 X17.16 Y20.291 I-7.708 J-8.141
X18.552 Y21.768 I8.854 J-6.951
G01 X18.85 Y22.016
X18.921 Y22.07
G02 X20.052 Y22.811 I6.785 J-9.117
X22.88 Y23.961 I5.654 J-9.859 F2500.
X25.706 Y24.318 I2.826 J-11.008 F2188.
X28.326 Y24.012 I0.0 J-11.365
X32.499 Y22.065 I-2.62 J-11.059 F1875.
X33.135 Y21.502 I-3.048 J-4.089
G01 X33.148 Y21.503
G02 X34.252 Y20.291 I-7.396 J-7.846
X35.736 Y21.847 I8.94 J-7.047
X36.003 Y22.062 I3.072 J-3.545
X37.143 Y22.81 I6.797 J-9.109
X39.98 Y23.962 I5.657 J-9.857 F2500.
X42.8 Y24.318 I2.82 J-11.01 F2188.
X45.426 Y24.01 I0.0 J-11.365
X49.592 Y22.065 I-2.626 J-11.057 F1875.
X50.233 Y21.497 I-3.048 J-4.089
G01 X50.246 Y21.498
G02 X51.347 Y20.291 I-7.514 J-7.95
X52.526 Y21.573 I8.749 J-6.859
G01 X52.743 Y21.772
G02 X53.1 Y22.064 I3.433 J-3.83
X54.241 Y22.812 I6.793 J-9.112
X57.073 Y23.962 I5.653 J-9.86 F2500.
X59.893 Y24.318 I2.821 J-11.009 F2188.
X62.519 Y24.01 I0.0 J-11.365
X66.691 Y22.06 I-2.626 J-11.058 F1875.
X67.325 Y21.499 I-3.054 J-4.085
G01 X67.34
G02 X68.44 Y20.291 I-7.462 J-7.902
X69.928 Y21.851 I8.805 J-6.91
X70.194 Y22.064 I3.102 J-3.59
X71.334 Y22.812 I6.793 J-9.112
X76.987 Y24.318 I5.653 J-9.859 F2500.
X83.586 Y22.205 I0.0 J-11.365
X84.259 Y21.661 I-4.123 J-5.78
X85.534 Y20.291 I-7.569 J-8.327
X86.947 Y21.787 I8.87 J-6.966
X87.295 Y22.07 I3.363 J-3.778
X94.08 Y24.318 I6.785 J-9.117
X100.681 Y22.205 I0.0 J-11.365
X101.354 Y21.659 I-4.123 J-5.78
X102.626 Y20.292 I-7.42 J-8.176
X104.11 Y21.847 I9.022 J-7.121
G01 X104.38 Y22.063
G02 X111.174 Y24.318 I6.794 J-9.111
X117.774 Y22.205 I0.0 J-11.365
X118.447 Y21.659 I-4.123 J-5.78
X119.72 Y20.291 I-7.418 J-8.175
X121.254 Y21.888 I8.748 J-6.863
X121.471 Y22.062 I2.777 J-3.256
X125.448 Y23.963 I6.796 J-9.109
X128.267 Y24.318 I2.819 J-11.01 F2188.
X130.894 Y24.01 I0.0 J-11.365
X135.061 Y22.064 I-2.627 J-11.057 F1875.
X135.701 Y21.497 I-3.049 J-4.088
G01 X135.715 Y21.498
G02 X136.813 Y20.291 I-7.384 J-7.824
X138.3 Y21.85 I8.801 J-6.905
X138.564 Y22.061 I3.09 J-3.576
X139.709 Y22.813 I6.797 J-9.109
X145.361 Y24.318 I5.652 J-9.86 F2500.
X156.726 Y12.953 I0.0 J-11.365
G01 Y-1.627
G02 X145.361 Y-12.992 I-11.365 J0.0
X138.772 Y-10.887 I0.0 J11.365
G01 X138.471 Y-10.665
X138.426 Y-10.629
G02 X137.203 Y-12.886 I-12.199 J5.147
X135.713 Y-14.625 I-8.441 J5.727
X135.343 Y-14.945 I-4.168 J4.454
X128.267 Y-17.416 I-7.075 J8.894
X121.438 Y-15.135 I0.0 J11.365
X121.088 Y-14.847 I3.065 J4.076
X120.308 Y-14.08 I8.398 J9.318
G01 X120.25 Y-14.017
X119.951 Y-14.442
G02 X118.74 Y-15.827 I-8.164 J5.913
X118.579 Y-15.976 I-4.224 J4.401
G01 Y-15.975
G02 X118.389 Y-16.139 I-3.428 J3.776
X111.174 Y-18.723 I-7.215 J8.781
X104.372 Y-16.463 I0.0 J11.365
X103.842 Y-16.025 I4.249 J5.688
G01 X103.786 Y-16.065
G02 X102.814 Y-17.525 I-8.518 J4.616
G01 Y-17.533
X102.789 Y-17.564
G02 X102.5 Y-17.908 I-4.809 J3.753
X94.08 Y-21.639 I-8.42 J7.634
X86.839 Y-19.033 I0.0 J11.365
X85.606 Y-17.748 I5.512 J6.521
G01 X85.537 Y-17.66
X85.532 Y-17.659
X85.486 Y-17.717
X85.267 Y-17.985
G02 X84.469 Y-18.82 I-7.563 J6.425
X84.161 Y-19.089 I-4.159 J4.463
X76.987 Y-21.639 I-7.174 J8.814
X70.088 Y-19.306 I0.0 J11.365
X69.815 Y-19.082 I3.096 J4.053
X68.848 Y-18.11 I6.828 J7.76
X68.743 Y-18.262 I-8.941 J6.078
X68.384 Y-18.74 I-8.335 J5.872
X67.418 Y-19.789 I-7.781 J6.2
X67.117 Y-20.054 I-4.178 J4.444
X59.893 Y-22.645 I-7.224 J8.774
X52.986 Y-20.305 I0.0 J11.365
X52.705 Y-20.074 I3.099 J4.05
X51.55 Y-18.872 I6.894 J7.788
G01 X51.541 Y-18.884
G02 X49.992 Y-20.582 I-8.393 J6.099
X42.8 Y-23.148 I-7.193 J8.799
X35.893 Y-20.808 I0.0 J11.365
X35.611 Y-20.576 I3.1 J4.05
X34.374 Y-19.274 I6.896 J7.789
X33.009 Y-20.781 I-8.318 J6.168
X32.629 Y-21.097 I-4.095 J4.521
X25.706 Y-23.449 I-6.923 J9.013
X18.798 Y-21.108 I0.0 J11.365
G01 X18.518 Y-20.878
G02 X17.24 Y-19.524 I6.896 J7.789
G01 X17.228 Y-19.542
G02 X15.895 Y-20.998 I-8.3 J6.256
X15.505 Y-21.322 I-4.089 J4.527
X8.613 Y-23.65 I-6.893 J9.036
X1.705 Y-21.31 I0.0 J11.365
X1.424 Y-21.079 I3.1 J4.05
X.086 Y-19.648 I6.898 J7.79
X-1.238 Y-21.081 I-8.271 J6.317
X-1.433 Y-21.248 I-4.071 J4.542
G01 X-1.631 Y-21.404
G02 X-8.481 Y-23.701 I-6.85 J9.069
X-15.387 Y-21.361 I0.0 J11.365
X-15.668 Y-21.13 I3.099 J4.05
X-17.063 Y-19.626 I6.893 J7.787
G01 X-17.073 Y-19.606
X-17.092 Y-19.595
X-17.344 Y-19.909
G02 X-18.372 Y-20.963 I-7.93 J6.705
X-18.57 Y-21.132 I-4.054 J4.558
G01 X-18.571 Y-21.131
G02 X-18.779 Y-21.294 I-3.257 J3.924
X-25.574 Y-23.55 I-6.796 J9.109
X-32.481 Y-21.21 I0.0 J11.365
X-32.763 Y-20.978 I3.1 J4.05
X-34.222 Y-19.387 I6.896 J7.789
G01 X-34.267 Y-19.444
X-34.54 Y-19.774
X-34.568 Y-19.806
G02 X-35.481 Y-20.724 I-7.784 J6.831
X-35.891 Y-21.057 I-4.047 J4.564
X-42.668 Y-23.298 I-6.777 J9.123
X-49.575 Y-20.959 I0.0 J11.365
X-49.856 Y-20.727 I3.1 J4.05
X-50.961 Y-19.587 I6.896 J7.789
X-51.369 Y-19.065 I8.955 J7.423
X-51.923 Y-19.688 I-10.956 J9.192
X-52.596 Y-20.339 I-7.471 J7.047
X-53.01 Y-20.673 I-4.038 J4.572
X-59.761 Y-22.896 I-6.752 J9.142
X-66.668 Y-20.556 I0.0 J11.365
X-66.95 Y-20.325 I3.1 J4.05
X-68.263 Y-18.925 I6.896 J7.789
G01 X-68.294 Y-18.885
X-68.522 Y-18.584
G02 X-69.304 Y-19.426 I-9.82 J8.343
X-69.687 Y-19.783 I-7.34 J7.491
X-70.117 Y-20.131 I-4.046 J4.565
X-76.855 Y-22.343 I-6.738 J9.152
X-83.762 Y-20.003 I0.0 J11.365
X-84.043 Y-19.772 I3.1 J4.05
X-85.357 Y-18.372 I6.896 J7.789
G01 X-85.675 Y-17.948
G02 X-86.702 Y-19.008 I-8.71 J7.411
X-86.784 Y-19.081 I-7.055 J7.791
X-87.22 Y-19.434 I-4.047 J4.564
X-93.948 Y-21.639 I-6.728 J9.159
X-100.855 Y-19.299 I0.0 J11.365
X-101.137 Y-19.068 I3.1 J4.05
X-102.45 Y-17.668 I6.896 J7.789
G01 X-102.827 Y-17.165
G02 X-103.846 Y-18.197 I-9.012 J7.869
X-104.051 Y-18.375 I-4.085 J4.53
G01 X-104.326 Y-18.588
G02 X-111.042 Y-20.785 I-6.716 J9.169
X-117.949 Y-18.445 I0.0 J11.365
X-118.23 Y-18.213 I3.1 J4.05
X-119.542 Y-16.816 I6.896 J7.789
X-120.098 Y-16.057 I13.165 J10.238
X-120.945 Y-16.896 I-8.697 J7.94
X-121.42 Y-17.281 I-4.079 J4.536
X-128.135 Y-19.477 I-6.716 J9.169
X-135.102 Y-17.092 I0.0 J11.365
X-135.806 Y-16.444 I6.587 J7.869
G01 X-136.872 Y-17.5
X-137.858
X-142.434 Y-19.514
G02 X-145.229 Y-19.821 I-2.795 J12.558 F1500.
X-152.5 Y-17.569 I0.0 J12.865
G01 Y-18.785 F1313.
Y-20. F1125.
X-147.
X-142.188 F1500.
G02 X-142.434 Y-19.514 I4.33 J2.5
G01 X-137.858 Y-17.5 F2500.
Y-25.
X-146.5
X-152. F2188.
X-157.5 F1875.
Y-19.5
Y14. F2500.
Y19.5 F2188.
Y25. F1875.
X-152.
X0.0 F2500.
Y30.5
Z-.985
G00 Z-.786
G01 Z-1.183
Z-2.183 F1000.
Y25.
X146.5 F2500.
X152. F2188.
X157.5 F1875.
Y19.5
Y-14. F2500.
Y-19.5 F2188.
Y-25. F1875.
X152.
X134.135 F2500.
Y-17.5
G03 X136.277 Y-16.119 I-5.868 J11.449 F1500.
X136.737 Y-15.722 I-4.732 J5.947
X138.445 Y-13.729 I-7.973 J8.561
X139.013 Y-12.817 I-12.216 J8.246
X145.361 Y-14.492 I6.348 J11.19
X150. Y-13.626 I0.0 J12.865
G01 Y-17.5 F2500.
X134.135
X128.267 Y-19.484 F1500.
X134.135 Y-17.5 F2500.
Y-25.
X119.089
Y-17.5
G03 X119.341 Y-17.298 I-7.915 J10.142 F1500.
X119.54 Y-17.128 I-4.19 J5.099
X119.579 Y-17.095 I-.961 J1.152
X119.777 Y-16.911 I-5.062 J5.669
X120.421 Y-16.246 I-7.988 J8.381
X120.536 Y-16.334 I4.081 J5.187
X122.399 Y-17.5 I7.731 J10.283
G01 X119.089 F2500.
X114.327 Y-19.92 F1500.
X119.089 Y-17.5 F2500.
Y-25.
X-137.858
Y-17.5
G03 X-137.627 Y-17.335 I-7.371 J10.544 F1500.
X-137.28 Y-17.065 I-4.491 J6.131
G01 X-137.276 Y-17.07
G03 X-136.872 Y-17.5 I8.762 J7.846
G01 X-135.806 Y-16.444 F2500.
G02 X-136.152 Y-16.077 I7.291 J7.221
X-137.131 Y-14.831 I10.337 J9.134
X-138.033 Y-15.734 I-8.245 J7.332
X-138.513 Y-16.125 I-4.085 J4.53
X-145.229 Y-18.321 I-6.716 J9.169
X-152.055 Y-16.042 I0.0 J11.365
X-152.335 Y-15.816 I3.063 J4.077
X-153.246 Y-14.92 I6.727 J7.749
X-154.671 Y-12.973 I9.486 J8.439
X-155.961 Y-9.776 I9.631 J5.742
X-156.134 Y-8.665 I6.822 J1.636
X-156.206 Y-6.956 I23.992 J1.858
G01 Y12.953
G02 X-156.162 Y14.211 I18.552 J-.008
X-155.845 Y16.219 I7.816 J-.204
G01 X-155.789 Y16.413
G02 X-152.66 Y21.514 I11.198 J-3.359
X-152.014 Y22.07 I5.084 J-5.256
X-148.052 Y23.961 I6.785 J-9.117
X-145.229 Y24.318 I2.823 J-11.009 F2188.
X-142.606 Y24.011 I0.0 J-11.365
X-138.436 Y22.065 I-2.623 J-11.058 F1875.
X-137.798 Y21.5 I-3.048 J-4.089
G01 X-137.785 Y21.501
G02 X-136.682 Y20.29 I-7.417 J-7.862
X-135.226 Y21.824 I8.866 J-6.96
X-134.921 Y22.069 I3.312 J-3.805
X-133.792 Y22.81 I6.786 J-9.117
X-128.135 Y24.318 I5.656 J-9.857 F2500.
X-121.343 Y22.065 I0.0 J-11.365
X-120.701 Y21.496 I-3.048 J-4.089
G01 X-120.7 Y21.503
X-120.693 Y21.505
X-120.689 Y21.499
G02 X-119.586 Y20.294 I-8.231 J-8.643
X-118.112 Y21.841 I8.797 J-6.906
X-117.829 Y22.069 I3.217 J-3.713
X-113.868 Y23.961 I6.787 J-9.116
X-111.042 Y24.318 I2.826 J-11.008 F2188.
X-108.422 Y24.012 I0.0 J-11.365
X-104.249 Y22.065 I-2.62 J-11.059 F1875.
X-103.612 Y21.501 I-3.048 J-4.089
G01 X-103.6 Y21.503
G02 X-102.496 Y20.291 I-7.391 J-7.843
X-100.97 Y21.881 I8.743 J-6.857
X-100.736 Y22.068 I2.906 J-3.402
X-99.607 Y22.809 I6.788 J-9.115
X-96.769 Y23.962 I5.659 J-9.856 F2500.
X-93.948 Y24.318 I2.821 J-11.009 F2188.
X-91.323 Y24.01 I0.0 J-11.365
X-87.156 Y22.065 I-2.625 J-11.058 F1875.
X-86.514 Y21.497 I-3.048 J-4.089
G01 X-86.504 Y21.5
G02 X-85.402 Y20.291 I-7.455 J-7.899
X-83.928 Y21.839 I8.822 J-6.924
X-83.648 Y22.064 I3.188 J-3.675
X-82.51 Y22.811 I6.793 J-9.111
X-79.674 Y23.963 I5.655 J-9.858 F2500.
X-76.855 Y24.318 I2.819 J-11.01 F2188.
X-74.228 Y24.01 I0.0 J-11.365
X-70.057 Y22.06 I-2.627 J-11.057 F1875.
X-69.421 Y21.497 I-3.054 J-4.085
G01 X-69.408 Y21.498
G02 X-68.309 Y20.291 I-7.418 J-7.857
X-66.831 Y21.843 I8.958 J-7.054
X-66.554 Y22.064 I3.385 J-3.942
X-65.413 Y22.813 I6.793 J-9.112
X-59.761 Y24.318 I5.652 J-9.86 F2500.
X-52.963 Y22.06 I0.0 J-11.365
X-52.328 Y21.497 I-3.054 J-4.085
G01 X-52.326 Y21.504
X-52.319 Y21.505
X-52.315 Y21.5
G02 X-51.212 Y20.293 I-8.117 J-8.532
X-49.745 Y21.836 I8.824 J-6.928
X-49.462 Y22.063 I3.201 J-3.686
X-45.493 Y23.961 I6.794 J-9.111
X-42.668 Y24.318 I2.825 J-11.008 F2188.
X-40.047 Y24.011 I0.0 J-11.365
X-35.875 Y22.065 I-2.621 J-11.059 F1875.
X-35.238 Y21.501 I-3.048 J-4.089
G01 X-35.225 Y21.502
G02 X-34.122 Y20.291 I-7.409 J-7.858
X-32.611 Y21.869 I8.817 J-6.929
X-32.368 Y22.063 I2.941 J-3.425
X-31.231 Y22.81 I6.794 J-9.111
X-25.574 Y24.318 I5.657 J-9.857 F2500.
X-18.782 Y22.065 I0.0 J-11.365
X-18.142 Y21.498 I-3.048 J-4.089
G01 X-18.136 Y21.506
X-18.128 Y21.499
G02 X-17.027 Y20.291 I-7.519 J-7.954
X-15.65 Y21.754 I8.855 J-6.952
X-15.273 Y22.064 I3.437 J-3.793
X-11.305 Y23.961 I6.793 J-9.112
X-8.481 Y24.318 I2.824 J-11.008 F2188.
X-5.859 Y24.011 I0.0 J-11.365
X-1.688 Y22.065 I-2.622 J-11.058 F1875.
X-1.051 Y21.501 I-3.048 J-4.089
G01 X-1.037
G02 X.066 Y20.29 I-7.363 J-7.814
X1.592 Y21.882 I8.72 J-6.831
X1.818 Y22.063 I2.849 J-3.335
X2.956 Y22.81 I6.795 J-9.11
X5.791 Y23.962 I5.657 J-9.857 F2500.
X8.613 Y24.318 I2.822 J-11.009 F2188.
X11.237 Y24.011 I0.0 J-11.365
X15.405 Y22.065 I-2.624 J-11.058 F1875.
X16.045 Y21.498 I-3.048 J-4.089
G01 X16.057 Y21.5
G02 X17.16 Y20.292 I-7.708 J-8.14
X18.552 Y21.768 I8.853 J-6.95
G01 X18.85 Y22.016
X18.921 Y22.07
G02 X20.052 Y22.812 I6.785 J-9.117
X22.88 Y23.961 I5.654 J-9.859 F2500.
X25.706 Y24.318 I2.826 J-11.008 F2188.
X28.326 Y24.012 I0.0 J-11.365
X32.499 Y22.065 I-2.62 J-11.059 F1875.
X33.135 Y21.502 I-3.048 J-4.089
G01 X33.148 Y21.503
G02 X34.252 Y20.291 I-7.395 J-7.846
X35.736 Y21.847 I8.939 J-7.046
X36.003 Y22.061 I3.072 J-3.545
X37.143 Y22.81 I6.797 J-9.109
X39.98 Y23.962 I5.657 J-9.857 F2500.
X42.8 Y24.318 I2.82 J-11.01 F2188.
X45.426 Y24.01 I0.0 J-11.365
X49.592 Y22.065 I-2.626 J-11.057 F1875.
X50.233 Y21.497 I-3.048 J-4.089
G01 X50.246 Y21.498
G02 X51.347 Y20.291 I-7.513 J-7.949
X52.526 Y21.573 I8.76 J-6.869
G01 X52.743 Y21.772
G02 X53.1 Y22.064 I3.432 J-3.829
X54.241 Y22.812 I6.793 J-9.112
X57.073 Y23.962 I5.653 J-9.86 F2500.
X59.893 Y24.318 I2.821 J-11.009 F2188.
X62.519 Y24.01 I0.0 J-11.365
X66.691 Y22.06 I-2.626 J-11.058 F1875.
X67.325 Y21.499 I-3.054 J-4.085
G01 X67.34
G02 X68.44 Y20.291 I-7.462 J-7.902
X69.928 Y21.851 I8.805 J-6.909
X70.194 Y22.064 I3.099 J-3.587
X71.334 Y22.812 I6.793 J-9.111
X76.987 Y24.318 I5.653 J-9.859 F2500.
X83.586 Y22.205 I0.0 J-11.365
X84.259 Y21.661 I-4.123 J-5.78
X85.534 Y20.291 I-7.567 J-8.325
X86.947 Y21.787 I8.87 J-6.965
X87.295 Y22.07 I3.362 J-3.777
X94.08 Y24.318 I6.785 J-9.117
X100.681 Y22.205 I0.0 J-11.365
X101.354 Y21.659 I-4.123 J-5.78
X102.626 Y20.292 I-7.418 J-8.175
X104.11 Y21.847 I9.023 J-7.122
G01 X104.38 Y22.063
G02 X111.174 Y24.318 I6.794 J-9.111
X117.774 Y22.205 I0.0 J-11.365
X118.447 Y21.659 I-4.123 J-5.78
X119.72 Y20.291 I-7.417 J-8.174
X121.253 Y21.888 I8.749 J-6.865
X121.471 Y22.062 I2.784 J-3.264
X125.448 Y23.963 I6.796 J-9.109
X128.267 Y24.318 I2.819 J-11.01 F2188.
X130.894 Y24.01 I0.0 J-11.365
X135.061 Y22.064 I-2.627 J-11.057 F1875.
X135.701 Y21.497 I-3.049 J-4.088
G01 X135.715 Y21.498
G02 X136.813 Y20.291 I-7.384 J-7.825
X138.298 Y21.848 I8.8 J-6.905
X138.566 Y22.063 I3.122 J-3.612
X139.709 Y22.813 I6.794 J-9.11
X145.361 Y24.318 I5.652 J-9.86 F2500.
X156.726 Y12.953 I0.0 J-11.365
G01 Y-1.627
G02 X145.361 Y-12.992 I-11.365 J0.0
X138.772 Y-10.887 I0.0 J11.365
G01 X138.471 Y-10.665
X138.426 Y-10.629
G02 X137.203 Y-12.886 I-12.198 J5.147
X135.713 Y-14.625 I-8.44 J5.726
X135.343 Y-14.945 I-4.168 J4.454
X128.267 Y-17.416 I-7.075 J8.894
X121.438 Y-15.135 I0.0 J11.365
X121.088 Y-14.847 I3.065 J4.076
X120.308 Y-14.08 I8.398 J9.318
G01 X120.25 Y-14.017
X119.951 Y-14.442
G02 X118.74 Y-15.827 I-8.162 J5.912
X118.579 Y-15.976 I-4.224 J4.401
G01 Y-15.975
G02 X118.389 Y-16.139 I-3.428 J3.776
X111.174 Y-18.723 I-7.215 J8.781
X104.372 Y-16.463 I0.0 J11.365
X103.842 Y-16.025 I4.249 J5.688
G01 X103.786 Y-16.065
G02 X102.814 Y-17.525 I-8.516 J4.614
G01 Y-17.533
X102.789 Y-17.564
G02 X102.5 Y-17.908 I-4.809 J3.753
X94.08 Y-21.639 I-8.42 J7.634
X86.839 Y-19.033 I0.0 J11.365
X85.606 Y-17.748 I5.511 J6.52
G01 X85.537 Y-17.66
X85.532 Y-17.659
X85.486 Y-17.717
X85.267 Y-17.985
G02 X84.469 Y-18.82 I-7.563 J6.425
X84.161 Y-19.089 I-4.159 J4.463
X76.987 Y-21.639 I-7.174 J8.814
X70.088 Y-19.306 I0.0 J11.365
X69.815 Y-19.082 I3.096 J4.053
X68.848 Y-18.11 I6.828 J7.76
X68.743 Y-18.262 I-8.941 J6.078
X68.384 Y-18.74 I-8.335 J5.872
X67.418 Y-19.789 I-7.781 J6.2
X67.117 Y-20.054 I-4.178 J4.444
X59.893 Y-22.645 I-7.224 J8.774
X52.986 Y-20.305 I0.0 J11.365
X52.705 Y-20.074 I3.099 J4.05
X51.55 Y-18.872 I6.894 J7.788
G01 X51.541 Y-18.884
G02 X49.992 Y-20.582 I-8.393 J6.099
X42.8 Y-23.148 I-7.193 J8.799
X35.893 Y-20.808 I0.0 J11.365
X35.611 Y-20.576 I3.1 J4.05
X34.374 Y-19.274 I6.896 J7.789
X33.009 Y-20.781 I-8.318 J6.168
X32.629 Y-21.097 I-4.095 J4.521
X25.706 Y-23.449 I-6.923 J9.013
X18.798 Y-21.108 I0.0 J11.365
G01 X18.518 Y-20.878
G02 X17.24 Y-19.524 I6.896 J7.789
G01 X17.228 Y-19.542
G02 X15.895 Y-20.998 I-8.3 J6.256
X15.505 Y-21.322 I-4.089 J4.527
X8.613 Y-23.65 I-6.893 J9.036
X1.705 Y-21.31 I0.0 J11.365
X1.424 Y-21.079 I3.1 J4.05
X.086 Y-19.648 I6.898 J7.79
X-1.238 Y-21.081 I-8.271 J6.317
X-1.433 Y-21.248 I-4.071 J4.542
G01 X-1.631 Y-21.404
G02 X-8.481 Y-23.701 I-6.85 J9.069
X-15.387 Y-21.361 I0.0 J11.365
X-15.668 Y-21.13 I3.099 J4.05
X-17.062 Y-19.626 I6.893 J7.787
G01 X-17.073 Y-19.606
X-17.092 Y-19.596
X-17.344 Y-19.909
G02 X-18.372 Y-20.963 I-7.93 J6.705
X-18.57 Y-21.132 I-4.054 J4.558
G01 X-18.571 Y-21.131
G02 X-18.779 Y-21.294 I-3.257 J3.924
X-25.574 Y-23.55 I-6.796 J9.109
X-32.481 Y-21.21 I0.0 J11.365
X-32.763 Y-20.978 I3.1 J4.05
X-34.222 Y-19.387 I6.896 J7.789
G01 X-34.267 Y-19.444
X-34.54 Y-19.774
X-34.568 Y-19.806
G02 X-35.481 Y-20.724 I-7.784 J6.831
X-35.891 Y-21.057 I-4.047 J4.564
X-42.668 Y-23.298 I-6.777 J9.123
X-49.575 Y-20.959 I0.0 J11.365
X-49.856 Y-20.727 I3.1 J4.05
X-50.961 Y-19.587 I6.896 J7.789
X-51.369 Y-19.065 I8.927 J7.402
X-51.923 Y-19.688 I-10.932 J9.171
X-52.596 Y-20.339 I-7.471 J7.047
X-53.01 Y-20.673 I-4.038 J4.572
X-59.761 Y-22.896 I-6.752 J9.142
X-66.668 Y-20.556 I0.0 J11.365
X-66.95 Y-20.325 I3.1 J4.05
X-68.263 Y-18.925 I6.896 J7.789
G01 X-68.294 Y-18.885
X-68.522 Y-18.584
G02 X-69.304 Y-19.426 I-9.809 J8.334
X-69.687 Y-19.783 I-7.34 J7.491
X-70.117 Y-20.131 I-4.046 J4.565
X-76.855 Y-22.343 I-6.738 J9.152
X-83.762 Y-20.003 I0.0 J11.365
X-84.043 Y-19.772 I3.1 J4.05
X-85.357 Y-18.372 I6.896 J7.789
G01 X-85.675 Y-17.948
G02 X-86.702 Y-19.008 I-8.708 J7.409
X-86.784 Y-19.081 I-7.055 J7.791
X-87.22 Y-19.434 I-4.047 J4.564
X-93.948 Y-21.639 I-6.728 J9.159
X-100.855 Y-19.299 I0.0 J11.365
X-101.137 Y-19.068 I3.1 J4.05
X-102.45 Y-17.668 I6.896 J7.789
G01 X-102.827 Y-17.165
G02 X-103.846 Y-18.197 I-9.009 J7.865
X-104.051 Y-18.375 I-4.085 J4.53
G01 X-104.326 Y-18.588
G02 X-111.042 Y-20.785 I-6.716 J9.169
X-117.949 Y-18.445 I0.0 J11.365
X-118.23 Y-18.213 I3.1 J4.05
X-119.542 Y-16.816 I6.896 J7.789
X-120.098 Y-16.057 I13.16 J10.235
X-120.945 Y-16.896 I-8.694 J7.937
X-121.42 Y-17.281 I-4.079 J4.536
X-128.135 Y-19.477 I-6.716 J9.169
X-135.102 Y-17.092 I0.0 J11.365
X-135.806 Y-16.444 I6.587 J7.869
G01 X-136.872 Y-17.5
X-137.858
X-142.434 Y-19.514
G02 X-145.229 Y-19.821 I-2.795 J12.558 F1500.
X-152.5 Y-17.569 I0.0 J12.865
G01 Y-18.785 F1313.
Y-20. F1125.
X-147.
X-142.188 F1500.
G02 X-142.434 Y-19.514 I4.33 J2.5
G01 X-137.858 Y-17.5 F2500.
Y-25.
X-146.5
X-152. F2188.
X-157.5 F1875.
Y-19.5
Y14. F2500.
Y19.5 F2188.
Y25. F1875.
X-152.
X0.0 F2500.
Y30.5
Z-1.183
G00 Z-.985
G01 Z-1.382
Z-2.382 F1000.
Y25.
X146.5 F2500.
X152. F2188.
X157.5 F1875.
Y19.5
Y-14. F2500.
Y-19.5 F2188.
Y-25. F1875.
X152.
X134.135 F2500.
Y-17.5
G03 X136.277 Y-16.119 I-5.868 J11.449 F1500.
X136.737 Y-15.722 I-4.732 J5.947
X138.445 Y-13.729 I-7.972 J8.56
X139.013 Y-12.817 I-12.215 J8.246
X145.361 Y-14.492 I6.348 J11.19
X150. Y-13.626 I0.0 J12.865
G01 Y-17.5 F2500.
X134.135
X128.267 Y-19.484 F1500.
X134.135 Y-17.5 F2500.
Y-25.
X119.089
Y-17.5
G03 X119.341 Y-17.298 I-7.915 J10.142 F1500.
X119.54 Y-17.128 I-4.19 J5.099
X119.579 Y-17.095 I-.961 J1.152
X119.777 Y-16.911 I-5.062 J5.669
X120.421 Y-16.246 I-7.987 J8.38
X120.536 Y-16.334 I4.081 J5.187
X122.399 Y-17.5 I7.731 J10.283
G01 X119.089 F2500.
X114.327 Y-19.92 F1500.
X119.089 Y-17.5 F2500.
Y-25.
X-137.858
Y-17.5
G03 X-137.627 Y-17.335 I-7.371 J10.544 F1500.
X-137.28 Y-17.065 I-4.491 J6.131
G01 X-137.276 Y-17.07
G03 X-136.872 Y-17.5 I8.762 J7.846
G01 X-135.806 Y-16.444 F2500.
G02 X-136.152 Y-16.077 I7.291 J7.221
X-137.131 Y-14.831 I10.332 J9.13
X-138.033 Y-15.734 I-8.243 J7.33
X-138.513 Y-16.125 I-4.085 J4.53
X-145.229 Y-18.321 I-6.716 J9.169
X-152.055 Y-16.042 I0.0 J11.365
X-152.335 Y-15.816 I3.063 J4.077
X-153.246 Y-14.92 I6.727 J7.749
X-154.59 Y-13.109 I9.503 J8.455
X-156.096 Y-9.109 I9.613 J5.904
X-156.3 Y-6.954 I14.436 J2.452
G01 Y12.951
G02 X-155.711 Y16.664 I12.131 J-.023
X-152.66 Y21.514 I11.118 J-3.608
X-152.014 Y22.07 I5.086 J-5.259
X-148.052 Y23.961 I6.785 J-9.117
X-145.229 Y24.318 I2.823 J-11.009 F2188.
X-142.606 Y24.011 I0.0 J-11.365
X-138.436 Y22.065 I-2.623 J-11.058 F1875.
X-137.798 Y21.5 I-3.048 J-4.089
G01 X-137.785 Y21.501
G02 X-136.682 Y20.29 I-7.415 J-7.861
X-135.226 Y21.824 I8.866 J-6.959
X-134.921 Y22.069 I3.309 J-3.801
X-133.792 Y22.81 I6.786 J-9.117
X-128.135 Y24.318 I5.656 J-9.857 F2500.
X-121.343 Y22.065 I0.0 J-11.365
X-120.701 Y21.496 I-3.048 J-4.089
G01 X-120.7 Y21.503
X-120.693 Y21.505
X-120.689 Y21.499
G02 X-119.586 Y20.294 I-8.232 J-8.644
X-118.112 Y21.841 I8.797 J-6.905
X-117.829 Y22.069 I3.218 J-3.714
X-113.868 Y23.961 I6.787 J-9.116
X-111.042 Y24.318 I2.826 J-11.008 F2188.
X-108.422 Y24.012 I0.0 J-11.365
X-104.249 Y22.065 I-2.62 J-11.059 F1875.
X-103.612 Y21.501 I-3.048 J-4.089
G01 X-103.6 Y21.503
G02 X-102.496 Y20.291 I-7.391 J-7.842
X-100.971 Y21.881 I8.744 J-6.858
X-100.736 Y22.068 I2.911 J-3.407
X-99.607 Y22.809 I6.788 J-9.115
X-96.769 Y23.962 I5.659 J-9.856 F2500.
X-93.948 Y24.318 I2.821 J-11.009 F2188.
X-91.323 Y24.01 I0.0 J-11.365
X-87.156 Y22.065 I-2.625 J-11.058 F1875.
X-86.514 Y21.497 I-3.048 J-4.089
G01 X-86.504 Y21.5
G02 X-85.402 Y20.291 I-7.456 J-7.899
X-83.928 Y21.839 I8.822 J-6.924
X-83.649 Y22.064 I3.185 J-3.672
X-82.51 Y22.811 I6.794 J-9.111
X-79.674 Y23.963 I5.655 J-9.858 F2500.
X-76.855 Y24.318 I2.819 J-11.01 F2188.
X-74.228 Y24.01 I0.0 J-11.365
X-70.057 Y22.06 I-2.627 J-11.057 F1875.
X-69.421 Y21.497 I-3.054 J-4.085
G01 X-69.408 Y21.498
G02 X-68.309 Y20.291 I-7.418 J-7.857
X-66.831 Y21.843 I8.958 J-7.053
X-66.554 Y22.064 I3.384 J-3.94
X-65.413 Y22.813 I6.793 J-9.112
X-59.761 Y24.318 I5.652 J-9.86 F2500.
X-52.963 Y22.06 I0.0 J-11.365
X-52.328 Y21.497 I-3.054 J-4.085
G01 X-52.326 Y21.504
X-52.319 Y21.505
X-52.315 Y21.5
G02 X-51.212 Y20.293 I-8.116 J-8.531
X-49.745 Y21.836 I8.824 J-6.928
X-49.462 Y22.063 I3.201 J-3.686
X-45.493 Y23.961 I6.794 J-9.111
X-42.668 Y24.318 I2.825 J-11.008 F2188.
X-40.047 Y24.011 I0.0 J-11.365
X-35.875 Y22.065 I-2.621 J-11.059 F1875.
X-35.238 Y21.501 I-3.048 J-4.089
G01 X-35.225 Y21.502
G02 X-34.122 Y20.291 I-7.41 J-7.859
X-32.611 Y21.869 I8.818 J-6.93
X-32.368 Y22.063 I2.945 J-3.429
X-31.231 Y22.81 I6.794 J-9.111
X-25.574 Y24.318 I5.657 J-9.857 F2500.
X-18.782 Y22.065 I0.0 J-11.365
X-18.142 Y21.498 I-3.048 J-4.089
G01 X-18.139 Y21.506
X-18.132
X-18.128 Y21.499
G02 X-17.027 Y20.291 I-7.52 J-7.954
X-15.65 Y21.754 I8.854 J-6.951
X-15.273 Y22.064 I3.436 J-3.792
X-11.305 Y23.961 I6.793 J-9.112
X-8.481 Y24.318 I2.824 J-11.008 F2188.
X-5.859 Y24.011 I0.0 J-11.365
X-1.688 Y22.065 I-2.622 J-11.058 F1875.
X-1.051 Y21.501 I-3.048 J-4.089
G01 X-1.037
G02 X.066 Y20.29 I-7.363 J-7.814
X1.591 Y21.881 I8.721 J-6.833
X1.817 Y22.062 I2.854 J-3.341
X2.956 Y22.81 I6.795 J-9.11
X5.791 Y23.962 I5.657 J-9.857 F2500.
X8.613 Y24.318 I2.822 J-11.009 F2188.
X11.237 Y24.011 I0.0 J-11.365
X15.405 Y22.065 I-2.624 J-11.058 F1875.
X16.045 Y21.498 I-3.048 J-4.089
G01 X16.057 Y21.5
G02 X17.16 Y20.292 I-7.708 J-8.14
X18.552 Y21.768 I8.852 J-6.949
G01 X18.85 Y22.016
X18.921 Y22.07
G02 X20.052 Y22.812 I6.785 J-9.117
X22.88 Y23.961 I5.654 J-9.859 F2500.
X25.706 Y24.318 I2.826 J-11.008 F2188.
X28.326 Y24.012 I0.0 J-11.365
X32.499 Y22.065 I-2.62 J-11.059 F1875.
X33.135 Y21.502 I-3.048 J-4.089
G01 X33.148 Y21.503
G02 X34.252 Y20.292 I-7.395 J-7.846
X35.736 Y21.847 I8.938 J-7.046
X36.003 Y22.061 I3.073 J-3.546
X37.143 Y22.81 I6.797 J-9.109
X39.98 Y23.962 I5.657 J-9.857 F2500.
X42.8 Y24.318 I2.82 J-11.01 F2188.
X45.426 Y24.01 I0.0 J-11.365
X49.592 Y22.065 I-2.626 J-11.057 F1875.
X50.233 Y21.497 I-3.048 J-4.089
G01 X50.246 Y21.498
G02 X51.347 Y20.291 I-7.513 J-7.949
X52.743 Y21.772 I8.887 J-6.981
X53.1 Y22.064 I3.431 J-3.827
X54.241 Y22.812 I6.793 J-9.112
X57.073 Y23.962 I5.653 J-9.86 F2500.
X59.893 Y24.318 I2.821 J-11.009 F2188.
X62.519 Y24.01 I0.0 J-11.365
X66.691 Y22.06 I-2.626 J-11.058 F1875.
X67.325 Y21.499 I-3.054 J-4.085
G01 X67.34
G02 X68.44 Y20.291 I-7.462 J-7.902
X69.929 Y21.851 I8.804 J-6.909
X70.193 Y22.064 I3.095 J-3.584
X71.334 Y22.812 I6.793 J-9.111
X76.987 Y24.318 I5.653 J-9.859 F2500.
X83.586 Y22.205 I0.0 J-11.365
X84.259 Y21.661 I-4.123 J-5.78
X85.534 Y20.291 I-7.561 J-8.32
X86.947 Y21.787 I8.869 J-6.965
X87.295 Y22.07 I3.361 J-3.776
X94.08 Y24.318 I6.785 J-9.117
X100.681 Y22.205 I0.0 J-11.365
X101.354 Y21.659 I-4.123 J-5.78
X102.626 Y20.292 I-7.416 J-8.173
X104.11 Y21.847 I9.024 J-7.122
G01 X104.38 Y22.063
G02 X111.174 Y24.318 I6.794 J-9.111
X117.774 Y22.205 I0.0 J-11.365
X118.447 Y21.659 I-4.123 J-5.78
X119.72 Y20.291 I-7.416 J-8.173
X121.252 Y21.887 I8.751 J-6.866
X121.471 Y22.062 I2.792 J-3.272
X125.448 Y23.963 I6.796 J-9.109
X128.267 Y24.318 I2.819 J-11.01 F2188.
X130.894 Y24.01 I0.0 J-11.365
X135.061 Y22.064 I-2.627 J-11.057 F1875.
X135.701 Y21.497 I-3.049 J-4.088
G01 X135.715 Y21.498
G02 X136.813 Y20.291 I-7.385 J-7.826
X138.298 Y21.848 I8.8 J-6.905
X138.566 Y22.063 I3.119 J-3.608
X139.709 Y22.813 I6.795 J-9.11
X145.361 Y24.318 I5.652 J-9.86 F2500.
X156.726 Y12.953 I0.0 J-11.365
G01 Y-1.627
G02 X145.361 Y-12.992 I-11.365 J0.0
X138.772 Y-10.887 I0.0 J11.365
G01 X138.471 Y-10.665
X138.426 Y-10.629
G02 X137.203 Y-12.886 I-12.196 J5.146
X135.713 Y-14.625 I-8.439 J5.725
X135.343 Y-14.945 I-4.168 J4.454
X128.267 Y-17.416 I-7.075 J8.894
X121.438 Y-15.135 I0.0 J11.365
X121.088 Y-14.847 I3.065 J4.076
X120.308 Y-14.08 I8.398 J9.318
G01 X120.25 Y-14.017
X119.951 Y-14.442
G02 X118.74 Y-15.827 I-8.161 J5.911
X118.579 Y-15.976 I-4.224 J4.401
G01 Y-15.975
G02 X118.389 Y-16.139 I-3.428 J3.776
X111.174 Y-18.723 I-7.215 J8.781
X104.372 Y-16.463 I0.0 J11.365
X103.842 Y-16.025 I4.249 J5.688
G01 X103.786 Y-16.065
G02 X102.814 Y-17.525 I-8.514 J4.613
G01 Y-17.533
X102.789 Y-17.564
G02 X102.5 Y-17.908 I-4.809 J3.753
X94.08 Y-21.639 I-8.42 J7.634
X86.839 Y-19.033 I0.0 J11.365
X85.606 Y-17.748 I5.509 J6.518
G01 X85.537 Y-17.66
X85.532 Y-17.659
X85.486 Y-17.717
X85.267 Y-17.985
G02 X84.469 Y-18.82 I-7.563 J6.425
X84.161 Y-19.089 I-4.159 J4.463
X76.987 Y-21.639 I-7.174 J8.814
X70.088 Y-19.306 I0.0 J11.365
X69.815 Y-19.082 I3.096 J4.053
X68.848 Y-18.11 I6.828 J7.76
X68.743 Y-18.262 I-8.941 J6.078
X68.384 Y-18.74 I-8.335 J5.872
X67.418 Y-19.789 I-7.781 J6.2
X67.117 Y-20.054 I-4.178 J4.444
X59.893 Y-22.645 I-7.224 J8.774
X52.986 Y-20.305 I0.0 J11.365
X52.705 Y-20.074 I3.099 J4.05
X51.549 Y-18.872 I6.894 J7.788
G01 X51.541 Y-18.884
G02 X49.992 Y-20.582 I-8.393 J6.099
X42.8 Y-23.148 I-7.193 J8.799
X35.893 Y-20.808 I0.0 J11.365
X35.611 Y-20.576 I3.1 J4.05
X34.374 Y-19.274 I6.896 J7.789
X33.009 Y-20.781 I-8.318 J6.168
X32.629 Y-21.097 I-4.095 J4.521
X25.706 Y-23.449 I-6.923 J9.013
X18.798 Y-21.108 I0.0 J11.365
G01 X18.518 Y-20.878
G02 X17.24 Y-19.524 I6.896 J7.789
G01 X17.228 Y-19.542
G02 X15.895 Y-20.998 I-8.3 J6.256
X15.505 Y-21.322 I-4.089 J4.527
X8.613 Y-23.65 I-6.893 J9.036
X1.705 Y-21.31 I0.0 J11.365
X1.424 Y-21.079 I3.1 J4.05
X.086 Y-19.648 I6.898 J7.79
X-1.238 Y-21.081 I-8.271 J6.317
X-1.433 Y-21.248 I-4.071 J4.542
G01 X-1.631 Y-21.404
G02 X-8.481 Y-23.701 I-6.85 J9.069
X-15.387 Y-21.361 I0.0 J11.365
X-15.668 Y-21.13 I3.099 J4.05
X-17.062 Y-19.626 I6.893 J7.787
G01 X-17.073 Y-19.606
X-17.092 Y-19.596
X-17.344 Y-19.909
G02 X-18.372 Y-20.963 I-7.93 J6.705
X-18.57 Y-21.132 I-4.054 J4.558
G01 X-18.571 Y-21.131
G02 X-18.779 Y-21.294 I-3.257 J3.924
X-25.574 Y-23.55 I-6.796 J9.109
X-32.481 Y-21.21 I0.0 J11.365
X-32.763 Y-20.978 I3.1 J4.05
X-34.222 Y-19.387 I6.896 J7.789
G01 X-34.267 Y-19.444
X-34.54 Y-19.774
X-34.568 Y-19.806
G02 X-35.481 Y-20.724 I-7.784 J6.831
X-35.891 Y-21.057 I-4.047 J4.564
X-42.668 Y-23.298 I-6.777 J9.123
X-49.575 Y-20.959 I0.0 J11.365
X-49.856 Y-20.727 I3.1 J4.05
X-51.17 Y-19.327 I6.896 J7.789
G01 X-51.369 Y-19.065
G02 X-51.923 Y-19.688 I-10.908 J9.15
X-52.596 Y-20.339 I-7.471 J7.047
X-53.01 Y-20.673 I-4.038 J4.572
X-59.761 Y-22.896 I-6.752 J9.142
X-66.668 Y-20.556 I0.0 J11.365
X-66.95 Y-20.325 I3.1 J4.05
X-68.263 Y-18.925 I6.896 J7.789
G01 X-68.294 Y-18.885
X-68.522 Y-18.584
G02 X-69.304 Y-19.426 I-9.799 J8.325
X-69.687 Y-19.783 I-7.34 J7.491
X-70.117 Y-20.131 I-4.046 J4.565
X-76.855 Y-22.343 I-6.738 J9.152
X-83.762 Y-20.003 I0.0 J11.365
X-84.043 Y-19.772 I3.1 J4.05
X-85.357 Y-18.372 I6.896 J7.789
G01 X-85.675 Y-17.948
G02 X-86.702 Y-19.008 I-8.706 J7.408
X-86.784 Y-19.081 I-7.055 J7.791
X-87.22 Y-19.434 I-4.047 J4.564
X-93.948 Y-21.639 I-6.728 J9.159
X-100.855 Y-19.299 I0.0 J11.365
X-101.137 Y-19.068 I3.1 J4.05
X-102.45 Y-17.668 I6.896 J7.789
G01 X-102.827 Y-17.165
G02 X-103.846 Y-18.197 I-9.005 J7.862
X-104.051 Y-18.375 I-4.085 J4.53
G01 X-104.326 Y-18.588
G02 X-111.042 Y-20.785 I-6.716 J9.169
X-117.949 Y-18.445 I0.0 J11.365
X-118.23 Y-18.213 I3.1 J4.05
X-119.544 Y-16.814 I6.896 J7.789
X-120.098 Y-16.057 I13.154 J10.226
X-120.945 Y-16.896 I-8.69 J7.934
X-121.42 Y-17.281 I-4.079 J4.536
X-128.135 Y-19.477 I-6.716 J9.169
X-135.102 Y-17.092 I0.0 J11.365
X-135.806 Y-16.444 I6.587 J7.869
G01 X-136.872 Y-17.5
X-137.858
X-142.434 Y-19.514
G02 X-145.229 Y-19.821 I-2.795 J12.558 F1500.
X-152.5 Y-17.569 I0.0 J12.865
G01 Y-18.785 F1313.
Y-20. F1125.
X-147.
X-142.188 F1500.
G02 X-142.434 Y-19.514 I4.33 J2.5
G01 X-137.858 Y-17.5 F2500.
Y-25.
X-146.5
X-152. F2188.
X-157.5 F1875.
Y-19.5
Y14. F2500.
Y19.5 F2188.
Y25. F1875.
X-152.
X0.0 F2500.
Y30.5
Z-1.382
G00 Z-1.183
G01 Z-1.58
Z-2.58 F1000.
Y25.
X146.5 F2500.
X152. F2188.
X157.5 F1875.
Y19.5
Y-14. F2500.
Y-19.5 F2188.
Y-25. F1875.
X152.
X134.135 F2500.
Y-17.5
G03 X136.277 Y-16.119 I-5.868 J11.449 F1500.
X136.737 Y-15.722 I-4.732 J5.947
X138.445 Y-13.729 I-7.971 J8.559
X139.013 Y-12.817 I-12.213 J8.245
X145.361 Y-14.492 I6.348 J11.19
X150. Y-13.626 I0.0 J12.865
G01 Y-17.5 F2500.
X134.135
X128.267 Y-19.484 F1500.
X134.135 Y-17.5 F2500.
Y-25.
X119.089
Y-17.5
G03 X119.341 Y-17.298 I-7.915 J10.142 F1500.
X119.54 Y-17.128 I-4.19 J5.099
X119.579 Y-17.095 I-.961 J1.152
X119.777 Y-16.911 I-5.062 J5.669
X120.421 Y-16.246 I-7.985 J8.379
X120.536 Y-16.334 I4.081 J5.187
X122.399 Y-17.5 I7.731 J10.283
G01 X119.089 F2500.
X114.327 Y-19.92 F1500.
X119.089 Y-17.5 F2500.
Y-25.
X-137.858
Y-17.5
G03 X-137.627 Y-17.335 I-7.371 J10.544 F1500.
X-137.28 Y-17.065 I-4.491 J6.131
G01 X-137.276 Y-17.07
G03 X-136.872 Y-17.5 I8.762 J7.846
G01 X-135.806 Y-16.444 F2500.
G02 X-136.152 Y-16.077 I7.291 J7.221
X-137.131 Y-14.831 I10.327 J9.126
X-138.033 Y-15.734 I-8.24 J7.327
X-138.513 Y-16.125 I-4.085 J4.53
X-145.229 Y-18.321 I-6.716 J9.169
X-152.055 Y-16.042 I0.0 J11.365
X-152.335 Y-15.816 I3.063 J4.077
X-153.246 Y-14.92 I6.727 J7.749
X-154.59 Y-13.109 I9.496 J8.45
X-156.096 Y-9.109 I9.613 J5.904
X-156.3 Y-6.954 I14.433 J2.451
G01 Y12.951
G02 X-155.711 Y16.664 I12.129 J-.023
X-152.66 Y21.514 I11.118 J-3.608
X-152.014 Y22.07 I5.088 J-5.262
X-148.052 Y23.961 I6.785 J-9.117
X-145.229 Y24.318 I2.823 J-11.009 F2188.
X-142.606 Y24.011 I0.0 J-11.365
X-138.436 Y22.065 I-2.623 J-11.058 F1875.
X-137.798 Y21.5 I-3.048 J-4.089
G01 X-137.785 Y21.501
G02 X-136.682 Y20.29 I-7.414 J-7.86
X-135.226 Y21.824 I8.865 J-6.958
X-134.921 Y22.069 I3.305 J-3.797
X-133.792 Y22.81 I6.786 J-9.117
X-128.135 Y24.318 I5.656 J-9.857 F2500.
X-121.343 Y22.065 I0.0 J-11.365
X-120.701 Y21.496 I-3.048 J-4.089
G01 X-120.7 Y21.503
X-120.693 Y21.505
X-120.689 Y21.499
G02 X-119.586 Y20.294 I-8.233 J-8.646
X-118.112 Y21.841 I8.797 J-6.905
X-117.829 Y22.068 I3.218 J-3.714
X-113.868 Y23.961 I6.787 J-9.116
X-111.042 Y24.318 I2.826 J-11.008 F2188.
X-108.422 Y24.012 I0.0 J-11.365
X-104.249 Y22.065 I-2.62 J-11.059 F1875.
X-103.612 Y21.501 I-3.048 J-4.089
G01 X-103.6 Y21.503
G02 X-102.496 Y20.291 I-7.39 J-7.842
X-100.974 Y21.878 I8.745 J-6.859
X-100.734 Y22.069 I2.949 J-3.449
X-99.607 Y22.809 I6.786 J-9.117
X-96.769 Y23.962 I5.659 J-9.856 F2500.
X-93.948 Y24.318 I2.821 J-11.009 F2188.
X-91.323 Y24.01 I0.0 J-11.365
X-87.156 Y22.065 I-2.625 J-11.058 F1875.
X-86.514 Y21.497 I-3.048 J-4.089
G01 X-86.504 Y21.5
G02 X-85.402 Y20.291 I-7.457 J-7.9
X-83.928 Y21.839 I8.822 J-6.924
X-83.649 Y22.063 I3.182 J-3.668
X-82.51 Y22.811 I6.794 J-9.111
X-79.674 Y23.963 I5.655 J-9.858 F2500.
X-76.855 Y24.318 I2.819 J-11.01 F2188.
X-74.228 Y24.01 I0.0 J-11.365
X-70.057 Y22.06 I-2.627 J-11.057 F1875.
X-69.421 Y21.497 I-3.054 J-4.085
G01 X-69.408 Y21.498
G02 X-68.309 Y20.291 I-7.419 J-7.858
X-66.831 Y21.843 I8.957 J-7.053
X-66.554 Y22.064 I3.382 J-3.938
X-65.413 Y22.813 I6.793 J-9.112
X-59.761 Y24.318 I5.652 J-9.86 F2500.
X-52.963 Y22.06 I0.0 J-11.365
X-52.328 Y21.497 I-3.054 J-4.085
G01 X-52.326 Y21.504
X-52.319 Y21.505
X-52.315 Y21.5
G02 X-51.212 Y20.293 I-8.114 J-8.529
X-49.744 Y21.836 I8.824 J-6.928
X-49.463 Y22.063 I3.194 J-3.678
X-45.493 Y23.961 I6.795 J-9.11
X-42.668 Y24.318 I2.825 J-11.008 F2188.
X-40.047 Y24.011 I0.0 J-11.365
X-35.875 Y22.065 I-2.621 J-11.059 F1875.
X-35.238 Y21.501 I-3.048 J-4.089
G01 X-35.225 Y21.502
G02 X-34.122 Y20.291 I-7.411 J-7.86
X-32.612 Y21.868 I8.818 J-6.93
X-32.369 Y22.063 I2.949 J-3.433
X-31.231 Y22.81 I6.794 J-9.11
X-25.574 Y24.318 I5.657 J-9.857 F2500.
X-18.782 Y22.065 I0.0 J-11.365
X-18.142 Y21.498 I-3.048 J-4.089
G01 X-18.139 Y21.506
X-18.132
X-18.128 Y21.499
G02 X-17.027 Y20.291 I-7.52 J-7.955
X-15.65 Y21.754 I8.853 J-6.95
X-15.273 Y22.064 I3.435 J-3.791
X-11.305 Y23.961 I6.793 J-9.112
X-8.481 Y24.318 I2.824 J-11.008 F2188.
X-5.859 Y24.011 I0.0 J-11.365
X-1.688 Y22.065 I-2.622 J-11.058 F1875.
X-1.051 Y21.501 I-3.048 J-4.089
G01 X-1.037
G02 X.066 Y20.29 I-7.364 J-7.815
X1.59 Y21.881 I8.722 J-6.833
X1.817 Y22.062 I2.858 J-3.345
X2.956 Y22.81 I6.795 J-9.11
X5.791 Y23.962 I5.657 J-9.857 F2500.
X8.613 Y24.318 I2.822 J-11.009 F2188.
X11.237 Y24.011 I0.0 J-11.365
X15.405 Y22.065 I-2.624 J-11.058 F1875.
X16.045 Y21.498 I-3.048 J-4.089
G01 X16.057 Y21.5
G02 X17.16 Y20.292 I-7.707 J-8.14
X18.552 Y21.768 I8.85 J-6.948
G01 X18.85 Y22.016
X18.921 Y22.07
G02 X20.052 Y22.812 I6.785 J-9.117
X22.88 Y23.961 I5.654 J-9.859 F2500.
X25.706 Y24.318 I2.826 J-11.008 F2188.
X28.326 Y24.012 I0.0 J-11.365
X32.499 Y22.065 I-2.62 J-11.059 F1875.
X33.135 Y21.502 I-3.048 J-4.089
G01 X33.148 Y21.503
G02 X34.252 Y20.292 I-7.395 J-7.846
X35.736 Y21.847 I8.938 J-7.045
X36.003 Y22.061 I3.071 J-3.544
X37.143 Y22.81 I6.797 J-9.109
X39.98 Y23.962 I5.657 J-9.857 F2500.
X42.8 Y24.318 I2.82 J-11.01 F2188.
X45.426 Y24.01 I0.0 J-11.365
X49.592 Y22.065 I-2.626 J-11.057 F1875.
X50.233 Y21.497 I-3.048 J-4.089
G01 X50.246 Y21.498
G02 X51.347 Y20.291 I-7.512 J-7.949
X52.743 Y21.772 I8.886 J-6.98
X53.1 Y22.064 I3.43 J-3.826
X54.241 Y22.812 I6.793 J-9.112
X57.073 Y23.962 I5.653 J-9.86 F2500.
X59.893 Y24.318 I2.821 J-11.009 F2188.
X62.519 Y24.01 I0.0 J-11.365
X66.691 Y22.06 I-2.626 J-11.058 F1875.
X67.325 Y21.499 I-3.054 J-4.085
G01 X67.34
G02 X68.44 Y20.291 I-7.462 J-7.902
X69.929 Y21.851 I8.803 J-6.908
X70.193 Y22.064 I3.092 J-3.581
X71.334 Y22.812 I6.794 J-9.111
X76.987 Y24.318 I5.653 J-9.859 F2500.
X83.586 Y22.205 I0.0 J-11.365
X84.259 Y21.661 I-4.123 J-5.78
X85.534 Y20.291 I-7.559 J-8.318
X86.947 Y21.787 I8.868 J-6.964
X87.295 Y22.07 I3.361 J-3.775
X94.08 Y24.318 I6.785 J-9.117
X100.681 Y22.205 I0.0 J-11.365
X101.354 Y21.659 I-4.123 J-5.78
X102.626 Y20.292 I-7.415 J-8.171
X104.11 Y21.847 I9.025 J-7.123
G01 X104.38 Y22.063
G02 X111.174 Y24.318 I6.794 J-9.111
X117.774 Y22.205 I0.0 J-11.365
X118.447 Y21.659 I-4.123 J-5.78
X119.72 Y20.291 I-7.415 J-8.172
X121.251 Y21.886 I8.752 J-6.868
X121.471 Y22.062 I2.8 J-3.28
X125.448 Y23.963 I6.796 J-9.109
X128.267 Y24.318 I2.819 J-11.01 F2188.
X130.894 Y24.01 I0.0 J-11.365
X135.061 Y22.064 I-2.627 J-11.057 F1875.
X135.701 Y21.497 I-3.049 J-4.088
G01 X135.715 Y21.498
G02 X136.813 Y20.291 I-7.386 J-7.826
X138.299 Y21.848 I8.799 J-6.904
X138.566 Y22.063 I3.115 J-3.604
X139.709 Y22.813 I6.795 J-9.11
X145.361 Y24.318 I5.652 J-9.86 F2500.
X156.726 Y12.953 I0.0 J-11.365
G01 Y-1.627
G02 X145.361 Y-12.992 I-11.365 J0.0
X138.772 Y-10.887 I0.0 J11.365
G01 X138.471 Y-10.665
X138.426 Y-10.629
G02 X137.203 Y-12.886 I-12.195 J5.145
X135.713 Y-14.625 I-8.437 J5.723
X135.343 Y-14.945 I-4.168 J4.454
X128.267 Y-17.416 I-7.075 J8.894
X121.438 Y-15.135 I0.0 J11.365
X121.088 Y-14.847 I3.065 J4.076
X120.308 Y-14.08 I8.398 J9.318
G01 X120.25 Y-14.017
X119.951 Y-14.442
G02 X118.74 Y-15.827 I-8.159 J5.91
X118.579 Y-15.976 I-4.224 J4.401
G01 Y-15.975
G02 X118.389 Y-16.139 I-3.428 J3.776
X111.174 Y-18.723 I-7.215 J8.781
X104.372 Y-16.463 I0.0 J11.365
X103.842 Y-16.025 I4.249 J5.688
G01 X103.786 Y-16.065
G02 X102.814 Y-17.525 I-8.513 J4.612
G01 Y-17.533
X102.789 Y-17.564
G02 X102.5 Y-17.908 I-4.809 J3.753
X94.08 Y-21.639 I-8.42 J7.634
X86.839 Y-19.033 I0.0 J11.365
X85.606 Y-17.748 I5.507 J6.517
G01 X85.537 Y-17.66
X85.532 Y-17.659
X85.486 Y-17.717
X85.267 Y-17.985
G02 X84.469 Y-18.82 I-7.563 J6.425
X84.161 Y-19.089 I-4.159 J4.463
X76.987 Y-21.639 I-7.174 J8.814
X70.088 Y-19.306 I0.0 J11.365
X69.815 Y-19.082 I3.096 J4.053
X68.848 Y-18.11 I6.828 J7.76
X68.743 Y-18.262 I-8.941 J6.078
X68.384 Y-18.74 I-8.335 J5.872
X67.418 Y-19.789 I-7.781 J6.2
X67.117 Y-20.054 I-4.178 J4.444
X59.893 Y-22.645 I-7.224 J8.774
X52.986 Y-20.305 I0.0 J11.365
X52.705 Y-20.074 I3.099 J4.05
X51.549 Y-18.872 I6.894 J7.788
G01 X51.541 Y-18.884
G02 X49.992 Y-20.582 I-8.393 J6.099
X42.8 Y-23.148 I-7.193 J8.799
X35.893 Y-20.808 I0.0 J11.365
X35.611 Y-20.576 I3.1 J4.05
X34.374 Y-19.274 I6.896 J7.789
X33.009 Y-20.781 I-8.318 J6.168
X32.629 Y-21.097 I-4.095 J4.521
X25.706 Y-23.449 I-6.923 J9.013
X18.798 Y-21.108 I0.0 J11.365
G01 X18.518 Y-20.878
G02 X17.24 Y-19.524 I6.896 J7.789
G01 X17.228 Y-19.542
G02 X15.895 Y-20.998 I-8.3 J6.256
X15.505 Y-21.322 I-4.089 J4.527
X8.613 Y-23.65 I-6.893 J9.036
X1.705 Y-21.31 I0.0 J11.365
X1.424 Y-21.079 I3.1 J4.05
X.086 Y-19.648 I6.898 J7.79
X-1.238 Y-21.081 I-8.271 J6.317
X-1.433 Y-21.248 I-4.071 J4.542
G01 X-1.631 Y-21.404
G02 X-8.481 Y-23.701 I-6.85 J9.069
X-15.387 Y-21.361 I0.0 J11.365
X-15.668 Y-21.13 I3.099 J4.05
X-17.062 Y-19.626 I6.893 J7.787
G01 X-17.073 Y-19.606
X-17.092 Y-19.596
X-17.344 Y-19.909
G02 X-18.372 Y-20.963 I-7.93 J6.705
X-18.57 Y-21.132 I-4.054 J4.558
G01 X-18.571 Y-21.131
G02 X-18.779 Y-21.294 I-3.257 J3.924
X-25.574 Y-23.55 I-6.796 J9.109
X-32.481 Y-21.21 I0.0 J11.365
X-32.763 Y-20.978 I3.1 J4.05
X-34.222 Y-19.387 I6.896 J7.789
G01 X-34.267 Y-19.444
X-34.54 Y-19.774
X-34.568 Y-19.806
G02 X-35.481 Y-20.724 I-7.784 J6.831
X-35.891 Y-21.057 I-4.047 J4.564
X-42.668 Y-23.298 I-6.777 J9.123
X-49.575 Y-20.959 I0.0 J11.365
X-49.856 Y-20.727 I3.1 J4.05
X-51.17 Y-19.327 I6.896 J7.789
G01 X-51.369 Y-19.065
G02 X-51.923 Y-19.688 I-10.884 J9.129
X-52.596 Y-20.339 I-7.471 J7.047
X-53.01 Y-20.673 I-4.038 J4.572
X-59.761 Y-22.896 I-6.752 J9.142
X-66.668 Y-20.556 I0.0 J11.365
X-66.95 Y-20.325 I3.1 J4.05
X-68.263 Y-18.925 I6.896 J7.789
G01 X-68.294 Y-18.885
X-68.522 Y-18.584
G02 X-69.304 Y-19.426 I-9.789 J8.316
X-69.687 Y-19.783 I-7.34 J7.491
X-70.117 Y-20.131 I-4.046 J4.565
X-76.855 Y-22.343 I-6.738 J9.152
X-83.762 Y-20.003 I0.0 J11.365
X-84.043 Y-19.772 I3.1 J4.05
X-85.357 Y-18.372 I6.896 J7.789
G01 X-85.675 Y-17.948
G02 X-86.702 Y-19.008 I-8.704 J7.406
X-86.784 Y-19.081 I-7.055 J7.791
X-87.22 Y-19.434 I-4.047 J4.564
X-93.948 Y-21.639 I-6.728 J9.159
X-100.855 Y-19.299 I0.0 J11.365
X-101.137 Y-19.068 I3.1 J4.05
X-102.45 Y-17.668 I6.896 J7.789
G01 X-102.827 Y-17.165
G02 X-103.846 Y-18.197 I-9.014 J7.871
X-104.051 Y-18.375 I-4.085 J4.53
G01 X-104.326 Y-18.588
G02 X-111.042 Y-20.785 I-6.716 J9.169
X-117.949 Y-18.445 I0.0 J11.365
X-118.23 Y-18.213 I3.1 J4.05
X-119.544 Y-16.814 I6.896 J7.789
X-120.098 Y-16.057 I13.148 J10.222
X-120.945 Y-16.896 I-8.687 J7.931
X-121.42 Y-17.281 I-4.079 J4.536
X-128.135 Y-19.477 I-6.716 J9.169
X-135.102 Y-17.092 I0.0 J11.365
X-135.806 Y-16.444 I6.587 J7.869
G01 X-136.872 Y-17.5
X-137.858
X-142.434 Y-19.514
G02 X-145.229 Y-19.821 I-2.795 J12.558 F1500.
X-152.5 Y-17.569 I0.0 J12.865
G01 Y-18.785 F1313.
Y-20. F1125.
X-147.
X-142.188 F1500.
G02 X-142.434 Y-19.514 I4.33 J2.5
G01 X-137.858 Y-17.5 F2500.
Y-25.
X-146.5
X-152. F2188.
X-157.5 F1875.
Y-19.5
Y14. F2500.
Y19.5 F2188.
Y25. F1875.
X-152.
X0.0 F2500.
Y30.5
Z-1.58
G00 Z-1.382
G01 Z-1.779
Z-2.779 F1000.
Y25.
X146.5 F2500.
X152. F2188.
X157.5 F1875.
Y19.5
Y-14. F2500.
Y-19.5 F2188.
Y-25. F1875.
X152.
X134.135 F2500.
Y-17.5
G03 X136.277 Y-16.119 I-5.868 J11.449 F1500.
X136.737 Y-15.722 I-4.732 J5.947
X138.445 Y-13.729 I-7.969 J8.558
X139.013 Y-12.817 I-12.212 J8.244
X145.361 Y-14.492 I6.348 J11.19
X150. Y-13.626 I0.0 J12.865
G01 Y-17.5 F2500.
X134.135
X128.267 Y-19.484 F1500.
X134.135 Y-17.5 F2500.
Y-25.
X119.089
Y-17.5
G03 X119.341 Y-17.298 I-7.915 J10.142 F1500.
X119.54 Y-17.128 I-4.19 J5.099
X119.579 Y-17.095 I-.961 J1.152
X119.777 Y-16.911 I-5.062 J5.669
X120.421 Y-16.246 I-7.984 J8.378
X120.536 Y-16.334 I4.081 J5.187
X122.399 Y-17.5 I7.731 J10.283
G01 X119.089 F2500.
X114.327 Y-19.92 F1500.
X119.089 Y-17.5 F2500.
Y-25.
X-137.858
Y-17.5
G03 X-137.627 Y-17.335 I-7.371 J10.544 F1500.
X-137.28 Y-17.065 I-4.491 J6.131
G01 X-137.276 Y-17.07
G03 X-136.872 Y-17.5 I8.762 J7.846
G01 X-135.806 Y-16.444 F2500.
G02 X-136.152 Y-16.077 I7.291 J7.221
X-137.131 Y-14.831 I10.322 J9.123
X-138.033 Y-15.734 I-8.238 J7.325
X-138.513 Y-16.125 I-4.085 J4.53
X-145.229 Y-18.321 I-6.716 J9.169
X-152.055 Y-16.042 I0.0 J11.365
X-152.335 Y-15.816 I3.063 J4.077
X-153.246 Y-14.92 I6.727 J7.749
X-154.59 Y-13.109 I9.49 J8.445
X-156.096 Y-9.109 I9.613 J5.904
X-156.3 Y-6.954 I14.429 J2.451
G01 Y12.951
G02 X-155.555 Y17.108 I12.095 J-.021
X-152.66 Y21.514 I10.936 J-4.032
G01 X-152.483 Y21.679
G02 X-152.014 Y22.07 I3.786 J-4.066
X-148.052 Y23.961 I6.785 J-9.117
X-145.229 Y24.318 I2.823 J-11.009 F2188.
X-142.606 Y24.011 I0.0 J-11.365
X-138.436 Y22.065 I-2.623 J-11.058 F1875.
X-137.798 Y21.5 I-3.048 J-4.089
G01 X-137.785 Y21.501
G02 X-136.682 Y20.29 I-7.413 J-7.858
X-135.226 Y21.824 I8.864 J-6.958
X-134.921 Y22.069 I3.302 J-3.793
X-133.792 Y22.81 I6.786 J-9.117
X-128.135 Y24.318 I5.656 J-9.857 F2500.
X-121.343 Y22.065 I0.0 J-11.365
