%
G40 G17 G49 G54 G80
G91 G28 Z0.0
( NAME: Capful-PC )
( PART: H:\CNC-File\2018-9\ÓÀÊ¢½Ü\SYM\SYM-ºóÄ£ÈÊ.prt )
( DATE: Thu Sep 27 11:06:41 2018 )
( Z6 ---> D=6.00 R=0.00 )
S1000 M03
G00 G90 X-95. Y70.
Z5.
G17 G01 Z-1.5 F120.
G00 Z5.
X-69.4 Y-.4
G01 Z-1.5
G00 Z5.
X-95. Y-70.
G01 Z-1.5
G00 Z5.
X-20. Y0.0
G01 Z-1.5
G00 Z5.
X-3.2 Y40.2
G01 Z-1.5
G00 Z5.
X16.5 Y23.4
G01 Z-1.5
G00 Z5.
X23.6 Y0.0
G01 Z-1.5
G00 Z5.
X16.5 Y-23.4
G01 Z-1.5
G00 Z5.
X-3.2 Y-40.
G01 Z-1.5
G00 Z5.
X95. Y-70.
G01 Z-1.5
G00 Z5.
Y70.
G01 Z-1.5
G00 Z5.
M09
M05
G91 G28 Z0.0
G28 Y0.0
M30
%
(TOTAL Machine Time: 0.8 min)
