%
G40 G17 G49 G54 G80
G91 G28 Z0.0
( NAME: Capful-PC )
( PART: H:\CNC-File\2018-8\宏鑫洋\338\338-前模仁-电极-编程.prt )
( DATE: Sat Nov  3 11:17:56 2018 )
( D10 ---> D=10.00 R=0.00 )
S9000 M03
G00 G90 X-20.55 Y-5.
Z14.6
G17 G01 Z-18.126 F800.
Z-19.126 F320.
X-19.05
G40 G03 X-14.05 Y0.0 I0.0 J5.
G01 Y8. F800.
G02 X-8. Y14.05 I6.05 J0.0
G01 X8.
G02 X14.05 Y8. I0.0 J-6.05
G01 Y-5.
G02 X12.571 Y-8.571 I-5.05 J0.0
G01 X8.571 Y-12.571
G02 X5. Y-14.05 I-3.571 J3.571
G01 X-8.
G02 X-14.05 Y-8. I0.0 J6.05
G01 Y0.0
Y3.
G03 X-19.05 Y8. I-5. J0.0
G01 X-19. Y-5.
G03 X-14. Y0.0 I0.0 J5. F320.
G01 Y8. F800.
G02 X-8. Y14. I6. J0.0
G01 X8.
G02 X14. Y8. I0.0 J-6.
G01 Y-5.
G02 X12.536 Y-8.536 I-5. J0.0
G01 X8.536 Y-12.536
G02 X5. Y-14. I-3.536 J3.536
G01 X-8.
G02 X-14. Y-8. I0.0 J6.
G01 Y0.0
Y3.
G03 X-19. Y8. I-5. J0.0
G01 X-20.55
Z-18.126
G00 Z14.6
( D10 ---> D=10.00 R=0.00 )
S9000 M03
G00 X-17. Y.189
Z15.
G01 Z-8.146 F1300.
Z-11.146 F520.
X-8.491
Y8.704 F1300.
X7.763
Y-8.326
X-8.491
Y.189
X-17.
Z-8.146
G00 Z-8.096
G01 Z-8.196
Z-11.196 F520.
X-8.491
Y8.704 F1300.
X7.763
Y-8.326
X-8.491
Y.189
X-17.
Z-8.196
G00 Z15.
M09
M05
G91 G28 Z0.0
G28 Y0.0
M30
%
(TOTAL Machine Time: 0.8 min)
