%
G40 G17 G49 G54 G80
G91 G28 Z0.0
( NAME: Capful )
( PART: D:\Program Files\Siemens\NX 12.0\UGII\HM-µç¼«±à³Ì.prt )
( DATE: Sun May 27 04:58:14 2018 )
( D4R0.5 ---> D=4.00 R=0.50 )
S10000 M03
G00 G90 X.308 Y11.005
Z15.
G17 G01 Z2.55 F1300.
Z-.45 F520.
Y6.605
X12.877 F1300.
G40 G02 X19.027 Y.454 I0.0 J-6.151
X12.877 Y-5.696 I-6.151 J0.0
G01 X-12.261
G02 X-18.411 Y.454 I0.0 J6.151
X-12.261 Y6.605 I6.151 J0.0
G01 X.308
Y11.005
Z2.55
G00 Z2.6
G01 Z2.5
Z-.5 F520.
Y6.605
X12.877 F1300.
G02 X19.027 Y.454 I0.0 J-6.151
X12.877 Y-5.696 I-6.151 J0.0
G01 X-12.261
G02 X-18.411 Y.454 I0.0 J6.151
X-12.261 Y6.605 I6.151 J0.0
G01 X.308
Y11.005
Z2.5
G00 Z15.
( D4R0.5 ---> D=4.00 R=0.50 )
S10000 M03
G00 X6.035 Y-1.934
Z15.
G01 Z-1.8 F900.
X.308 Z-2. F360.
X-12.261 F540.
G02 X-14.649 Y.454 I0.0 J2.388
X-12.261 Y2.843 I2.388 J0.0
G01 X12.877
G02 X15.265 Y.454 I0.0 J-2.388
X12.877 Y-1.934 I-2.388 J0.0
G01 X.308
Y-.734 F900.
X-12.261
G02 X-13.449 Y.454 I0.0 J1.188
X-12.261 Y1.643 I1.188 J0.0
G01 X12.877
G02 X14.065 Y.454 I0.0 J-1.188
X12.877 Y-.734 I-1.188 J0.0
G01 X.308
Z1.
G00 Z15.
( D4R0.5 ---> D=4.00 R=0.50 )
S10000 M03
G00 X-1.687 Y-.53
Z15.
G01 Z2.43 F2000.
Z-.57 F800.
G03 X.313 Y-2.53 I2. J0.0 F400.
G01 X12.868 F2000.
X12.877 F1197.
G03 X13.476 Y-2.469 I0.0 J2.984
X15.861 Y.454 I-.599 J2.924
X15.298 Y2.199 I-2.984 J0.0
X12.877 Y3.439 I-2.421 J-1.745
G01 X12.874
X-12.253 F2000.
X-12.261 F1197.
G03 X-15.245 Y.454 I0.0 J-2.984
X-12.849 Y-2.471 I2.984 J0.0
X-12.26 Y-2.53 I.588 J2.927 F1198.
G01 X-12.247
X.313 F2000.
X.536 Y-2.507 Z-.582
X.758 Y-2.486 Z-.593
X.981 Y-2.466 Z-.605
X1.203 Y-2.448 Z-.617
X1.425 Y-2.431 Z-.628
X1.648 Y-2.415 Z-.64
X12.877
G03 X15.746 Y.454 I0.0 J2.869 F1179.
X15.155 Y2.199 I-2.869 J0.0
X12.877 Y3.324 I-2.278 J-1.745
G01 X-12.261 F2000.
G03 X-15.13 Y.454 I0.0 J-2.869 F1179.
X-12.261 Y-2.415 I2.869 J0.0
G01 X.313 F2000.
X.536 Y-2.4 Z-.652
X.758 Y-2.386 Z-.663
X.981 Y-2.372 Z-.675
X1.203 Y-2.359 Z-.686
X1.425 Y-2.347 Z-.698
X1.648 Y-2.335 Z-.71
X12.877
G03 X15.666 Y.454 I0.0 J2.789 F1165.
X15.053 Y2.199 I-2.789 J0.0
X12.877 Y3.243 I-2.176 J-1.745
G01 X-12.261 F2000.
G03 X-15.05 Y.454 I0.0 J-2.789 F1165.
X-12.261 Y-2.335 I2.789 J0.0
G01 X.313 F2000.
X.536 Y-2.324 Z-.721
X.758 Y-2.313 Z-.733
X.981 Y-2.303 Z-.745
X1.203 Y-2.293 Z-.756
X1.425 Y-2.284 Z-.768
X1.648 Y-2.275 Z-.78
X12.877
G03 X15.606 Y.454 I0.0 J2.729 F1154.
X15.367 Y1.571 I-2.729 J0.0
X12.877 Y3.183 I-2.49 J-1.116
G01 X-12.261 F2000.
G03 X-14.99 Y.454 I0.0 J-2.729 F1154.
X-12.261 Y-2.275 I2.729 J0.0
G01 X.313 F2000.
X.536 Y-2.266 Z-.791
X.758 Y-2.258 Z-.803
X.981 Y-2.25 Z-.815
X1.203 Y-2.243 Z-.826
X1.425 Y-2.235 Z-.838
X1.648 Y-2.228 Z-.85
X12.877
G03 X15.559 Y.454 I0.0 J2.683 F1146.
X15.316 Y1.571 I-2.683 J0.0
X12.877 Y3.137 I-2.439 J-1.116
G01 X-12.261 F2000.
G03 X-14.943 Y.454 I0.0 J-2.683 F1146.
X-12.261 Y-2.228 I2.683 J0.0
G01 X.313 F2000.
X.536 Y-2.222 Z-.861
X.758 Y-2.215 Z-.873
X.981 Y-2.209 Z-.885
X1.203 Y-2.204 Z-.896
X1.425 Y-2.198 Z-.908
X1.648 Y-2.193 Z-.92
X12.877
G03 X15.524 Y.454 I0.0 J2.647 F1139.
X15.277 Y1.571 I-2.647 J0.0
X12.877 Y3.101 I-2.4 J-1.116
G01 X-12.261 F2000.
G03 X-14.908 Y.454 I0.0 J-2.647 F1139.
X-12.261 Y-2.193 I2.647 J0.0
G01 X.313 F2000.
X.536 Y-2.188 Z-.931
X.758 Y-2.183 Z-.943
X.981 Y-2.179 Z-.955
X1.203 Y-2.174 Z-.966
X1.425 Y-2.17 Z-.978
X1.648 Y-2.167 Z-.99
X12.877
G03 X15.498 Y.454 I0.0 J2.621 F1134.
X15.248 Y1.571 I-2.621 J0.0
X12.877 Y3.075 I-2.371 J-1.116
G01 X-12.261 F2000.
G03 X-14.882 Y.454 I0.0 J-2.621 F1134.
X-12.261 Y-2.167 I2.621 J0.0
G01 X.313 F2000.
X.536 Y-2.163 Z-1.001
X.758 Y-2.16 Z-1.013
X.981 Y-2.156 Z-1.024
X1.203 Y-2.154 Z-1.036
X1.425 Y-2.151 Z-1.048
X1.648 Y-2.148 Z-1.059
X12.877
G03 X15.479 Y.454 I0.0 J2.603 F1131.
X15.228 Y1.571 I-2.603 J0.0
X12.877 Y3.057 I-2.351 J-1.116
G01 X-12.261 F2000.
G03 X-14.863 Y.454 I0.0 J-2.603 F1131.
X-12.261 Y-2.148 I2.603 J0.0
G01 X.313 F2000.
X.536 Y-2.146 Z-1.071
X.758 Y-2.144 Z-1.083
X.981 Y-2.142 Z-1.094
X1.203 Y-2.14 Z-1.106
X1.425 Y-2.139 Z-1.118
X1.648 Y-2.137 Z-1.129
X12.877
G03 X15.468 Y.454 I0.0 J2.592 F1129.
X15.216 Y1.571 I-2.592 J0.0
X12.877 Y3.046 I-2.339 J-1.116
G01 X-12.261 F2000.
G03 X-14.852 Y.454 I0.0 J-2.592 F1129.
X-12.261 Y-2.137 I2.592 J0.0
G01 X.313 F2000.
X.536 Y-2.136 Z-1.141
X.758 Y-2.135 Z-1.153
X.981 Z-1.164
X1.203 Y-2.134 Z-1.176
X1.425 Z-1.188
X1.648 Z-1.199
X12.895 Y-2.135
G03 X15.466 Y.454 I-.018 J2.589 F1128.
X12.877 Y3.043 I-2.589 J0.0
G01 X-12.261 F2000.
G03 X-14.85 Y.454 I0.0 J-2.589 F1128.
X-12.341 Y-2.133 I2.589 J0.0
G01 X.313 Y-2.134 F2000.
X.536 Z-1.211
X.758 Z-1.223
X1.648 Z-1.269
X12.877
G03 X15.465 Y.454 I0.0 J2.588 F1128.
X12.877 Y3.043 I-2.588 J0.0
G01 X-12.261 F2000.
G03 X-14.596 Y1.571 I0.0 J-2.588 F1128.
X-14.849 Y.454 I2.335 J-1.116
X-12.261 Y-2.134 I2.588 J0.0
G01 X.313 F2000.
X1.648 Z-1.339
X12.877
G03 X15.465 Y.454 I0.0 J2.588 F1128.
X12.877 Y3.043 I-2.588 J0.0
G01 X-12.261 F2000.
G03 X-14.596 Y1.571 I0.0 J-2.588 F1128.
X-14.849 Y.454 I2.335 J-1.116
X-12.261 Y-2.134 I2.588 J0.0
G01 X.313 F2000.
X1.648 Z-1.409
X12.877
G03 X15.465 Y.454 I0.0 J2.588 F1128.
X12.877 Y3.043 I-2.588 J0.0
G01 X-12.261 F2000.
G03 X-14.596 Y1.571 I0.0 J-2.588 F1128.
X-14.849 Y.454 I2.335 J-1.116
X-12.261 Y-2.134 I2.588 J0.0
G01 X.313 F2000.
X1.648 Z-1.479
X12.877
G03 X15.465 Y.454 I0.0 J2.588 F1128.
X12.877 Y3.043 I-2.588 J0.0
G01 X-12.261 F2000.
G03 X-14.596 Y1.571 I0.0 J-2.588 F1128.
X-14.849 Y.454 I2.335 J-1.116
X-12.261 Y-2.134 I2.588 J0.0
G01 X.313 F2000.
X1.648 Z-1.549
X12.877
G03 X15.465 Y.454 I0.0 J2.588 F1128.
X12.877 Y3.043 I-2.588 J0.0
G01 X-12.261 F2000.
G03 X-14.596 Y1.571 I0.0 J-2.588 F1128.
X-14.849 Y.454 I2.335 J-1.116
X-12.261 Y-2.134 I2.588 J0.0
G01 X.313 F2000.
X1.648 Z-1.619
X12.877
G03 X15.465 Y.454 I0.0 J2.588 F1128.
X12.877 Y3.043 I-2.588 J0.0
G01 X-12.261 F2000.
G03 X-14.596 Y1.571 I0.0 J-2.588 F1128.
X-14.849 Y.454 I2.335 J-1.116
X-12.261 Y-2.134 I2.588 J0.0
G01 X.313 F2000.
X1.648 Z-1.689
X12.877
G03 X15.465 Y.454 I0.0 J2.588 F1128.
X12.877 Y3.043 I-2.588 J0.0
G01 X-12.261 F2000.
G03 X-14.596 Y1.571 I0.0 J-2.588 F1128.
X-14.849 Y.454 I2.335 J-1.116
X-12.261 Y-2.134 I2.588 J0.0
G01 X.313 F2000.
X1.648 Z-1.759
X12.877
G03 X15.465 Y.454 I0.0 J2.588 F1128.
X12.877 Y3.043 I-2.588 J0.0
G01 X-12.261 F2000.
G03 X-14.596 Y1.571 I0.0 J-2.588 F1128.
X-14.849 Y.454 I2.335 J-1.116
X-12.261 Y-2.134 I2.588 J0.0
G01 X.313 F2000.
X1.648 Z-1.829
X12.877
G03 X15.465 Y.454 I0.0 J2.588 F1128.
X12.877 Y3.043 I-2.588 J0.0
G01 X-12.261 F2000.
G03 X-14.596 Y1.571 I0.0 J-2.588 F1128.
X-14.849 Y.454 I2.335 J-1.116
X-12.261 Y-2.134 I2.588 J0.0
G01 X.313 F2000.
X1.648 Z-1.899
X12.877
G03 X15.465 Y.454 I0.0 J2.588 F1128.
X12.877 Y3.043 I-2.588 J0.0
G01 X-12.261 F2000.
G03 X-14.596 Y1.571 I0.0 J-2.588 F1128.
X-14.849 Y.454 I2.335 J-1.116
X-12.261 Y-2.134 I2.588 J0.0
G01 X.313 F2000.
X1.648 Z-1.969
X12.877
G03 X15.465 Y.454 I0.0 J2.588 F1128.
X12.877 Y3.043 I-2.588 J0.0
G01 X-12.261 F2000.
G03 X-14.596 Y1.571 I0.0 J-2.588 F1128.
X-14.849 Y.454 I2.335 J-1.116
X-12.261 Y-2.134 I2.588 J0.0
G01 X1.648 F2000.
Y-.134
Z.031
G00 Z2.5
X2.313 Y-8.902
G01 Z2.43
Z-.57 F800.
G03 X.313 Y-6.902 I-2. J0.0 F400.
G01 X-12.256 F2000.
X-12.261
G02 X-19.617 Y.454 I0.0 J7.356
X-12.261 Y7.81 I7.356 J0.0
G01 X12.888
G02 X20.233 Y.454 I-.011 J-7.356
X12.882 Y-6.902 I-7.356 J0.0
G01 X.313
X.091 Y-6.925 Z-.582
X-.132 Y-6.946 Z-.593
X-.354 Y-6.965 Z-.605
X-.576 Y-6.984 Z-.617
X-.799 Y-7.001 Z-.628
X-1.021 Y-7.017 Z-.64
X-12.258
X-12.261
G02 X-19.732 Y.454 I0.0 J7.471
X-12.261 Y7.925 I7.471 J0.0
G01 X-12.242
X12.869
X12.877
G02 X20.348 Y.454 I0.0 J-7.471
X12.885 Y-7.017 I-7.471 J0.0
G01 X.313
X.091 Y-7.032 Z-.652
X-.132 Y-7.046 Z-.663
X-.354 Y-7.06 Z-.675
X-.576 Y-7.073 Z-.686
X-.799 Y-7.085 Z-.698
X-1.021 Y-7.097 Z-.71
X-12.259
X-12.261
G02 X-19.812 Y.454 I0.0 J7.551
X-12.261 Y8.005 I7.551 J0.0
G01 X-12.243
X12.869
X12.877
G02 X20.428 Y.454 I0.0 J-7.551
X12.886 Y-7.097 I-7.551 J0.0
G01 X.313
X.091 Y-7.108 Z-.721
X-.132 Y-7.119 Z-.733
X-.354 Y-7.129 Z-.745
X-.576 Y-7.139 Z-.756
X-.799 Y-7.148 Z-.768
X-1.021 Y-7.157 Z-.78
X-12.261
G02 X-19.872 Y.454 I0.0 J7.611
X-12.261 Y8.065 I7.611 J0.0
G01 X-12.243
X12.87
X12.877
G02 X20.488 Y.454 I0.0 J-7.611
X12.887 Y-7.157 I-7.611 J0.0
G01 X.313
X.091 Y-7.166 Z-.791
X-.132 Y-7.174 Z-.803
X-.354 Y-7.182 Z-.815
X-.576 Y-7.189 Z-.826
X-.799 Y-7.196 Z-.838
X-1.021 Y-7.203 Z-.85
X-12.261
G02 X-19.918 Y.454 I.001 J7.658
X-12.261 Y8.112 I7.658 J0.0
G01 X-12.244
X12.87
X12.877
G02 X20.534 Y.454 I0.0 J-7.658
X12.888 Y-7.203 I-7.658 J0.0
G01 X.313
X.091 Y-7.21 Z-.861
X-.132 Y-7.216 Z-.873
X-.354 Y-7.222 Z-.885
X-.576 Y-7.228 Z-.896
X-.799 Y-7.234 Z-.908
X-1.021 Y-7.239 Z-.92
X-12.254
X-12.261
G02 X-19.954 Y.454 I0.0 J7.693
X-12.261 Y8.147 I7.693 J0.0
G01 X-12.244
X12.871
X12.877
G02 X20.57 Y.454 I0.0 J-7.693
X12.877 Y-7.239 I-7.693 J0.0
G01 X12.868
X.313
X.091 Y-7.244 Z-.931
X-.132 Y-7.249 Z-.943
X-.354 Y-7.253 Z-.955
X-.576 Y-7.257 Z-.966
X-.799 Y-7.261 Z-.978
X-1.021 Y-7.265 Z-.99
X-12.254
X-12.261
G02 X-19.98 Y.454 I0.0 J7.719
X-12.261 Y8.174 I7.719 J0.0
G01 X-12.244
X12.871
X12.877
G02 X20.596 Y.454 I0.0 J-7.719
X12.877 Y-7.265 I-7.719 J0.0
G01 X12.869
X.313
X.091 Y-7.269 Z-1.001
X-.132 Y-7.272 Z-1.013
X-.354 Y-7.275 Z-1.024
X-.576 Y-7.278 Z-1.036
X-.799 Y-7.281 Z-1.048
X-1.021 Y-7.283 Z-1.059
X-12.255
X-12.261
G02 X-19.998 Y.454 I0.0 J7.738
X-12.261 Y8.192 I7.738 J0.0
G01 X-12.244
X12.871
X12.877
G02 X20.614 Y.454 I0.0 J-7.738
X12.877 Y-7.283 I-7.738 J0.0
G01 X12.869
X.313
X.091 Y-7.286 Z-1.071
X-.132 Y-7.288 Z-1.083
X-.354 Y-7.29 Z-1.094
X-.576 Y-7.291 Z-1.106
X-.799 Y-7.293 Z-1.118
X-1.021 Y-7.294 Z-1.129
X-12.255
X-12.261
G02 X-20.009 Y.454 I0.0 J7.749
X-14.73 Y7.799 I7.749 J0.0
G01 X-14.601 Y7.841
G02 X-12.261 Y8.203 I2.34 J-7.387
G01 X-12.245
X12.871
X12.877
G02 X15.176 Y7.854 I0.0 J-7.749
G01 X15.356 Y7.795
G02 X16.013 Y7.54 I-2.48 J-7.341
G01 X16.19 Y7.459
G02 X16.643 Y7.226 I-3.313 J-7.005
G01 X16.833 Y7.117
G02 X19.722 Y4.084 I-3.956 J-6.662
G01 X20.019 Y3.456
X20.072 Y3.33
G02 X20.625 Y.454 I-7.195 J-2.876
X12.877 Y-7.294 I-7.749 J0.0
G01 X12.869
X.313
X.091 Y-7.295 Z-1.141
X-.132 Y-7.296 Z-1.153
X-1.021 Y-7.3 Z-1.199
X-12.261
G02 X-20.015 Y.454 I0.0 J7.754
X-12.261 Y8.208 I7.754 J0.0
G01 X12.877
G02 X20.631 Y.454 I0.0 J-7.754
X14.729 Y-7.075 I-7.754 J0.0
G01 X14.102 Y-7.202
G02 X13.604 Y-7.265 I-1.226 J7.656
G01 X13.476 Y-7.276
G02 X12.877 Y-7.3 I-.599 J7.731
G01 X.313
X-1.021 Y-7.304 Z-1.269
X-12.261
G02 X-20.019 Y.454 I0.0 J7.759
X-19.415 Y3.456 I7.759 J0.0
G01 X-19.118 Y4.084
G02 X-12.261 Y8.213 I6.857 J-3.63
G01 X12.877
G02 X20.635 Y.454 I0.0 J-7.759
X17.863 Y-5.49 I-7.759 J0.0
G01 X17.236 Y-5.964
G02 X15.983 Y-6.656 I-4.36 J6.418
G01 X15.356 Y-6.898
G02 X14.729 Y-7.08 I-2.479 J7.352
G01 X14.102 Y-7.207
G02 X13.676 Y-7.263 I-1.226 J7.661
G01 X13.26 Y-7.304
X.313
X-1.021 Y-7.309 Z-1.339
X-12.261
G02 X-18.219 Y-4.523 I0.0 J7.764
G01 X-18.483 Y-4.191
G02 X-20.026 Y.454 I6.222 J4.646
X-12.261 Y8.219 I7.765 J0.0
G01 X12.877
G02 X20.642 Y.454 I0.0 J-7.765
X13.016 Y-7.309 I-7.765 J0.0
G01 X.313
X-1.021 Y-7.314 Z-1.409
X-12.261
G02 X-15.041 Y-6.8 I0.0 J7.768
X-16.957 Y-5.734 I2.781 J7.254 F1650.
X-17.236 Y-5.512 I4.697 J6.188 F1300.
G01 X-18.374 Y-4.528
X-18.528 Y-4.225
G02 X-19.58 Y-2.301 I6.267 J4.679
X-20.082 Y.454 I7.32 J2.756 F2000.
X-12.261 Y8.275 I7.821 J0.0
G01 X12.877
G02 X20.698 Y.454 I0.0 J-7.821
X17.711 Y-5.694 I-7.821 J0.0
X15.815 Y-6.794 I-4.835 J6.148 F1650.
X13.687 Y-7.325 I-2.938 J7.248 F1300.
G01 X13.582 Y-7.406 F2000.
X12.677 Y-7.314
X10.477 F1300.
X.313 F2000.
X-1.021 Y-7.319 Z-1.479
X-12.261
G02 X-17.018 Y-5.693 I0.0 J7.773
G01 X-18.462 Y-4.598
X-18.716 Y-4.301
G02 X-20.278 Y.454 I6.455 J4.755
X-12.261 Y8.472 I8.018 J0.0
G01 X12.877
G02 X20.894 Y.454 I0.0 J-8.018
X16.596 Y-6.648 I-8.018 J0.0
X14.532 Y-7.391 I-3.719 J7.103 F1650.
X13.823 Y-7.507 I-1.656 J7.845 F1300.
G01 X13.686 Y-7.52
X12.604 Y-7.405
X12.364 Y-7.319
X10.164
X.313 F2000.
X-1.021 Y-7.324 Z-1.549
X-12.261
G02 X-12.982 Y-7.29 I0.0 J7.778
X-15.115 Y-6.781 I.722 J7.745 F1650.
X-17.021 Y-5.697 I2.854 J7.236 F1300.
X-18.79 Y-4.357 I1.883 J4.322
X-20.371 Y.454 I6.529 J4.811 F2000.
X-12.261 Y8.565 I8.11 J0.0
G01 X12.877
G02 X20.987 Y.454 I0.0 J-8.11
X16.247 Y-6.923 I-8.11 J0.0
X14.147 Y-7.556 I-3.371 J7.377 F1650.
X13.725 Y-7.612 I-1.271 J8.01 F1300.
X13.415 Y-7.625 I-.31 J3.486
X11.994 Y-7.324 I0.0 J3.5
G01 X9.794
X.313 F2000.
X-1.021 Y-7.329 Z-1.619
X-12.261
G02 X-12.597 Y-7.322 I0.0 J7.783
X-14.752 Y-6.919 I.336 J7.776 F1650.
X-16.71 Y-5.932 I2.491 J7.374 F1300.
X-18.537 Y-4.743 I1.587 J4.438
X-18.838 Y-4.393 I3.415 J3.249 F2000.
X-20.432 Y.454 I6.578 J4.848
X-12.261 Y8.625 I8.171 J0.0
G01 X12.877
G02 X21.048 Y.454 I0.0 J-8.171
X15.974 Y-7.107 I-8.171 J0.0
X13.821 Y-7.662 I-3.098 J7.561 F1650.
X13.412 Y-7.681 I-.409 J4.313 F1300.
X11.7 Y-7.329 I0.0 J4.332
G01 X9.5
X.313 F2000.
X-1.021 Y-7.334 Z-1.689
X-12.261
G02 X-14.397 Y-7.035 I0.0 J7.788 F1650.
X-16.4 Y-6.143 I2.137 J7.489 F1300.
X-18.286 Y-5.041 I1.687 J5.053
X-18.872 Y-4.419 I3.573 J3.951 F2000.
X-20.474 Y.454 I6.611 J4.873
X-12.261 Y8.667 I8.213 J0.0
G01 X12.877
G02 X21.09 Y.454 I0.0 J-8.213
X15.741 Y-7.243 I-8.213 J0.0
X13.825 Y-7.704 I-2.864 J7.698 F1650.
X13.6 Y-7.718 I-.431 J5.033
X13.395 Y-7.722 I-.206 J5.047 F1300.
X11.452 Y-7.334 I0.0 J5.051
G01 X9.252
X.313 F2000.
X-1.021 Y-7.339 Z-1.759
X-11.821
X-12.261 F1650.
G02 X-14.006 Y-7.141 I0.0 J7.793
X-16.053 Y-6.354 I1.745 J7.595 F1300.
X-17.987 Y-5.332 I1.764 J5.678
X-18.894 Y-4.436 I3.698 J4.656 F2000.
X-20.502 Y.454 I6.634 J4.89
X-12.261 Y8.696 I8.241 J0.0
G01 X12.877
G02 X21.118 Y.454 I0.0 J-8.241
X15.589 Y-7.328 I-8.241 J0.0
X13.828 Y-7.732 I-2.712 J7.782 F1650.
X13.439 Y-7.754 I-.49 J5.193
G01 X13.338 Y-7.755 F1300.
G02 X11.295 Y-7.339 I0.0 J5.216
G01 X9.095
X.313 F2000.
X-1.021 Y-7.344 Z-1.829
X-11.681
X-12.261 F1650.
G02 X-13.869 Y-7.176 I0.0 J7.798
X-15.93 Y-6.426 I1.608 J7.63 F1300.
X-17.888 Y-5.455 I1.506 J5.494
X-18.908 Y-4.446 I3.464 J4.522 F2000.
X-20.519 Y.454 I6.647 J4.9
X-12.261 Y8.712 I8.258 J0.0
G01 X12.877
G02 X21.135 Y.454 I0.0 J-8.258
X15.43 Y-7.399 I-8.258 J0.0
X13.829 Y-7.749 I-2.554 J7.854 F1650.
X13.277 Y-7.776 I-.552 J5.515
G01 X13.272
G02 X11.129 Y-7.344 I.005 J5.543 F1300.
G01 X8.929
X.313 F2000.
X-1.021 Y-7.348 Z-1.899
X-11.313
X-12.261 F1650.
G02 X-13.508 Y-7.248 I0.0 J7.803
X-15.602 Y-6.597 I1.247 J7.702 F1300.
X-17.597 Y-5.701 I1.384 J5.751
X-19.096 Y-4.192 I3.379 J4.855 F2000.
X-20.526 Y.454 I6.835 J4.646
X-12.261 Y8.719 I8.265 J0.0
G01 X12.877
G02 X21.142 Y.454 I0.0 J-8.265
X15.279 Y-7.454 I-8.265 J0.0
X13.83 Y-7.755 I-2.402 J7.908 F1650.
X13.237 Y-7.784 I-.593 J6.092
X13.113 Y-7.783 I0.0 J6.121
X10.969 Y-7.348 I.124 J6.12 F1300.
G01 X8.769
X.313 F2000.
X-1.021 Y-7.353 Z-1.969
X-11.106
X-12.261 F1650.
G02 X-13.302 Y-7.284 I0.0 J7.808
X-15.413 Y-6.689 I1.042 J7.738 F1300.
X-17.43 Y-5.842 I1.265 J5.835
X-18.887 Y-4.486 I3.281 J4.988 F2000.
X-20.526 Y.454 I6.626 J4.94
X-12.261 Y8.719 I8.265 J0.0
G01 X12.877
G02 X21.142 Y.454 I0.0 J-8.265
X15.118 Y-7.501 I-8.265 J0.0
X13.74 Y-7.766 I-2.242 J7.955 F1650.
X13.213 Y-7.785 I-.527 J6.954
X12.946 Y-7.78 I0.0 J6.974
X10.797 Y-7.353 I.268 J6.968 F1300.
G01 X8.597
X.313 F2000.
X-1.021 Y-7.358 Z-2.039
X-10.83
X-12.261 F1650.
G02 X-13.029 Y-7.32 I0.0 J7.812
X-15.159 Y-6.801 I.768 J7.775 F1300.
X-17.198 Y-6.006 I1.202 J6.095
X-18.887 Y-4.486 I3.241 J5.3 F2000.
X-20.526 Y.454 I6.626 J4.94
X-12.261 Y8.719 I8.265 J0.0
G01 X12.877
G02 X21.142 Y.454 I0.0 J-8.265
X14.987 Y-7.537 I-8.265 J0.0
X13.74 Y-7.766 I-2.11 J7.991 F1650.
X13.193 Y-7.785 I-.547 J7.731
X12.81 Y-7.775 I0.0 J7.75
X10.657 Y-7.358 I.383 J7.741 F1300.
G01 X8.457
X.313 F2000.
X-1.021 Y-7.363 Z-2.108
X-10.615
X-12.261 F1650.
G02 X-12.815 Y-7.343 I0.0 J7.817
X-14.958 Y-6.883 I.554 J7.798 F1300.
X-17.01 Y-6.136 I.667 J5.023
X-17.236 Y-5.983 I2.718 J4.277 F2000.
X-18.887 Y-4.486 I4.602 J6.731
X-20.526 Y.454 I6.626 J4.94
X-12.261 Y8.719 I8.265 J0.0
G01 X12.877
G02 X21.142 Y.454 I0.0 J-8.265
X14.854 Y-7.571 I-8.265 J0.0
X13.74 Y-7.766 I-1.978 J8.025 F1650.
G01 X13.476 Y-7.776
X12.674 Y-7.729
X11.749 Y-7.674 F1300.
X11.595 Y-7.658
X10.663 Y-7.435
X10.52 Y-7.363
X8.32
X.313 F2000.
X-1.021 Y-7.368 Z-2.178
X-10.32
X-12.261 F1650.
G02 X-12.52 Y-7.364 I0.0 J7.822
X-14.68 Y-6.984 I.26 J7.818 F1300.
X-16.752 Y-6.287 I.755 J5.673
X-16.953 Y-6.168 I2.827 J4.976 F2000.
X-18.887 Y-4.486 I4.298 J6.895
X-20.526 Y.454 I6.626 J4.94
X-12.261 Y8.719 I8.265 J0.0
G01 X12.877
G02 X21.142 Y.454 I0.0 J-8.265
X14.688 Y-7.61 I-8.265 J0.0
X13.74 Y-7.766 I-1.811 J8.064 F1650.
X13.369 Y-7.771 I-.371 J13.573
X12.502 Y-7.743 I0.0 J13.578
X10.969 Y-7.557 I.867 J13.55 F1300.
G01 X10.342 Y-7.368
X8.142
X.313 F2000.
X-1.021 Y-7.373 Z-2.248
X-10.023
X-12.261 F1650.
G02 X-14.396 Y-7.076 I0.0 J7.827 F1300.
X-16.488 Y-6.445 I.479 J5.373
X-16.767 Y-6.283 I2.571 J4.742 F2000.
X-18.887 Y-4.486 I4.174 J7.071
X-20.526 Y.454 I6.626 J4.94
X-12.261 Y8.719 I8.265 J0.0
G01 X12.877
G02 X21.142 Y.454 I0.0 J-8.265
X14.557 Y-7.638 I-8.265 J0.0
X13.74 Y-7.766 I-1.68 J8.092 F1650.
X13.207 Y-7.778 I-.533 J11.322
X12.368 Y-7.747 I0.0 J11.335
X10.204 Y-7.373 I.839 J11.303 F1300.
G01 X8.004
X.313 F2000.
X-1.021 Y-7.378 Z-2.318
X-9.682
X-11.882 F1650.
X-12.261 F1300.
G02 X-14.065 Y-7.167 I0.0 J7.832
X-16.179 Y-6.607 I.421 J5.859
X-16.767 Y-6.283 I2.536 J5.299 F2000.
G01 X-17.257 Y-5.969
G02 X-18.887 Y-4.486 I4.593 J6.685
X-20.526 Y.454 I6.626 J4.94
X-12.261 Y8.719 I8.265 J0.0
G01 X12.877
G02 X21.142 Y.454 I0.0 J-8.265
X14.453 Y-7.659 I-8.265 J0.0
X13.74 Y-7.766 I-1.576 J8.113 F1650.
G01 X13.476 Y-7.776
X12.263 Y-7.703
X11.293 Y-7.644 F1300.
X10.969 Y-7.601
X10.096 Y-7.378
X7.896
X.313 F2000.
X-1.021 Y-7.383 Z-2.388
X-12.222
G02 X-14.729 Y-7.121 I.8 J19.827
X-18.887 Y-4.486 I1.97 J7.705
X-20.526 Y.454 I6.626 J4.94
X-12.261 Y8.719 I8.265 J0.0
G01 X12.877
G02 X21.142 Y.454 I0.0 J-8.265
X14.305 Y-7.686 I-8.265 J0.0
X13.74 Y-7.766 I-1.428 J8.141 F1650.
X13.288 Y-7.773 I-.452 J14.553
X12.112 Y-7.725 I0.0 J14.56
X9.941 Y-7.383 I1.176 J14.513 F1300.
G01 X7.741
X.313 F2000.
X-1.021 Y-7.388 Z-2.458
X-12.222
G02 X-12.408 Y-7.389 I-.186 J10.274
X-14.307 Y-7.212 I0.0 J10.276
X-18.887 Y-4.486 I1.432 J7.615
X-20.526 Y.454 I6.626 J4.94
X-12.261 Y8.719 I8.265 J0.0
G01 X12.877
G02 X21.142 Y.454 I0.0 J-8.265
X14.173 Y-7.709 I-8.265 J0.0
X13.74 Y-7.766 I-1.296 J8.163 F1650.
X13.358 Y-7.77 I-.381 J16.71
X11.978 Y-7.713 I0.0 J16.715
X9.804 Y-7.388 I1.38 J16.658 F1300.
G01 X7.604
X.313 F2000.
X-.576 Y-7.391 Z-2.505
X-.799 Y-7.392 Z-2.516
X-1.021 Y-7.393 Z-2.528
X-12.73
G02 X-18.887 Y-4.486 I0.0 J7.972
X-20.526 Y.454 I6.626 J4.94
X-12.261 Y8.719 I8.265 J0.0
G01 X12.877
G02 X21.142 Y.454 I0.0 J-8.265
X13.74 Y-7.766 I-8.265 J0.0
X11.54 Y-7.667 I.118 J27.356 F1650.
X9.358 Y-7.393 I2.318 J27.258 F1300.
G01 X7.158
X.313 F2000.
X.091 Y-7.396 Z-2.54
X-.132 Y-7.401 Z-2.551
X-.354 Y-7.407 Z-2.563
X-.576 Y-7.415 Z-2.575
X-.799 Y-7.424 Z-2.586
X-1.021 Y-7.432 Z-2.598
X-12.619
G02 X-18.887 Y-4.486 I0.0 J8.141
X-20.526 Y.454 I6.626 J4.94
X-12.261 Y8.719 I8.265 J0.0
G01 X12.877
G02 X21.142 Y.454 I0.0 J-8.265
X13.739 Y-7.766 I-8.265 J0.0
X11.482 Y-7.655 I.965 J42.644 F1650.
X9.293 Y-7.432 I3.223 J42.533 F1300.
G01 X7.093
X.313 F2000.
X.091 Y-7.439 Z-2.61
X-.132 Y-7.447 Z-2.621
X-.354 Y-7.453 Z-2.633
X-.576 Y-7.46 Z-2.645
X-.799 Y-7.466 Z-2.656
X-1.021 Y-7.471 Z-2.668
X-12.222
G02 X-12.456 Y-7.474 I-.234 J8.41
X-18.887 Y-4.486 I0.0 J8.413
X-20.526 Y.454 I6.626 J4.94
X-12.261 Y8.719 I8.265 J0.0
G01 X12.877
G02 X21.142 Y.454 I0.0 J-8.265
X13.739 Y-7.766 I-8.265 J0.0
G01 X13.719 F1650.
G02 X11.548 Y-7.671 I0.0 J25.07
X10.969 Y-7.614 I2.171 J24.976 F1300.
G01 X9.358 Y-7.456
X9.293 Y-7.471
X7.16
X.313 F2000.
X.091 Y-7.476 Z-2.68
X-.132 Y-7.481 Z-2.691
X-.354 Y-7.486 Z-2.703
X-.576 Y-7.49 Z-2.715
X-.799 Y-7.494 Z-2.726
X-1.021 Y-7.497 Z-2.738
X-12.222
G02 X-12.373 Y-7.499 I-.151 J8.546
X-18.887 Y-4.486 I0.0 J8.548
X-20.526 Y.454 I6.626 J4.94
X-12.261 Y8.719 I8.265 J0.0
G01 X12.877
G02 X21.142 Y.454 I0.0 J-8.265
X13.739 Y-7.766 I-8.265 J0.0
X13.327 Y-7.787 I-.413 J3.933 F1650.
X13.017 Y-7.775 I0.0 J3.955
G01 X11.551 Y-7.66
X9.358 Y-7.488 F1300.
X9.293 Y-7.497
X7.159
X.313 F2000.
X.091 Y-7.5 Z-2.75
X-.132 Y-7.503 Z-2.761
X-.354 Y-7.506 Z-2.773
X-.576 Y-7.508 Z-2.784
X-.799 Y-7.51 Z-2.796
X-1.021 Y-7.512 Z-2.808
X-12.222
X-12.318 Y-7.513
G02 X-18.887 Y-4.486 I0.0 J8.641
X-20.526 Y.454 I6.626 J4.94
X-12.261 Y8.719 I8.265 J0.0
G01 X12.877
G02 X21.142 Y.454 I0.0 J-8.265
X13.739 Y-7.766 I-8.265 J0.0
X13.532 Y-7.767 I-.207 J19.461
X11.595 Y-7.67 I0.0 J19.463
G01 X10.969 Y-7.614
X9.293 Y-7.512
X.313
X.091 Y-7.514 Z-2.819
X-.132 Y-7.515 Z-2.831
X-.354 Y-7.516 Z-2.843
X-.576 Z-2.854
X-.799 Y-7.517 Z-2.866
X-1.021 Z-2.878
X-12.261
X-12.304
G02 X-18.887 Y-4.486 I0.0 J8.663
X-20.526 Y.454 I6.626 J4.94
X-12.261 Y8.719 I8.265 J0.0
G01 X12.877
G02 X21.142 Y.454 I0.0 J-8.265
X13.739 Y-7.766 I-8.265 J0.0
X13.53 Y-7.767 I-.209 J19.419
X11.595 Y-7.67 I0.0 J19.42
G01 X10.969 Y-7.614
X9.358 Y-7.517
X.313
X-1.021 Z-2.948
X-12.261
X-12.304
G02 X-18.887 Y-4.486 I0.0 J8.663
X-20.526 Y.454 I6.626 J4.94
X-12.261 Y8.719 I8.265 J0.0
G01 X12.877
G02 X21.142 Y.454 I0.0 J-8.265
X13.739 Y-7.766 I-8.265 J0.0
X13.528 Y-7.767 I-.211 J19.377
X11.595 Y-7.67 I0.0 J19.379
G01 X10.969 Y-7.614
X9.358 Y-7.517
X.313
X-1.021 Z-3.018
X-12.261
X-12.304
G02 X-18.887 Y-4.486 I0.0 J8.663
X-20.526 Y.454 I6.626 J4.94
X-12.261 Y8.719 I8.265 J0.0
G01 X12.877
G02 X21.142 Y.454 I0.0 J-8.265
X13.739 Y-7.766 I-8.265 J0.0
X13.526 Y-7.767 I-.213 J19.336
X11.595 Y-7.67 I0.0 J19.337
G01 X10.969 Y-7.614
X9.358 Y-7.517
X.313
X-1.021 Z-3.088
X-12.261
X-12.304
G02 X-18.887 Y-4.486 I0.0 J8.663
X-20.526 Y.454 I6.626 J4.94
X-12.261 Y8.719 I8.265 J0.0
G01 X12.877
G02 X21.142 Y.454 I0.0 J-8.265
X13.739 Y-7.766 I-8.265 J0.0
X13.524 Y-7.767 I-.215 J19.294
X11.595 Y-7.67 I0.0 J19.295
G01 X10.969 Y-7.614
X9.358 Y-7.517
X.313
X-1.021 Z-3.157
X-12.261
X-12.304
G02 X-18.887 Y-4.486 I0.0 J8.663
X-20.526 Y.454 I6.626 J4.94
X-12.261 Y8.719 I8.265 J0.0
G01 X12.877
G02 X21.142 Y.454 I0.0 J-8.265
X13.739 Y-7.766 I-8.265 J0.0
X13.522 Y-7.767 I-.217 J19.253
X11.595 Y-7.67 I0.0 J19.254
G01 X10.969 Y-7.614
X9.358 Y-7.517
X.313
X-1.021 Z-3.227
X-12.261
X-12.304
G02 X-18.887 Y-4.486 I0.0 J8.663
X-20.526 Y.454 I6.626 J4.94
X-12.261 Y8.719 I8.265 J0.0
G01 X12.877
G02 X21.142 Y.454 I0.0 J-8.265
X13.739 Y-7.766 I-8.265 J0.0
X13.52 Y-7.767 I-.218 J19.211
X11.595 Y-7.67 I0.0 J19.213
G01 X10.969 Y-7.614
X9.358 Y-7.517
X.313
X-1.021 Z-3.297
X-12.261
X-12.305
G02 X-18.887 Y-4.486 I0.0 J8.662
X-20.526 Y.454 I6.626 J4.94
X-12.261 Y8.719 I8.265 J0.0
G01 X12.877
G02 X21.142 Y.454 I0.0 J-8.265
X13.739 Y-7.766 I-8.265 J0.0
X13.518 Y-7.767 I-.22 J19.169
X11.595 Y-7.67 I0.0 J19.17
G01 X10.969 Y-7.614
X9.358 Y-7.517
X.313
X-1.021 Z-3.367
X-12.261
X-12.305
G02 X-18.887 Y-4.486 I0.0 J8.662
X-20.526 Y.454 I6.626 J4.94
X-12.261 Y8.719 I8.265 J0.0
G01 X12.877
G02 X21.142 Y.454 I0.0 J-8.265
X13.739 Y-7.766 I-8.265 J0.0
X13.516 Y-7.767 I-.222 J19.125
X11.595 Y-7.67 I0.0 J19.126
G01 X10.969 Y-7.614
X9.358 Y-7.517
X.313
X-1.021 Z-3.437
X-12.261
X-12.305
G02 X-18.887 Y-4.486 I0.0 J8.662
X-20.526 Y.454 I6.626 J4.94
X-12.261 Y8.719 I8.265 J0.0
G01 X12.877
G02 X21.142 Y.454 I0.0 J-8.265
X13.739 Y-7.766 I-8.265 J0.0
X13.514 Y-7.767 I-.224 J19.081
X11.595 Y-7.67 I0.0 J19.082
G01 X10.969 Y-7.614
X9.358 Y-7.517
X.313
X-1.021 Z-3.507
X-12.261
X-12.305
G02 X-18.887 Y-4.486 I0.0 J8.662
X-20.526 Y.454 I6.626 J4.94
X-12.261 Y8.719 I8.265 J0.0
G01 X12.877
G02 X21.142 Y.454 I0.0 J-8.265
X13.739 Y-7.766 I-8.265 J0.0
X13.512 Y-7.767 I-.226 J19.037
X11.595 Y-7.67 I0.0 J19.039
G01 X10.969 Y-7.614
X9.358 Y-7.517
X.313
X-1.021 Z-3.577
X-12.261
X-12.305
G02 X-18.887 Y-4.486 I0.0 J8.661
X-20.526 Y.454 I6.626 J4.94
X-12.261 Y8.719 I8.265 J0.0
G01 X12.877
G02 X21.142 Y.454 I0.0 J-8.265
X13.739 Y-7.766 I-8.265 J0.0
X13.51 Y-7.767 I-.229 J18.994
X11.595 Y-7.67 I0.0 J18.995
G01 X10.969 Y-7.614
X9.358 Y-7.517
X.313
X-1.021 Z-3.647
X-12.261
X-12.305
G02 X-18.887 Y-4.486 I0.0 J8.661
X-20.526 Y.454 I6.626 J4.94
X-12.261 Y8.719 I8.265 J0.0
G01 X12.877
G02 X21.142 Y.454 I0.0 J-8.265
X13.739 Y-7.766 I-8.265 J0.0
G01 X13.476 Y-7.777
X11.595 Y-7.67
X9.715 Y-7.524
X9.358 Y-7.517
X.313
X-1.021 Z-3.717
X-12.261
X-12.305
G02 X-18.887 Y-4.486 I0.0 J8.661
X-20.526 Y.454 I6.626 J4.94
X-12.261 Y8.719 I8.265 J0.0
G01 X12.877
G02 X21.142 Y.454 I0.0 J-8.265
X13.739 Y-7.766 I-8.265 J0.0
G01 X13.476 Y-7.777
X11.595 Y-7.67
X9.715 Y-7.524
X9.358 Y-7.517
X.313
X-1.021 Z-3.787
X-12.261
X-12.305
G02 X-18.887 Y-4.486 I0.0 J8.661
X-20.526 Y.454 I6.626 J4.94
X-12.261 Y8.719 I8.265 J0.0
G01 X12.877
G02 X21.142 Y.454 I0.0 J-8.265
X13.739 Y-7.766 I-8.265 J0.0
G01 X13.476 Y-7.777
X11.595 Y-7.67
X9.715 Y-7.524
X9.358 Y-7.517
X.313
X-1.021 Z-3.857
X-12.261
X-12.306
G02 X-18.887 Y-4.486 I0.0 J8.66
X-20.526 Y.454 I6.626 J4.94
X-12.261 Y8.719 I8.265 J0.0
G01 X12.877
G02 X21.142 Y.454 I0.0 J-8.265
X13.739 Y-7.766 I-8.265 J0.0
G01 X13.476 Y-7.777
X11.595 Y-7.67
X9.715 Y-7.524
X9.358 Y-7.517
X.313
X-1.021 Z-3.927
X-12.261
X-12.306
G02 X-18.887 Y-4.486 I0.0 J8.659
X-20.526 Y.454 I6.626 J4.94
X-12.261 Y8.719 I8.265 J0.0
G01 X12.877
G02 X21.142 Y.454 I0.0 J-8.265
X13.739 Y-7.766 I-8.265 J0.0
G01 X13.476 Y-7.777
X11.595 Y-7.67
X9.715 Y-7.525
X9.358 Y-7.517
X.313
X-1.021 Z-3.997
X-12.261
X-12.306
G02 X-18.887 Y-4.486 I0.0 J8.659
X-20.526 Y.454 I6.626 J4.94
X-12.261 Y8.719 I8.265 J0.0
G01 X12.877
G02 X21.142 Y.454 I0.0 J-8.265
X13.739 Y-7.766 I-8.265 J0.0
G01 X13.476 Y-7.777
X11.595 Y-7.67
X9.715 Y-7.525
X9.358 Y-7.517
X.313
X-1.021 Z-4.067
X-12.261
X-12.306
G02 X-18.887 Y-4.486 I0.0 J8.659
X-20.526 Y.454 I6.626 J4.94
X-12.261 Y8.719 I8.265 J0.0
G01 X12.877
G02 X21.142 Y.454 I0.0 J-8.265
X13.739 Y-7.766 I-8.265 J0.0
G01 X13.476 Y-7.777
X11.595 Y-7.67
X9.715 Y-7.525
X9.358 Y-7.517
X.313
X-1.021 Z-4.136
X-12.261
X-12.306
G02 X-18.887 Y-4.486 I0.0 J8.659
X-20.526 Y.454 I6.626 J4.94
X-12.261 Y8.719 I8.265 J0.0
G01 X12.877
G02 X21.142 Y.454 I0.0 J-8.265
X13.739 Y-7.766 I-8.265 J0.0
G01 X13.476 Y-7.777
X11.595 Y-7.67
X9.715 Y-7.525
X9.358 Y-7.517
X.313
X-1.021 Z-4.206
X-12.261
X-12.306
G02 X-18.887 Y-4.486 I0.0 J8.659
X-20.526 Y.454 I6.626 J4.94
X-12.261 Y8.719 I8.265 J0.0
G01 X12.877
G02 X21.142 Y.454 I0.0 J-8.265
X13.739 Y-7.766 I-8.265 J0.0
G01 X13.476 Y-7.777
X11.595 Y-7.67
X9.715 Y-7.525
X9.358 Y-7.517
X.313
X-1.021 Z-4.276
X-12.261
X-12.306
G02 X-18.887 Y-4.486 I0.0 J8.659
X-20.526 Y.454 I6.626 J4.94
X-12.261 Y8.719 I8.265 J0.0
G01 X12.877
G02 X21.142 Y.454 I0.0 J-8.265
X13.739 Y-7.766 I-8.265 J0.0
G01 X13.476 Y-7.777
X11.595 Y-7.67
X9.715 Y-7.525
X9.358 Y-7.517
X.313
X-1.021 Z-4.346
X-12.261
X-12.306
G02 X-18.887 Y-4.486 I0.0 J8.658
X-20.526 Y.454 I6.626 J4.94
X-12.261 Y8.719 I8.265 J0.0
G01 X12.877
G02 X21.142 Y.454 I0.0 J-8.265
X13.739 Y-7.766 I-8.265 J0.0
G01 X13.476 Y-7.777
X11.595 Y-7.67
X9.715 Y-7.525
X9.358 Y-7.517
X.313
X-1.021 Z-4.416
X-12.261
X-12.307
G02 X-18.887 Y-4.486 I0.0 J8.658
X-20.526 Y.454 I6.626 J4.94
X-12.261 Y8.719 I8.265 J0.0
G01 X12.877
G02 X21.142 Y.454 I0.0 J-8.265
X13.739 Y-7.766 I-8.265 J0.0
G01 X13.476 Y-7.777
X11.595 Y-7.67
X9.715 Y-7.525
X9.358 Y-7.517
X.313
X-1.021 Z-4.486
X-12.261
X-12.307
G02 X-18.887 Y-4.486 I0.0 J8.658
X-20.526 Y.454 I6.626 J4.94
X-12.261 Y8.719 I8.265 J0.0
G01 X12.877
G02 X21.142 Y.454 I0.0 J-8.265
X13.739 Y-7.766 I-8.265 J0.0
G01 X13.476 Y-7.777
X11.595 Y-7.67
X9.715 Y-7.525
X9.358 Y-7.517
X.313
X-1.021 Z-4.556
X-12.261
X-12.307
G02 X-18.887 Y-4.486 I0.0 J8.657
X-20.526 Y.454 I6.626 J4.94
X-12.261 Y8.719 I8.265 J0.0
G01 X12.877
G02 X21.142 Y.454 I0.0 J-8.265
X13.739 Y-7.766 I-8.265 J0.0
G01 X13.476 Y-7.777
X11.595 Y-7.67
X9.715 Y-7.526
X9.358 Y-7.517
X.313
X-1.021 Z-4.626
X-12.261
X-12.307
G02 X-18.887 Y-4.486 I0.0 J8.657
X-20.526 Y.454 I6.626 J4.94
X-12.261 Y8.719 I8.265 J0.0
G01 X12.877
G02 X21.142 Y.454 I0.0 J-8.265
X13.739 Y-7.766 I-8.265 J0.0
G01 X13.476 Y-7.777
X11.595 Y-7.67
X9.715 Y-7.526
X9.358 Y-7.517
X.313
X-1.021 Z-4.696
X-12.261
X-12.307
G02 X-18.887 Y-4.486 I0.0 J8.657
X-20.526 Y.454 I6.626 J4.94
X-12.261 Y8.719 I8.265 J0.0
G01 X12.877
G02 X21.142 Y.454 I0.0 J-8.265
X13.739 Y-7.766 I-8.265 J0.0
G01 X13.476 Y-7.777
X11.595 Y-7.67
X9.715 Y-7.526
X9.358 Y-7.517
X.313
X-1.021 Z-4.766
X-12.261
X-12.307
G02 X-18.887 Y-4.486 I0.0 J8.657
X-20.526 Y.454 I6.626 J4.94
X-12.261 Y8.719 I8.265 J0.0
G01 X12.877
G02 X21.142 Y.454 I0.0 J-8.265
X13.739 Y-7.766 I-8.265 J0.0
G01 X13.476 Y-7.777
X11.595 Y-7.67
X9.715 Y-7.526
X9.358 Y-7.517
X.313
X-1.021 Z-4.836
X-12.261
X-12.307
G02 X-18.887 Y-4.486 I0.0 J8.656
X-20.526 Y.454 I6.626 J4.94
X-12.261 Y8.719 I8.265 J0.0
G01 X12.877
G02 X21.142 Y.454 I0.0 J-8.265
X13.739 Y-7.766 I-8.265 J0.0
G01 X13.476 Y-7.777
X11.595 Y-7.67
X9.715 Y-7.526
X9.358 Y-7.517
X.313
X-1.021 Z-4.906
X-12.261
X-12.307
G02 X-18.887 Y-4.486 I0.0 J8.656
X-20.526 Y.454 I6.626 J4.94
X-12.261 Y8.719 I8.265 J0.0
G01 X12.877
G02 X21.142 Y.454 I0.0 J-8.265
X13.83 Y-7.756 I-8.265 J0.0
G01 X13.476 Y-7.777
X11.595 Y-7.671
X9.715 Y-7.526
X9.358 Y-7.517
X.313
X-1.021 Z-4.976
X-12.261
X-12.308
G02 X-18.887 Y-4.486 I0.0 J8.656
X-20.526 Y.454 I6.626 J4.94
X-12.261 Y8.719 I8.265 J0.0
G01 X12.877
G02 X21.142 Y.454 I0.0 J-8.265
X13.83 Y-7.756 I-8.265 J0.0
G01 X13.476 Y-7.778
X11.595 Y-7.671
X9.715 Y-7.526
X9.358 Y-7.517
X.313
X-1.021 Z-5.046
X-12.261
X-12.308
G02 X-18.887 Y-4.486 I0.0 J8.656
X-20.526 Y.454 I6.626 J4.94
X-12.261 Y8.719 I8.265 J0.0
G01 X12.877
G02 X21.142 Y.454 I0.0 J-8.265
X13.83 Y-7.756 I-8.265 J0.0
G01 X13.476 Y-7.778
X11.595 Y-7.671
X9.715 Y-7.526
X9.358 Y-7.517
X.313
X-1.021 Z-5.116
X-12.261
X-12.308
G02 X-18.887 Y-4.486 I0.0 J8.655
X-20.526 Y.454 I6.626 J4.94
X-12.261 Y8.719 I8.265 J0.0
G01 X12.877
G02 X21.142 Y.454 I0.0 J-8.265
X13.83 Y-7.756 I-8.265 J0.0
G01 X13.476 Y-7.778
X11.595 Y-7.671
X9.715 Y-7.526
X9.358 Y-7.517
X.313
X-1.021 Z-5.185
X-12.261
X-12.308
G02 X-18.887 Y-4.486 I0.0 J8.655
X-20.526 Y.454 I6.626 J4.94
X-12.261 Y8.719 I8.265 J0.0
G01 X12.877
G02 X21.142 Y.454 I0.0 J-8.265
X13.83 Y-7.756 I-8.265 J0.0
G01 X13.476 Y-7.778
X11.595 Y-7.671
X9.715 Y-7.527
X9.358 Y-7.517
X.313
X-1.021 Z-5.255
X-12.261
X-12.308
G02 X-18.887 Y-4.486 I0.0 J8.655
X-20.526 Y.454 I6.626 J4.94
X-12.261 Y8.719 I8.265 J0.0
G01 X12.877
G02 X21.142 Y.454 I0.0 J-8.265
X13.83 Y-7.756 I-8.265 J0.0
G01 X13.476 Y-7.778
X11.595 Y-7.671
X9.715 Y-7.527
X9.358 Y-7.517
X.313
X-1.021 Z-5.325
X-12.261
X-12.308
G02 X-18.887 Y-4.486 I0.0 J8.654
X-20.526 Y.454 I6.626 J4.94
X-12.261 Y8.719 I8.265 J0.0
G01 X12.877
G02 X21.142 Y.454 I0.0 J-8.265
X13.83 Y-7.756 I-8.265 J0.0
G01 X13.476 Y-7.778
X11.595 Y-7.671
X9.715 Y-7.527
X9.358 Y-7.517
X.313
X-1.021 Z-5.395
X-12.261
X-12.308
G02 X-18.887 Y-4.486 I0.0 J8.654
X-20.526 Y.454 I6.626 J4.94
X-12.261 Y8.719 I8.265 J0.0
G01 X12.877
G02 X21.142 Y.454 I0.0 J-8.265
X13.83 Y-7.756 I-8.265 J0.0
G01 X13.476 Y-7.778
X11.595 Y-7.671
X9.715 Y-7.527
X9.358 Y-7.517
X.313
X-1.021 Z-5.465
X-12.261
X-12.308
G02 X-18.887 Y-4.486 I0.0 J8.654
X-20.526 Y.454 I6.626 J4.94
X-12.261 Y8.719 I8.265 J0.0
G01 X12.877
G02 X21.142 Y.454 I0.0 J-8.265
X13.83 Y-7.756 I-8.265 J0.0
G01 X13.476 Y-7.778
X11.595 Y-7.671
X9.715 Y-7.527
X9.358 Y-7.517
X.313
X-1.021 Z-5.535
X-12.261
X-12.309
G02 X-18.887 Y-4.486 I0.0 J8.654
X-20.526 Y.454 I6.626 J4.94
X-12.261 Y8.719 I8.265 J0.0
G01 X12.877
G02 X21.142 Y.454 I0.0 J-8.265
X13.83 Y-7.756 I-8.265 J0.0
G01 X13.476 Y-7.778
X11.595 Y-7.671
X9.715 Y-7.527
X9.358 Y-7.517
X.313
X-1.021 Z-5.605
X-12.261
X-12.309
G02 X-18.887 Y-4.486 I0.0 J8.653
X-20.526 Y.454 I6.626 J4.94
X-12.261 Y8.719 I8.265 J0.0
G01 X12.877
G02 X21.142 Y.454 I0.0 J-8.265
X13.83 Y-7.756 I-8.265 J0.0
G01 X13.476 Y-7.778
X11.595 Y-7.671
X9.715 Y-7.527
X9.358 Y-7.517
X.313
X-1.021 Z-5.675
X-12.261
X-12.309
G02 X-18.887 Y-4.486 I0.0 J8.653
X-20.526 Y.454 I6.626 J4.94
X-12.261 Y8.719 I8.265 J0.0
G01 X12.877
G02 X21.142 Y.454 I0.0 J-8.265
X13.83 Y-7.756 I-8.265 J0.0
G01 X13.476 Y-7.778
X11.595 Y-7.671
X9.715 Y-7.527
X9.358 Y-7.517
X.313
X-1.021 Z-5.745
X-12.261
X-12.309
G02 X-18.887 Y-4.486 I0.0 J8.653
X-20.526 Y.454 I6.626 J4.94
X-12.261 Y8.719 I8.265 J0.0
G01 X12.877
G02 X21.142 Y.454 I0.0 J-8.265
X13.83 Y-7.756 I-8.265 J0.0
G01 X13.476 Y-7.778
X11.595 Y-7.671
X9.715 Y-7.527
X9.358 Y-7.517
X.313
X-1.021 Z-5.815
X-12.261
X-12.309
G02 X-18.887 Y-4.486 I0.0 J8.652
X-20.526 Y.454 I6.626 J4.94
X-12.261 Y8.719 I8.265 J0.0
G01 X12.877
G02 X21.142 Y.454 I0.0 J-8.265
X13.83 Y-7.756 I-8.265 J0.0
G01 X13.476 Y-7.778
X11.595 Y-7.671
X9.715 Y-7.528
X9.358 Y-7.517
X.313
X-1.021 Z-5.885
X-12.261
X-12.309
G02 X-18.887 Y-4.486 I0.0 J8.652
X-20.526 Y.454 I6.626 J4.94
X-12.261 Y8.719 I8.265 J0.0
G01 X12.877
G02 X21.142 Y.454 I0.0 J-8.265
X13.83 Y-7.756 I-8.265 J0.0
G01 X13.476 Y-7.778
X11.595 Y-7.671
X9.715 Y-7.528
X9.358 Y-7.517
X.313
X-1.021 Z-5.955
X-12.261
X-12.309
G02 X-18.887 Y-4.486 I0.0 J8.652
X-20.526 Y.454 I6.626 J4.94
X-12.261 Y8.719 I8.265 J0.0
G01 X12.877
G02 X21.142 Y.454 I0.0 J-8.265
X13.83 Y-7.756 I-8.265 J0.0
G01 X13.476 Y-7.778
X11.595 Y-7.671
X9.715 Y-7.528
X9.358 Y-7.517
X.313
X-1.021 Z-6.025
X-12.261
X-12.31
G02 X-18.887 Y-4.486 I0.0 J8.652
X-20.526 Y.454 I6.626 J4.94
X-12.261 Y8.719 I8.265 J0.0
G01 X12.877
G02 X21.142 Y.454 I0.0 J-8.265
X13.83 Y-7.756 I-8.265 J0.0
G01 X13.476 Y-7.778
X11.595 Y-7.671
X9.715 Y-7.528
X9.358 Y-7.517
X.313
X-1.021 Z-6.095
X-12.261
X-12.31
G02 X-18.887 Y-4.486 I0.0 J8.651
X-20.526 Y.454 I6.626 J4.94
X-12.261 Y8.719 I8.265 J0.0
G01 X12.877
G02 X21.142 Y.454 I0.0 J-8.265
X13.83 Y-7.756 I-8.265 J0.0
G01 X13.476 Y-7.778
X11.595 Y-7.671
X9.715 Y-7.528
X9.358 Y-7.517
X.313
X-1.021 Z-6.165
X-12.261
X-12.31
G02 X-18.887 Y-4.486 I0.0 J8.651
X-20.526 Y.454 I6.626 J4.94
X-12.261 Y8.719 I8.265 J0.0
G01 X12.877
G02 X21.142 Y.454 I0.0 J-8.265
X13.83 Y-7.756 I-8.265 J0.0
G01 X13.476 Y-7.778
X11.595 Y-7.671
X9.715 Y-7.528
X9.358 Y-7.517
X.313
X-1.021 Z-6.234
X-12.261
X-12.31
G02 X-18.887 Y-4.486 I0.0 J8.651
X-20.526 Y.454 I6.626 J4.94
X-12.261 Y8.719 I8.265 J0.0
G01 X12.877
G02 X21.142 Y.454 I0.0 J-8.265
X13.83 Y-7.756 I-8.265 J0.0
G01 X13.476 Y-7.778
X11.595 Y-7.671
X9.715 Y-7.528
X9.358 Y-7.517
X.313
X-1.021 Z-6.304
X-12.261
X-12.31
G02 X-18.887 Y-4.486 I0.0 J8.65
X-20.526 Y.454 I6.626 J4.94
X-12.261 Y8.719 I8.265 J0.0
G01 X12.877
G02 X21.142 Y.454 I0.0 J-8.265
X13.83 Y-7.756 I-8.265 J0.0
G01 X13.476 Y-7.778
X11.595 Y-7.671
X9.715 Y-7.528
X9.358 Y-7.517
X.313
X-1.021 Z-6.374
X-12.261
X-12.31
G02 X-18.887 Y-4.486 I0.0 J8.65
X-20.526 Y.454 I6.626 J4.94
X-12.261 Y8.719 I8.265 J0.0
G01 X12.877
G02 X21.142 Y.454 I0.0 J-8.265
X13.83 Y-7.756 I-8.265 J0.0
G01 X13.476 Y-7.778
X11.595 Y-7.671
X9.715 Y-7.528
X9.358 Y-7.517
X.313
X-1.021 Z-6.444
X-12.261
X-12.31
G02 X-18.887 Y-4.486 I0.0 J8.65
X-20.526 Y.454 I6.626 J4.94
X-12.261 Y8.719 I8.265 J0.0
G01 X12.877
G02 X21.142 Y.454 I0.0 J-8.265
X13.83 Y-7.756 I-8.265 J0.0
G01 X13.476 Y-7.778
X11.595 Y-7.671
X9.715 Y-7.529
X9.358 Y-7.517
X.313
X-1.021 Z-6.514
X-12.261
X-12.31
G02 X-18.887 Y-4.486 I0.0 J8.65
X-20.526 Y.454 I6.626 J4.94
X-12.261 Y8.719 I8.265 J0.0
G01 X12.877
G02 X21.142 Y.454 I0.0 J-8.265
X13.83 Y-7.756 I-8.265 J0.0
G01 X13.476 Y-7.778
X11.595 Y-7.671
X9.715 Y-7.529
X9.358 Y-7.517
X.313
X-1.021 Z-6.584
X-12.261
X-12.311
G02 X-18.887 Y-4.486 I0.0 J8.649
X-20.526 Y.454 I6.626 J4.94
X-12.261 Y8.719 I8.265 J0.0
G01 X12.877
G02 X21.142 Y.454 I0.0 J-8.265
X13.83 Y-7.756 I-8.265 J0.0
G01 X13.476 Y-7.778
X11.595 Y-7.671
X9.715 Y-7.529
X9.358 Y-7.517
X.313
X-1.021 Z-6.654
X-12.261
X-12.311
G02 X-18.887 Y-4.486 I0.0 J8.649
X-20.526 Y.454 I6.626 J4.94
X-12.261 Y8.719 I8.265 J0.0
G01 X12.877
G02 X21.142 Y.454 I0.0 J-8.265
X13.83 Y-7.756 I-8.265 J0.0
G01 X13.476 Y-7.779
X11.595 Y-7.671
X9.715 Y-7.529
X9.358 Y-7.517
X.313
X-1.021 Z-6.724
X-12.261
X-12.311
G02 X-18.887 Y-4.486 I0.0 J8.649
X-20.526 Y.454 I6.626 J4.94
X-12.261 Y8.719 I8.265 J0.0
G01 X12.877
G02 X21.142 Y.454 I0.0 J-8.265
X13.83 Y-7.756 I-8.265 J0.0
G01 X13.476 Y-7.779
X11.595 Y-7.671
X9.715 Y-7.529
X9.358 Y-7.517
X.313
X-1.021 Z-6.794
X-12.261
X-12.311
G02 X-18.887 Y-4.486 I0.0 J8.648
X-20.526 Y.454 I6.626 J4.94
X-12.261 Y8.719 I8.265 J0.0
G01 X12.877
G02 X21.142 Y.454 I0.0 J-8.265
X13.83 Y-7.756 I-8.265 J0.0
G01 X13.476 Y-7.779
X11.595 Y-7.671
X9.715 Y-7.529
X9.358 Y-7.517
X.313
X-1.021 Z-6.864
X-12.261
X-12.311
G02 X-18.887 Y-4.486 I0.0 J8.648
X-20.526 Y.454 I6.626 J4.94
X-12.261 Y8.719 I8.265 J0.0
G01 X12.877
G02 X21.142 Y.454 I0.0 J-8.265
X13.83 Y-7.756 I-8.265 J0.0
G01 X13.476 Y-7.779
X11.595 Y-7.671
X9.715 Y-7.529
X9.358 Y-7.517
X.313
X-1.021 Z-6.934
X-12.261
X-12.311
G02 X-18.887 Y-4.486 I0.0 J8.648
X-20.526 Y.454 I6.626 J4.94
X-12.261 Y8.719 I8.265 J0.0
G01 X12.877
G02 X21.142 Y.454 I0.0 J-8.265
X13.83 Y-7.756 I-8.265 J0.0
G01 X13.476 Y-7.779
X11.595 Y-7.671
X9.715 Y-7.529
X9.358 Y-7.517
X.313
X-1.021 Z-7.004
X-12.261
X-12.311
G02 X-18.887 Y-4.486 I0.0 J8.648
X-20.526 Y.454 I6.626 J4.94
X-12.261 Y8.719 I8.265 J0.0
G01 X12.877
G02 X21.142 Y.454 I0.0 J-8.265
X13.83 Y-7.756 I-8.265 J0.0
G01 X13.476 Y-7.779
X11.595 Y-7.671
X9.715 Y-7.529
X9.358 Y-7.517
X.313
X-1.021 Z-7.074
X-12.261
X-12.311
G02 X-18.887 Y-4.486 I0.0 J8.647
X-20.526 Y.454 I6.626 J4.94
X-12.261 Y8.719 I8.265 J0.0
G01 X12.877
G02 X21.142 Y.454 I0.0 J-8.265
X13.83 Y-7.756 I-8.265 J0.0
G01 X13.476 Y-7.779
X11.595 Y-7.671
X9.715 Y-7.53
X9.358 Y-7.517
X.313
X-1.021 Z-7.144
X-12.261
X-12.312
G02 X-18.887 Y-4.486 I0.0 J8.647
X-20.526 Y.454 I6.626 J4.94
X-12.261 Y8.719 I8.265 J0.0
G01 X12.877
G02 X21.142 Y.454 I0.0 J-8.265
X13.83 Y-7.756 I-8.265 J0.0
G01 X13.476 Y-7.779
X11.641 Y-7.674
X9.715 Y-7.53
X9.358 Y-7.517
X.313
X-1.021 Z-7.214
X-12.261
X-12.312
G02 X-18.887 Y-4.486 I0.0 J8.647
X-20.526 Y.454 I6.626 J4.94
X-12.261 Y8.719 I8.265 J0.0
G01 X12.877
G02 X21.142 Y.454 I0.0 J-8.265
X13.83 Y-7.756 I-8.265 J0.0
G01 X13.476 Y-7.779
X11.595 Y-7.671
X9.715 Y-7.53
X9.358 Y-7.517
X.313
X-1.021 Z-7.283
X-12.261
X-12.312
G02 X-18.887 Y-4.486 I0.0 J8.646
X-20.526 Y.454 I6.626 J4.94
X-12.261 Y8.719 I8.265 J0.0
G01 X12.877
G02 X21.142 Y.454 I0.0 J-8.265
X13.83 Y-7.756 I-8.265 J0.0
G01 X13.476 Y-7.779
X11.595 Y-7.671
X9.715 Y-7.53
X9.358 Y-7.517
X.313
X-1.021 Z-7.353
X-12.261
X-12.312
G02 X-18.887 Y-4.486 I0.0 J8.646
X-20.526 Y.454 I6.626 J4.94
X-12.261 Y8.719 I8.265 J0.0
G01 X12.877
G02 X21.142 Y.454 I0.0 J-8.265
X13.83 Y-7.756 I-8.265 J0.0
G01 X13.476 Y-7.779
X11.595 Y-7.671
X9.715 Y-7.53
X9.358 Y-7.517
X.313
X-1.021 Z-7.423
X-12.261
X-12.312
G02 X-18.887 Y-4.486 I0.0 J8.646
X-20.526 Y.454 I6.626 J4.94
X-12.261 Y8.719 I8.265 J0.0
G01 X12.877
G02 X21.142 Y.454 I0.0 J-8.265
X13.83 Y-7.756 I-8.265 J0.0
G01 X13.476 Y-7.779
X11.595 Y-7.671
X9.715 Y-7.53
X9.358 Y-7.517
X.313
X-1.021 Z-7.493
X-12.261
X-12.312
G02 X-18.887 Y-4.486 I0.0 J8.646
X-20.526 Y.454 I6.626 J4.94
X-12.261 Y8.719 I8.265 J0.0
G01 X12.877
G02 X21.142 Y.454 I0.0 J-8.265
X13.83 Y-7.756 I-8.265 J0.0
G01 X13.476 Y-7.779
X11.595 Y-7.671
X9.715 Y-7.53
X9.358 Y-7.517
X.313
X-1.021 Z-7.563
X-12.261
X-12.312
G02 X-18.887 Y-4.486 I0.0 J8.645
X-20.526 Y.454 I6.626 J4.94
X-12.261 Y8.719 I8.265 J0.0
G01 X12.877
G02 X21.142 Y.454 I0.0 J-8.265
X13.83 Y-7.756 I-8.265 J0.0
G01 X13.476 Y-7.779
X11.595 Y-7.671
X9.715 Y-7.53
X9.358 Y-7.517
X.313
X-1.021 Z-7.633
X-12.261
X-12.313
G02 X-18.887 Y-4.486 I0.0 J8.645
X-20.526 Y.454 I6.626 J4.94
X-12.261 Y8.719 I8.265 J0.0
G01 X12.877
G02 X21.142 Y.454 I0.0 J-8.265
X13.83 Y-7.756 I-8.265 J0.0
G01 X13.476 Y-7.779
X11.595 Y-7.671
X9.715 Y-7.53
X9.358 Y-7.517
X.313
X-1.021 Z-7.703
X-12.261
X-12.313
G02 X-18.887 Y-4.486 I0.0 J8.645
X-20.526 Y.454 I6.626 J4.94
X-12.261 Y8.719 I8.265 J0.0
G01 X12.877
G02 X21.142 Y.454 I0.0 J-8.265
X13.83 Y-7.756 I-8.265 J0.0
G01 X13.476 Y-7.779
X11.595 Y-7.671
X9.715 Y-7.531
X9.358 Y-7.517
X.313
X-1.021 Z-7.773
X-12.261
X-12.313
G02 X-18.887 Y-4.486 I0.0 J8.644
X-20.526 Y.454 I6.626 J4.94
X-12.261 Y8.719 I8.265 J0.0
G01 X12.877
G02 X21.142 Y.454 I0.0 J-8.265
X13.83 Y-7.756 I-8.265 J0.0
G01 X13.476 Y-7.779
X11.595 Y-7.671
X9.715 Y-7.531
X9.358 Y-7.517
X.313
X-1.021 Z-7.843
X-12.261
X-12.313
G02 X-18.887 Y-4.486 I0.0 J8.644
X-20.526 Y.454 I6.626 J4.94
X-12.261 Y8.719 I8.265 J0.0
G01 X12.877
G02 X21.142 Y.454 I0.0 J-8.265
X13.83 Y-7.756 I-8.265 J0.0
G01 X13.689 Y-7.771
X12.222 Y-7.719
X9.715 Y-7.531
X9.358 Y-7.517
X.313
X-1.021 Z-7.913
X-12.261
X-12.313
G02 X-18.887 Y-4.486 I0.0 J8.644
X-20.526 Y.454 I6.626 J4.94
X-12.261 Y8.719 I8.265 J0.0
G01 X12.877
G02 X21.142 Y.454 I0.0 J-8.265
X13.83 Y-7.756 I-8.265 J0.0
G01 X13.689 Y-7.771
X12.222 Y-7.719
X9.715 Y-7.531
X9.358 Y-7.517
X.313
X-1.021 Z-7.983
X-12.261
X-12.313
G02 X-18.887 Y-4.486 I0.0 J8.644
X-20.526 Y.454 I6.626 J4.94
X-12.261 Y8.719 I8.265 J0.0
G01 X12.877
G02 X21.142 Y.454 I0.0 J-8.265
X13.83 Y-7.756 I-8.265 J0.0
G01 X13.689 Y-7.771
X12.222 Y-7.719
X9.715 Y-7.531
X9.358 Y-7.517
X.313
X-1.021 Z-8.053
X-12.261
X-12.313
G02 X-18.887 Y-4.486 I0.0 J8.643
X-20.526 Y.454 I6.626 J4.94
X-12.261 Y8.719 I8.265 J0.0
G01 X12.877
G02 X21.142 Y.454 I0.0 J-8.265
X13.83 Y-7.756 I-8.265 J0.0
G01 X13.689 Y-7.771
X12.222 Y-7.719
X9.715 Y-7.531
X9.358 Y-7.517
X.313
X-1.021 Z-8.123
X-12.261
X-12.313
G02 X-18.887 Y-4.486 I0.0 J8.643
X-20.526 Y.454 I6.626 J4.94
X-12.261 Y8.719 I8.265 J0.0
G01 X12.877
G02 X21.142 Y.454 I0.0 J-8.265
X13.83 Y-7.756 I-8.265 J0.0
G01 X13.689 Y-7.771
X12.222 Y-7.719
X9.715 Y-7.531
X9.358 Y-7.517
X.313
X-1.021 Z-8.193
X-12.261
X-12.313
G02 X-18.883 Y-4.49 I0.0 J8.645
X-20.526 Y.454 I6.623 J4.945
X-12.261 Y8.719 I8.265 J0.0
G01 X12.877
G02 X21.142 Y.454 I0.0 J-8.265
X13.83 Y-7.756 I-8.265 J0.0
G01 X13.689 Y-7.771
X12.222 Y-7.719
X9.715 Y-7.531
X9.358 Y-7.517
X.313
X-1.021 Z-8.263
X-12.261
X-12.313
G02 X-18.883 Y-4.49 I0.0 J8.645
X-20.526 Y.454 I6.623 J4.945
X-12.261 Y8.719 I8.265 J0.0
G01 X12.877
G02 X21.142 Y.454 I0.0 J-8.265
X13.83 Y-7.756 I-8.265 J0.0
G01 X13.689 Y-7.771
X12.222 Y-7.72
X9.715 Y-7.532
X9.358 Y-7.517
X.313
X-1.021 Z-8.332
X-12.261
X-12.313
G02 X-18.883 Y-4.49 I0.0 J8.644
X-20.526 Y.454 I6.623 J4.945
X-12.261 Y8.719 I8.265 J0.0
G01 X12.877
G02 X21.142 Y.454 I0.0 J-8.265
X13.83 Y-7.756 I-8.265 J0.0
G01 X13.689 Y-7.771
X12.222 Y-7.72
X9.715 Y-7.532
X9.358 Y-7.517
X.313
X-1.021 Z-8.402
X-12.261
X-12.313
G02 X-18.883 Y-4.49 I0.0 J8.644
X-20.526 Y.454 I6.623 J4.945
X-12.261 Y8.719 I8.265 J0.0
G01 X12.877
G02 X21.142 Y.454 I0.0 J-8.265
X13.83 Y-7.756 I-8.265 J0.0
G01 X13.689 Y-7.771
X12.222 Y-7.72
X9.715 Y-7.532
X9.358 Y-7.517
X.313
X-1.021 Z-8.472
X-12.261
X-12.314
G02 X-18.883 Y-4.49 I0.0 J8.644
X-20.526 Y.454 I6.623 J4.945
X-12.261 Y8.719 I8.265 J0.0
G01 X12.877
G02 X21.142 Y.454 I0.0 J-8.265
X13.83 Y-7.756 I-8.265 J0.0
G01 X13.689 Y-7.771
X12.222 Y-7.72
X9.715 Y-7.532
X9.358 Y-7.517
X.313
X-1.021 Z-8.542
X-12.261
X-12.314
G02 X-18.883 Y-4.49 I0.0 J8.643
X-20.526 Y.454 I6.623 J4.945
X-12.261 Y8.719 I8.265 J0.0
G01 X12.877
G02 X21.142 Y.454 I0.0 J-8.265
X13.83 Y-7.756 I-8.265 J0.0
G01 X13.689 Y-7.771
X12.222 Y-7.72
X9.715 Y-7.532
X9.358 Y-7.517
X.313
X-1.021 Z-8.612
X-12.261
X-12.314
G02 X-18.883 Y-4.49 I0.0 J8.643
X-20.526 Y.454 I6.623 J4.945
X-12.261 Y8.719 I8.265 J0.0
G01 X12.877
G02 X21.142 Y.454 I0.0 J-8.265
X13.83 Y-7.756 I-8.265 J0.0
G01 X13.689 Y-7.771
X12.222 Y-7.72
X9.715 Y-7.532
X9.358 Y-7.517
X.313
X-1.021 Z-8.682
X-12.261
X-12.314
G02 X-18.883 Y-4.49 I0.0 J8.643
X-20.526 Y.454 I6.623 J4.945
X-12.261 Y8.719 I8.265 J0.0
G01 X12.877
G02 X21.142 Y.454 I0.0 J-8.265
X13.83 Y-7.756 I-8.265 J0.0
G01 X13.689 Y-7.771
X12.222 Y-7.72
X9.715 Y-7.532
X9.358 Y-7.517
X.313
X-1.021 Z-8.752
X-12.261
X-12.314
G02 X-18.883 Y-4.49 I0.0 J8.643
X-20.526 Y.454 I6.623 J4.945
X-12.261 Y8.719 I8.265 J0.0
G01 X12.877
G02 X21.142 Y.454 I0.0 J-8.265
X13.83 Y-7.756 I-8.265 J0.0
G01 X13.689 Y-7.771
X12.222 Y-7.72
X9.715 Y-7.532
X9.358 Y-7.517
X.313
X-1.021 Z-8.822
X-12.261
X-12.314
G02 X-18.883 Y-4.49 I0.0 J8.642
X-20.526 Y.454 I6.623 J4.945
X-12.261 Y8.719 I8.265 J0.0
G01 X12.877
G02 X21.142 Y.454 I0.0 J-8.265
X13.83 Y-7.756 I-8.265 J0.0
G01 X13.689 Y-7.771
X12.222 Y-7.72
X9.715 Y-7.532
X9.358 Y-7.517
X.313
X-1.021 Z-8.892
X-12.261
X-12.314
G02 X-18.883 Y-4.49 I0.0 J8.642
X-20.526 Y.454 I6.623 J4.945
X-12.261 Y8.719 I8.265 J0.0
G01 X12.877
G02 X21.142 Y.454 I0.0 J-8.265
X13.83 Y-7.756 I-8.265 J0.0
G01 X13.689 Y-7.771
X12.222 Y-7.72
X9.715 Y-7.533
X9.358 Y-7.517
X.313
X-1.021 Z-8.962
X-12.261
X-12.315
G02 X-18.883 Y-4.49 I0.0 J8.642
X-20.526 Y.454 I6.623 J4.945
X-12.261 Y8.719 I8.265 J0.0
G01 X12.877
G02 X21.142 Y.454 I0.0 J-8.265
X13.83 Y-7.756 I-8.265 J0.0
G01 X13.689 Y-7.771
X12.222 Y-7.721
X9.715 Y-7.533
X9.358 Y-7.517
X.313
X-1.021 Z-9.032
X-12.261
X-12.315
G02 X-18.883 Y-4.49 I0.0 J8.641
X-20.526 Y.454 I6.623 J4.945
X-12.261 Y8.719 I8.265 J0.0
G01 X12.877
G02 X21.142 Y.454 I0.0 J-8.265
X13.83 Y-7.756 I-8.265 J0.0
G01 X13.689 Y-7.771
X12.222 Y-7.721
X9.715 Y-7.533
X9.358 Y-7.517
X-1.021
Y-9.517
Z-7.032
G00 Z15.
M09
M05
G91 G28 Z0.0
G28 Y0.0
M30
%
(TOTAL Machine Time: 7.7 min)
