%
G40 G17 G49 G54 G80
G91 G28 Z0.0
( NAME: Capful )
( PART: D:\Program Files\Siemens\NX 12.0\UGII\HM-µç¼«±à³Ì.prt )
( DATE: Sun May 27 04:58:14 2018 )
( D10 ---> D=10.00 R=0.00 )
S8000 M03
G00 G90 X-19.857 Y-19.5
Z15.
G17 G01 Z-5.982 F1300.
Z-8.982 F520.
Y-13.
X-23. F1300.
G40 G02 X-25.5 Y-10.5 I0.0 J2.5
G01 Y10.5
G02 X-23. Y13. I2.5 J0.0
G01 X-19.138
Y10.
G03 X-22.5 Y6.25 I6.875 J-9.547 F780.
G01 Y10. F1300.
X-19.138
Y13.
X23.
G02 X25.5 Y10.5 I0.0 J-2.5
G01 Y7.222
X22.5
G03 X19.754 Y10. I-9.623 J-6.768 F780.
G01 X22.5 F1300.
Y7.222
X25.5
Y-8.121
X20.621 Y-13.
X18.278
Y-10.
G03 X22.5 Y-6.316 I-5.401 J10.452 F780.
G01 Y-6.879 F1300.
X19.379 Y-10.
X18.278
Y-13.
X-19.857
Y-10.
X-22.5
Y-5.344
G03 X-21.561 Y-6.755 I10.238 J5.797 F780.
G01 X-21.414 Y-6.922
G03 X-21.161 Y-7.201 I8.835 J7.769
X-17.215 Y-10. I8.703 J8.087
G01 X-19.857 F1300.
Y-19.5
Z-5.982
G00 Z-5.932
G01 Z-6.032
Z-9.032 F520.
Y-13.
X-23. F1300.
G02 X-25.5 Y-10.5 I0.0 J2.5
G01 Y10.5
G02 X-23. Y13. I2.5 J0.0
G01 X-19.138
Y10.
G03 X-22.5 Y6.25 I6.875 J-9.547 F780.
G01 Y10. F1300.
X-19.138
Y13.
X23.
G02 X25.5 Y10.5 I0.0 J-2.5
G01 Y7.222
X22.5
G03 X19.754 Y10. I-9.623 J-6.768 F780.
G01 X22.5 F1300.
Y7.222
X25.5
Y-8.121
X20.621 Y-13.
X18.278
Y-10.
G03 X22.5 Y-6.316 I-5.401 J10.452 F780.
G01 Y-6.879 F1300.
X19.379 Y-10.
X18.278
Y-13.
X-19.857
Y-10.
X-22.5
Y-5.344
G03 X-21.561 Y-6.755 I10.238 J5.797 F780.
G01 X-21.414 Y-6.922
G03 X-21.161 Y-7.201 I8.835 J7.769
X-17.215 Y-10. I8.703 J8.087
G01 X-19.857 F1300.
Y-19.5
Z-6.032
G00 Z15.
M09
M05
G91 G28 Z0.0
G28 Y0.0
M30
%
(TOTAL Machine Time: 0.6 min)
