%
G40 G17 G49 G54 G80
G91 G28 Z0.0
( NAME: Capful )
( PART: D:\Program Files\Siemens\NX 12.0\UGII\HM-µç¼«±à³Ì.prt )
( DATE: Sun May 27 04:58:14 2018 )
( D4 ---> D=4.00 R=0.00 )
S9000 M03
G00 G90 X-12.694 Y-2.035
Z15.
G17 G01 Z.1 F2000.
X-13.635 Y-1.677 Z.065 F800.
X-14.383 Y-.934 Z.028
X-14.764 Y.049 Z-.009
X-14.712 Y1.102 Z-.046
X-14.401 Y1.814 Z-.073
X-13.649 Y2.576 Z-.11
X-12.65 Y2.96 Z-.148
X.308 Z-.6
X12.877 F1200.
G40 G02 X15.382 Y.454 I0.0 J-2.506
X12.877 Y-2.051 I-2.506 J0.0
G01 X-12.261
G02 X-14.766 Y.454 I0.0 J2.506
X-12.261 Y2.96 I2.506 J0.0
G01 X.308
Y1.16 F2000.
X12.877
G02 X13.582 Y.454 I0.0 J-.706
X12.877 Y-.251 I-.706 J0.0
G01 X-12.261
G02 X-12.966 Y.454 I0.0 J.706
X-12.261 Y1.16 I.706 J0.0
G01 X.308
X2.3 Y1.334
Z.4
G00 Z1.
X-8.283 Y2.943
G01 Z-.5
X.308 Z-.8 F800.
X12.877 F1200.
G02 X15.365 Y.454 I0.0 J-2.488
X12.877 Y-2.034 I-2.488 J0.0
G01 X-12.261
G02 X-14.749 Y.454 I0.0 J2.488
X-12.261 Y2.943 I2.488 J0.0
G01 X.308
Y1.143 F2000.
X12.877
G02 X13.565 Y.454 I0.0 J-.688
X12.877 Y-.234 I-.688 J0.0
G01 X-12.261
G02 X-12.949 Y.454 I0.0 J.688
X-12.261 Y1.143 I.688 J0.0
G01 X.308
X2.3 Y1.317
Z.2
G00 Z.4
X-8.283 Y2.943
G01 Z-.7
X.308 Z-1. F800.
X12.877 F1200.
G02 X15.365 Y.454 I0.0 J-2.488
X12.877 Y-2.034 I-2.488 J0.0
G01 X-12.261
G02 X-14.749 Y.454 I0.0 J2.488
X-12.261 Y2.943 I2.488 J0.0
G01 X.308
Y1.143 F2000.
X12.877
G02 X13.565 Y.454 I0.0 J-.688
X12.877 Y-.234 I-.688 J0.0
G01 X-12.261
G02 X-12.949 Y.454 I0.0 J.688
X-12.261 Y1.143 I.688 J0.0
G01 X.308
X2.3 Y1.317
Z0.0
G00 Z.2
X-8.283 Y2.943
G01 Z-.9
X.308 Z-1.2 F800.
X12.877 F1200.
G02 X15.365 Y.454 I0.0 J-2.488
X12.877 Y-2.034 I-2.488 J0.0
G01 X-12.261
G02 X-14.749 Y.454 I0.0 J2.488
X-12.261 Y2.943 I2.488 J0.0
G01 X.308
Y1.143 F2000.
X12.877
G02 X13.565 Y.454 I0.0 J-.688
X12.877 Y-.234 I-.688 J0.0
G01 X-12.261
G02 X-12.949 Y.454 I0.0 J.688
X-12.261 Y1.143 I.688 J0.0
G01 X.308
X2.3 Y1.317
Z-.2
G00 Z0.0
X-8.283 Y2.943
G01 Z-1.1
X.308 Z-1.4 F800.
X12.877 F1200.
G02 X15.365 Y.454 I0.0 J-2.488
X12.877 Y-2.034 I-2.488 J0.0
G01 X-12.261
G02 X-14.749 Y.454 I0.0 J2.488
X-12.261 Y2.943 I2.488 J0.0
G01 X.308
Y1.143 F2000.
X12.877
G02 X13.565 Y.454 I0.0 J-.688
X12.877 Y-.234 I-.688 J0.0
G01 X-12.261
G02 X-12.949 Y.454 I0.0 J.688
X-12.261 Y1.143 I.688 J0.0
G01 X.308
X2.3 Y1.317
Z-.4
G00 Z-.2
X-8.283 Y2.943
G01 Z-1.3
X.308 Z-1.6 F800.
X12.877 F1200.
G02 X15.365 Y.454 I0.0 J-2.488
X12.877 Y-2.034 I-2.488 J0.0
G01 X-12.261
G02 X-14.749 Y.454 I0.0 J2.488
X-12.261 Y2.943 I2.488 J0.0
G01 X.308
Y1.143 F2000.
X12.877
G02 X13.565 Y.454 I0.0 J-.688
X12.877 Y-.234 I-.688 J0.0
G01 X-12.261
G02 X-12.949 Y.454 I0.0 J.688
X-12.261 Y1.143 I.688 J0.0
G01 X.308
X2.3 Y1.317
Z-.6
G00 Z-.4
X-8.283 Y2.943
G01 Z-1.5
X.308 Z-1.8 F800.
X12.877 F1200.
G02 X15.365 Y.454 I0.0 J-2.488
X12.877 Y-2.034 I-2.488 J0.0
G01 X-12.261
G02 X-14.749 Y.454 I0.0 J2.488
X-12.261 Y2.943 I2.488 J0.0
G01 X.308
Y1.143 F2000.
X12.877
G02 X13.565 Y.454 I0.0 J-.688
X12.877 Y-.234 I-.688 J0.0
G01 X-12.261
G02 X-12.949 Y.454 I0.0 J.688
X-12.261 Y1.143 I.688 J0.0
G01 X.308
X2.3 Y1.317
Z-.8
G00 Z15.
M09
M05
G91 G28 Z0.0
G28 Y0.0
M30
%
(TOTAL Machine Time: 0.9 min)
