%
G40 G17 G49 G54 G80
G91 G28 Z0.0
( NAME: Capful )
( PART: D:\Program Files\Siemens\NX 12.0\UGII\HM-µç¼«±à³Ì.prt )
( DATE: Sun May 27 04:58:14 2018 )
( D10 ---> D=10.00 R=0.00 )
S6000 M03
G00 G90 X-1.5 Y-18.
Z15.
G17 G01 Z.804 F2500.
Z-.196 F1000.
Y-12.5
X-14. F2500.
X-19.5 F2188.
X-25. F1875.
Y-7.
Y1.5 F2500.
Y7. F2188.
Y12.5 F1875.
X-19.5
X14. F2500.
X19.5 F2188.
X25. F1875.
Y7.
Y-1.5 F2500.
Y-7. F2188.
Y-12.5 F1875.
X19.5
X-1.5 F2500.
Y-5.
X-17.5
Y5.
X17.5
Y-5.
X-1.5
Y-.5
X-13.
Y.5
X13.
Y-.5
X-1.5
Y-18.
Z.804
G00 Z1.
G01 Z.607
Z-.393 F1000.
Y-12.5
X-14. F2500.
X-19.5 F2188.
X-25. F1875.
Y-7.
Y1.5 F2500.
Y7. F2188.
Y12.5 F1875.
X-19.5
X14. F2500.
X19.5 F2188.
X25. F1875.
Y7.
Y-1.5 F2500.
Y-7. F2188.
Y-12.5 F1875.
X19.5
X-1.5 F2500.
Y-5.
X-17.5
Y5.
X17.5
Y-5.
X-1.5
Y-.5
X-13.
Y.5
X13.
Y-.5
X-1.5
Y-18.
Z.607
G00 Z.804
G01 Z.411
Z-.589 F1000.
Y-12.5
X-14. F2500.
X-19.5 F2188.
X-25. F1875.
Y-7.
Y1.5 F2500.
Y7. F2188.
Y12.5 F1875.
X-19.5
X14. F2500.
X19.5 F2188.
X25. F1875.
Y7.
Y-1.5 F2500.
Y-7. F2188.
Y-12.5 F1875.
X19.5
X-1.5 F2500.
Y-18.
Z.411
G00 Z.607
X-12.258 Y18.
G01 Z.411
Z-.589 F1000.
Y11.285
X12.876 F2500.
G40 G02 X23.707 Y.454 I0.0 J-10.83
X12.88 Y-10.376 I-10.83 J0.0
G01 X-12.264
G02 X-23.091 Y.454 I.003 J10.83
X-12.261 Y11.285 I10.83 J0.0
G01 X-12.258
X-12.257 Y18.
Z.411
G00 Z.607
X-1.5 Y-18.
G01 Z.215
Z-.785 F1000.
Y-12.5
X-14. F2500.
X-19.5 F2188.
X-25. F1875.
Y-7.
Y1.5 F2500.
Y7. F2188.
Y12.5 F1875.
X-19.5
X14. F2500.
X19.5 F2188.
X25. F1875.
Y7.
Y-1.5 F2500.
Y-7. F2188.
Y-12.5 F1875.
X19.5
X-1.5 F2500.
Y-18.
Z.215
G00 Z.411
X-12.261 Y18.
G01 Z.215
Z-.785 F1000.
Y11.313
X12.877 F2500.
G02 X23.736 Y.454 I0.0 J-10.859
X12.877 Y-10.405 I-10.859 J0.0
G01 X-12.261
G02 X-23.12 Y.454 I0.0 J10.859
X-12.261 Y11.313 I10.859 J0.0
G01 Y18.
Z.215
G00 Z.411
X-1.5 Y-18.
G01 Z.018
Z-.982 F1000.
Y-12.5
X-14. F2500.
X-19.5 F2188.
X-25. F1875.
Y-7.
Y1.5 F2500.
Y7. F2188.
Y12.5 F1875.
X-19.5
X14. F2500.
X19.5 F2188.
X25. F1875.
Y7.
Y-1.5 F2500.
Y-7. F2188.
Y-12.5 F1875.
X19.5
X-1.5 F2500.
Y-18.
Z.018
G00 Z.215
X-19.509
G01 Z.018
Z-.982 F1000.
Y-7.65
G02 X-20.281 Y-6.904 I8.013 J9.071 F2500.
X-20.743 Y-6.376 I6.318 J5.987
X-23.151 Y.454 I8.482 J6.83
X-12.261 Y11.345 I10.89 J0.0
G01 X12.877
G02 X23.767 Y.454 I0.0 J-10.89
X14.004 Y-10.377 I-10.89 J0.0
G01 X13.997 Y-10.379
G02 X13.09 Y-10.428 I-.907 J8.315
X12.936 Y-10.427 I0.0 J8.365
G01 X12.467 Y-10.418
X-12.261
G02 X-19.509 Y-7.65 I0.0 J10.873
G01 X-27.981 Y-17.122
Z.018
G00 Z.215
X-1.5 Y-18.
G01 Z-.178
Z-1.178 F1000.
Y-12.5
X-14. F2500.
X-19.5 F2188.
X-25. F1875.
Y-7.
Y1.5 F2500.
Y7. F2188.
Y12.5 F1875.
X-19.5
X14. F2500.
X19.5 F2188.
X25. F1875.
Y7.
Y-1.5 F2500.
Y-7. F2188.
Y-12.5 F1875.
X19.5
X-1.5 F2500.
Y-18.
Z-.178
G00 Z.018
X-24.564
G01 Z-.178
Z-1.178 F1000.
X-18.375 Y-8.553
G02 X-19.763 Y-7.529 I8.502 J12.979 F2500.
X-21.088 Y-6.136 I5.244 J6.316
X-23.277 Y.454 I8.827 J6.591
X-12.261 Y11.47 I11.016 J0.0
G01 X12.877
G02 X23.893 Y.454 I0.0 J-11.016
X21.493 Y-6.409 I-11.016 J0.0
X17.155 Y-9.697 I-8.617 J6.863 F2188.
X13.896 Y-10.514 I-4.279 J10.151 F1875.
X13.249 Y-10.544 I-.648 J6.968
X12.535 Y-10.508 I0.0 J6.998
G03 X11.776 Y-10.432 I-15.707 J-153.246
G01 X6.276
X-12.261 F2500.
G02 X-18.375 Y-8.553 I0.0 J10.886
G01 X-24.788 Y-18.
Z-.178
G00 Z.018
X-1.5
G01 Z-.374
Z-1.374 F1000.
Y-12.5
X-14. F2500.
X-19.5 F2188.
X-25. F1875.
Y-7.
Y1.5 F2500.
Y7. F2188.
Y12.5 F1875.
X-19.5
X14. F2500.
X19.5 F2188.
X25. F1875.
Y7.
Y-1.5 F2500.
Y-7. F2188.
Y-12.5 F1875.
X19.5
X-1.5 F2500.
Y-18.
Z-.374
G00 Z-.178
X-12.261
G01 Z-.374
Z-1.374 F1000.
Y-10.446
G02 X-17.33 Y-9.195 I0.0 J10.9 F2500.
G03 X-18.441 Y-8.63 I-13.581 J-25.327
G01 X-18.544 Y-8.586
G02 X-20.149 Y-7.599 I2.5 J5.863
X-21.365 Y-6.337 I5.429 J6.449
X-23.619 Y.454 I9.104 J6.791
X-12.261 Y11.812 I11.358 J0.0
G01 X12.877
G02 X24.235 Y.454 I0.0 J-11.358
X20.987 Y-7.497 I-11.358 J0.0
X16.353 Y-10.359 I-8.11 J7.952 F2188.
X14.064 Y-10.842 I-3.476 J10.813 F1875.
X13.376 Y-10.872 I-.688 J7.677
X12.22 Y-10.785 I0.0 J7.708
X10.961 Y-10.446 I.87 J5.732
G01 X5.461
X-12.261 F2500.
Y-18.
Z-.374
G00 Z-.178
X-1.5
G01 Z-.571
Z-1.571 F1000.
Y-12.5
X-14. F2500.
X-19.5 F2188.
X-25. F1875.
Y-7.
Y1.5 F2500.
Y7. F2188.
Y12.5 F1875.
X-19.5
X14. F2500.
X19.5 F2188.
X25. F1875.
Y7.
Y-1.5 F2500.
Y-7. F2188.
Y-12.5 F1875.
X19.5
X-1.5 F2500.
Y-18.
Z-.571
G00 Z-.374
X-12.261
G01 Z-.571
Z-1.571 F1000.
Y-10.46
G02 X-14.625 Y-10.2 I0.0 J10.914 F2188.
X-16.376 Y-9.654 I2.364 J10.655 F1875.
G03 X-16.886 Y-9.457 I-4.583 J-11.08
G02 X-18.885 Y-8.607 I1.311 J5.862
X-21.213 Y-6.539 I6.087 J9.197
X-21.333 Y-6.39 I3.065 J2.596
X-21.367 Y-6.346 I3.185 J2.448 F2500.
X-23.626 Y.454 I9.106 J6.8
X-12.261 Y11.819 I11.365 J0.0
G01 X12.877
G02 X24.242 Y.454 I0.0 J-11.365
X20.524 Y-7.953 I-11.365 J0.0
X15.735 Y-10.546 I-7.648 J8.407 F2188.
X14.064 Y-10.849 I-2.858 J11. F1875.
X13.282 Y-10.882 I-.782 J9.198
X12.664 Y-10.861 I0.0 J9.231
G01 X12.52 Y-10.851
X11.87 Y-10.799
G02 X10.309 Y-10.46 I.473 J5.933
G01 X4.809
X-12.261 F2500.
Y-18.
Z-.571
G00 Z-.374
X-1.5
G01 Z-.767
Z-1.767 F1000.
Y-12.5
X-14. F2500.
X-19.5 F2188.
X-25. F1875.
Y-7.
Y1.5 F2500.
Y7. F2188.
Y12.5 F1875.
X-19.5
X14. F2500.
X19.5 F2188.
X25. F1875.
Y7.
Y-1.5 F2500.
Y-7. F2188.
Y-12.5 F1875.
X19.5
X-1.5 F2500.
Y-18.
Z-.767
G00 Z-.571
X-12.261
G01 Z-.767
Z-1.767 F1000.
Y-10.473
G02 X-14.04 Y-10.328 I0.0 J10.927 F2188.
X-15.296 Y-10.043 I1.779 J10.782 F1875.
G01 X-15.775 Y-9.908
G02 X-17.842 Y-9.233 I.863 J6.149
G01 X-17.997 Y-9.15
G02 X-20.513 Y-7.29 I5.509 J10.087
X-21.107 Y-6.666 I8.025 J8.227 F2500.
X-21.367 Y-6.345 I3.818 J3.365
X-23.626 Y.454 I9.107 J6.799
X-12.261 Y11.819 I11.365 J0.0
G01 X12.877
G02 X24.242 Y.454 I0.0 J-11.365
X20.212 Y-8.227 I-11.365 J0.0
X15.33 Y-10.643 I-7.335 J8.681 F2188.
X14.064 Y-10.849 I-2.454 J11.097 F1875.
X13.282 Y-10.882 I-.782 J9.192
X12.664 Y-10.861 I0.0 J9.226
G01 X12.52 Y-10.851
X11.331 Y-10.759
G02 X9.885 Y-10.473 I.423 J5.943
G01 X4.385
X-12.261 F2500.
Y-18.
Z-.767
G00 Z-.571
X-1.5
G01 Z-.963
Z-1.963 F1000.
Y-12.5
X-14. F2500.
X-19.5 F2188.
X-25. F1875.
Y-7.
Y1.5 F2500.
Y7. F2188.
Y12.5 F1875.
X-19.5
X14. F2500.
X19.5 F2188.
X25. F1875.
Y7.
Y-1.5 F2500.
Y-7. F2188.
Y-12.5 F1875.
X19.5
X-1.5 F2500.
Y-18.
Z-.963
G00 Z-.767
X-12.261
G01 Z-.963
Z-1.963 F1000.
Y-10.487
G02 X-13.782 Y-10.381 I0.0 J10.941 F2500.
G01 X-13.997 Y-10.35
X-14.886 Y-10.206
G02 X-16.582 Y-9.81 I.565 J6.245
X-20.615 Y-7.192 I4.217 J10.913
X-21.367 Y-6.345 I6.482 J6.517
X-23.626 Y.454 I9.107 J6.799
X-12.261 Y11.819 I11.365 J0.0
G01 X12.877
G02 X24.242 Y.454 I0.0 J-11.365
X19.957 Y-8.436 I-11.365 J0.0
X15.008 Y-10.709 I-7.081 J8.89 F2188.
X14.063 Y-10.849 I-2.131 J11.163 F1875.
X13.282 Y-10.882 I-.781 J9.187
X12.664 Y-10.861 I0.0 J9.22
G01 X11.106 Y-10.74
X10.694 Y-10.703
G02 X9.548 Y-10.487 I.533 J5.963
G01 X4.048
X-12.261 F2500.
Y-18.
Z-.963
G00 Z-.767
X-1.5
G01 Z-1.16
Z-2.16 F1000.
Y-12.5
X-14. F2500.
X-19.5 F2188.
X-25. F1875.
Y-7.
Y1.5 F2500.
Y7. F2188.
Y12.5 F1875.
X-19.5
X14. F2500.
X19.5 F2188.
X25. F1875.
Y7.
Y-1.5 F2500.
Y-7. F2188.
Y-12.5 F1875.
X19.5
X-1.5 F2500.
Y-18.
Z-1.16
G00 Z-.963
X-12.259
G01 Z-1.16
Z-2.16 F1000.
X-12.261 Y-10.515
X-12.264 F2500.
G02 X-13.553 Y-10.463 I0.0 J15.985
X-15.109 Y-10.271 I.251 J8.467
X-20.496 Y-7.308 I2.764 J11.402
X-21.367 Y-6.345 I6.362 J6.632
X-23.626 Y.454 I9.107 J6.799
X-12.261 Y11.819 I11.365 J0.0
G01 X12.877
G02 X24.242 Y.454 I0.0 J-11.365
X19.724 Y-8.616 I-11.365 J0.0
X14.718 Y-10.761 I-6.848 J9.07 F2188.
X14.063 Y-10.849 I-1.841 J11.215 F1875.
X13.282 Y-10.882 I-.781 J9.181
X12.664 Y-10.861 I0.0 J9.215
X9.998 Y-10.635 I5.707 J82.945
X9.245 Y-10.515 I.906 J8.119
G01 X3.745
X-12.261 F2500.
Y-18.
Z-1.16
G00 Z-.963
X-1.5
G01 Z-1.356
Z-2.356 F1000.
Y-12.5
X-14. F2500.
X-19.5 F2188.
X-25. F1875.
Y-7.
Y1.5 F2500.
Y7. F2188.
Y12.5 F1875.
X-19.5
X14. F2500.
X19.5 F2188.
X25. F1875.
Y7.
Y-1.5 F2500.
Y-7. F2188.
Y-12.5 F1875.
X19.5
X-1.5 F2500.
Y-18.
Z-1.356
G00 Z-1.16
X-12.245
G01 Z-1.356
Z-2.356 F1000.
X-12.256 Y-10.615
X-12.274 F2500.
G02 X-19.168 Y-8.415 I0.0 J11.905
X-21.183 Y-6.575 I6.509 J9.152
X-21.366 Y-6.347 I3.291 J2.824
X-23.626 Y.454 I9.105 J6.801
X-12.261 Y11.819 I11.365 J0.0
G01 X12.877
G02 X24.242 Y.454 I0.0 J-11.365
X14.063 Y-10.849 I-11.365 J0.0
X13.282 Y-10.882 I-.781 J9.176
X12.664 Y-10.861 I0.0 J9.209
X10.443 Y-10.678 I5.505 J80.305
G01 X10.221 Y-10.656
G03 X9.335 Y-10.615 I-.972 J-11.459
G01 X-12.256
Y-18.
Z-1.356
G00 Z-1.16
X-1.5
G01 Z-1.552
Z-2.552 F1000.
Y-12.5
X-14. F2500.
X-19.5 F2188.
X-25. F1875.
Y-7.
Y1.5 F2500.
Y7. F2188.
Y12.5 F1875.
X-19.5
X14. F2500.
X19.5 F2188.
X25. F1875.
Y7.
Y-1.5 F2500.
Y-7. F2188.
Y-12.5 F1875.
X19.5
X-1.5 F2500.
Y-18.
Z-1.552
G00 Z-1.356
X-12.29
G01 Z-1.552
Z-2.552 F1000.
X-12.261 Y-10.617
G02 X-13.87 Y-10.507 I.05 J12.576 F2500.
X-20.218 Y-7.569 I1.557 J11.691
G01 X-20.496 Y-7.308
G02 X-21.367 Y-6.345 I6.359 J6.629
X-23.626 Y.454 I9.107 J6.799
X-12.261 Y11.819 I11.365 J0.0
G01 X12.877
G02 X24.242 Y.454 I0.0 J-11.365
X14.062 Y-10.849 I-11.365 J0.0
X13.282 Y-10.882 I-.78 J9.17
X12.664 Y-10.861 I0.0 J9.203
X10.282 Y-10.662 I5.493 J80.163
G03 X9.36 Y-10.617 I-.922 J-9.362
G01 X-12.261
Y-18.
Z-1.552
G00 Z-1.356
X-1.5
G01 Z-1.749
Z-2.749 F1000.
Y-12.5
X-14. F2500.
X-19.5 F2188.
X-25. F1875.
Y-7.
Y1.5 F2500.
Y7. F2188.
Y12.5 F1875.
X-19.5
X14. F2500.
X19.5 F2188.
X25. F1875.
Y7.
Y-1.5 F2500.
Y-7. F2188.
Y-12.5 F1875.
X19.5
X-1.5 F2500.
Y-18.
Z-1.749
G00 Z-1.552
X-12.29
G01 Z-1.749
Z-2.749 F1000.
X-12.261 Y-10.617
G02 X-13.87 Y-10.507 I.05 J12.575 F2500.
X-20.218 Y-7.569 I1.556 J11.691
G01 X-20.496 Y-7.308
G02 X-21.367 Y-6.345 I6.357 J6.627
X-23.626 Y.454 I9.107 J6.799
X-12.261 Y11.819 I11.365 J0.0
G01 X12.877
G02 X24.242 Y.454 I0.0 J-11.365
X14.062 Y-10.849 I-11.365 J0.0
X13.282 Y-10.882 I-.78 J9.165
X12.664 Y-10.861 I0.0 J9.198
X10.28 Y-10.662 I5.53 J80.601
G03 X9.361 Y-10.617 I-.92 J-9.344
G01 X-12.261
Y-18.
Z-1.749
G00 Z-1.552
X-1.5
G01 Z-1.945
Z-2.945 F1000.
Y-12.5
X-14. F2500.
X-19.5 F2188.
X-25. F1875.
Y-7.
Y1.5 F2500.
Y7. F2188.
Y12.5 F1875.
X-19.5
X14. F2500.
X19.5 F2188.
X25. F1875.
Y7.
Y-1.5 F2500.
Y-7. F2188.
Y-12.5 F1875.
X19.5
X-1.5 F2500.
Y-18.
Z-1.945
G00 Z-1.749
X-12.29
G01 Z-1.945
Z-2.945 F1000.
X-12.261 Y-10.617
G02 X-13.869 Y-10.507 I.05 J12.574 F2500.
X-20.218 Y-7.569 I1.555 J11.691
G01 X-20.496 Y-7.308
G02 X-21.367 Y-6.345 I6.356 J6.626
X-23.626 Y.454 I9.107 J6.799
X-12.261 Y11.819 I11.365 J0.0
G01 X12.877
G02 X24.242 Y.454 I0.0 J-11.365
X14.062 Y-10.849 I-11.365 J0.0
X13.282 Y-10.882 I-.78 J9.159
X12.664 Y-10.861 I0.0 J9.192
X10.28 Y-10.662 I5.518 J80.458
G03 X9.361 Y-10.617 I-.919 J-9.331
G01 X-12.261
Y-18.
Z-1.945
G00 Z-1.749
X-1.5
G01 Z-2.141
Z-3.141 F1000.
Y-12.5
X-14. F2500.
X-19.5 F2188.
X-25. F1875.
Y-7.
Y1.5 F2500.
Y7. F2188.
Y12.5 F1875.
X-19.5
X14. F2500.
X19.5 F2188.
X25. F1875.
Y7.
Y-1.5 F2500.
Y-7. F2188.
Y-12.5 F1875.
X19.5
X-1.5 F2500.
Y-18.
Z-2.141
G00 Z-1.945
X-12.29
G01 Z-2.141
Z-3.141 F1000.
X-12.261 Y-10.617
G02 X-13.868 Y-10.507 I.05 J12.572 F2500.
X-20.218 Y-7.569 I1.554 J11.691
G01 X-20.496 Y-7.308
G02 X-21.367 Y-6.345 I6.354 J6.624
X-23.626 Y.454 I9.107 J6.799
X-12.261 Y11.819 I11.365 J0.0
G01 X12.877
G02 X24.242 Y.454 I0.0 J-11.365
X14.062 Y-10.849 I-11.365 J0.0
X13.282 Y-10.882 I-.779 J9.154
X12.664 Y-10.861 I0.0 J9.187
X10.283 Y-10.662 I5.507 J80.316
G03 X9.358 Y-10.617 I-.925 J-9.393
G01 X-12.261
Y-18.
Z-2.141
G00 Z-1.945
X-1.5
G01 Z-2.338
Z-3.338 F1000.
Y-12.5
X-14. F2500.
X-19.5 F2188.
X-25. F1875.
Y-7.
Y1.5 F2500.
Y7. F2188.
Y12.5 F1875.
X-19.5
X14. F2500.
X19.5 F2188.
X25. F1875.
Y7.
Y-1.5 F2500.
Y-7. F2188.
Y-12.5 F1875.
X19.5
X-1.5 F2500.
Y-18.
Z-2.338
G00 Z-2.141
X-12.29
G01 Z-2.338
Z-3.338 F1000.
X-12.261 Y-10.617
G02 X-13.867 Y-10.507 I.049 J12.571 F2500.
X-20.218 Y-7.569 I1.554 J11.691
G01 X-20.496 Y-7.308
G02 X-21.367 Y-6.345 I6.353 J6.623
X-23.626 Y.454 I9.107 J6.799
X-12.261 Y11.819 I11.365 J0.0
G01 X12.877
G02 X24.242 Y.454 I0.0 J-11.365
X14.061 Y-10.849 I-11.365 J0.0
X13.282 Y-10.882 I-.779 J9.148
X12.664 Y-10.861 I0.0 J9.181
X10.283 Y-10.662 I5.495 J80.174
G03 X9.359 Y-10.617 I-.924 J-9.385
G01 X-12.261
Y-18.
Z-2.338
G00 Z-2.141
X-1.5
G01 Z-2.534
Z-3.534 F1000.
Y-12.5
X-14. F2500.
X-19.5 F2188.
X-25. F1875.
Y-7.
Y1.5 F2500.
Y7. F2188.
Y12.5 F1875.
X-19.5
X14. F2500.
X19.5 F2188.
X25. F1875.
Y7.
Y-1.5 F2500.
Y-7. F2188.
Y-12.5 F1875.
X19.5
X-1.5 F2500.
Y-18.
Z-2.534
G00 Z-2.338
X-12.29
G01 Z-2.534
Z-3.534 F1000.
X-12.261 Y-10.617
G02 X-13.867 Y-10.508 I.049 J12.569 F2500.
X-20.218 Y-7.569 I1.553 J11.691
G01 X-20.496 Y-7.308
G02 X-21.367 Y-6.345 I6.351 J6.621
X-23.626 Y.454 I9.107 J6.799
X-12.261 Y11.819 I11.365 J0.0
G01 X12.877
G02 X24.242 Y.454 I0.0 J-11.365
X14.061 Y-10.849 I-11.365 J0.0
X13.282 Y-10.882 I-.779 J9.143
X12.664 Y-10.861 I0.0 J9.176
X10.283 Y-10.662 I5.483 J80.033
G03 X9.359 Y-10.617 I-.924 J-9.381
G01 X-12.261
Y-18.
Z-2.534
G00 Z-2.338
X-1.5
G01 Z-2.731
Z-3.731 F1000.
Y-12.5
X-14. F2500.
X-19.5 F2188.
X-25. F1875.
Y-7.
Y1.5 F2500.
Y7. F2188.
Y12.5 F1875.
X-19.5
X14. F2500.
X19.5 F2188.
X25. F1875.
Y7.
Y-1.5 F2500.
Y-7. F2188.
Y-12.5 F1875.
X19.5
X-1.5 F2500.
Y-18.
Z-2.731
G00 Z-2.534
X-12.29
G01 Z-2.731
Z-3.731 F1000.
X-12.261 Y-10.617
G02 X-13.866 Y-10.508 I.049 J12.568 F2500.
X-20.218 Y-7.569 I1.552 J11.691
G01 X-20.497 Y-7.308
G02 X-21.367 Y-6.345 I6.35 J6.62
X-23.626 Y.454 I9.107 J6.799
X-12.261 Y11.819 I11.365 J0.0
G01 X12.877
G02 X24.242 Y.454 I0.0 J-11.365
X14.061 Y-10.849 I-11.365 J0.0
X13.282 Y-10.882 I-.778 J9.137
X12.664 Y-10.861 I0.0 J9.17
X10.282 Y-10.662 I5.52 J80.469
G03 X9.359 Y-10.617 I-.923 J-9.375
G01 X-12.261
Y-18.
Z-2.731
G00 Z-2.534
X-1.5
G01 Z-2.927
Z-3.927 F1000.
Y-12.5
X-14. F2500.
X-19.5 F2188.
X-25. F1875.
Y-7.
Y1.5 F2500.
Y7. F2188.
Y12.5 F1875.
X-19.5
X14. F2500.
X19.5 F2188.
X25. F1875.
Y7.
Y-1.5 F2500.
Y-7. F2188.
Y-12.5 F1875.
X19.5
X-1.5 F2500.
Y-18.
Z-2.927
G00 Z-2.731
X-12.289
G01 Z-2.927
Z-3.927 F1000.
X-12.261 Y-10.617
G02 X-13.865 Y-10.508 I.049 J12.567 F2500.
X-20.218 Y-7.569 I1.552 J11.691
G01 X-20.497 Y-7.308
G02 X-21.367 Y-6.345 I6.348 J6.618
X-23.626 Y.454 I9.107 J6.799
X-12.261 Y11.819 I11.365 J0.0
G01 X12.877
G02 X24.242 Y.454 I0.0 J-11.365
X14.06 Y-10.849 I-11.365 J0.0
X13.282 Y-10.882 I-.778 J9.131
X12.664 Y-10.861 I0.0 J9.164
X10.282 Y-10.662 I5.508 J80.327
G03 X9.359 Y-10.617 I-.923 J-9.377
G01 X-12.261
Y-18.
Z-2.927
G00 Z-2.731
X-1.5
G01 Z-3.123
Z-4.123 F1000.
Y-12.5
X-14. F2500.
X-19.5 F2188.
X-25. F1875.
Y-7.
Y1.5 F2500.
Y7. F2188.
Y12.5 F1875.
X-19.5
X14. F2500.
X19.5 F2188.
X25. F1875.
Y7.
Y-1.5 F2500.
Y-7. F2188.
Y-12.5 F1875.
X19.5
X-1.5 F2500.
Y-18.
Z-3.123
G00 Z-2.927
X-12.289
G01 Z-3.123
Z-4.123 F1000.
X-12.261 Y-10.617
G02 X-13.865 Y-10.508 I.049 J12.565 F2500.
X-20.218 Y-7.569 I1.551 J11.691
G01 X-20.497 Y-7.308
G02 X-21.367 Y-6.345 I6.347 J6.617
X-23.626 Y.454 I9.107 J6.799
X-12.261 Y11.819 I11.365 J0.0
G01 X12.877
G02 X24.242 Y.454 I0.0 J-11.365
X14.06 Y-10.849 I-11.365 J0.0
X13.282 Y-10.882 I-.778 J9.126
X12.664 Y-10.861 I0.0 J9.159
X10.282 Y-10.662 I5.496 J80.185
G03 X9.36 Y-10.617 I-.923 J-9.368
G01 X-12.261
Y-18.
Z-3.123
G00 Z-2.927
X-1.5
G01 Z-3.32
Z-4.32 F1000.
Y-12.5
X-14. F2500.
X-19.5 F2188.
X-25. F1875.
Y-7.
Y1.5 F2500.
Y7. F2188.
Y12.5 F1875.
X-19.5
X14. F2500.
X19.5 F2188.
X25. F1875.
Y7.
Y-1.5 F2500.
Y-7. F2188.
Y-12.5 F1875.
X19.5
X-1.5 F2500.
Y-18.
Z-3.32
G00 Z-3.123
X-12.289
G01 Z-3.32
Z-4.32 F1000.
X-12.261 Y-10.617
G02 X-13.864 Y-10.508 I.048 J12.564 F2500.
X-20.218 Y-7.569 I1.55 J11.691
G01 X-20.497 Y-7.308
G02 X-21.367 Y-6.345 I6.345 J6.615
X-23.626 Y.454 I9.107 J6.799
X-12.261 Y11.819 I11.365 J0.0
G01 X12.877
G02 X24.242 Y.454 I0.0 J-11.365
X14.06 Y-10.849 I-11.365 J0.0
X13.282 Y-10.882 I-.777 J9.12
X12.664 Y-10.861 I0.0 J9.153
X10.283 Y-10.662 I5.494 J80.151
G03 X9.359 Y-10.617 I-.924 J-9.381
G01 X-12.261
Y-18.
Z-3.32
G00 Z-3.123
X-1.5
G01 Z-3.516
Z-4.516 F1000.
Y-12.5
X-14. F2500.
X-19.5 F2188.
X-25. F1875.
Y-7.
Y1.5 F2500.
Y7. F2188.
Y12.5 F1875.
X-19.5
X14. F2500.
X19.5 F2188.
X25. F1875.
Y7.
Y-1.5 F2500.
Y-7. F2188.
Y-12.5 F1875.
X19.5
X-1.5 F2500.
Y-18.
Z-3.516
G00 Z-3.32
X-12.289
G01 Z-3.516
Z-4.516 F1000.
X-12.261 Y-10.617
G02 X-13.863 Y-10.508 I.048 J12.562 F2500.
X-20.218 Y-7.569 I1.55 J11.691
G01 X-20.497 Y-7.308
G02 X-21.367 Y-6.345 I6.344 J6.614
X-23.626 Y.454 I9.107 J6.799
X-12.261 Y11.819 I11.365 J0.0
G01 X12.877
G02 X24.242 Y.454 I0.0 J-11.365
X14.059 Y-10.849 I-11.365 J0.0
X13.282 Y-10.882 I-.777 J9.115
X12.664 Y-10.861 I0.0 J9.148
X10.284 Y-10.662 I5.491 J80.121
G03 X9.358 Y-10.617 I-.925 J-9.395
G01 X-12.261
Y-18.
Z-3.516
G00 Z-3.32
X-1.5
G01 Z-3.712
Z-4.712 F1000.
Y-12.5
X-14. F2500.
X-19.5 F2188.
X-25. F1875.
Y-7.
Y1.5 F2500.
Y7. F2188.
Y12.5 F1875.
X-19.5
X14. F2500.
X19.5 F2188.
X25. F1875.
Y7.
Y-1.5 F2500.
Y-7. F2188.
Y-12.5 F1875.
X19.5
X-1.5 F2500.
Y-18.
Z-3.712
G00 Z-3.516
X-12.289
G01 Z-3.712
Z-4.712 F1000.
X-12.261 Y-10.617
G02 X-13.863 Y-10.508 I.048 J12.561 F2500.
X-20.218 Y-7.569 I1.549 J11.692
G01 X-20.497 Y-7.308
G02 X-21.367 Y-6.345 I6.342 J6.612
X-23.626 Y.454 I9.107 J6.799
X-12.261 Y11.819 I11.365 J0.0
G01 X12.877
G02 X24.242 Y.454 I0.0 J-11.365
X14.059 Y-10.849 I-11.365 J0.0
X13.282 Y-10.882 I-.777 J9.109
X12.664 Y-10.861 I0.0 J9.142
X10.286 Y-10.663 I5.341 J78.301
G03 X9.36 Y-10.617 I-.926 J-9.363
G01 X-12.261
Y-18.
Z-3.712
G00 Z-3.516
X-1.5
G01 Z-3.909
Z-4.909 F1000.
Y-12.5
X-14. F2500.
X-19.5 F2188.
X-25. F1875.
Y-7.
Y1.5 F2500.
Y7. F2188.
Y12.5 F1875.
X-19.5
X14. F2500.
X19.5 F2188.
X25. F1875.
Y7.
Y-1.5 F2500.
Y-7. F2188.
Y-12.5 F1875.
X19.5
X-1.5 F2500.
Y-18.
Z-3.909
G00 Z-3.712
X-12.289
G01 Z-3.909
Z-4.909 F1000.
X-12.261 Y-10.617
G02 X-13.862 Y-10.508 I.048 J12.56 F2500.
X-20.218 Y-7.569 I1.548 J11.692
G01 X-20.497 Y-7.308
G02 X-21.367 Y-6.345 I6.341 J6.611
X-23.626 Y.454 I9.107 J6.799
X-12.261 Y11.819 I11.365 J0.0
G01 X12.877
G02 X24.242 Y.454 I0.0 J-11.365
X14.059 Y-10.849 I-11.365 J0.0
X13.282 Y-10.882 I-.776 J9.104
X12.664 Y-10.861 I0.0 J9.137
X10.286 Y-10.663 I5.343 J78.313
G03 X9.36 Y-10.617 I-.927 J-9.376
G01 X-12.261
Y-18.
Z-3.909
G00 Z-3.712
X-1.5
G01 Z-4.105
Z-5.105 F1000.
Y-12.5
X-14. F2500.
X-19.5 F2188.
X-25. F1875.
Y-7.
Y1.5 F2500.
Y7. F2188.
Y12.5 F1875.
X-19.5
X14. F2500.
X19.5 F2188.
X25. F1875.
Y7.
Y-1.5 F2500.
Y-7. F2188.
Y-12.5 F1875.
X19.5
X-1.5 F2500.
Y-18.
Z-4.105
G00 Z-3.909
X-12.289
G01 Z-4.105
Z-5.105 F1000.
X-12.261 Y-10.617
G02 X-13.861 Y-10.508 I.047 J12.558 F2500.
X-20.218 Y-7.569 I1.547 J11.692
G01 X-20.497 Y-7.308
G02 X-21.367 Y-6.345 I6.339 J6.609
X-23.626 Y.454 I9.107 J6.799
X-12.261 Y11.819 I11.365 J0.0
G01 X12.877
G02 X24.242 Y.454 I0.0 J-11.365
X14.059 Y-10.849 I-11.365 J0.0
X13.282 Y-10.882 I-.776 J9.096
X12.664 Y-10.861 I0.0 J9.129
X10.287 Y-10.663 I5.344 J78.325
G03 X9.359 Y-10.617 I-.928 J-9.39
G01 X-12.261
Y-18.
Z-4.105
G00 Z-3.909
X-1.5
G01 Z-4.301
Z-5.301 F1000.
Y-12.5
X-14. F2500.
X-19.5 F2188.
X-25. F1875.
Y-7.
Y1.5 F2500.
Y7. F2188.
Y12.5 F1875.
X-19.5
X14. F2500.
X19.5 F2188.
X25. F1875.
Y7.
Y-1.5 F2500.
Y-7. F2188.
Y-12.5 F1875.
X19.5
X-1.5 F2500.
Y-18.
Z-4.301
G00 Z-4.105
X-12.289
G01 Z-4.301
Z-5.301 F1000.
X-12.261 Y-10.617
G02 X-13.86 Y-10.509 I.047 J12.557 F2500.
X-20.218 Y-7.569 I1.547 J11.692
G01 X-20.497 Y-7.308
G02 X-21.367 Y-6.345 I6.338 J6.608
X-23.626 Y.454 I9.107 J6.799
X-12.261 Y11.819 I11.365 J0.0
G01 X12.877
G02 X24.242 Y.454 I0.0 J-11.365
X14.059 Y-10.849 I-11.365 J0.0
X13.282 Y-10.882 I-.776 J9.089
X12.664 Y-10.861 I0.0 J9.122
X10.287 Y-10.663 I5.345 J78.337
G03 X9.358 Y-10.617 I-.929 J-9.403
G01 X-12.261
Y-18.
Z-4.301
G00 Z-4.105
X-1.5
G01 Z-4.498
Z-5.498 F1000.
Y-12.5
X-14. F2500.
X-19.5 F2188.
X-25. F1875.
Y-7.
Y1.5 F2500.
Y7. F2188.
Y12.5 F1875.
X-19.5
X14. F2500.
X19.5 F2188.
X25. F1875.
Y7.
Y-1.5 F2500.
Y-7. F2188.
Y-12.5 F1875.
X19.5
X-1.5 F2500.
Y-18.
Z-4.498
G00 Z-4.301
X-12.288
G01 Z-4.498
Z-5.498 F1000.
X-12.261 Y-10.617
G02 X-13.868 Y-10.508 I.047 J12.556 F2500.
X-20.218 Y-7.569 I1.554 J11.689
G01 X-20.497 Y-7.308
G02 X-21.367 Y-6.345 I6.336 J6.606
X-23.626 Y.454 I9.107 J6.799
X-12.261 Y11.819 I11.365 J0.0
G01 X12.877
G02 X24.242 Y.454 I0.0 J-11.365
X14.059 Y-10.849 I-11.365 J0.0
X13.283 Y-10.882 I-.776 J9.081
X12.664 Y-10.861 I0.0 J9.115
X10.285 Y-10.663 I5.346 J78.35
G03 X9.361 Y-10.617 I-.925 J-9.353
G01 X-12.261
Y-18.
Z-4.498
G00 Z-4.301
X-1.5
G01 Z-4.694
Z-5.694 F1000.
Y-12.5
X-14. F2500.
X-19.5 F2188.
X-25. F1875.
Y-7.
Y1.5 F2500.
Y7. F2188.
Y12.5 F1875.
X-19.5
X14. F2500.
X19.5 F2188.
X25. F1875.
Y7.
Y-1.5 F2500.
Y-7. F2188.
Y-12.5 F1875.
X19.5
X-1.5 F2500.
Y-18.
Z-4.694
G00 Z-4.498
X-12.288
G01 Z-4.694
Z-5.694 F1000.
X-12.261 Y-10.617
G02 X-13.868 Y-10.508 I.047 J12.554 F2500.
X-20.218 Y-7.569 I1.553 J11.689
G01 X-20.497 Y-7.308
G02 X-21.367 Y-6.345 I6.335 J6.605
X-23.626 Y.454 I9.107 J6.799
X-12.261 Y11.819 I11.365 J0.0
G01 X12.877
G02 X24.242 Y.454 I0.0 J-11.365
X14.059 Y-10.849 I-11.365 J0.0
X13.283 Y-10.882 I-.776 J9.074
X12.664 Y-10.861 I0.0 J9.107
X10.286 Y-10.663 I5.347 J78.362
G03 X9.36 Y-10.617 I-.926 J-9.368
G01 X-12.261
Y-18.
Z-4.694
G00 Z-4.498
X-1.5
G01 Z-4.89
Z-5.89 F1000.
Y-12.5
X-14. F2500.
X-19.5 F2188.
X-25. F1875.
Y-7.
Y1.5 F2500.
Y7. F2188.
Y12.5 F1875.
X-19.5
X14. F2500.
X19.5 F2188.
X25. F1875.
Y7.
Y-1.5 F2500.
Y-7. F2188.
Y-12.5 F1875.
X19.5
X-1.5 F2500.
Y-18.
Z-4.89
G00 Z-4.694
X-12.283
G01 Z-4.89
Z-5.89 F1000.
X-12.261 Y-10.617
G02 X-14.488 Y-10.408 I.038 J12.382 F2500.
X-20.218 Y-7.569 I2.18 J11.604
G01 X-20.497 Y-7.308
G02 X-21.367 Y-6.345 I6.333 J6.603
X-23.626 Y.454 I9.107 J6.799
X-12.261 Y11.819 I11.365 J0.0
G01 X12.877
G02 X24.242 Y.454 I0.0 J-11.365
X14.059 Y-10.849 I-11.365 J0.0
X13.283 Y-10.882 I-.776 J9.067
X12.664 Y-10.861 I0.0 J9.1
X10.287 Y-10.663 I5.348 J78.374
G03 X9.359 Y-10.617 I-.928 J-9.389
G01 X-12.261
Y-18.
Z-4.89
G00 Z-4.694
X-1.5
G01 Z-5.087
Z-6.087 F1000.
Y-12.5
X-14. F2500.
X-19.5 F2188.
X-25. F1875.
Y-7.
Y1.5 F2500.
Y7. F2188.
Y12.5 F1875.
X-19.5
X14. F2500.
X19.5 F2188.
X25. F1875.
Y7.
Y-1.5 F2500.
Y-7. F2188.
Y-12.5 F1875.
X19.5
X-1.5 F2500.
Y-18.
Z-5.087
G00 Z-4.89
X-12.283
G01 Z-5.087
Z-6.087 F1000.
X-12.261 Y-10.617
G02 X-14.488 Y-10.408 I.038 J12.379 F2500.
X-20.218 Y-7.569 I2.18 J11.604
G01 X-20.497 Y-7.308
G02 X-21.367 Y-6.345 I6.332 J6.602
X-23.626 Y.454 I9.107 J6.799
X-12.261 Y11.819 I11.365 J0.0
G01 X12.877
G02 X24.242 Y.454 I0.0 J-11.365
X14.059 Y-10.849 I-11.365 J0.0
X13.283 Y-10.882 I-.776 J9.059
X12.664 Y-10.861 I0.0 J9.092
X10.285 Y-10.662 I5.349 J78.387
G03 X9.361 Y-10.617 I-.924 J-9.348
G01 X-12.261
Y-18.
Z-5.087
G00 Z-4.89
X-1.5
G01 Z-5.283
Z-6.283 F1000.
Y-12.5
X-14. F2500.
X-19.5 F2188.
X-25. F1875.
Y-7.
Y1.5 F2500.
Y7. F2188.
Y12.5 F1875.
X-19.5
X14. F2500.
X19.5 F2188.
X25. F1875.
Y7.
Y-1.5 F2500.
Y-7. F2188.
Y-12.5 F1875.
X19.5
X-1.5 F2500.
Y-18.
Z-5.283
G00 Z-5.087
X-12.283
G01 Z-5.283
Z-6.283 F1000.
X-12.261 Y-10.617
G02 X-14.488 Y-10.408 I.037 J12.376 F2500.
X-20.218 Y-7.569 I2.18 J11.603
G01 X-20.497 Y-7.308
G02 X-21.367 Y-6.345 I6.331 J6.6
X-23.626 Y.454 I9.107 J6.799
X-12.261 Y11.819 I11.365 J0.0
G01 X12.877
G02 X24.242 Y.454 I0.0 J-11.365
X14.059 Y-10.849 I-11.365 J0.0
X13.283 Y-10.882 I-.776 J9.052
X12.664 Y-10.861 I0.0 J9.085
X10.294 Y-10.663 I5.205 J76.582
G03 X9.358 Y-10.617 I-.935 J-9.431
G01 X-12.261
Y-18.
Z-5.283
G00 Z-5.087
X-1.5
G01 Z-5.479
Z-6.479 F1000.
Y-12.5
X-14. F2500.
X-19.5 F2188.
X-25. F1875.
Y-7.
Y1.5 F2500.
Y7. F2188.
Y12.5 F1875.
X-19.5
X14. F2500.
X19.5 F2188.
X25. F1875.
Y7.
Y-1.5 F2500.
Y-7. F2188.
Y-12.5 F1875.
X19.5
X-1.5 F2500.
Y-18.
Z-5.479
G00 Z-5.283
X-12.283
G01 Z-5.479
Z-6.479 F1000.
X-12.261 Y-10.617
G02 X-14.488 Y-10.408 I.037 J12.372 F2500.
X-20.218 Y-7.569 I2.179 J11.603
G01 X-20.497 Y-7.308
G02 X-21.367 Y-6.345 I6.329 J6.599
X-23.626 Y.454 I9.107 J6.799
X-12.261 Y11.819 I11.365 J0.0
G01 X12.877
G02 X24.242 Y.454 I0.0 J-11.365
X14.059 Y-10.849 I-11.365 J0.0
X13.283 Y-10.882 I-.776 J9.044
X12.664 Y-10.861 I0.0 J9.078
X10.289 Y-10.663 I5.218 J76.749
G03 X9.362 Y-10.617 I-.928 J-9.353
G01 X-12.261
Y-18.
Z-5.479
G00 Z-5.283
X-1.5
G01 Z-5.676
Z-6.676 F1000.
Y-12.5
X-14. F2500.
X-19.5 F2188.
X-25. F1875.
Y-7.
Y1.5 F2500.
Y7. F2188.
Y12.5 F1875.
X-19.5
X14. F2500.
X19.5 F2188.
X25. F1875.
Y7.
Y-1.5 F2500.
Y-7. F2188.
Y-12.5 F1875.
X19.5
X-1.5 F2500.
Y-18.
Z-5.676
G00 Z-5.479
X-12.283
G01 Z-5.676
Z-6.676 F1000.
X-12.261 Y-10.617
G02 X-14.488 Y-10.408 I.037 J12.369 F2500.
X-20.218 Y-7.569 I2.179 J11.603
G01 X-20.497 Y-7.308
G02 X-21.367 Y-6.345 I6.328 J6.597
X-23.626 Y.454 I9.107 J6.799
X-12.261 Y11.819 I11.365 J0.0
G01 X12.877
G02 X24.242 Y.454 I0.0 J-11.365
X14.059 Y-10.849 I-11.365 J0.0
X13.283 Y-10.882 I-.776 J9.037
X12.664 Y-10.861 I0.0 J9.07
X10.289 Y-10.663 I5.271 J77.403
G03 X9.361 Y-10.617 I-.928 J-9.365
G01 X-12.261
Y-18.
Z-5.676
G00 Z-5.479
X-1.5
G01 Z-5.872
Z-6.872 F1000.
Y-12.5
X-14. F2500.
X-19.5 F2188.
X-25. F1875.
Y-7.
Y1.5 F2500.
Y7. F2188.
Y12.5 F1875.
X-19.5
X14. F2500.
X19.5 F2188.
X25. F1875.
Y7.
Y-1.5 F2500.
Y-7. F2188.
Y-12.5 F1875.
X19.5
X-1.5 F2500.
Y-18.
Z-5.872
G00 Z-5.676
X-12.282
G01 Z-5.872
Z-6.872 F1000.
X-12.261 Y-10.617
G02 X-14.488 Y-10.408 I.036 J12.366 F2500.
X-20.218 Y-7.569 I2.179 J11.603
G01 X-20.497 Y-7.308
G02 X-21.367 Y-6.345 I6.326 J6.596
X-23.626 Y.454 I9.107 J6.799
X-12.261 Y11.819 I11.365 J0.0
G01 X12.877
G02 X24.242 Y.454 I0.0 J-11.365
X14.059 Y-10.849 I-11.365 J0.0
X13.286 Y-10.883 I-.773 J8.891
X12.687 Y-10.862 I0.0 J8.924
X10.289 Y-10.663 I5.114 J75.942
G03 X9.361 Y-10.617 I-.928 J-9.355
G01 X-12.261
Y-18.
Z-5.872
G00 Z-5.676
X-1.5
G01 Z-6.068
Z-7.068 F1000.
Y-12.5
X-14. F2500.
X-19.5 F2188.
X-25. F1875.
Y-7.
Y1.5 F2500.
Y7. F2188.
Y12.5 F1875.
X-19.5
X14. F2500.
X19.5 F2188.
X25. F1875.
Y7.
Y-1.5 F2500.
Y-7. F2188.
Y-12.5 F1875.
X19.5
X-1.5 F2500.
Y-18.
Z-6.068
G00 Z-5.872
X-12.282
G01 Z-6.068
Z-7.068 F1000.
X-12.261 Y-10.617
G02 X-14.488 Y-10.408 I.036 J12.362 F2500.
X-20.218 Y-7.569 I2.179 J11.603
G01 X-20.497 Y-7.308
G02 X-21.367 Y-6.345 I6.325 J6.594
X-23.626 Y.454 I9.107 J6.799
X-12.261 Y11.819 I11.365 J0.0
G01 X12.877
G02 X24.242 Y.454 I0.0 J-11.365
X14.059 Y-10.849 I-11.365 J0.0
X13.286 Y-10.883 I-.772 J8.883
X12.687 Y-10.862 I0.0 J8.916
X10.288 Y-10.663 I5.125 J76.089
G03 X9.36 Y-10.617 I-.928 J-9.359
G01 X-12.261
Y-18.
Z-6.068
G00 Z-5.872
X-1.5
G01 Z-6.265
Z-7.265 F1000.
Y-12.5
X-14. F2500.
X-19.5 F2188.
X-25. F1875.
Y-7.
Y1.5 F2500.
Y7. F2188.
Y12.5 F1875.
X-19.5
X14. F2500.
X19.5 F2188.
X25. F1875.
Y7.
Y-1.5 F2500.
Y-7. F2188.
Y-12.5 F1875.
X19.5
X-1.5 F2500.
Y-18.
Z-6.265
G00 Z-6.068
X-12.282
G01 Z-6.265
Z-7.265 F1000.
X-12.261 Y-10.617
G02 X-14.488 Y-10.408 I.036 J12.359 F2500.
X-20.218 Y-7.569 I2.179 J11.602
G01 X-20.497 Y-7.308
G02 X-21.367 Y-6.345 I6.323 J6.593
X-23.626 Y.454 I9.107 J6.799
X-12.261 Y11.819 I11.365 J0.0
G01 X12.877
G02 X24.242 Y.454 I0.0 J-11.365
X14.059 Y-10.849 I-11.365 J0.0
X13.283 Y-10.882 I-.776 J9.015
X12.664 Y-10.861 I0.0 J9.048
X10.286 Y-10.663 I5.366 J78.572
G03 X9.359 Y-10.617 I-.928 J-9.389
G01 X-12.261
Y-18.
Z-6.265
G00 Z-6.068
X-1.5
G01 Z-6.461
Z-7.461 F1000.
Y-12.5
X-14. F2500.
X-19.5 F2188.
X-25. F1875.
Y-7.
Y1.5 F2500.
Y7. F2188.
Y12.5 F1875.
X-19.5
X14. F2500.
X19.5 F2188.
X25. F1875.
Y7.
Y-1.5 F2500.
Y-7. F2188.
Y-12.5 F1875.
X19.5
X-1.5 F2500.
Y-18.
Z-6.461
G00 Z-6.265
X-12.282
G01 Z-6.461
Z-7.461 F1000.
X-12.261 Y-10.617
G02 X-14.488 Y-10.408 I.035 J12.356 F2500.
X-20.218 Y-7.569 I2.179 J11.602
G01 X-20.497 Y-7.308
G02 X-21.367 Y-6.345 I6.322 J6.591
X-23.626 Y.454 I9.107 J6.799
X-12.261 Y11.819 I11.365 J0.0
G01 X12.877
G02 X24.242 Y.454 I0.0 J-11.365
X14.059 Y-10.849 I-11.365 J0.0
X13.283 Y-10.882 I-.776 J9.007
X12.664 Y-10.861 I0.0 J9.041
X10.286 Y-10.663 I5.38 J78.743
G03 X9.358 Y-10.617 I-.928 J-9.394
G01 X-12.261
Y-18.
Z-6.461
G00 Z-6.265
X-1.5
G01 Z-6.657
Z-7.657 F1000.
Y-12.5
X-14. F2500.
X-19.5 F2188.
X-25. F1875.
Y-7.
Y1.5 F2500.
Y7. F2188.
Y12.5 F1875.
X-19.5
X14. F2500.
X19.5 F2188.
X25. F1875.
Y7.
Y-1.5 F2500.
Y-7. F2188.
Y-12.5 F1875.
X19.5
X-1.5 F2500.
Y-18.
Z-6.657
G00 Z-6.461
X-12.282
G01 Z-6.657
Z-7.657 F1000.
X-12.261 Y-10.617
G02 X-14.488 Y-10.408 I.035 J12.352 F2500.
X-20.218 Y-7.569 I2.179 J11.602
G01 X-20.497 Y-7.308
G02 X-21.367 Y-6.345 I6.32 J6.59
X-23.626 Y.454 I9.107 J6.799
X-12.261 Y11.819 I11.365 J0.0
G01 X12.877
G02 X24.242 Y.454 I0.0 J-11.365
X14.059 Y-10.849 I-11.365 J0.0
X13.283 Y-10.882 I-.776 J9.
X12.664 Y-10.861 I0.0 J9.034
X10.282 Y-10.662 I5.393 J78.916
G03 X9.361 Y-10.617 I-.921 J-9.321
G01 X-12.261
Y-18.
Z-6.657
G00 Z-6.461
X-1.5
G01 Z-6.854
Z-7.854 F1000.
Y-12.5
X-14. F2500.
X-19.5 F2188.
X-25. F1875.
Y-7.
Y1.5 F2500.
Y7. F2188.
Y12.5 F1875.
X-19.5
X14. F2500.
X19.5 F2188.
X25. F1875.
Y7.
Y-1.5 F2500.
Y-7. F2188.
Y-12.5 F1875.
X19.5
X-1.5 F2500.
Y-18.
Z-6.854
G00 Z-6.657
X-12.281
G01 Z-6.854
Z-7.854 F1000.
X-12.261 Y-10.617
G02 X-14.488 Y-10.408 I.035 J12.349 F2500.
X-20.218 Y-7.569 I2.179 J11.602
G01 X-20.497 Y-7.308
G02 X-21.367 Y-6.345 I6.315 J6.585
X-23.626 Y.454 I9.107 J6.799
X-12.261 Y11.819 I11.365 J0.0
G01 X12.877
G02 X24.242 Y.454 I0.0 J-11.365
X14.059 Y-10.849 I-11.365 J0.0
X13.283 Y-10.883 I-.776 J8.993
X12.664 Y-10.861 I0.0 J9.026
X10.282 Y-10.662 I5.426 J79.336
G03 X9.358 Y-10.617 I-.924 J-9.369
G01 X-12.261
Y-18.
Z-6.854
G00 Z-6.657
X-1.5
G01 Z-7.05
Z-8.05 F1000.
Y-12.5
X-14. F2500.
X-19.5 F2188.
X-25. F1875.
Y-7.
Y1.5 F2500.
Y7. F2188.
Y12.5 F1875.
X-19.5
X14. F2500.
X19.5 F2188.
X25. F1875.
Y7.
Y-1.5 F2500.
Y-7. F2188.
Y-12.5 F1875.
X19.5
X-1.5 F2500.
Y-18.
Z-7.05
G00 Z-6.854
X-12.281
G01 Z-7.05
Z-8.05 F1000.
X-12.261 Y-10.617
G02 X-14.488 Y-10.408 I.034 J12.346 F2500.
X-20.218 Y-7.569 I2.179 J11.602
G01 X-20.497 Y-7.308
G02 X-21.367 Y-6.345 I6.31 J6.58
X-23.626 Y.454 I9.107 J6.799
X-12.261 Y11.819 I11.365 J0.0
G01 X12.877
G02 X24.242 Y.454 I0.0 J-11.365
X14.059 Y-10.849 I-11.365 J0.0
X13.283 Y-10.883 I-.776 J8.986
X12.664 Y-10.861 I0.0 J9.019
X10.28 Y-10.662 I5.46 J79.774
G03 X9.359 Y-10.617 I-.921 J-9.342
G01 X-12.261
Y-18.
Z-7.05
G00 Z-6.854
X-1.5
G01 Z-7.246
Z-8.246 F1000.
Y-12.5
X-14. F2500.
X-19.5 F2188.
X-25. F1875.
Y-7.
Y1.5 F2500.
Y7. F2188.
Y12.5 F1875.
X-19.5
X14. F2500.
X19.5 F2188.
X25. F1875.
Y7.
Y-1.5 F2500.
Y-7. F2188.
Y-12.5 F1875.
X19.5
X-1.5 F2500.
Y-18.
Z-7.246
G00 Z-7.05
X-12.281
G01 Z-7.246
Z-8.246 F1000.
X-12.261 Y-10.617
G02 X-14.488 Y-10.408 I.034 J12.343 F2500.
X-20.218 Y-7.569 I2.179 J11.602
G01 X-20.497 Y-7.308
G02 X-21.367 Y-6.345 I6.305 J6.576
X-23.626 Y.454 I9.107 J6.799
X-12.261 Y11.819 I11.365 J0.0
G01 X12.877
G02 X24.242 Y.454 I0.0 J-11.365
X14.06 Y-10.849 I-11.365 J0.0
X13.283 Y-10.883 I-.777 J8.973
X12.664 Y-10.861 I0.0 J9.006
G01 X11.105 Y-10.74
X10.887 Y-10.721
X10.259 Y-10.66
G03 X9.36 Y-10.617 I-.899 J-9.317
G01 X-12.261
Y-18.
Z-7.246
G00 Z-7.05
X-1.5
G01 Z-7.443
Z-8.443 F1000.
Y-12.5
X-14. F2500.
X-19.5 F2188.
X-25. F1875.
Y-7.
Y1.5 F2500.
Y7. F2188.
Y12.5 F1875.
X-19.5
X14. F2500.
X19.5 F2188.
X25. F1875.
Y7.
Y-1.5 F2500.
Y-7. F2188.
Y-12.5 F1875.
X19.5
X-1.5 F2500.
Y-18.
Z-7.443
G00 Z-7.246
X-12.281
G01 Z-7.443
Z-8.443 F1000.
X-12.261 Y-10.617
G02 X-14.488 Y-10.408 I.034 J12.339 F2500.
X-20.218 Y-7.569 I2.179 J11.602
G01 X-20.497 Y-7.308
G02 X-21.367 Y-6.345 I6.304 J6.575
X-23.626 Y.454 I9.107 J6.799
X-12.261 Y11.819 I11.365 J0.0
G01 X12.877
G02 X24.242 Y.454 I0.0 J-11.365
X14.061 Y-10.849 I-11.365 J0.0
X13.283 Y-10.883 I-.779 J8.956
X12.664 Y-10.861 I0.0 J8.989
G01 X11.105 Y-10.74
X10.887 Y-10.721
X10.257 Y-10.66
G03 X9.36 Y-10.617 I-.896 J-9.3
G01 X-12.261
Y-18.
Z-7.443
G00 Z-7.246
X-1.5
G01 Z-7.639
Z-8.639 F1000.
Y-12.5
X-14. F2500.
X-19.5 F2188.
X-25. F1875.
Y-7.
Y1.5 F2500.
Y7. F2188.
Y12.5 F1875.
X-19.5
X14. F2500.
X19.5 F2188.
X25. F1875.
Y7.
Y-1.5 F2500.
Y-7. F2188.
Y-12.5 F1875.
X19.5
X-1.5 F2500.
Y-18.
Z-7.639
G00 Z-7.443
X-12.281
G01 Z-7.639
Z-8.639 F1000.
X-12.261 Y-10.617
G02 X-14.488 Y-10.408 I.033 J12.336 F2500.
X-20.218 Y-7.569 I2.179 J11.602
G01 X-20.497 Y-7.308
G02 X-21.367 Y-6.345 I6.293 J6.565
X-23.626 Y.454 I9.107 J6.799
X-12.261 Y11.819 I11.365 J0.0
G01 X12.877
G02 X24.242 Y.454 I0.0 J-11.365
X14.063 Y-10.849 I-11.365 J0.0
X13.282 Y-10.883 I-.781 J8.95
X12.664 Y-10.861 I0.0 J8.984
G01 X11.105 Y-10.74
X10.887 Y-10.721
X10.253 Y-10.66
G03 X9.36 Y-10.617 I-.893 J-9.281
G01 X-12.261
Y-18.
Z-7.639
G00 Z-7.443
X-1.5
G01 Z-7.835
Z-8.835 F1000.
Y-12.5
X-14. F2500.
X-19.5 F2188.
X-25. F1875.
Y-7.
Y1.5 F2500.
Y7. F2188.
Y12.5 F1875.
X-19.5
X14. F2500.
X19.5 F2188.
X25. F1875.
Y7.
Y-1.5 F2500.
Y-7. F2188.
Y-12.5 F1875.
X19.5
X-1.5 F2500.
Y-18.
Z-7.835
G00 Z-7.639
X-12.28
G01 Z-7.835
Z-8.835 F1000.
X-12.261 Y-10.617
G02 X-14.488 Y-10.408 I.033 J12.333 F2500.
X-20.218 Y-7.569 I2.179 J11.601
G01 X-20.497 Y-7.308
G02 X-21.367 Y-6.345 I6.292 J6.564
X-23.626 Y.454 I9.107 J6.799
X-12.261 Y11.819 I11.365 J0.0
G01 X12.877
G02 X24.242 Y.454 I0.0 J-11.365
X14.065 Y-10.848 I-11.365 J0.0
X13.282 Y-10.883 I-.783 J8.933
X12.664 Y-10.861 I0.0 J8.968
G01 X11.105 Y-10.74
X10.887 Y-10.721
X10.25 Y-10.66
G03 X9.36 Y-10.617 I-.89 J-9.262
G01 X-12.261
Y-18.
Z-7.835
G00 Z15.
( D10 ---> D=10.00 R=0.00 )
S6000 M03
G00 X-5. Y21.645
Z15.
G01 Z-6.13 F2500.
Z-9.13 F1000.
G03 X0.0 Y16.645 I5. J0.0 F500.
G01 X23. F2500.
G02 X29.145 Y10.5 I0.0 J-6.145
G01 Y-7.5
G02 X27.638 Y-11.138 I-5.145 J0.0
G01 X23.638 Y-15.138
G02 X20. Y-16.645 I-3.638 J3.638
G01 X-23.
G02 X-29.145 Y-10.5 I0.0 J6.145
G01 Y10.5
G02 X-23. Y16.645 I6.145 J0.0
G01 X0.0
X3.779 Z-9.328
X23.
G02 X29.145 Y10.5 I0.0 J-6.145
G01 Y-7.5
G02 X27.638 Y-11.138 I-5.145 J0.0
G01 X23.638 Y-15.138
G02 X20. Y-16.645 I-3.638 J3.638
G01 X-23.
G02 X-29.145 Y-10.5 I0.0 J6.145
G01 Y10.5
G02 X-23. Y16.645 I6.145 J0.0
G01 X0.0
X3.779 Z-9.526
X23.
G02 X29.145 Y10.5 I0.0 J-6.145
G01 Y-7.5
G02 X27.638 Y-11.138 I-5.145 J0.0
G01 X23.638 Y-15.138
G02 X20. Y-16.645 I-3.638 J3.638
G01 X-23.
G02 X-29.145 Y-10.5 I0.0 J6.145
G01 Y10.5
G02 X-23. Y16.645 I6.145 J0.0
G01 X0.0
X3.779 Z-9.724
X23.
G02 X29.145 Y10.5 I0.0 J-6.145
G01 Y-7.5
G02 X27.638 Y-11.138 I-5.145 J0.0
G01 X23.638 Y-15.138
G02 X20. Y-16.645 I-3.638 J3.638
G01 X-23.
G02 X-29.145 Y-10.5 I0.0 J6.145
G01 Y10.5
G02 X-23. Y16.645 I6.145 J0.0
G01 X0.0
X3.779 Z-9.922
X23.
G02 X29.145 Y10.5 I0.0 J-6.145
G01 Y-7.5
G02 X27.638 Y-11.138 I-5.145 J0.0
G01 X23.638 Y-15.138
G02 X20. Y-16.645 I-3.638 J3.638
G01 X-23.
G02 X-29.145 Y-10.5 I0.0 J6.145
G01 Y10.5
G02 X-23. Y16.645 I6.145 J0.0
G01 X0.0
X3.779 Z-10.12
X23.
G02 X29.145 Y10.5 I0.0 J-6.145
G01 Y-7.5
G02 X27.638 Y-11.138 I-5.145 J0.0
G01 X23.638 Y-15.138
G02 X20. Y-16.645 I-3.638 J3.638
G01 X-23.
G02 X-29.145 Y-10.5 I0.0 J6.145
G01 Y10.5
G02 X-23. Y16.645 I6.145 J0.0
G01 X0.0
X3.779 Z-10.318
X23.
G02 X29.145 Y10.5 I0.0 J-6.145
G01 Y-7.5
G02 X27.638 Y-11.138 I-5.145 J0.0
G01 X23.638 Y-15.138
G02 X20. Y-16.645 I-3.638 J3.638
G01 X-23.
G02 X-29.145 Y-10.5 I0.0 J6.145
G01 Y10.5
G02 X-23. Y16.645 I6.145 J0.0
G01 X0.0
X3.779 Z-10.516
X23.
G02 X29.145 Y10.5 I0.0 J-6.145
G01 Y-7.5
G02 X27.638 Y-11.138 I-5.145 J0.0
G01 X23.638 Y-15.138
G02 X20. Y-16.645 I-3.638 J3.638
G01 X-23.
G02 X-29.145 Y-10.5 I0.0 J6.145
G01 Y10.5
G02 X-23. Y16.645 I6.145 J0.0
G01 X0.0
X3.779 Z-10.714
X23.
G02 X29.145 Y10.5 I0.0 J-6.145
G01 Y-7.5
G02 X27.638 Y-11.138 I-5.145 J0.0
G01 X23.638 Y-15.138
G02 X20. Y-16.645 I-3.638 J3.638
G01 X-23.
G02 X-29.145 Y-10.5 I0.0 J6.145
G01 Y10.5
G02 X-23. Y16.645 I6.145 J0.0
G01 X0.0
X3.779 Z-10.912
X23.
G02 X29.145 Y10.5 I0.0 J-6.145
G01 Y-7.5
G02 X27.638 Y-11.138 I-5.145 J0.0
G01 X23.638 Y-15.138
G02 X20. Y-16.645 I-3.638 J3.638
G01 X-23.
G02 X-29.145 Y-10.5 I0.0 J6.145
G01 Y10.5
G02 X-23. Y16.645 I6.145 J0.0
G01 X0.0
X3.779 Z-11.11
X23.
G02 X29.145 Y10.5 I0.0 J-6.145
G01 Y-7.5
G02 X27.638 Y-11.138 I-5.145 J0.0
G01 X23.638 Y-15.138
G02 X20. Y-16.645 I-3.638 J3.638
G01 X-23.
G02 X-29.145 Y-10.5 I0.0 J6.145
G01 Y10.5
G02 X-23. Y16.645 I6.145 J0.0
G01 X0.0
X3.779 Z-11.308
X23.
G02 X29.145 Y10.5 I0.0 J-6.145
G01 Y-7.5
G02 X27.638 Y-11.138 I-5.145 J0.0
G01 X23.638 Y-15.138
G02 X20. Y-16.645 I-3.638 J3.638
G01 X-23.
G02 X-29.145 Y-10.5 I0.0 J6.145
G01 Y10.5
G02 X-23. Y16.645 I6.145 J0.0
G01 X0.0
X3.779 Z-11.506
X23.
G02 X29.145 Y10.5 I0.0 J-6.145
G01 Y-7.5
G02 X27.638 Y-11.138 I-5.145 J0.0
G01 X23.638 Y-15.138
G02 X20. Y-16.645 I-3.638 J3.638
G01 X-23.
G02 X-29.145 Y-10.5 I0.0 J6.145
G01 Y10.5
G02 X-23. Y16.645 I6.145 J0.0
G01 X0.0
X3.779 Z-11.704
X23.
G02 X29.145 Y10.5 I0.0 J-6.145
G01 Y-7.5
G02 X27.638 Y-11.138 I-5.145 J0.0
G01 X23.638 Y-15.138
G02 X20. Y-16.645 I-3.638 J3.638
G01 X-23.
G02 X-29.145 Y-10.5 I0.0 J6.145
G01 Y10.5
G02 X-23. Y16.645 I6.145 J0.0
G01 X0.0
X3.779 Z-11.902
X23.
G02 X29.145 Y10.5 I0.0 J-6.145
G01 Y-7.5
G02 X27.638 Y-11.138 I-5.145 J0.0
G01 X23.638 Y-15.138
G02 X20. Y-16.645 I-3.638 J3.638
G01 X-23.
G02 X-29.145 Y-10.5 I0.0 J6.145
G01 Y10.5
G02 X-23. Y16.645 I6.145 J0.0
G01 X0.0
X3.779 Z-12.1
X23.
G02 X29.145 Y10.5 I0.0 J-6.145
G01 Y-7.5
G02 X27.638 Y-11.138 I-5.145 J0.0
G01 X23.638 Y-15.138
G02 X20. Y-16.645 I-3.638 J3.638
G01 X-23.
G02 X-29.145 Y-10.5 I0.0 J6.145
G01 Y10.5
G02 X-23. Y16.645 I6.145 J0.0
G01 X0.0
X3.779 Z-12.298
X23.
G02 X29.145 Y10.5 I0.0 J-6.145
G01 Y-7.5
G02 X27.638 Y-11.138 I-5.145 J0.0
G01 X23.638 Y-15.138
G02 X20. Y-16.645 I-3.638 J3.638
G01 X-23.
G02 X-29.145 Y-10.5 I0.0 J6.145
G01 Y10.5
G02 X-23. Y16.645 I6.145 J0.0
G01 X0.0
X3.779 Z-12.496
X23.
G02 X29.145 Y10.5 I0.0 J-6.145
G01 Y-7.5
G02 X27.638 Y-11.138 I-5.145 J0.0
G01 X23.638 Y-15.138
G02 X20. Y-16.645 I-3.638 J3.638
G01 X-23.
G02 X-29.145 Y-10.5 I0.0 J6.145
G01 Y10.5
G02 X-23. Y16.645 I6.145 J0.0
G01 X0.0
X3.779 Z-12.695
X23.
G02 X29.145 Y10.5 I0.0 J-6.145
G01 Y-7.5
G02 X27.638 Y-11.138 I-5.145 J0.0
G01 X23.638 Y-15.138
G02 X20. Y-16.645 I-3.638 J3.638
G01 X-23.
G02 X-29.145 Y-10.5 I0.0 J6.145
G01 Y10.5
G02 X-23. Y16.645 I6.145 J0.0
G01 X0.0
X3.779 Z-12.893
X23.
G02 X29.145 Y10.5 I0.0 J-6.145
G01 Y-7.5
G02 X27.638 Y-11.138 I-5.145 J0.0
G01 X23.638 Y-15.138
G02 X20. Y-16.645 I-3.638 J3.638
G01 X-23.
G02 X-29.145 Y-10.5 I0.0 J6.145
G01 Y10.5
G02 X-23. Y16.645 I6.145 J0.0
G01 X0.0
X3.779 Z-13.091
X23.
G02 X29.145 Y10.5 I0.0 J-6.145
G01 Y-7.5
G02 X27.638 Y-11.138 I-5.145 J0.0
G01 X23.638 Y-15.138
G02 X20. Y-16.645 I-3.638 J3.638
G01 X-23.
G02 X-29.145 Y-10.5 I0.0 J6.145
G01 Y10.5
G02 X-23. Y16.645 I6.145 J0.0
G01 X0.0
X3.779 Z-13.289
X23.
G02 X29.145 Y10.5 I0.0 J-6.145
G01 Y-7.5
G02 X27.638 Y-11.138 I-5.145 J0.0
G01 X23.638 Y-15.138
G02 X20. Y-16.645 I-3.638 J3.638
G01 X-23.
G02 X-29.145 Y-10.5 I0.0 J6.145
G01 Y10.5
G02 X-23. Y16.645 I6.145 J0.0
G01 X0.0
X3.779 Z-13.487
X23.
G02 X29.145 Y10.5 I0.0 J-6.145
G01 Y-7.5
G02 X27.638 Y-11.138 I-5.145 J0.0
G01 X23.638 Y-15.138
G02 X20. Y-16.645 I-3.638 J3.638
G01 X-23.
G02 X-29.145 Y-10.5 I0.0 J6.145
G01 Y10.5
G02 X-23. Y16.645 I6.145 J0.0
G01 X0.0
X3.779 Z-13.685
X23.
G02 X29.145 Y10.5 I0.0 J-6.145
G01 Y-7.5
G02 X27.638 Y-11.138 I-5.145 J0.0
G01 X23.638 Y-15.138
G02 X20. Y-16.645 I-3.638 J3.638
G01 X-23.
G02 X-29.145 Y-10.5 I0.0 J6.145
G01 Y10.5
G02 X-23. Y16.645 I6.145 J0.0
G01 X0.0
X3.779 Z-13.883
X23.
G02 X29.145 Y10.5 I0.0 J-6.145
G01 Y-7.5
G02 X27.638 Y-11.138 I-5.145 J0.0
G01 X23.638 Y-15.138
G02 X20. Y-16.645 I-3.638 J3.638
G01 X-23.
G02 X-29.145 Y-10.5 I0.0 J6.145
G01 Y10.5
G02 X-23. Y16.645 I6.145 J0.0
G01 X0.0
X3.779 Z-14.081
X23.
G02 X29.145 Y10.5 I0.0 J-6.145
G01 Y-7.5
G02 X27.638 Y-11.138 I-5.145 J0.0
G01 X23.638 Y-15.138
G02 X20. Y-16.645 I-3.638 J3.638
G01 X-23.
G02 X-29.145 Y-10.5 I0.0 J6.145
G01 Y10.5
G02 X-23. Y16.645 I6.145 J0.0
G01 X0.0
X3.779 Z-14.279
X23.
G02 X29.145 Y10.5 I0.0 J-6.145
G01 Y-7.5
G02 X27.638 Y-11.138 I-5.145 J0.0
G01 X23.638 Y-15.138
G02 X20. Y-16.645 I-3.638 J3.638
G01 X-23.
G02 X-29.145 Y-10.5 I0.0 J6.145
G01 Y10.5
G02 X-23. Y16.645 I6.145 J0.0
G01 X0.0
X3.779 Z-14.477
X23.
G02 X29.145 Y10.5 I0.0 J-6.145
G01 Y-7.5
G02 X27.638 Y-11.138 I-5.145 J0.0
G01 X23.638 Y-15.138
G02 X20. Y-16.645 I-3.638 J3.638
G01 X-23.
G02 X-29.145 Y-10.5 I0.0 J6.145
G01 Y10.5
G02 X-23. Y16.645 I6.145 J0.0
G01 X0.0
X3.779 Z-14.675
X23.
G02 X29.145 Y10.5 I0.0 J-6.145
G01 Y-7.5
G02 X27.638 Y-11.138 I-5.145 J0.0
G01 X23.638 Y-15.138
G02 X20. Y-16.645 I-3.638 J3.638
G01 X-23.
G02 X-29.145 Y-10.5 I0.0 J6.145
G01 Y10.5
G02 X-23. Y16.645 I6.145 J0.0
G01 X0.0
X3.779 Z-14.873
X23.
G02 X29.145 Y10.5 I0.0 J-6.145
G01 Y-7.5
G02 X27.638 Y-11.138 I-5.145 J0.0
G01 X23.638 Y-15.138
G02 X20. Y-16.645 I-3.638 J3.638
G01 X-23.
G02 X-29.145 Y-10.5 I0.0 J6.145
G01 Y10.5
G02 X-23. Y16.645 I6.145 J0.0
G01 X0.0
X3.779 Z-15.071
X23.
G02 X29.145 Y10.5 I0.0 J-6.145
G01 Y-7.5
G02 X27.638 Y-11.138 I-5.145 J0.0
G01 X23.638 Y-15.138
G02 X20. Y-16.645 I-3.638 J3.638
G01 X-23.
G02 X-29.145 Y-10.5 I0.0 J6.145
G01 Y10.5
G02 X-23. Y16.645 I6.145 J0.0
G01 X0.0
X3.779 Z-15.269
X23.
G02 X29.145 Y10.5 I0.0 J-6.145
G01 Y-7.5
G02 X27.638 Y-11.138 I-5.145 J0.0
G01 X23.638 Y-15.138
G02 X20. Y-16.645 I-3.638 J3.638
G01 X-23.
G02 X-29.145 Y-10.5 I0.0 J6.145
G01 Y10.5
G02 X-23. Y16.645 I6.145 J0.0
G01 X0.0
X3.779 Z-15.467
X23.
G02 X29.145 Y10.5 I0.0 J-6.145
G01 Y-7.5
G02 X27.638 Y-11.138 I-5.145 J0.0
G01 X23.638 Y-15.138
G02 X20. Y-16.645 I-3.638 J3.638
G01 X-23.
G02 X-29.145 Y-10.5 I0.0 J6.145
G01 Y10.5
G02 X-23. Y16.645 I6.145 J0.0
G01 X0.0
X3.779 Z-15.665
X23.
G02 X29.145 Y10.5 I0.0 J-6.145
G01 Y-7.5
G02 X27.638 Y-11.138 I-5.145 J0.0
G01 X23.638 Y-15.138
G02 X20. Y-16.645 I-3.638 J3.638
G01 X-23.
G02 X-29.145 Y-10.5 I0.0 J6.145
G01 Y10.5
G02 X-23. Y16.645 I6.145 J0.0
G01 X0.0
X3.779 Z-15.863
X23.
G02 X29.145 Y10.5 I0.0 J-6.145
G01 Y-7.5
G02 X27.638 Y-11.138 I-5.145 J0.0
G01 X23.638 Y-15.138
G02 X20. Y-16.645 I-3.638 J3.638
G01 X-23.
G02 X-29.145 Y-10.5 I0.0 J6.145
G01 Y10.5
G02 X-23. Y16.645 I6.145 J0.0
G01 X0.0
X3.779 Z-16.061
X23.
G02 X29.145 Y10.5 I0.0 J-6.145
G01 Y-7.5
G02 X27.638 Y-11.138 I-5.145 J0.0
G01 X23.638 Y-15.138
G02 X20. Y-16.645 I-3.638 J3.638
G01 X-23.
G02 X-29.145 Y-10.5 I0.0 J6.145
G01 Y10.5
G02 X-23. Y16.645 I6.145 J0.0
G01 X0.0
X3.779 Z-16.259
X23.
G02 X29.145 Y10.5 I0.0 J-6.145
G01 Y-7.5
G02 X27.638 Y-11.138 I-5.145 J0.0
G01 X23.638 Y-15.138
G02 X20. Y-16.645 I-3.638 J3.638
G01 X-23.
G02 X-29.145 Y-10.5 I0.0 J6.145
G01 Y10.5
G02 X-23. Y16.645 I6.145 J0.0
G01 X0.0
X3.779 Z-16.457
X23.
G02 X29.145 Y10.5 I0.0 J-6.145
G01 Y-7.5
G02 X27.638 Y-11.138 I-5.145 J0.0
G01 X23.638 Y-15.138
G02 X20. Y-16.645 I-3.638 J3.638
G01 X-23.
G02 X-29.145 Y-10.5 I0.0 J6.145
G01 Y10.5
G02 X-23. Y16.645 I6.145 J0.0
G01 X0.0
X3.779 Z-16.655
X23.
G02 X29.145 Y10.5 I0.0 J-6.145
G01 Y-7.5
G02 X27.638 Y-11.138 I-5.145 J0.0
G01 X23.638 Y-15.138
G02 X20. Y-16.645 I-3.638 J3.638
G01 X-23.
G02 X-29.145 Y-10.5 I0.0 J6.145
G01 Y10.5
G02 X-23. Y16.645 I6.145 J0.0
G01 X0.0
X3.779 Z-16.853
X23.
G02 X29.145 Y10.5 I0.0 J-6.145
G01 Y-7.5
G02 X27.638 Y-11.138 I-5.145 J0.0
G01 X23.638 Y-15.138
G02 X20. Y-16.645 I-3.638 J3.638
G01 X-23.
G02 X-29.145 Y-10.5 I0.0 J6.145
G01 Y10.5
G02 X-23. Y16.645 I6.145 J0.0
G01 X0.0
X3.779 Z-17.051
X23.
G02 X29.145 Y10.5 I0.0 J-6.145
G01 Y-7.5
G02 X27.638 Y-11.138 I-5.145 J0.0
G01 X23.638 Y-15.138
G02 X20. Y-16.645 I-3.638 J3.638
G01 X-23.
G02 X-29.145 Y-10.5 I0.0 J6.145
G01 Y10.5
G02 X-23. Y16.645 I6.145 J0.0
G01 X0.0
X3.779 Z-17.249
X23.
G02 X29.145 Y10.5 I0.0 J-6.145
G01 Y-7.5
G02 X27.638 Y-11.138 I-5.145 J0.0
G01 X23.638 Y-15.138
G02 X20. Y-16.645 I-3.638 J3.638
G01 X-23.
G02 X-29.145 Y-10.5 I0.0 J6.145
G01 Y10.5
G02 X-23. Y16.645 I6.145 J0.0
G01 X0.0
X3.779 Z-17.447
X23.
G02 X29.145 Y10.5 I0.0 J-6.145
G01 Y-7.5
G02 X27.638 Y-11.138 I-5.145 J0.0
G01 X23.638 Y-15.138
G02 X20. Y-16.645 I-3.638 J3.638
G01 X-23.
G02 X-29.145 Y-10.5 I0.0 J6.145
G01 Y10.5
G02 X-23. Y16.645 I6.145 J0.0
G01 X0.0
X3.779 Z-17.646
X23.
G02 X29.145 Y10.5 I0.0 J-6.145
G01 Y-7.5
G02 X27.638 Y-11.138 I-5.145 J0.0
G01 X23.638 Y-15.138
G02 X20. Y-16.645 I-3.638 J3.638
G01 X-23.
G02 X-29.145 Y-10.5 I0.0 J6.145
G01 Y10.5
G02 X-23. Y16.645 I6.145 J0.0
G01 X0.0
X3.779 Z-17.844
X23.
G02 X29.145 Y10.5 I0.0 J-6.145
G01 Y-7.5
G02 X27.638 Y-11.138 I-5.145 J0.0
G01 X23.638 Y-15.138
G02 X20. Y-16.645 I-3.638 J3.638
G01 X-23.
G02 X-29.145 Y-10.5 I0.0 J6.145
G01 Y10.5
G02 X-23. Y16.645 I6.145 J0.0
G01 X0.0
X3.779 Z-18.042
X23.
G02 X29.145 Y10.5 I0.0 J-6.145
G01 Y-7.5
G02 X27.638 Y-11.138 I-5.145 J0.0
G01 X23.638 Y-15.138
G02 X20. Y-16.645 I-3.638 J3.638
G01 X-23.
G02 X-29.145 Y-10.5 I0.0 J6.145
G01 Y10.5
G02 X-23. Y16.645 I6.145 J0.0
G01 X0.0
X3.779 Z-18.24
X23.
G02 X29.145 Y10.5 I0.0 J-6.145
G01 Y-7.5
G02 X27.638 Y-11.138 I-5.145 J0.0
G01 X23.638 Y-15.138
G02 X20. Y-16.645 I-3.638 J3.638
G01 X-23.
G02 X-29.145 Y-10.5 I0.0 J6.145
G01 Y10.5
G02 X-23. Y16.645 I6.145 J0.0
G01 X0.0
X3.779 Z-18.438
X23.
G02 X29.145 Y10.5 I0.0 J-6.145
G01 Y-7.5
G02 X27.638 Y-11.138 I-5.145 J0.0
G01 X23.638 Y-15.138
G02 X20. Y-16.645 I-3.638 J3.638
G01 X-23.
G02 X-29.145 Y-10.5 I0.0 J6.145
G01 Y10.5
G02 X-23. Y16.645 I6.145 J0.0
G01 X0.0
X3.779 Z-18.636
X23.
G02 X29.145 Y10.5 I0.0 J-6.145
G01 Y-7.5
G02 X27.638 Y-11.138 I-5.145 J0.0
G01 X23.638 Y-15.138
G02 X20. Y-16.645 I-3.638 J3.638
G01 X-23.
G02 X-29.145 Y-10.5 I0.0 J6.145
G01 Y10.5
G02 X-23. Y16.645 I6.145 J0.0
G01 X0.0
X3.779 Z-18.834
X23.
G02 X29.145 Y10.5 I0.0 J-6.145
G01 Y-7.5
G02 X27.638 Y-11.138 I-5.145 J0.0
G01 X23.638 Y-15.138
G02 X20. Y-16.645 I-3.638 J3.638
G01 X-23.
G02 X-29.145 Y-10.5 I0.0 J6.145
G01 Y10.5
G02 X-23. Y16.645 I6.145 J0.0
G01 X0.0
X3.779 Z-19.032
X23.
G02 X29.145 Y10.5 I0.0 J-6.145
G01 Y-7.5
G02 X27.638 Y-11.138 I-5.145 J0.0
G01 X23.638 Y-15.138
G02 X20. Y-16.645 I-3.638 J3.638
G01 X-23.
G02 X-29.145 Y-10.5 I0.0 J6.145
G01 Y10.5
G02 X-23. Y16.645 I6.145 J0.0
G01 X3.779
Y21.645
Z-14.032
G00 Z15.
M09
M05
G91 G28 Z0.0
G28 Y0.0
M30
%
(TOTAL Machine Time: 10.0 min)
