%
G40 G17 G49 G54 G80
G91 G28 Z0.0
( NAME: Capful )
( PART: D:\Program Files\Siemens\NX 12.0\UGII\HM-µç¼«±à³Ì.prt )
( DATE: Sun May 27 04:58:14 2018 )
( D10 ---> D=10.00 R=0.00 )
S8000 M03
G00 G90 X-5. Y23.1
Z14.5
G17 G01 Z-18.032 F1000.
Z-19.032 F400.
Y21.6
G40 G03 X0.0 Y16.6 I5. J0.0
G01 X23. F1000.
G02 X29.1 Y10.5 I0.0 J-6.1
G01 Y-7.5
G02 X27.606 Y-11.106 I-5.1 J0.0
G01 X23.606 Y-15.106
G02 X20. Y-16.6 I-3.606 J3.606
G01 X-23.
G02 X-29.1 Y-10.5 I0.0 J6.1
G01 Y10.5
G02 X-23. Y16.6 I6.1 J0.0
G01 X0.0
X3.
G03 X8. Y21.6 I0.0 J5.
G01 X-5. Y21.55
G03 X0.0 Y16.55 I5. J0.0 F400.
G01 X23. F1000.
G02 X29.05 Y10.5 I0.0 J-6.05
G01 Y-7.5
G02 X27.571 Y-11.071 I-5.05 J0.0
G01 X23.571 Y-15.071
G02 X20. Y-16.55 I-3.571 J3.571
G01 X-23.
G02 X-29.05 Y-10.5 I0.0 J6.05
G01 Y10.5
G02 X-23. Y16.55 I6.05 J0.0
G01 X0.0
X3.
G03 X8. Y21.55 I0.0 J5.
G01 X-5. Y21.5
G03 X0.0 Y16.5 I5. J0.0 F400.
G01 X23. F1000.
G02 X29. Y10.5 I0.0 J-6.
G01 Y-7.5
G02 X27.536 Y-11.036 I-5. J0.0
G01 X23.536 Y-15.036
G02 X20. Y-16.5 I-3.536 J3.536
G01 X-23.
G02 X-29. Y-10.5 I0.0 J6.
G01 Y10.5
G02 X-23. Y16.5 I6. J0.0
G01 X0.0
X3.
G03 X8. Y21.5 I0.0 J5.
G01 Y23.05
Z-18.032
G00 Z14.5
M09
M05
G91 G28 Z0.0
G28 Y0.0
M30
%
(TOTAL Machine Time: 0.9 min)
