%
G40 G17 G49 G54 G80
G91 G28 Z0.0
( NAME: Administrator )
( PART: H:\CNC-File\2018-7\¹àÐÇ\95004\95004-ºóÄ£¿ò.prt )
( DATE: Fri Jul 20 08:27:34 2018 )
( Z6 ---> D=6.00 R=0.00 )
S2000 M03
G00 G90 X-32.996 Y53.002
Z15.
G17 G01 Z-1.5 F120.
G00 Z15.
X90.996
G01 Z-1.5
G00 Z15.
Y-13.002
G01 Z-1.5
G00 Z15.
X-44. Y-11.
G01 Z-1.5
G00 Z15.
X10. Y-30.
G01 Z-1.5
G00 Z15.
X25. Y-45.
G01 Z-1.5
G00 Z15.
X10. Y-60.
G01 Z-1.5
G00 Z15.
X-5. Y-45.
G01 Z-1.5
G00 Z15.
X105. Y-65. Z4.
G01 Z-12.5
G00 Z4.
X-55.
G01 Z-12.5
G00 Z4.
Y65.
G01 Z-12.5
G00 Z4.
X105.
G01 Z-12.5
G00 Z4.
M09
M05
G91 G28 Z0.0
G28 Y0.0
M30
%
(TOTAL Machine Time: 1.9 min)
