%
G40 G17 G49 G54 G80
G91 G28 Z0.0
( NAME: HZK-PC )
( PART: H:\CNC-File\2019-3\ºÀÌ©\»¨ÎÆ¿¾ÅÌ\HW-¶¥Õë°å.prt )
( DATE: Thu Mar 14 15:32:42 2019 )
( Z6 ---> D=6.00 R=0.00 )
S1000 M03
G00 G90 X35.31 Y-124.619
Z5.
G17 G01 Z-1.5 F120.
G00 Z5.
X35. Y-41.255
G01 Z-1.5
G00 Z5.
X-62. Y-43.
G01 Z-1.5
G00 Z5.
Y-8.
G01 Z-1.5
G00 Z5.
Y28.
G01 Z-1.5
G00 Z5.
Y63.
G01 Z-1.5
G00 Z5.
X-17. Y124.
G01 Z-1.5
G00 Z5.
X35. Y61.255
G01 Z-1.5
G00 Z5.
X77.001 Y124.
G01 Z-1.5
G00 Z5.
X132.271 Y88.004
G01 Z-1.5
G00 Z5.
Y61.
G01 Z-1.5
G00 Z5.
Y27.
G01 Z-1.5
G00 Z5.
Y-7.
G01 Z-1.5
G00 Z5.
Y-41.
G01 Z-1.5
G00 Z5.
Y-68.004
G01 Z-1.5
G00 Z5.
M09
M05
G91 G28 Z0.0
G28 Y0.0
M30
%
(TOTAL Machine Time: 1.1 min)
