%
G40 G17 G49 G54 G80
G91 G28 Z0.0
( NAME: Capful-PC )
( PART: D:\ºãÔóÀ¤\CNC-File\2018-8\À¶ÏÃ\SG-2000\SG-2000-Ç°Ä£µ²¿é.prt )
( DATE: Mon Sep  3 19:39:51 2018 )
( Z6 ---> D=6.00 R=0.00 )
S1000 M03
G00 G90 X-95. Y-.001
Z5.
G17 G01 Z-1.5 F120.
G00 Z5.
Y34.999
G01 Z-1.5
G00 Z5.
X95.
G01 Z-1.5
G00 Z5.
Y-.001
G01 Z-1.5
G00 Z5.
M09
M05
G91 G28 Z0.0
G28 Y0.0
M30
%
(TOTAL Machine Time: 0.4 min)
