%
G40 G17 G49 G54 G80
G91 G28 Z0.0
( NAME: Capful-PC )
( PART: H:\CNC-File\2018-9\ºêöÎÑó\11407\11407-µç¼«-±à³Ì.prt )
( DATE: Fri Sep 21 10:04:14 2018 )
( KZ ---> D=0.50 R=0.25 )
S15000 M03
G00 G90 X-3.036 Y12.66
Z2.6
Z-8.4
G17 G01 Z-11.42 F500.
Y13.817 F800.
Z-8.4
G00 Z2.6
Y13.239
Z-8.4
G01 Z-11.42 F500.
X-2.299 F800.
Z-8.4
G00 Z2.6
Y12.66
Z-8.4
G01 Z-11.42 F500.
Y13.817 F800.
Z-8.4
G00 Z2.6
X-1.761
Z-8.4
G01 Z-11.42 F500.
Y12.66 F800.
X-1.024
Z-8.4
G00 Z2.6
X.317 Y13.239
Z-8.4
G01 Z-11.42 F500.
X-.58 F800.
Z-8.4
G00 Z2.6
X1.129 Y12.66
Z-8.4
G01 Z-11.42 F500.
X1.233 Y12.672 F800.
X1.328 Y12.731
X1.356 Y12.766
X1.46 Y12.908
X1.517 Y13.12
Y13.345
X1.46 Y13.569
X1.347 Y13.723
X1.28 Y13.782
X1.186 Y13.817
X1.082 Y13.805
X.987 Y13.746
X.95 Y13.711
X.855 Y13.569
X.798 Y13.345
Y13.12
X.855 Y12.908
X.959 Y12.754
X1.025 Y12.695
X1.129 Y12.66
Z-8.4
G00 Z2.6
X2.064 Y13.64
Z-8.4
G01 Z-11.42 F500.
X2.149 Y13.723 F800.
X2.244 Y13.77
X2.338 Y13.805
X2.433 Y13.817
X2.527 Y13.805
X2.622 Y13.77
X2.735 Y13.699
X2.773 Y13.64
X2.801 Y13.557
Y13.475
X2.773 Y13.404
X2.725 Y13.321
X2.168 Y12.943
X2.111 Y12.896
X2.083 Y12.825
X2.064 Y12.742
Y12.66
X2.801
Z-8.4
G00 Z2.6
M09
M05
G91 G28 Z0.0
G28 Y0.0
M30
%
(TOTAL Machine Time: 0.3 min)
